(Exported by FreeCAD)
(Post Processor: linuxcnc_post)
(Output Time:2023-04-17 16:18:31.408761)
(begin preamble)
G17 G54 G40 G49 G80 G90
G21
(begin operation: G54)
(machine units: mm/min)
G54 
G0 Z11.000 
(finish operation: G54)
(begin operation: 2mm_Endmill007)
(machine units: mm/min)
(2mm_Endmill007) 
M5
M6 T3 
G43 H3 
M3 S4500 
(finish operation: 2mm_Endmill007)
(begin operation: Hole)
(machine units: mm/min)
(Hole) 
(Compensated Tool Path. Diameter: 2.0) 
G0 Z11.000 
G0 X4.613 Y4.613 
G0 Z9.000 
G1 X4.613 Y4.613 Z4.000 F60.000 
G2 X1.099 Y-6.430 Z4.000 I-4.613 J-4.613 F200.000 
G2 X-6.172 Y-2.121 Z4.000 I-1.098 J6.436 F200.000 
G3 X-7.098 Y-1.500 Z4.000 I-0.925 J-0.379 F200.000 
G1 X-10.098 Y-1.500 Z4.000 F200.000 
G1 X-10.098 Y1.500 Z4.000 F200.000 
G1 X-7.098 Y1.500 Z4.000 F200.000 
G3 X-6.172 Y2.121 Z4.000 I0.000 J1.000 F200.000 
G2 X-0.852 Y6.468 Z4.000 I6.176 J-2.130 F200.000 
G2 X4.613 Y4.613 Z4.000 I0.852 J-6.468 F200.000 
G1 X4.613 Y4.613 Z3.000 F60.000 
G2 X1.099 Y-6.430 Z3.000 I-4.613 J-4.613 F200.000 
G2 X-6.172 Y-2.121 Z3.000 I-1.098 J6.436 F200.000 
G3 X-7.098 Y-1.500 Z3.000 I-0.925 J-0.379 F200.000 
G1 X-10.098 Y-1.500 Z3.000 F200.000 
G1 X-10.098 Y1.500 Z3.000 F200.000 
G1 X-7.098 Y1.500 Z3.000 F200.000 
G3 X-6.172 Y2.121 Z3.000 I0.000 J1.000 F200.000 
G2 X-0.852 Y6.468 Z3.000 I6.176 J-2.130 F200.000 
G2 X4.613 Y4.613 Z3.000 I0.852 J-6.468 F200.000 
G1 X4.613 Y4.613 Z2.000 F60.000 
G2 X1.099 Y-6.430 Z2.000 I-4.613 J-4.613 F200.000 
G2 X-6.172 Y-2.121 Z2.000 I-1.098 J6.436 F200.000 
G3 X-7.098 Y-1.500 Z2.000 I-0.925 J-0.379 F200.000 
G1 X-10.098 Y-1.500 Z2.000 F200.000 
G1 X-10.098 Y1.500 Z2.000 F200.000 
G1 X-7.098 Y1.500 Z2.000 F200.000 
G3 X-6.172 Y2.121 Z2.000 I0.000 J1.000 F200.000 
G2 X-0.852 Y6.468 Z2.000 I6.176 J-2.130 F200.000 
G2 X4.613 Y4.613 Z2.000 I0.852 J-6.468 F200.000 
G1 X4.613 Y4.613 Z1.000 F60.000 
G2 X1.099 Y-6.430 Z1.000 I-4.613 J-4.613 F200.000 
G2 X-6.172 Y-2.121 Z1.000 I-1.098 J6.436 F200.000 
G3 X-7.098 Y-1.500 Z1.000 I-0.925 J-0.379 F200.000 
G1 X-10.098 Y-1.500 Z1.000 F200.000 
G1 X-10.098 Y1.500 Z1.000 F200.000 
G1 X-7.098 Y1.500 Z1.000 F200.000 
G3 X-6.172 Y2.121 Z1.000 I0.000 J1.000 F200.000 
G2 X-0.852 Y6.468 Z1.000 I6.176 J-2.130 F200.000 
G2 X4.613 Y4.613 Z1.000 I0.852 J-6.468 F200.000 
G1 X4.613 Y4.613 Z0.000 F60.000 
G2 X1.099 Y-6.430 Z0.000 I-4.613 J-4.613 F200.000 
G2 X-6.172 Y-2.121 Z0.000 I-1.098 J6.436 F200.000 
G3 X-7.098 Y-1.500 Z0.000 I-0.925 J-0.379 F200.000 
G1 X-10.098 Y-1.500 Z0.000 F200.000 
G1 X-10.098 Y1.500 Z0.000 F200.000 
G1 X-7.098 Y1.500 Z0.000 F200.000 
G3 X-6.172 Y2.121 Z0.000 I0.000 J1.000 F200.000 
G2 X-0.852 Y6.468 Z0.000 I6.176 J-2.130 F200.000 
G2 X4.613 Y4.613 Z0.000 I0.852 J-6.468 F200.000 
G0 Z11.000 
G0 Z11.000 
(finish operation: Hole)
(begin operation: Gear)
(machine units: mm/min)
(Gear) 
(Compensated Tool Path. Diameter: 2.0) 
G0 Z11.000 
G0 X15.788 Y20.239 
G0 Z9.000 
G1 X15.788 Y20.239 Z4.000 F60.000 
G2 X15.883 Y19.986 Z4.000 I-0.879 J-0.478 F200.000 
G2 X15.427 Y16.513 Z4.000 I-10.314 J-0.411 F200.000 
G2 X14.363 Y14.255 Z4.000 I-5.967 J1.431 F200.000 
G1 X13.268 Y13.051 Z4.000 F200.000 
G3 X13.179 Y12.785 Z4.000 I0.175 J-0.207 F200.000 
G3 X14.257 Y11.555 Z4.000 I9.030 J6.825 F200.000 
G3 X14.556 Y11.598 Z4.000 I0.121 J0.218 F200.000 
G1 X15.882 Y12.540 Z4.000 F200.000 
G2 X17.327 Y13.121 Z4.000 I2.660 J-4.532 F200.000 
G2 X21.490 Y13.415 Z4.000 I2.896 J-11.363 F200.000 
G2 X22.119 Y13.127 Z4.000 I-0.076 J-0.997 F200.000 
G2 X23.284 Y11.005 Z4.000 I-11.364 J-7.621 F200.000 
G2 X23.352 Y10.315 Z4.000 I-0.900 J-0.436 F200.000 
G2 X21.334 Y7.452 Z4.000 I-9.324 J4.429 F200.000 
G2 X19.342 Y5.947 Z4.000 I-4.619 J4.040 F200.000 
G1 X17.814 Y5.390 Z4.000 F200.000 
G3 X17.611 Y5.196 Z4.000 I0.059 J-0.264 F200.000 
G3 X17.994 Y3.606 Z4.000 I11.167 J1.847 F200.000 
G3 X18.278 Y3.506 Z4.000 I0.209 J0.137 F200.000 
G1 X19.890 Y3.723 Z4.000 F200.000 
G2 X21.440 Y3.566 Z4.000 I0.249 J-5.249 F200.000 
G2 X25.263 Y1.892 Z4.000 I-2.716 J-11.408 F200.000 
G2 X25.686 Y1.345 Z4.000 I-0.531 J-0.847 F200.000 
G2 X25.732 Y-1.076 Z4.000 I-13.604 J-1.467 F200.000 
G2 X25.471 Y-1.718 Z4.000 I-0.999 J0.032 F200.000 
G2 X22.354 Y-3.316 Z4.000 I-6.197 J8.255 F200.000 
G2 X19.890 Y-3.723 Z4.000 I-2.212 J5.724 F200.000 
G1 X18.278 Y-3.506 Z4.000 F200.000 
G3 X18.009 Y-3.584 Z4.000 I-0.071 J-0.261 F200.000 
G3 X17.609 Y-5.169 Z4.000 I10.746 J-3.554 F200.000 
G3 X17.814 Y-5.390 Z4.000 I0.248 J0.025 F200.000 
G1 X19.342 Y-5.947 Z4.000 F200.000 
G2 X20.641 Y-6.806 Z4.000 I-2.219 J-4.764 F200.000 
G2 X23.249 Y-10.065 Z4.000 I-7.706 J-8.839 F200.000 
G2 X23.369 Y-10.746 Z4.000 I-0.864 J-0.504 F200.000 
G2 X22.284 Y-12.911 Z4.000 I-12.728 J5.023 F200.000 
G2 X21.755 Y-13.358 Z4.000 I-0.870 J0.493 F200.000 
G2 X18.252 Y-13.324 Z4.000 I-1.651 J10.189 F200.000 
G2 X15.882 Y-12.540 Z4.000 I0.701 J6.096 F200.000 
G1 X14.556 Y-11.598 Z4.000 F200.000 
G3 X14.280 Y-11.542 Z4.000 I-0.184 J-0.198 F200.000 
G3 X13.189 Y-12.760 Z4.000 I7.863 J-8.141 F200.000 
G3 X13.268 Y-13.051 Z4.000 I0.231 J-0.094 F200.000 
G1 X14.363 Y-14.255 Z4.000 F200.000 
G2 X15.114 Y-15.619 Z4.000 I-4.178 J-3.187 F200.000 
G2 X15.908 Y-19.717 Z4.000 I-10.931 J-4.245 F200.000 
G2 X15.698 Y-20.376 Z4.000 I-0.999 J-0.044 F200.000 
G2 X13.732 Y-21.788 Z4.000 I-8.936 J10.363 F200.000 
G2 X13.055 Y-21.938 Z4.000 I-0.542 J0.841 F200.000 
G2 X9.970 Y-20.280 Z4.000 I3.273 J9.790 F200.000 
G2 X8.235 Y-18.484 Z4.000 I3.454 J5.072 F200.000 
G1 X7.498 Y-17.034 Z4.000 F200.000 
G3 X7.281 Y-16.856 Z4.000 I-0.255 J-0.090 F200.000 
G3 X5.749 Y-17.428 Z4.000 I3.179 J-10.863 F200.000 
G3 X5.683 Y-17.723 Z4.000 I0.161 J-0.191 F200.000 
G1 X6.094 Y-19.297 Z4.000 F200.000 
G2 X6.124 Y-20.853 Z4.000 I-5.181 J-0.880 F200.000 
G2 X4.923 Y-24.851 Z4.000 I-11.652 J1.321 F200.000 
G2 X4.431 Y-25.337 Z4.000 I-0.905 J0.425 F200.000 
G2 X2.575 Y-25.625 Z4.000 I-2.772 J11.726 F200.000 
G1 X2.033 Y-25.674 Z4.000 F200.000 
G2 X1.364 Y-25.492 Z4.000 I-0.089 J0.996 F200.000 
G2 X-0.597 Y-22.590 Z4.000 I7.448 J7.147 F200.000 
G2 X-1.298 Y-20.194 Z4.000 I5.415 J2.886 F200.000 
G1 X-1.277 Y-18.568 Z4.000 F200.000 
G3 X-1.387 Y-18.309 Z4.000 I-0.268 J0.039 F200.000 
G3 X-3.009 Y-18.103 Z4.000 I-2.233 J-11.096 F200.000 
G3 X-3.204 Y-18.334 Z4.000 I0.054 J-0.244 F200.000 
G1 X-3.572 Y-19.918 Z4.000 F200.000 
G2 X-4.269 Y-21.311 Z4.000 I-4.996 J1.628 F200.000 
G2 X-7.190 Y-24.292 Z4.000 I-9.703 J6.585 F200.000 
G2 X-7.851 Y-24.494 Z4.000 I-0.604 J0.797 F200.000 
G2 X-10.131 Y-23.678 Z4.000 I3.453 J13.241 F200.000 
G2 X-10.639 Y-23.207 Z4.000 I0.384 J0.923 F200.000 
G2 X-11.027 Y-19.725 Z4.000 I9.916 J2.867 F200.000 
G2 X-10.534 Y-17.278 Z4.000 I6.136 J0.039 F200.000 
G1 X-9.759 Y-15.848 Z4.000 F200.000 
G3 X-9.737 Y-15.568 Z4.000 I-0.219 J0.159 F200.000 
G3 X-11.077 Y-14.631 Z4.000 I-7.134 J-8.787 F200.000 
G3 X-11.357 Y-14.745 Z4.000 I-0.065 J-0.241 F200.000 
G1 X-12.419 Y-15.977 Z4.000 F200.000 
G2 X-13.683 Y-16.886 Z4.000 I-3.667 J3.764 F200.000 
G2 X-17.655 Y-18.169 Z4.000 I-5.532 J10.340 F200.000 
G2 X-18.335 Y-18.039 Z4.000 I-0.165 J0.986 F200.000 
G2 X-19.974 Y-16.258 Z4.000 I9.210 J10.119 F200.000 
G2 X-20.205 Y-15.604 Z4.000 I0.769 J0.639 F200.000 
G2 X-18.931 Y-12.341 Z4.000 I10.113 J-2.069 F200.000 
G2 X-17.357 Y-10.403 Z4.000 I5.451 J-2.817 F200.000 
G1 X-16.006 Y-9.497 Z4.000 F200.000 
G3 X-15.856 Y-9.260 Z4.000 I-0.120 J0.242 F200.000 
G3 X-16.608 Y-7.808 Z4.000 I-10.400 J-4.465 F200.000 
G3 X-16.908 Y-7.778 Z4.000 I-0.170 J-0.183 F200.000 
G1 X-18.421 Y-8.375 Z4.000 F200.000 
G2 X-19.963 Y-8.593 Z4.000 I-1.498 J5.037 F200.000 
G2 X-24.076 Y-7.883 Z4.000 I-0.093 J11.726 F200.000 
G2 X-24.618 Y-7.453 Z4.000 I0.313 J0.950 F200.000 
G2 X-25.242 Y-5.113 Z4.000 I12.858 J4.680 F200.000 
G2 X-25.142 Y-4.427 Z4.000 I0.978 J0.208 F200.000 
G2 X-22.497 Y-2.130 Z4.000 I7.993 J-6.532 F200.000 
G2 X-20.203 Y-1.145 Z4.000 I3.518 J-5.028 F200.000 
G1 X-18.586 Y-0.971 Z4.000 F200.000 
G3 X-18.343 Y-0.830 Z4.000 I0.006 J0.271 F200.000 
G3 X-18.334 Y0.805 Z4.000 I-11.284 J0.880 F200.000 
G3 X-18.586 Y0.971 Z4.000 I-0.235 J-0.083 F200.000 
G1 X-20.203 Y1.145 Z4.000 F200.000 
G2 X-21.670 Y1.669 Z4.000 I1.014 J5.156 F200.000 
G2 X-24.982 Y4.209 Z4.000 I5.367 J10.426 F200.000 
G2 X-25.262 Y4.842 Z4.000 I0.718 J0.696 F200.000 
G2 X-24.727 Y7.203 Z4.000 I13.560 J-1.831 F200.000 
G2 X-24.320 Y7.764 Z4.000 I0.963 J-0.270 F200.000 
G2 X-20.911 Y8.569 Z4.000 I4.042 J-9.498 F200.000 
G2 X-18.421 Y8.375 Z4.000 I0.778 J-6.087 F200.000 
G1 X-16.908 Y7.778 Z4.000 F200.000 
G3 X-16.628 Y7.789 Z4.000 I0.131 J0.237 F200.000 
G3 X-15.860 Y9.233 Z4.000 I-9.583 J6.023 F200.000 
G3 X-16.006 Y9.497 Z4.000 I-0.247 J0.036 F200.000 
G1 X-17.357 Y10.403 Z4.000 F200.000 
G2 X-18.412 Y11.548 Z4.000 I3.294 J4.094 F200.000 
G2 X-20.164 Y15.337 Z4.000 I9.598 J6.738 F200.000 
G2 X-20.118 Y16.027 Z4.000 I0.959 J0.282 F200.000 
G2 X-18.547 Y17.869 Z4.000 I11.156 J-7.923 F200.000 
G2 X-17.926 Y18.177 Z4.000 I0.727 J-0.686 F200.000 
G2 X-14.533 Y17.305 Z4.000 I-0.835 J-10.288 F200.000 
G2 X-12.419 Y15.977 Z4.000 I-2.139 J-5.751 F200.000 
G1 X-11.357 Y14.745 Z4.000 F200.000 
G3 X-11.103 Y14.624 Z4.000 I0.226 J0.149 F200.000 
G3 X-9.752 Y15.546 Z4.000 I-5.686 J9.786 F200.000 
G3 X-9.759 Y15.848 Z4.000 I-0.202 J0.146 F200.000 
G1 X-10.534 Y17.278 Z4.000 F200.000 
G2 X-10.937 Y18.782 Z4.000 I4.819 J2.095 F200.000 
G2 X-10.727 Y22.951 Z4.000 I11.630 J1.506 F200.000 
G2 X-10.366 Y23.540 Z4.000 I0.981 J-0.196 F200.000 
G2 X-8.119 Y24.441 Z4.000 I6.196 J-12.200 F200.000 
G2 X-7.425 Y24.425 Z4.000 I0.325 J-0.946 F200.000 
G2 X-4.827 Y22.077 Z4.000 I-5.521 J-8.722 F200.000 
G2 X-3.572 Y19.918 Z4.000 I-4.567 J-4.098 F200.000 
G1 X-3.204 Y18.334 Z4.000 F200.000 
G3 X-3.035 Y18.109 Z4.000 I0.269 J0.027 F200.000 
G3 X-1.411 Y18.297 Z4.000 I-0.487 J11.308 F200.000 
G3 X-1.277 Y18.568 Z4.000 I-0.111 J0.224 F200.000 
G1 X-1.298 Y20.194 Z4.000 F200.000 
G2 X-0.956 Y21.713 Z4.000 I5.241 J-0.385 F200.000 
G2 X1.167 Y25.307 Z4.000 I10.997 J-4.071 F200.000 
G2 X1.761 Y25.661 Z4.000 I0.777 J-0.629 F200.000 
G2 X4.170 Y25.414 Z4.000 I-0.184 J-13.682 F200.000 
G2 X4.776 Y25.078 Z4.000 I-0.152 J-0.988 F200.000 
G2 X5.986 Y21.791 Z4.000 I-8.942 J-5.157 F200.000 
G2 X6.094 Y19.297 Z4.000 I-5.948 J-1.506 F200.000 
G1 X5.683 Y17.723 Z4.000 F200.000 
G3 X5.728 Y17.445 Z4.000 I0.251 J-0.102 F200.000 
G3 X7.254 Y16.857 Z4.000 I4.824 J10.239 F200.000 
G3 X7.498 Y17.034 Z4.000 I0.006 J0.250 F200.000 
G1 X8.235 Y18.484 Z4.000 F200.000 
G2 X9.244 Y19.670 Z4.000 I4.462 J-2.777 F200.000 
G2 X12.794 Y21.866 Z4.000 I7.845 J-8.716 F200.000 
G2 X13.485 Y21.903 Z4.000 I0.396 J-0.918 F200.000 
G2 X15.503 Y20.566 Z4.000 I-6.521 J-12.030 F200.000 
G2 X15.788 Y20.239 Z4.000 I-0.594 J-0.805 F200.000 
G1 X15.788 Y20.239 Z3.000 F60.000 
G2 X15.883 Y19.986 Z3.000 I-0.879 J-0.478 F200.000 
G2 X15.427 Y16.513 Z3.000 I-10.314 J-0.411 F200.000 
G2 X14.363 Y14.255 Z3.000 I-5.967 J1.431 F200.000 
G1 X13.268 Y13.051 Z3.000 F200.000 
G3 X13.179 Y12.785 Z3.000 I0.175 J-0.207 F200.000 
G3 X14.257 Y11.555 Z3.000 I9.030 J6.825 F200.000 
G3 X14.556 Y11.598 Z3.000 I0.121 J0.218 F200.000 
G1 X15.882 Y12.540 Z3.000 F200.000 
G2 X17.327 Y13.121 Z3.000 I2.660 J-4.532 F200.000 
G2 X21.490 Y13.415 Z3.000 I2.896 J-11.363 F200.000 
G2 X22.119 Y13.127 Z3.000 I-0.076 J-0.997 F200.000 
G2 X23.284 Y11.005 Z3.000 I-11.364 J-7.621 F200.000 
G2 X23.352 Y10.315 Z3.000 I-0.900 J-0.436 F200.000 
G2 X21.334 Y7.452 Z3.000 I-9.324 J4.429 F200.000 
G2 X19.342 Y5.947 Z3.000 I-4.619 J4.040 F200.000 
G1 X17.814 Y5.390 Z3.000 F200.000 
G3 X17.611 Y5.196 Z3.000 I0.059 J-0.264 F200.000 
G3 X17.994 Y3.606 Z3.000 I11.167 J1.847 F200.000 
G3 X18.278 Y3.506 Z3.000 I0.209 J0.137 F200.000 
G1 X19.890 Y3.723 Z3.000 F200.000 
G2 X21.440 Y3.566 Z3.000 I0.249 J-5.249 F200.000 
G2 X25.263 Y1.892 Z3.000 I-2.716 J-11.408 F200.000 
G2 X25.686 Y1.345 Z3.000 I-0.531 J-0.847 F200.000 
G2 X25.732 Y-1.076 Z3.000 I-13.604 J-1.467 F200.000 
G2 X25.471 Y-1.718 Z3.000 I-0.999 J0.032 F200.000 
G2 X22.354 Y-3.316 Z3.000 I-6.197 J8.255 F200.000 
G2 X19.890 Y-3.723 Z3.000 I-2.212 J5.724 F200.000 
G1 X18.278 Y-3.506 Z3.000 F200.000 
G3 X18.009 Y-3.584 Z3.000 I-0.071 J-0.261 F200.000 
G3 X17.609 Y-5.169 Z3.000 I10.746 J-3.554 F200.000 
G3 X17.814 Y-5.390 Z3.000 I0.248 J0.025 F200.000 
G1 X19.342 Y-5.947 Z3.000 F200.000 
G2 X20.641 Y-6.806 Z3.000 I-2.219 J-4.764 F200.000 
G2 X23.249 Y-10.065 Z3.000 I-7.706 J-8.839 F200.000 
G2 X23.369 Y-10.746 Z3.000 I-0.864 J-0.504 F200.000 
G2 X22.284 Y-12.911 Z3.000 I-12.728 J5.023 F200.000 
G2 X21.755 Y-13.358 Z3.000 I-0.870 J0.493 F200.000 
G2 X18.252 Y-13.324 Z3.000 I-1.651 J10.189 F200.000 
G2 X15.882 Y-12.540 Z3.000 I0.701 J6.096 F200.000 
G1 X14.556 Y-11.598 Z3.000 F200.000 
G3 X14.280 Y-11.542 Z3.000 I-0.184 J-0.198 F200.000 
G3 X13.189 Y-12.760 Z3.000 I7.863 J-8.141 F200.000 
G3 X13.268 Y-13.051 Z3.000 I0.231 J-0.094 F200.000 
G1 X14.363 Y-14.255 Z3.000 F200.000 
G2 X15.114 Y-15.619 Z3.000 I-4.178 J-3.187 F200.000 
G2 X15.908 Y-19.717 Z3.000 I-10.931 J-4.245 F200.000 
G2 X15.698 Y-20.376 Z3.000 I-0.999 J-0.044 F200.000 
G2 X13.732 Y-21.788 Z3.000 I-8.936 J10.363 F200.000 
G2 X13.055 Y-21.938 Z3.000 I-0.542 J0.841 F200.000 
G2 X9.970 Y-20.280 Z3.000 I3.273 J9.790 F200.000 
G2 X8.235 Y-18.484 Z3.000 I3.454 J5.072 F200.000 
G1 X7.498 Y-17.034 Z3.000 F200.000 
G3 X7.281 Y-16.856 Z3.000 I-0.255 J-0.090 F200.000 
G3 X5.749 Y-17.428 Z3.000 I3.179 J-10.863 F200.000 
G3 X5.683 Y-17.723 Z3.000 I0.161 J-0.191 F200.000 
G1 X6.094 Y-19.297 Z3.000 F200.000 
G2 X6.124 Y-20.853 Z3.000 I-5.181 J-0.880 F200.000 
G2 X4.923 Y-24.851 Z3.000 I-11.652 J1.321 F200.000 
G2 X4.431 Y-25.337 Z3.000 I-0.905 J0.425 F200.000 
G2 X2.575 Y-25.625 Z3.000 I-2.772 J11.726 F200.000 
G1 X2.033 Y-25.674 Z3.000 F200.000 
G2 X1.364 Y-25.492 Z3.000 I-0.089 J0.996 F200.000 
G2 X-0.597 Y-22.590 Z3.000 I7.448 J7.147 F200.000 
G2 X-1.298 Y-20.194 Z3.000 I5.415 J2.886 F200.000 
G1 X-1.277 Y-18.568 Z3.000 F200.000 
G3 X-1.387 Y-18.309 Z3.000 I-0.268 J0.039 F200.000 
G3 X-3.009 Y-18.103 Z3.000 I-2.233 J-11.096 F200.000 
G3 X-3.204 Y-18.334 Z3.000 I0.054 J-0.244 F200.000 
G1 X-3.572 Y-19.918 Z3.000 F200.000 
G2 X-4.269 Y-21.311 Z3.000 I-4.996 J1.628 F200.000 
G2 X-7.190 Y-24.292 Z3.000 I-9.703 J6.585 F200.000 
G2 X-7.851 Y-24.494 Z3.000 I-0.604 J0.797 F200.000 
G2 X-10.131 Y-23.678 Z3.000 I3.453 J13.241 F200.000 
G2 X-10.639 Y-23.207 Z3.000 I0.384 J0.923 F200.000 
G2 X-11.027 Y-19.725 Z3.000 I9.916 J2.867 F200.000 
G2 X-10.534 Y-17.278 Z3.000 I6.136 J0.039 F200.000 
G1 X-9.759 Y-15.848 Z3.000 F200.000 
G3 X-9.737 Y-15.568 Z3.000 I-0.219 J0.159 F200.000 
G3 X-11.077 Y-14.631 Z3.000 I-7.134 J-8.787 F200.000 
G3 X-11.357 Y-14.745 Z3.000 I-0.065 J-0.241 F200.000 
G1 X-12.419 Y-15.977 Z3.000 F200.000 
G2 X-13.683 Y-16.886 Z3.000 I-3.667 J3.764 F200.000 
G2 X-17.655 Y-18.169 Z3.000 I-5.532 J10.340 F200.000 
G2 X-18.335 Y-18.039 Z3.000 I-0.165 J0.986 F200.000 
G2 X-19.974 Y-16.258 Z3.000 I9.210 J10.119 F200.000 
G2 X-20.205 Y-15.604 Z3.000 I0.769 J0.639 F200.000 
G2 X-18.931 Y-12.341 Z3.000 I10.113 J-2.069 F200.000 
G2 X-17.357 Y-10.403 Z3.000 I5.451 J-2.817 F200.000 
G1 X-16.006 Y-9.497 Z3.000 F200.000 
G3 X-15.856 Y-9.260 Z3.000 I-0.120 J0.242 F200.000 
G3 X-16.608 Y-7.808 Z3.000 I-10.400 J-4.465 F200.000 
G3 X-16.908 Y-7.778 Z3.000 I-0.170 J-0.183 F200.000 
G1 X-18.421 Y-8.375 Z3.000 F200.000 
G2 X-19.963 Y-8.593 Z3.000 I-1.498 J5.037 F200.000 
G2 X-24.076 Y-7.883 Z3.000 I-0.093 J11.726 F200.000 
G2 X-24.618 Y-7.453 Z3.000 I0.313 J0.950 F200.000 
G2 X-25.242 Y-5.113 Z3.000 I12.858 J4.680 F200.000 
G2 X-25.142 Y-4.427 Z3.000 I0.978 J0.208 F200.000 
G2 X-22.497 Y-2.130 Z3.000 I7.993 J-6.532 F200.000 
G2 X-20.203 Y-1.145 Z3.000 I3.518 J-5.028 F200.000 
G1 X-18.586 Y-0.971 Z3.000 F200.000 
G3 X-18.343 Y-0.830 Z3.000 I0.006 J0.271 F200.000 
G3 X-18.334 Y0.805 Z3.000 I-11.284 J0.880 F200.000 
G3 X-18.586 Y0.971 Z3.000 I-0.235 J-0.083 F200.000 
G1 X-20.203 Y1.145 Z3.000 F200.000 
G2 X-21.670 Y1.669 Z3.000 I1.014 J5.156 F200.000 
G2 X-24.982 Y4.209 Z3.000 I5.367 J10.426 F200.000 
G2 X-25.262 Y4.842 Z3.000 I0.718 J0.696 F200.000 
G2 X-24.727 Y7.203 Z3.000 I13.560 J-1.831 F200.000 
G2 X-24.320 Y7.764 Z3.000 I0.963 J-0.270 F200.000 
G2 X-20.911 Y8.569 Z3.000 I4.042 J-9.498 F200.000 
G2 X-18.421 Y8.375 Z3.000 I0.778 J-6.087 F200.000 
G1 X-16.908 Y7.778 Z3.000 F200.000 
G3 X-16.628 Y7.789 Z3.000 I0.131 J0.237 F200.000 
G3 X-15.860 Y9.233 Z3.000 I-9.583 J6.023 F200.000 
G3 X-16.006 Y9.497 Z3.000 I-0.247 J0.036 F200.000 
G1 X-17.357 Y10.403 Z3.000 F200.000 
G2 X-18.412 Y11.548 Z3.000 I3.294 J4.094 F200.000 
G2 X-20.164 Y15.337 Z3.000 I9.598 J6.738 F200.000 
G2 X-20.118 Y16.027 Z3.000 I0.959 J0.282 F200.000 
G2 X-18.547 Y17.869 Z3.000 I11.156 J-7.923 F200.000 
G2 X-17.926 Y18.177 Z3.000 I0.727 J-0.686 F200.000 
G2 X-14.533 Y17.305 Z3.000 I-0.835 J-10.288 F200.000 
G2 X-12.419 Y15.977 Z3.000 I-2.139 J-5.751 F200.000 
G1 X-11.357 Y14.745 Z3.000 F200.000 
G3 X-11.103 Y14.624 Z3.000 I0.226 J0.149 F200.000 
G3 X-9.752 Y15.546 Z3.000 I-5.686 J9.786 F200.000 
G3 X-9.759 Y15.848 Z3.000 I-0.202 J0.146 F200.000 
G1 X-10.534 Y17.278 Z3.000 F200.000 
G2 X-10.937 Y18.782 Z3.000 I4.819 J2.095 F200.000 
G2 X-10.727 Y22.951 Z3.000 I11.630 J1.506 F200.000 
G2 X-10.366 Y23.540 Z3.000 I0.981 J-0.196 F200.000 
G2 X-8.119 Y24.441 Z3.000 I6.196 J-12.200 F200.000 
G2 X-7.425 Y24.425 Z3.000 I0.325 J-0.946 F200.000 
G2 X-4.827 Y22.077 Z3.000 I-5.521 J-8.722 F200.000 
G2 X-3.572 Y19.918 Z3.000 I-4.567 J-4.098 F200.000 
G1 X-3.204 Y18.334 Z3.000 F200.000 
G3 X-3.035 Y18.109 Z3.000 I0.269 J0.027 F200.000 
G3 X-1.411 Y18.297 Z3.000 I-0.487 J11.308 F200.000 
G3 X-1.277 Y18.568 Z3.000 I-0.111 J0.224 F200.000 
G1 X-1.298 Y20.194 Z3.000 F200.000 
G2 X-0.956 Y21.713 Z3.000 I5.241 J-0.385 F200.000 
G2 X1.167 Y25.307 Z3.000 I10.997 J-4.071 F200.000 
G2 X1.761 Y25.661 Z3.000 I0.777 J-0.629 F200.000 
G2 X4.170 Y25.414 Z3.000 I-0.184 J-13.682 F200.000 
G2 X4.776 Y25.078 Z3.000 I-0.152 J-0.988 F200.000 
G2 X5.986 Y21.791 Z3.000 I-8.942 J-5.157 F200.000 
G2 X6.094 Y19.297 Z3.000 I-5.948 J-1.506 F200.000 
G1 X5.683 Y17.723 Z3.000 F200.000 
G3 X5.728 Y17.445 Z3.000 I0.251 J-0.102 F200.000 
G3 X7.254 Y16.857 Z3.000 I4.824 J10.239 F200.000 
G3 X7.498 Y17.034 Z3.000 I0.006 J0.250 F200.000 
G1 X8.235 Y18.484 Z3.000 F200.000 
G2 X9.244 Y19.670 Z3.000 I4.462 J-2.777 F200.000 
G2 X12.794 Y21.866 Z3.000 I7.845 J-8.716 F200.000 
G2 X13.485 Y21.903 Z3.000 I0.396 J-0.918 F200.000 
G2 X15.503 Y20.566 Z3.000 I-6.521 J-12.030 F200.000 
G2 X15.788 Y20.239 Z3.000 I-0.594 J-0.805 F200.000 
G1 X15.788 Y20.239 Z2.000 F60.000 
G2 X15.883 Y19.986 Z2.000 I-0.879 J-0.478 F200.000 
G2 X15.427 Y16.513 Z2.000 I-10.314 J-0.411 F200.000 
G2 X14.363 Y14.255 Z2.000 I-5.967 J1.431 F200.000 
G1 X13.268 Y13.051 Z2.000 F200.000 
G3 X13.179 Y12.785 Z2.000 I0.175 J-0.207 F200.000 
G3 X14.257 Y11.555 Z2.000 I9.030 J6.825 F200.000 
G3 X14.556 Y11.598 Z2.000 I0.121 J0.218 F200.000 
G1 X15.882 Y12.540 Z2.000 F200.000 
G2 X17.327 Y13.121 Z2.000 I2.660 J-4.532 F200.000 
G2 X21.490 Y13.415 Z2.000 I2.896 J-11.363 F200.000 
G2 X22.119 Y13.127 Z2.000 I-0.076 J-0.997 F200.000 
G2 X23.284 Y11.005 Z2.000 I-11.364 J-7.621 F200.000 
G2 X23.352 Y10.315 Z2.000 I-0.900 J-0.436 F200.000 
G2 X21.334 Y7.452 Z2.000 I-9.324 J4.429 F200.000 
G2 X19.342 Y5.947 Z2.000 I-4.619 J4.040 F200.000 
G1 X17.814 Y5.390 Z2.000 F200.000 
G3 X17.611 Y5.196 Z2.000 I0.059 J-0.264 F200.000 
G3 X17.994 Y3.606 Z2.000 I11.167 J1.847 F200.000 
G3 X18.278 Y3.506 Z2.000 I0.209 J0.137 F200.000 
G1 X19.890 Y3.723 Z2.000 F200.000 
G2 X21.440 Y3.566 Z2.000 I0.249 J-5.249 F200.000 
G2 X25.263 Y1.892 Z2.000 I-2.716 J-11.408 F200.000 
G2 X25.686 Y1.345 Z2.000 I-0.531 J-0.847 F200.000 
G2 X25.732 Y-1.076 Z2.000 I-13.604 J-1.467 F200.000 
G2 X25.471 Y-1.718 Z2.000 I-0.999 J0.032 F200.000 
G2 X22.354 Y-3.316 Z2.000 I-6.197 J8.255 F200.000 
G2 X19.890 Y-3.723 Z2.000 I-2.212 J5.724 F200.000 
G1 X18.278 Y-3.506 Z2.000 F200.000 
G3 X18.009 Y-3.584 Z2.000 I-0.071 J-0.261 F200.000 
G3 X17.609 Y-5.169 Z2.000 I10.746 J-3.554 F200.000 
G3 X17.814 Y-5.390 Z2.000 I0.248 J0.025 F200.000 
G1 X19.342 Y-5.947 Z2.000 F200.000 
G2 X20.641 Y-6.806 Z2.000 I-2.219 J-4.764 F200.000 
G2 X23.249 Y-10.065 Z2.000 I-7.706 J-8.839 F200.000 
G2 X23.369 Y-10.746 Z2.000 I-0.864 J-0.504 F200.000 
G2 X22.284 Y-12.911 Z2.000 I-12.728 J5.023 F200.000 
G2 X21.755 Y-13.358 Z2.000 I-0.870 J0.493 F200.000 
G2 X18.252 Y-13.324 Z2.000 I-1.651 J10.189 F200.000 
G2 X15.882 Y-12.540 Z2.000 I0.701 J6.096 F200.000 
G1 X14.556 Y-11.598 Z2.000 F200.000 
G3 X14.280 Y-11.542 Z2.000 I-0.184 J-0.198 F200.000 
G3 X13.189 Y-12.760 Z2.000 I7.863 J-8.141 F200.000 
G3 X13.268 Y-13.051 Z2.000 I0.231 J-0.094 F200.000 
G1 X14.363 Y-14.255 Z2.000 F200.000 
G2 X15.114 Y-15.619 Z2.000 I-4.178 J-3.187 F200.000 
G2 X15.908 Y-19.717 Z2.000 I-10.931 J-4.245 F200.000 
G2 X15.698 Y-20.376 Z2.000 I-0.999 J-0.044 F200.000 
G2 X13.732 Y-21.788 Z2.000 I-8.936 J10.363 F200.000 
G2 X13.055 Y-21.938 Z2.000 I-0.542 J0.841 F200.000 
G2 X9.970 Y-20.280 Z2.000 I3.273 J9.790 F200.000 
G2 X8.235 Y-18.484 Z2.000 I3.454 J5.072 F200.000 
G1 X7.498 Y-17.034 Z2.000 F200.000 
G3 X7.281 Y-16.856 Z2.000 I-0.255 J-0.090 F200.000 
G3 X5.749 Y-17.428 Z2.000 I3.179 J-10.863 F200.000 
G3 X5.683 Y-17.723 Z2.000 I0.161 J-0.191 F200.000 
G1 X6.094 Y-19.297 Z2.000 F200.000 
G2 X6.124 Y-20.853 Z2.000 I-5.181 J-0.880 F200.000 
G2 X4.923 Y-24.851 Z2.000 I-11.652 J1.321 F200.000 
G2 X4.431 Y-25.337 Z2.000 I-0.905 J0.425 F200.000 
G2 X2.575 Y-25.625 Z2.000 I-2.772 J11.726 F200.000 
G1 X2.033 Y-25.674 Z2.000 F200.000 
G2 X1.364 Y-25.492 Z2.000 I-0.089 J0.996 F200.000 
G2 X-0.597 Y-22.590 Z2.000 I7.448 J7.147 F200.000 
G2 X-1.298 Y-20.194 Z2.000 I5.415 J2.886 F200.000 
G1 X-1.277 Y-18.568 Z2.000 F200.000 
G3 X-1.387 Y-18.309 Z2.000 I-0.268 J0.039 F200.000 
G3 X-3.009 Y-18.103 Z2.000 I-2.233 J-11.096 F200.000 
G3 X-3.204 Y-18.334 Z2.000 I0.054 J-0.244 F200.000 
G1 X-3.572 Y-19.918 Z2.000 F200.000 
G2 X-4.269 Y-21.311 Z2.000 I-4.996 J1.628 F200.000 
G2 X-7.190 Y-24.292 Z2.000 I-9.703 J6.585 F200.000 
G2 X-7.851 Y-24.494 Z2.000 I-0.604 J0.797 F200.000 
G2 X-10.131 Y-23.678 Z2.000 I3.453 J13.241 F200.000 
G2 X-10.639 Y-23.207 Z2.000 I0.384 J0.923 F200.000 
G2 X-11.027 Y-19.725 Z2.000 I9.916 J2.867 F200.000 
G2 X-10.534 Y-17.278 Z2.000 I6.136 J0.039 F200.000 
G1 X-9.759 Y-15.848 Z2.000 F200.000 
G3 X-9.737 Y-15.568 Z2.000 I-0.219 J0.159 F200.000 
G3 X-11.077 Y-14.631 Z2.000 I-7.134 J-8.787 F200.000 
G3 X-11.357 Y-14.745 Z2.000 I-0.065 J-0.241 F200.000 
G1 X-12.419 Y-15.977 Z2.000 F200.000 
G2 X-13.683 Y-16.886 Z2.000 I-3.667 J3.764 F200.000 
G2 X-17.655 Y-18.169 Z2.000 I-5.532 J10.340 F200.000 
G2 X-18.335 Y-18.039 Z2.000 I-0.165 J0.986 F200.000 
G2 X-19.974 Y-16.258 Z2.000 I9.210 J10.119 F200.000 
G2 X-20.205 Y-15.604 Z2.000 I0.769 J0.639 F200.000 
G2 X-18.931 Y-12.341 Z2.000 I10.113 J-2.069 F200.000 
G2 X-17.357 Y-10.403 Z2.000 I5.451 J-2.817 F200.000 
G1 X-16.006 Y-9.497 Z2.000 F200.000 
G3 X-15.856 Y-9.260 Z2.000 I-0.120 J0.242 F200.000 
G3 X-16.608 Y-7.808 Z2.000 I-10.400 J-4.465 F200.000 
G3 X-16.908 Y-7.778 Z2.000 I-0.170 J-0.183 F200.000 
G1 X-18.421 Y-8.375 Z2.000 F200.000 
G2 X-19.963 Y-8.593 Z2.000 I-1.498 J5.037 F200.000 
G2 X-24.076 Y-7.883 Z2.000 I-0.093 J11.726 F200.000 
G2 X-24.618 Y-7.453 Z2.000 I0.313 J0.950 F200.000 
G2 X-25.242 Y-5.113 Z2.000 I12.858 J4.680 F200.000 
G2 X-25.142 Y-4.427 Z2.000 I0.978 J0.208 F200.000 
G2 X-22.497 Y-2.130 Z2.000 I7.993 J-6.532 F200.000 
G2 X-20.203 Y-1.145 Z2.000 I3.518 J-5.028 F200.000 
G1 X-18.586 Y-0.971 Z2.000 F200.000 
G3 X-18.343 Y-0.830 Z2.000 I0.006 J0.271 F200.000 
G3 X-18.334 Y0.805 Z2.000 I-11.284 J0.880 F200.000 
G3 X-18.586 Y0.971 Z2.000 I-0.235 J-0.083 F200.000 
G1 X-20.203 Y1.145 Z2.000 F200.000 
G2 X-21.670 Y1.669 Z2.000 I1.014 J5.156 F200.000 
G2 X-24.982 Y4.209 Z2.000 I5.367 J10.426 F200.000 
G2 X-25.262 Y4.842 Z2.000 I0.718 J0.696 F200.000 
G2 X-24.727 Y7.203 Z2.000 I13.560 J-1.831 F200.000 
G2 X-24.320 Y7.764 Z2.000 I0.963 J-0.270 F200.000 
G2 X-20.911 Y8.569 Z2.000 I4.042 J-9.498 F200.000 
G2 X-18.421 Y8.375 Z2.000 I0.778 J-6.087 F200.000 
G1 X-16.908 Y7.778 Z2.000 F200.000 
G3 X-16.628 Y7.789 Z2.000 I0.131 J0.237 F200.000 
G3 X-15.860 Y9.233 Z2.000 I-9.583 J6.023 F200.000 
G3 X-16.006 Y9.497 Z2.000 I-0.247 J0.036 F200.000 
G1 X-17.357 Y10.403 Z2.000 F200.000 
G2 X-18.412 Y11.548 Z2.000 I3.294 J4.094 F200.000 
G2 X-20.164 Y15.337 Z2.000 I9.598 J6.738 F200.000 
G2 X-20.118 Y16.027 Z2.000 I0.959 J0.282 F200.000 
G2 X-18.547 Y17.869 Z2.000 I11.156 J-7.923 F200.000 
G2 X-17.926 Y18.177 Z2.000 I0.727 J-0.686 F200.000 
G2 X-14.533 Y17.305 Z2.000 I-0.835 J-10.288 F200.000 
G2 X-12.419 Y15.977 Z2.000 I-2.139 J-5.751 F200.000 
G1 X-11.357 Y14.745 Z2.000 F200.000 
G3 X-11.103 Y14.624 Z2.000 I0.226 J0.149 F200.000 
G3 X-9.752 Y15.546 Z2.000 I-5.686 J9.786 F200.000 
G3 X-9.759 Y15.848 Z2.000 I-0.202 J0.146 F200.000 
G1 X-10.534 Y17.278 Z2.000 F200.000 
G2 X-10.937 Y18.782 Z2.000 I4.819 J2.095 F200.000 
G2 X-10.727 Y22.951 Z2.000 I11.630 J1.506 F200.000 
G2 X-10.366 Y23.540 Z2.000 I0.981 J-0.196 F200.000 
G2 X-8.119 Y24.441 Z2.000 I6.196 J-12.200 F200.000 
G2 X-7.425 Y24.425 Z2.000 I0.325 J-0.946 F200.000 
G2 X-4.827 Y22.077 Z2.000 I-5.521 J-8.722 F200.000 
G2 X-3.572 Y19.918 Z2.000 I-4.567 J-4.098 F200.000 
G1 X-3.204 Y18.334 Z2.000 F200.000 
G3 X-3.035 Y18.109 Z2.000 I0.269 J0.027 F200.000 
G3 X-1.411 Y18.297 Z2.000 I-0.487 J11.308 F200.000 
G3 X-1.277 Y18.568 Z2.000 I-0.111 J0.224 F200.000 
G1 X-1.298 Y20.194 Z2.000 F200.000 
G2 X-0.956 Y21.713 Z2.000 I5.241 J-0.385 F200.000 
G2 X1.167 Y25.307 Z2.000 I10.997 J-4.071 F200.000 
G2 X1.761 Y25.661 Z2.000 I0.777 J-0.629 F200.000 
G2 X4.170 Y25.414 Z2.000 I-0.184 J-13.682 F200.000 
G2 X4.776 Y25.078 Z2.000 I-0.152 J-0.988 F200.000 
G2 X5.986 Y21.791 Z2.000 I-8.942 J-5.157 F200.000 
G2 X6.094 Y19.297 Z2.000 I-5.948 J-1.506 F200.000 
G1 X5.683 Y17.723 Z2.000 F200.000 
G3 X5.728 Y17.445 Z2.000 I0.251 J-0.102 F200.000 
G3 X7.254 Y16.857 Z2.000 I4.824 J10.239 F200.000 
G3 X7.498 Y17.034 Z2.000 I0.006 J0.250 F200.000 
G1 X8.235 Y18.484 Z2.000 F200.000 
G2 X9.244 Y19.670 Z2.000 I4.462 J-2.777 F200.000 
G2 X12.794 Y21.866 Z2.000 I7.845 J-8.716 F200.000 
G2 X13.485 Y21.903 Z2.000 I0.396 J-0.918 F200.000 
G2 X15.503 Y20.566 Z2.000 I-6.521 J-12.030 F200.000 
G2 X15.788 Y20.239 Z2.000 I-0.594 J-0.805 F200.000 
G1 X15.788 Y20.239 Z1.000 F60.000 
G2 X15.883 Y19.986 Z1.000 I-0.879 J-0.478 F200.000 
G2 X15.427 Y16.513 Z1.000 I-10.314 J-0.411 F200.000 
G2 X14.363 Y14.255 Z1.000 I-5.967 J1.431 F200.000 
G1 X13.268 Y13.051 Z1.000 F200.000 
G3 X13.179 Y12.785 Z1.000 I0.175 J-0.207 F200.000 
G3 X14.257 Y11.555 Z1.000 I9.030 J6.825 F200.000 
G3 X14.556 Y11.598 Z1.000 I0.121 J0.218 F200.000 
G1 X15.882 Y12.540 Z1.000 F200.000 
G2 X17.327 Y13.121 Z1.000 I2.660 J-4.532 F200.000 
G2 X21.490 Y13.415 Z1.000 I2.896 J-11.363 F200.000 
G2 X22.119 Y13.127 Z1.000 I-0.076 J-0.997 F200.000 
G2 X23.284 Y11.005 Z1.000 I-11.364 J-7.621 F200.000 
G2 X23.352 Y10.315 Z1.000 I-0.900 J-0.436 F200.000 
G2 X21.334 Y7.452 Z1.000 I-9.324 J4.429 F200.000 
G2 X19.342 Y5.947 Z1.000 I-4.619 J4.040 F200.000 
G1 X17.814 Y5.390 Z1.000 F200.000 
G3 X17.611 Y5.196 Z1.000 I0.059 J-0.264 F200.000 
G3 X17.994 Y3.606 Z1.000 I11.167 J1.847 F200.000 
G3 X18.278 Y3.506 Z1.000 I0.209 J0.137 F200.000 
G1 X19.890 Y3.723 Z1.000 F200.000 
G2 X21.440 Y3.566 Z1.000 I0.249 J-5.249 F200.000 
G2 X25.263 Y1.892 Z1.000 I-2.716 J-11.408 F200.000 
G2 X25.686 Y1.345 Z1.000 I-0.531 J-0.847 F200.000 
G2 X25.732 Y-1.076 Z1.000 I-13.604 J-1.467 F200.000 
G2 X25.471 Y-1.718 Z1.000 I-0.999 J0.032 F200.000 
G2 X22.354 Y-3.316 Z1.000 I-6.197 J8.255 F200.000 
G2 X19.890 Y-3.723 Z1.000 I-2.212 J5.724 F200.000 
G1 X18.278 Y-3.506 Z1.000 F200.000 
G3 X18.009 Y-3.584 Z1.000 I-0.071 J-0.261 F200.000 
G3 X17.609 Y-5.169 Z1.000 I10.746 J-3.554 F200.000 
G3 X17.814 Y-5.390 Z1.000 I0.248 J0.025 F200.000 
G1 X19.342 Y-5.947 Z1.000 F200.000 
G2 X20.641 Y-6.806 Z1.000 I-2.219 J-4.764 F200.000 
G2 X23.249 Y-10.065 Z1.000 I-7.706 J-8.839 F200.000 
G2 X23.369 Y-10.746 Z1.000 I-0.864 J-0.504 F200.000 
G2 X22.284 Y-12.911 Z1.000 I-12.728 J5.023 F200.000 
G2 X21.755 Y-13.358 Z1.000 I-0.870 J0.493 F200.000 
G2 X18.252 Y-13.324 Z1.000 I-1.651 J10.189 F200.000 
G2 X15.882 Y-12.540 Z1.000 I0.701 J6.096 F200.000 
G1 X14.556 Y-11.598 Z1.000 F200.000 
G3 X14.280 Y-11.542 Z1.000 I-0.184 J-0.198 F200.000 
G3 X13.189 Y-12.760 Z1.000 I7.863 J-8.141 F200.000 
G3 X13.268 Y-13.051 Z1.000 I0.231 J-0.094 F200.000 
G1 X14.363 Y-14.255 Z1.000 F200.000 
G2 X15.114 Y-15.619 Z1.000 I-4.178 J-3.187 F200.000 
G2 X15.908 Y-19.717 Z1.000 I-10.931 J-4.245 F200.000 
G2 X15.698 Y-20.376 Z1.000 I-0.999 J-0.044 F200.000 
G2 X13.732 Y-21.788 Z1.000 I-8.936 J10.363 F200.000 
G2 X13.055 Y-21.938 Z1.000 I-0.542 J0.841 F200.000 
G2 X9.970 Y-20.280 Z1.000 I3.273 J9.790 F200.000 
G2 X8.235 Y-18.484 Z1.000 I3.454 J5.072 F200.000 
G1 X7.498 Y-17.034 Z1.000 F200.000 
G3 X7.281 Y-16.856 Z1.000 I-0.255 J-0.090 F200.000 
G3 X5.749 Y-17.428 Z1.000 I3.179 J-10.863 F200.000 
G3 X5.683 Y-17.723 Z1.000 I0.161 J-0.191 F200.000 
G1 X6.094 Y-19.297 Z1.000 F200.000 
G2 X6.124 Y-20.853 Z1.000 I-5.181 J-0.880 F200.000 
G2 X4.923 Y-24.851 Z1.000 I-11.652 J1.321 F200.000 
G2 X4.431 Y-25.337 Z1.000 I-0.905 J0.425 F200.000 
G2 X2.575 Y-25.625 Z1.000 I-2.772 J11.726 F200.000 
G1 X2.033 Y-25.674 Z1.000 F200.000 
G2 X1.364 Y-25.492 Z1.000 I-0.089 J0.996 F200.000 
G2 X-0.597 Y-22.590 Z1.000 I7.448 J7.147 F200.000 
G2 X-1.298 Y-20.194 Z1.000 I5.415 J2.886 F200.000 
G1 X-1.277 Y-18.568 Z1.000 F200.000 
G3 X-1.387 Y-18.309 Z1.000 I-0.268 J0.039 F200.000 
G3 X-3.009 Y-18.103 Z1.000 I-2.233 J-11.096 F200.000 
G3 X-3.204 Y-18.334 Z1.000 I0.054 J-0.244 F200.000 
G1 X-3.572 Y-19.918 Z1.000 F200.000 
G2 X-4.269 Y-21.311 Z1.000 I-4.996 J1.628 F200.000 
G2 X-7.190 Y-24.292 Z1.000 I-9.703 J6.585 F200.000 
G2 X-7.851 Y-24.494 Z1.000 I-0.604 J0.797 F200.000 
G2 X-10.131 Y-23.678 Z1.000 I3.453 J13.241 F200.000 
G2 X-10.639 Y-23.207 Z1.000 I0.384 J0.923 F200.000 
G2 X-11.027 Y-19.725 Z1.000 I9.916 J2.867 F200.000 
G2 X-10.534 Y-17.278 Z1.000 I6.136 J0.039 F200.000 
G1 X-9.759 Y-15.848 Z1.000 F200.000 
G3 X-9.737 Y-15.568 Z1.000 I-0.219 J0.159 F200.000 
G3 X-11.077 Y-14.631 Z1.000 I-7.134 J-8.787 F200.000 
G3 X-11.357 Y-14.745 Z1.000 I-0.065 J-0.241 F200.000 
G1 X-12.419 Y-15.977 Z1.000 F200.000 
G2 X-13.683 Y-16.886 Z1.000 I-3.667 J3.764 F200.000 
G2 X-17.655 Y-18.169 Z1.000 I-5.532 J10.340 F200.000 
G2 X-18.335 Y-18.039 Z1.000 I-0.165 J0.986 F200.000 
G2 X-19.974 Y-16.258 Z1.000 I9.210 J10.119 F200.000 
G2 X-20.205 Y-15.604 Z1.000 I0.769 J0.639 F200.000 
G2 X-18.931 Y-12.341 Z1.000 I10.113 J-2.069 F200.000 
G2 X-17.357 Y-10.403 Z1.000 I5.451 J-2.817 F200.000 
G1 X-16.006 Y-9.497 Z1.000 F200.000 
G3 X-15.856 Y-9.260 Z1.000 I-0.120 J0.242 F200.000 
G3 X-16.608 Y-7.808 Z1.000 I-10.400 J-4.465 F200.000 
G3 X-16.908 Y-7.778 Z1.000 I-0.170 J-0.183 F200.000 
G1 X-18.421 Y-8.375 Z1.000 F200.000 
G2 X-19.963 Y-8.593 Z1.000 I-1.498 J5.037 F200.000 
G2 X-24.076 Y-7.883 Z1.000 I-0.093 J11.726 F200.000 
G2 X-24.618 Y-7.453 Z1.000 I0.313 J0.950 F200.000 
G2 X-25.242 Y-5.113 Z1.000 I12.858 J4.680 F200.000 
G2 X-25.142 Y-4.427 Z1.000 I0.978 J0.208 F200.000 
G2 X-22.497 Y-2.130 Z1.000 I7.993 J-6.532 F200.000 
G2 X-20.203 Y-1.145 Z1.000 I3.518 J-5.028 F200.000 
G1 X-18.586 Y-0.971 Z1.000 F200.000 
G3 X-18.343 Y-0.830 Z1.000 I0.006 J0.271 F200.000 
G3 X-18.334 Y0.805 Z1.000 I-11.284 J0.880 F200.000 
G3 X-18.586 Y0.971 Z1.000 I-0.235 J-0.083 F200.000 
G1 X-20.203 Y1.145 Z1.000 F200.000 
G2 X-21.670 Y1.669 Z1.000 I1.014 J5.156 F200.000 
G2 X-24.982 Y4.209 Z1.000 I5.367 J10.426 F200.000 
G2 X-25.262 Y4.842 Z1.000 I0.718 J0.696 F200.000 
G2 X-24.727 Y7.203 Z1.000 I13.560 J-1.831 F200.000 
G2 X-24.320 Y7.764 Z1.000 I0.963 J-0.270 F200.000 
G2 X-20.911 Y8.569 Z1.000 I4.042 J-9.498 F200.000 
G2 X-18.421 Y8.375 Z1.000 I0.778 J-6.087 F200.000 
G1 X-16.908 Y7.778 Z1.000 F200.000 
G3 X-16.628 Y7.789 Z1.000 I0.131 J0.237 F200.000 
G3 X-15.860 Y9.233 Z1.000 I-9.583 J6.023 F200.000 
G3 X-16.006 Y9.497 Z1.000 I-0.247 J0.036 F200.000 
G1 X-17.357 Y10.403 Z1.000 F200.000 
G2 X-18.412 Y11.548 Z1.000 I3.294 J4.094 F200.000 
G2 X-20.164 Y15.337 Z1.000 I9.598 J6.738 F200.000 
G2 X-20.118 Y16.027 Z1.000 I0.959 J0.282 F200.000 
G2 X-18.547 Y17.869 Z1.000 I11.156 J-7.923 F200.000 
G2 X-17.926 Y18.177 Z1.000 I0.727 J-0.686 F200.000 
G2 X-14.533 Y17.305 Z1.000 I-0.835 J-10.288 F200.000 
G2 X-12.419 Y15.977 Z1.000 I-2.139 J-5.751 F200.000 
G1 X-11.357 Y14.745 Z1.000 F200.000 
G3 X-11.103 Y14.624 Z1.000 I0.226 J0.149 F200.000 
G3 X-9.752 Y15.546 Z1.000 I-5.686 J9.786 F200.000 
G3 X-9.759 Y15.848 Z1.000 I-0.202 J0.146 F200.000 
G1 X-10.534 Y17.278 Z1.000 F200.000 
G2 X-10.937 Y18.782 Z1.000 I4.819 J2.095 F200.000 
G2 X-10.727 Y22.951 Z1.000 I11.630 J1.506 F200.000 
G2 X-10.366 Y23.540 Z1.000 I0.981 J-0.196 F200.000 
G2 X-8.119 Y24.441 Z1.000 I6.196 J-12.200 F200.000 
G2 X-7.425 Y24.425 Z1.000 I0.325 J-0.946 F200.000 
G2 X-4.827 Y22.077 Z1.000 I-5.521 J-8.722 F200.000 
G2 X-3.572 Y19.918 Z1.000 I-4.567 J-4.098 F200.000 
G1 X-3.204 Y18.334 Z1.000 F200.000 
G3 X-3.035 Y18.109 Z1.000 I0.269 J0.027 F200.000 
G3 X-1.411 Y18.297 Z1.000 I-0.487 J11.308 F200.000 
G3 X-1.277 Y18.568 Z1.000 I-0.111 J0.224 F200.000 
G1 X-1.298 Y20.194 Z1.000 F200.000 
G2 X-0.956 Y21.713 Z1.000 I5.241 J-0.385 F200.000 
G2 X1.167 Y25.307 Z1.000 I10.997 J-4.071 F200.000 
G2 X1.761 Y25.661 Z1.000 I0.777 J-0.629 F200.000 
G2 X4.170 Y25.414 Z1.000 I-0.184 J-13.682 F200.000 
G2 X4.776 Y25.078 Z1.000 I-0.152 J-0.988 F200.000 
G2 X5.986 Y21.791 Z1.000 I-8.942 J-5.157 F200.000 
G2 X6.094 Y19.297 Z1.000 I-5.948 J-1.506 F200.000 
G1 X5.683 Y17.723 Z1.000 F200.000 
G3 X5.728 Y17.445 Z1.000 I0.251 J-0.102 F200.000 
G3 X7.254 Y16.857 Z1.000 I4.824 J10.239 F200.000 
G3 X7.498 Y17.034 Z1.000 I0.006 J0.250 F200.000 
G1 X8.235 Y18.484 Z1.000 F200.000 
G2 X9.244 Y19.670 Z1.000 I4.462 J-2.777 F200.000 
G2 X12.794 Y21.866 Z1.000 I7.845 J-8.716 F200.000 
G2 X13.485 Y21.903 Z1.000 I0.396 J-0.918 F200.000 
G2 X15.503 Y20.566 Z1.000 I-6.521 J-12.030 F200.000 
G2 X15.788 Y20.239 Z1.000 I-0.594 J-0.805 F200.000 
G1 X15.788 Y20.239 Z0.000 F60.000 
G2 X15.883 Y19.986 Z0.000 I-0.879 J-0.478 F200.000 
G2 X15.427 Y16.513 Z0.000 I-10.314 J-0.411 F200.000 
G2 X14.363 Y14.255 Z0.000 I-5.967 J1.431 F200.000 
G1 X13.268 Y13.051 Z0.000 F200.000 
G3 X13.179 Y12.785 Z0.000 I0.175 J-0.207 F200.000 
G3 X14.257 Y11.555 Z0.000 I9.030 J6.825 F200.000 
G3 X14.556 Y11.598 Z0.000 I0.121 J0.218 F200.000 
G1 X15.882 Y12.540 Z0.000 F200.000 
G2 X17.327 Y13.121 Z0.000 I2.660 J-4.532 F200.000 
G2 X21.490 Y13.415 Z0.000 I2.896 J-11.363 F200.000 
G2 X22.119 Y13.127 Z0.000 I-0.076 J-0.997 F200.000 
G2 X23.284 Y11.005 Z0.000 I-11.364 J-7.621 F200.000 
G2 X23.352 Y10.315 Z0.000 I-0.900 J-0.436 F200.000 
G2 X21.334 Y7.452 Z0.000 I-9.324 J4.429 F200.000 
G2 X19.342 Y5.947 Z0.000 I-4.619 J4.040 F200.000 
G1 X17.814 Y5.390 Z0.000 F200.000 
G3 X17.611 Y5.196 Z0.000 I0.059 J-0.264 F200.000 
G3 X17.994 Y3.606 Z0.000 I11.167 J1.847 F200.000 
G3 X18.278 Y3.506 Z0.000 I0.209 J0.137 F200.000 
G1 X19.890 Y3.723 Z0.000 F200.000 
G2 X21.440 Y3.566 Z0.000 I0.249 J-5.249 F200.000 
G2 X25.263 Y1.892 Z0.000 I-2.716 J-11.408 F200.000 
G2 X25.686 Y1.345 Z0.000 I-0.531 J-0.847 F200.000 
G2 X25.732 Y-1.076 Z0.000 I-13.604 J-1.467 F200.000 
G2 X25.471 Y-1.718 Z0.000 I-0.999 J0.032 F200.000 
G2 X22.354 Y-3.316 Z0.000 I-6.197 J8.255 F200.000 
G2 X19.890 Y-3.723 Z0.000 I-2.212 J5.724 F200.000 
G1 X18.278 Y-3.506 Z0.000 F200.000 
G3 X18.009 Y-3.584 Z0.000 I-0.071 J-0.261 F200.000 
G3 X17.609 Y-5.169 Z0.000 I10.746 J-3.554 F200.000 
G3 X17.814 Y-5.390 Z0.000 I0.248 J0.025 F200.000 
G1 X19.342 Y-5.947 Z0.000 F200.000 
G2 X20.641 Y-6.806 Z0.000 I-2.219 J-4.764 F200.000 
G2 X23.249 Y-10.065 Z0.000 I-7.706 J-8.839 F200.000 
G2 X23.369 Y-10.746 Z0.000 I-0.864 J-0.504 F200.000 
G2 X22.284 Y-12.911 Z0.000 I-12.728 J5.023 F200.000 
G2 X21.755 Y-13.358 Z0.000 I-0.870 J0.493 F200.000 
G2 X18.252 Y-13.324 Z0.000 I-1.651 J10.189 F200.000 
G2 X15.882 Y-12.540 Z0.000 I0.701 J6.096 F200.000 
G1 X14.556 Y-11.598 Z0.000 F200.000 
G3 X14.280 Y-11.542 Z0.000 I-0.184 J-0.198 F200.000 
G3 X13.189 Y-12.760 Z0.000 I7.863 J-8.141 F200.000 
G3 X13.268 Y-13.051 Z0.000 I0.231 J-0.094 F200.000 
G1 X14.363 Y-14.255 Z0.000 F200.000 
G2 X15.114 Y-15.619 Z0.000 I-4.178 J-3.187 F200.000 
G2 X15.908 Y-19.717 Z0.000 I-10.931 J-4.245 F200.000 
G2 X15.698 Y-20.376 Z0.000 I-0.999 J-0.044 F200.000 
G2 X13.732 Y-21.788 Z0.000 I-8.936 J10.363 F200.000 
G2 X13.055 Y-21.938 Z0.000 I-0.542 J0.841 F200.000 
G2 X9.970 Y-20.280 Z0.000 I3.273 J9.790 F200.000 
G2 X8.235 Y-18.484 Z0.000 I3.454 J5.072 F200.000 
G1 X7.498 Y-17.034 Z0.000 F200.000 
G3 X7.281 Y-16.856 Z0.000 I-0.255 J-0.090 F200.000 
G3 X5.749 Y-17.428 Z0.000 I3.179 J-10.863 F200.000 
G3 X5.683 Y-17.723 Z0.000 I0.161 J-0.191 F200.000 
G1 X6.094 Y-19.297 Z0.000 F200.000 
G2 X6.124 Y-20.853 Z0.000 I-5.181 J-0.880 F200.000 
G2 X4.923 Y-24.851 Z0.000 I-11.652 J1.321 F200.000 
G2 X4.431 Y-25.337 Z0.000 I-0.905 J0.425 F200.000 
G2 X2.575 Y-25.625 Z0.000 I-2.772 J11.726 F200.000 
G1 X2.033 Y-25.674 Z0.000 F200.000 
G2 X1.364 Y-25.492 Z0.000 I-0.089 J0.996 F200.000 
G2 X-0.597 Y-22.590 Z0.000 I7.448 J7.147 F200.000 
G2 X-1.298 Y-20.194 Z0.000 I5.415 J2.886 F200.000 
G1 X-1.277 Y-18.568 Z0.000 F200.000 
G3 X-1.387 Y-18.309 Z0.000 I-0.268 J0.039 F200.000 
G3 X-3.009 Y-18.103 Z0.000 I-2.233 J-11.096 F200.000 
G3 X-3.204 Y-18.334 Z0.000 I0.054 J-0.244 F200.000 
G1 X-3.572 Y-19.918 Z0.000 F200.000 
G2 X-4.269 Y-21.311 Z0.000 I-4.996 J1.628 F200.000 
G2 X-7.190 Y-24.292 Z0.000 I-9.703 J6.585 F200.000 
G2 X-7.851 Y-24.494 Z0.000 I-0.604 J0.797 F200.000 
G2 X-10.131 Y-23.678 Z0.000 I3.453 J13.241 F200.000 
G2 X-10.639 Y-23.207 Z0.000 I0.384 J0.923 F200.000 
G2 X-11.027 Y-19.725 Z0.000 I9.916 J2.867 F200.000 
G2 X-10.534 Y-17.278 Z0.000 I6.136 J0.039 F200.000 
G1 X-9.759 Y-15.848 Z0.000 F200.000 
G3 X-9.737 Y-15.568 Z0.000 I-0.219 J0.159 F200.000 
G3 X-11.077 Y-14.631 Z0.000 I-7.134 J-8.787 F200.000 
G3 X-11.357 Y-14.745 Z0.000 I-0.065 J-0.241 F200.000 
G1 X-12.419 Y-15.977 Z0.000 F200.000 
G2 X-13.683 Y-16.886 Z0.000 I-3.667 J3.764 F200.000 
G2 X-17.655 Y-18.169 Z0.000 I-5.532 J10.340 F200.000 
G2 X-18.335 Y-18.039 Z0.000 I-0.165 J0.986 F200.000 
G2 X-19.974 Y-16.258 Z0.000 I9.210 J10.119 F200.000 
G2 X-20.205 Y-15.604 Z0.000 I0.769 J0.639 F200.000 
G2 X-18.931 Y-12.341 Z0.000 I10.113 J-2.069 F200.000 
G2 X-17.357 Y-10.403 Z0.000 I5.451 J-2.817 F200.000 
G1 X-16.006 Y-9.497 Z0.000 F200.000 
G3 X-15.856 Y-9.260 Z0.000 I-0.120 J0.242 F200.000 
G3 X-16.608 Y-7.808 Z0.000 I-10.400 J-4.465 F200.000 
G3 X-16.908 Y-7.778 Z0.000 I-0.170 J-0.183 F200.000 
G1 X-18.421 Y-8.375 Z0.000 F200.000 
G2 X-19.963 Y-8.593 Z0.000 I-1.498 J5.037 F200.000 
G2 X-24.076 Y-7.883 Z0.000 I-0.093 J11.726 F200.000 
G2 X-24.618 Y-7.453 Z0.000 I0.313 J0.950 F200.000 
G2 X-25.242 Y-5.113 Z0.000 I12.858 J4.680 F200.000 
G2 X-25.142 Y-4.427 Z0.000 I0.978 J0.208 F200.000 
G2 X-22.497 Y-2.130 Z0.000 I7.993 J-6.532 F200.000 
G2 X-20.203 Y-1.145 Z0.000 I3.518 J-5.028 F200.000 
G1 X-18.586 Y-0.971 Z0.000 F200.000 
G3 X-18.343 Y-0.830 Z0.000 I0.006 J0.271 F200.000 
G3 X-18.334 Y0.805 Z0.000 I-11.284 J0.880 F200.000 
G3 X-18.586 Y0.971 Z0.000 I-0.235 J-0.083 F200.000 
G1 X-20.203 Y1.145 Z0.000 F200.000 
G2 X-21.670 Y1.669 Z0.000 I1.014 J5.156 F200.000 
G2 X-24.982 Y4.209 Z0.000 I5.367 J10.426 F200.000 
G2 X-25.262 Y4.842 Z0.000 I0.718 J0.696 F200.000 
G2 X-24.727 Y7.203 Z0.000 I13.560 J-1.831 F200.000 
G2 X-24.320 Y7.764 Z0.000 I0.963 J-0.270 F200.000 
G2 X-20.911 Y8.569 Z0.000 I4.042 J-9.498 F200.000 
G2 X-18.421 Y8.375 Z0.000 I0.778 J-6.087 F200.000 
G1 X-16.908 Y7.778 Z0.000 F200.000 
G3 X-16.628 Y7.789 Z0.000 I0.131 J0.237 F200.000 
G3 X-15.860 Y9.233 Z0.000 I-9.583 J6.023 F200.000 
G3 X-16.006 Y9.497 Z0.000 I-0.247 J0.036 F200.000 
G1 X-17.357 Y10.403 Z0.000 F200.000 
G2 X-18.412 Y11.548 Z0.000 I3.294 J4.094 F200.000 
G2 X-20.164 Y15.337 Z0.000 I9.598 J6.738 F200.000 
G2 X-20.118 Y16.027 Z0.000 I0.959 J0.282 F200.000 
G2 X-18.547 Y17.869 Z0.000 I11.156 J-7.923 F200.000 
G2 X-17.926 Y18.177 Z0.000 I0.727 J-0.686 F200.000 
G2 X-14.533 Y17.305 Z0.000 I-0.835 J-10.288 F200.000 
G2 X-12.419 Y15.977 Z0.000 I-2.139 J-5.751 F200.000 
G1 X-11.357 Y14.745 Z0.000 F200.000 
G3 X-11.103 Y14.624 Z0.000 I0.226 J0.149 F200.000 
G3 X-9.752 Y15.546 Z0.000 I-5.686 J9.786 F200.000 
G3 X-9.759 Y15.848 Z0.000 I-0.202 J0.146 F200.000 
G1 X-10.534 Y17.278 Z0.000 F200.000 
G2 X-10.937 Y18.782 Z0.000 I4.819 J2.095 F200.000 
G2 X-10.727 Y22.951 Z0.000 I11.630 J1.506 F200.000 
G2 X-10.366 Y23.540 Z0.000 I0.981 J-0.196 F200.000 
G2 X-8.119 Y24.441 Z0.000 I6.196 J-12.200 F200.000 
G2 X-7.425 Y24.425 Z0.000 I0.325 J-0.946 F200.000 
G2 X-4.827 Y22.077 Z0.000 I-5.521 J-8.722 F200.000 
G2 X-3.572 Y19.918 Z0.000 I-4.567 J-4.098 F200.000 
G1 X-3.204 Y18.334 Z0.000 F200.000 
G3 X-3.035 Y18.109 Z0.000 I0.269 J0.027 F200.000 
G3 X-1.411 Y18.297 Z0.000 I-0.487 J11.308 F200.000 
G3 X-1.277 Y18.568 Z0.000 I-0.111 J0.224 F200.000 
G1 X-1.298 Y20.194 Z0.000 F200.000 
G2 X-0.956 Y21.713 Z0.000 I5.241 J-0.385 F200.000 
G2 X1.167 Y25.307 Z0.000 I10.997 J-4.071 F200.000 
G2 X1.761 Y25.661 Z0.000 I0.777 J-0.629 F200.000 
G2 X4.170 Y25.414 Z0.000 I-0.184 J-13.682 F200.000 
G2 X4.776 Y25.078 Z0.000 I-0.152 J-0.988 F200.000 
G2 X5.986 Y21.791 Z0.000 I-8.942 J-5.157 F200.000 
G2 X6.094 Y19.297 Z0.000 I-5.948 J-1.506 F200.000 
G1 X5.683 Y17.723 Z0.000 F200.000 
G3 X5.728 Y17.445 Z0.000 I0.251 J-0.102 F200.000 
G3 X7.254 Y16.857 Z0.000 I4.824 J10.239 F200.000 
G3 X7.498 Y17.034 Z0.000 I0.006 J0.250 F200.000 
G1 X8.235 Y18.484 Z0.000 F200.000 
G2 X9.244 Y19.670 Z0.000 I4.462 J-2.777 F200.000 
G2 X12.794 Y21.866 Z0.000 I7.845 J-8.716 F200.000 
G2 X13.485 Y21.903 Z0.000 I0.396 J-0.918 F200.000 
G2 X15.503 Y20.566 Z0.000 I-6.521 J-12.030 F200.000 
G2 X15.788 Y20.239 Z0.000 I-0.594 J-0.805 F200.000 
G0 Z11.000 
G0 Z11.000 
(finish operation: Gear)
(begin postamble)
M05
G17 G54 G90 G80 G40
M2
