(Exported by FreeCAD)
(Post Processor: linuxcnc_post)
(Output Time:2022-11-17 14:33:34.257198)
(begin preamble)
G17 G54 G40 G49 G80 G90
G21
(begin operation: G54)
(machine units: mm/min)
G54 
G0 Z6.000 
(finish operation: G54)
(begin operation: 3mm_Endmill001)
(machine units: mm/min)
(3mm_Endmill001) 
M5
M6 T2 
G43 H2 
M3 S12000 
(finish operation: 3mm_Endmill001)
(begin operation: Profile)
(machine units: mm/min)
(Profile) 
(Compensated Tool Path. Diameter: 3.0) 
G0 Z10.000 
G0 X294.712 Y58.718 
G1 X294.712 Y58.718 Z2.000 F100.000 
G2 X295.106 Y58.456 Z2.000 I-2.914 J-4.818 F600.000 
G2 X296.826 Y55.427 Z2.000 I-2.830 J-3.609 F600.000 
G2 X296.472 Y51.098 Z2.000 I-12.557 J-1.154 F600.000 
G2 X294.417 Y45.276 Z2.000 I-43.800 J12.185 F600.000 
G2 X283.486 Y26.844 Z2.000 I-83.254 J36.919 F600.000 
G2 X269.819 Y10.695 Z2.000 I-218.983 J171.461 F600.000 
G2 X266.125 Y6.925 Z2.000 I-76.088 J70.867 F600.000 
G3 X262.980 Y3.956 Z2.000 I36.001 J-41.281 F600.000 
G3 X262.728 Y1.956 Z2.000 I12.487 J-2.591 F600.000 
G3 X262.770 Y-3.149 Z2.000 I80.831 J-1.889 F600.000 
G3 X263.583 Y-6.884 Z2.000 I10.306 J0.289 F600.000 
G3 X266.101 Y-8.653 Z2.000 I2.762 J1.256 F600.000 
G3 X269.290 Y-7.877 Z2.000 I0.182 J6.194 F600.000 
G3 X274.325 Y-3.923 Z2.000 I-11.896 J20.331 F600.000 
G3 X279.181 Y1.919 Z2.000 I-43.146 J40.803 F600.000 
G3 X282.346 Y6.543 Z2.000 I-123.857 J88.177 F600.000 
G2 X284.490 Y6.905 Z2.000 I1.244 J-0.838 F600.000 
G1 X286.296 Y5.550 Z2.000 F600.000 
G2 X286.812 Y3.855 Z2.000 I-0.900 J-1.200 F600.000 
G2 X286.221 Y2.842 Z2.000 I-4.791 J2.116 F600.000 
G2 X278.167 Y-7.850 Z2.000 I-49.313 J28.766 F600.000 
G2 X271.967 Y-12.661 Z2.000 I-19.422 J18.627 F600.000 
G2 X262.104 Y-13.409 Z2.000 I-5.695 J9.700 F600.000 
G2 X258.171 Y-10.538 Z2.000 I3.831 J9.378 F600.000 
G2 X254.940 Y-2.702 Z2.000 I12.011 J9.536 F600.000 
G2 X250.047 Y-8.646 Z2.000 I-49.876 J36.077 F600.000 
G2 X244.239 Y-13.255 Z2.000 I-18.265 J17.050 F600.000 
G2 X239.459 Y-14.589 Z2.000 I-4.918 J8.391 F600.000 
G2 X233.369 Y-11.143 Z2.000 I-0.250 J6.662 F600.000 
G2 X232.511 Y-7.390 Z2.000 I6.433 J3.446 F600.000 
G2 X229.696 Y-10.046 Z2.000 I-46.264 J46.213 F600.000 
G2 X223.238 Y-14.229 Z2.000 I-16.950 J19.092 F600.000 
G2 X217.550 Y-15.238 Z2.000 I-4.832 J10.699 F600.000 
G2 X210.036 Y-10.539 Z2.000 I0.484 J9.129 F600.000 
G2 X208.653 Y-5.073 Z2.000 I11.135 J5.726 F600.000 
G1 X207.596 Y-6.168 Z2.000 F600.000 
G2 X198.218 Y-12.642 Z2.000 I-20.985 J20.371 F600.000 
G2 X190.167 Y-14.106 Z2.000 I-7.068 J15.999 F600.000 
G2 X186.555 Y-13.343 Z2.000 I0.390 J10.785 F600.000 
G2 X174.655 Y-42.606 Z2.000 I-4639.830 J1869.751 F600.000 
G2 X173.901 Y-43.397 Z2.000 I-1.388 J0.568 F600.000 
G2 X172.600 Y-43.381 Z2.000 I-0.634 J1.359 F600.000 
G1 X167.535 Y-40.865 Z2.000 F600.000 
G2 X166.818 Y-38.944 Z2.000 I0.667 J1.343 F600.000 
G3 X177.884 Y-11.656 Z2.000 I-999.374 J421.136 F600.000 
G2 X175.042 Y-13.797 Z2.000 I-14.577 J16.391 F600.000 
G2 X170.152 Y-15.522 Z2.000 I-5.896 J8.922 F600.000 
G2 X165.063 Y-14.544 Z2.000 I-0.987 J8.599 F600.000 
G2 X161.596 Y-9.312 Z2.000 I3.074 J5.801 F600.000 
G2 X162.238 Y-4.601 Z2.000 I13.556 J0.550 F600.000 
G3 X163.848 Y0.474 Z2.000 I-44.368 J16.864 F600.000 
G2 X161.431 Y0.240 Z2.000 I-2.749 J15.810 F600.000 
G2 X158.354 Y0.888 Z2.000 I-0.320 J6.109 F600.000 
G2 X156.391 Y5.186 Z2.000 I1.537 J3.299 F600.000 
G1 X156.290 Y5.064 Z2.000 F600.000 
G3 X149.845 Y-3.539 Z2.000 I134.143 J-107.217 F600.000 
G1 X148.703 Y-5.462 Z2.000 F600.000 
G3 X144.206 Y-13.771 Z2.000 I166.278 J-95.368 F600.000 
G2 X143.503 Y-14.749 Z2.000 I-3.329 J1.649 F600.000 
G2 X141.710 Y-14.989 Z2.000 I-1.060 J1.103 F600.000 
G1 X137.210 Y-13.811 Z2.000 F600.000 
G2 X136.092 Y-12.422 Z2.000 I0.378 J1.448 F600.000 
G2 X131.935 Y-15.469 Z2.000 I-17.514 J19.531 F600.000 
G2 X127.959 Y-16.920 Z2.000 I-5.453 J8.770 F600.000 
G2 X122.046 Y-15.513 Z2.000 I-1.328 J7.542 F600.000 
G2 X119.301 Y-9.745 Z2.000 I4.445 J5.653 F600.000 
G2 X120.241 Y-5.244 Z2.000 I13.808 J-0.535 F600.000 
G2 X121.825 Y-1.744 Z2.000 I46.416 J-18.897 F600.000 
G2 X126.176 Y5.723 Z2.000 I78.453 J-40.712 F600.000 
G3 X130.381 Y13.326 Z2.000 I-41.343 J27.827 F600.000 
G3 X130.724 Y15.025 Z2.000 I-4.064 J1.707 F600.000 
G3 X130.115 Y16.688 Z2.000 I-2.132 J0.162 F600.000 
G3 X128.795 Y16.987 Z2.000 I-0.987 J-1.297 F600.000 
G3 X125.617 Y15.415 Z2.000 I2.340 J-8.731 F600.000 
G3 X123.104 Y13.340 Z2.000 I22.341 J-29.610 F600.000 
G3 X117.400 Y7.279 Z2.000 I45.910 J-48.921 F600.000 
G3 X110.925 Y-0.867 Z2.000 I190.282 J-157.904 F600.000 
G2 X104.287 Y-9.663 Z2.000 I-880.262 J657.355 F600.000 
G2 X100.287 Y-15.027 Z2.000 I-1330.933 J988.438 F600.000 
G2 X98.542 Y-15.492 Z2.000 I-1.181 J0.925 F600.000 
G1 X94.251 Y-13.750 Z2.000 F600.000 
G2 X93.604 Y-11.476 Z2.000 I0.564 J1.390 F600.000 
G3 X98.934 Y-4.149 Z2.000 I-1449.082 J1059.842 F600.000 
G3 X108.539 Y11.538 Z2.000 I-84.226 J62.353 F600.000 
G3 X109.805 Y14.388 Z2.000 I-25.444 J13.010 F600.000 
G3 X110.854 Y18.490 Z2.000 I-14.523 J5.898 F600.000 
G3 X110.800 Y19.363 Z2.000 I-2.187 J0.304 F600.000 
G3 X109.926 Y19.190 Z2.000 I-0.212 J-1.225 F600.000 
G3 X107.725 Y17.228 Z2.000 I8.504 J-11.758 F600.000 
G3 X104.031 Y12.434 Z2.000 I35.223 J-30.959 F600.000 
G3 X99.038 Y4.591 Z2.000 I581.135 J-375.466 F600.000 
G2 X98.866 Y3.617 Z2.000 I-1.476 J-0.242 F600.000 
G2 X92.131 Y-6.327 Z2.000 I-51.987 J27.961 F600.000 
G2 X88.225 Y-10.073 Z2.000 I-18.841 J15.735 F600.000 
G2 X83.145 Y-12.882 Z2.000 I-10.488 J12.965 F600.000 
G2 X77.905 Y-13.316 Z2.000 I-3.449 J9.807 F600.000 
G2 X73.922 Y-10.909 Z2.000 I0.866 J5.931 F600.000 
G2 X72.651 Y-7.802 Z2.000 I6.468 J4.459 F600.000 
G2 X67.190 Y-12.558 Z2.000 I-22.342 J20.136 F600.000 
G2 X58.829 Y-15.545 Z2.000 I-9.639 J13.788 F600.000 
G2 X53.834 Y-14.985 Z2.000 I-1.195 J11.909 F600.000 
G2 X47.574 Y-8.372 Z2.000 I3.058 J9.164 F600.000 
G2 X46.491 Y-9.657 Z2.000 I-17.588 J13.730 F600.000 
G2 X40.853 Y-14.252 Z2.000 I-14.854 J12.469 F600.000 
G2 X38.506 Y-15.066 Z2.000 I-3.959 J7.619 F600.000 
G2 X33.560 Y-14.708 Z2.000 I-1.713 J10.674 F600.000 
G2 X28.698 Y-9.377 Z2.000 I2.104 J6.802 F600.000 
G2 X28.835 Y-3.271 Z2.000 I15.134 J2.714 F600.000 
G2 X30.868 Y2.394 Z2.000 I32.307 J-8.394 F600.000 
G2 X34.602 Y9.159 Z2.000 I59.782 J-28.589 F600.000 
G3 X38.543 Y15.934 Z2.000 I-64.213 J41.888 F600.000 
G3 X39.160 Y17.676 Z2.000 I-4.968 J2.738 F600.000 
G3 X39.106 Y18.420 Z2.000 I-1.142 J0.292 F600.000 
G3 X36.594 Y18.156 Z2.000 I-0.523 J-7.113 F600.000 
G3 X32.238 Y15.974 Z2.000 I5.288 J-15.995 F600.000 
G3 X26.001 Y10.635 Z2.000 I27.129 J-38.006 F600.000 
G3 X16.312 Y-1.068 Z2.000 I85.808 J-80.900 F600.000 
G1 X8.977 Y-14.808 Z2.000 F600.000 
G2 X7.101 Y-15.496 Z2.000 I-1.323 J0.706 F600.000 
G1 X2.714 Y-13.754 Z2.000 F600.000 
G2 X1.904 Y-11.735 Z2.000 I0.554 J1.394 F600.000 
G1 X2.453 Y-10.538 Z2.000 F600.000 
G2 X-0.985 Y-12.993 Z2.000 I-16.090 J18.891 F600.000 
G2 X-9.492 Y-15.143 Z2.000 I-7.566 J12.034 F600.000 
G2 X-17.440 Y-10.078 Z2.000 I0.437 J9.453 F600.000 
G2 X-18.893 Y-2.133 Z2.000 I13.710 J6.613 F600.000 
G2 X-17.247 Y6.152 Z2.000 I52.836 J-6.192 F600.000 
G2 X-10.205 Y23.559 Z2.000 I94.032 J-27.912 F600.000 
G1 X-15.733 Y23.559 Z2.000 F600.000 
G2 X-17.133 Y25.598 Z2.000 I0.000 J1.500 F600.000 
G1 X-16.165 Y28.114 Z2.000 F600.000 
G2 X-14.765 Y29.075 Z2.000 I1.400 J-0.538 F600.000 
G1 X-7.134 Y29.075 Z2.000 F600.000 
G2 X0.744 Y40.765 Z2.000 I94.805 J-55.396 F600.000 
G2 X4.771 Y45.201 Z2.000 I28.525 J-21.853 F600.000 
G2 X6.598 Y45.403 Z2.000 I1.044 J-1.077 F600.000 
G1 X8.760 Y44.081 Z2.000 F600.000 
G2 X9.266 Y42.035 Z2.000 I-0.783 J-1.279 F600.000 
G3 X1.920 Y29.075 Z2.000 I214.401 J-130.105 F600.000 
G1 X15.203 Y29.075 Z2.000 F600.000 
G2 X16.603 Y27.037 Z2.000 I-0.000 J-1.500 F600.000 
G1 X15.635 Y24.521 Z2.000 F600.000 
G2 X14.235 Y23.559 Z2.000 I-1.400 J0.538 F600.000 
G1 X-0.959 Y23.559 Z2.000 F600.000 
G3 X-3.636 Y17.939 Z2.000 I187.745 J-92.885 F600.000 
G3 X-9.418 Y3.257 Z2.000 I106.596 J-50.454 F600.000 
G3 X-10.888 Y-3.787 Z2.000 I31.485 J-10.244 F600.000 
G3 X-10.737 Y-7.038 Z2.000 I10.709 J-1.134 F600.000 
G3 X-8.604 Y-9.341 Z2.000 I3.061 J0.696 F600.000 
G3 X-5.739 Y-9.232 Z2.000 I1.255 J4.714 F600.000 
G3 X-2.893 Y-7.686 Z2.000 I-4.776 J12.193 F600.000 
G3 X0.776 Y-4.482 Z2.000 I-15.259 J21.178 F600.000 
G3 X9.023 Y6.493 Z2.000 I-45.359 J42.669 F600.000 
G2 X10.390 Y7.193 Z2.000 I1.254 J-0.764 F600.000 
G2 X15.199 Y18.113 Z2.000 I1934.249 J-845.321 F600.000 
G2 X24.242 Y38.104 Z2.000 I848.127 J-371.627 F600.000 
G2 X30.092 Y49.358 Z2.000 I90.888 J-40.094 F600.000 
G2 X36.314 Y57.565 Z2.000 I38.571 J-22.783 F600.000 
G2 X40.898 Y61.097 Z2.000 I13.427 J-12.685 F600.000 
G2 X46.201 Y62.264 Z2.000 I4.554 J-8.064 F600.000 
G2 X51.189 Y58.178 Z2.000 I-0.287 J-5.438 F600.000 
G2 X51.210 Y54.133 Z2.000 I-9.712 J-2.074 F600.000 
G2 X49.253 Y48.678 Z2.000 I-23.597 J5.387 F600.000 
G2 X45.523 Y42.396 Z2.000 I-55.003 J28.416 F600.000 
G2 X39.932 Y35.057 Z2.000 I-70.202 J47.676 F600.000 
G2 X24.449 Y18.598 Z2.000 I-149.739 J125.347 F600.000 
G1 X23.033 Y15.501 Z2.000 F600.000 
G2 X29.912 Y21.024 Z2.000 I27.719 J-27.484 F600.000 
G2 X36.054 Y23.705 Z2.000 I11.283 J-17.471 F600.000 
G2 X41.077 Y23.842 Z2.000 I2.835 J-11.745 F600.000 
G2 X45.786 Y19.971 Z2.000 I-1.285 J-6.362 F600.000 
G2 X46.201 Y14.751 Z2.000 I-8.926 J-3.336 F600.000 
G2 X44.354 Y9.505 Z2.000 I-27.377 J6.688 F600.000 
G2 X40.886 Y2.778 Z2.000 I-155.249 J75.795 F600.000 
G3 X37.425 Y-4.334 Z2.000 I47.523 J-27.526 F600.000 
G3 X36.608 Y-8.209 Z2.000 I9.720 J-4.073 F600.000 
G3 X36.894 Y-9.433 Z2.000 I2.457 J-0.071 F600.000 
G3 X37.159 Y-9.673 Z2.000 I0.326 J0.094 F600.000 
G3 X38.874 Y-9.217 Z2.000 I0.169 J2.816 F600.000 
G3 X41.844 Y-6.634 Z2.000 I-11.288 J15.983 F600.000 
G3 X45.099 Y-2.643 Z2.000 I-28.767 J26.780 F600.000 
G3 X48.892 Y3.034 Z2.000 I-64.909 J47.481 F600.000 
G2 X53.041 Y9.936 Z2.000 I28.311 J-12.321 F600.000 
G2 X63.933 Y19.759 Z2.000 I29.228 J-21.455 F600.000 
G2 X71.852 Y22.749 Z2.000 I13.153 J-22.858 F600.000 
G2 X80.054 Y22.554 Z2.000 I3.671 J-18.198 F600.000 
G2 X83.200 Y21.068 Z2.000 I-1.938 J-8.175 F600.000 
G2 X85.285 Y18.619 Z2.000 I-3.943 J-5.470 F600.000 
G2 X87.827 Y21.511 Z2.000 I79.175 J-66.999 F600.000 
G2 X89.546 Y21.885 Z2.000 I1.118 J-1.000 F600.000 
G1 X91.094 Y21.208 Z2.000 F600.000 
G2 X91.814 Y19.123 Z2.000 I-0.601 J-1.374 F600.000 
G2 X87.591 Y11.354 Z2.000 I-669.610 J358.938 F600.000 
G1 X84.960 Y6.253 Z2.000 F600.000 
G3 X82.523 Y1.007 Z2.000 I65.015 J-33.391 F600.000 
G3 X80.539 Y-4.624 Z2.000 I39.017 J-16.917 F600.000 
G3 X80.252 Y-7.411 Z2.000 I7.559 J-2.186 F600.000 
G3 X80.318 Y-7.701 Z2.000 I0.425 J-0.056 F600.000 
G3 X80.720 Y-7.769 Z2.000 I0.431 J1.324 F600.000 
G3 X83.028 Y-7.191 Z2.000 I0.232 J3.968 F600.000 
G3 X86.889 Y-4.067 Z2.000 I-8.642 J14.627 F600.000 
G3 X93.890 Y5.462 Z2.000 I-46.481 J41.490 F600.000 
G2 X94.095 Y6.505 Z2.000 I1.411 J0.264 F600.000 
G2 X99.833 Y15.522 Z2.000 I870.651 J-547.645 F600.000 
G2 X103.527 Y20.411 Z2.000 I37.517 J-24.503 F600.000 
G2 X107.098 Y23.570 Z2.000 I12.790 J-10.863 F600.000 
G2 X110.115 Y24.656 Z2.000 I3.919 J-6.154 F600.000 
G2 X115.945 Y22.556 Z2.000 I0.939 J-6.538 F600.000 
G2 X117.992 Y17.621 Z2.000 I-6.487 J-5.583 F600.000 
G2 X121.885 Y20.373 Z2.000 I20.859 J-25.378 F600.000 
G2 X126.643 Y22.340 Z2.000 I8.487 J-13.790 F600.000 
G2 X134.036 Y20.734 Z2.000 I2.050 J-8.382 F600.000 
G2 X136.689 Y16.762 Z2.000 I-5.680 J-6.666 F600.000 
G2 X137.009 Y10.036 Z2.000 I-12.749 J-3.976 F600.000 
G2 X135.092 Y4.647 Z2.000 I-23.516 J5.327 F600.000 
G2 X129.758 Y-4.791 Z2.000 I-109.527 J55.678 F600.000 
G3 X128.011 Y-8.316 Z2.000 I27.546 J-15.852 F600.000 
G3 X127.413 Y-10.987 Z2.000 I6.479 J-2.852 F600.000 
G3 X127.444 Y-11.337 Z2.000 I1.484 J-0.043 F600.000 
G3 X129.199 Y-10.835 Z2.000 I-0.275 J4.282 F600.000 
G3 X132.950 Y-7.772 Z2.000 I-11.040 J17.347 F600.000 
G3 X135.256 Y-5.191 Z2.000 I-30.005 J29.127 F600.000 
G3 X143.824 Y6.535 Z2.000 I-91.619 J75.943 F600.000 
G2 X144.585 Y7.113 Z2.000 I1.191 J-0.777 F600.000 
G2 X160.174 Y40.647 Z2.000 I898.051 J-397.094 F600.000 
G2 X163.777 Y47.396 Z2.000 I109.328 J-54.021 F600.000 
G2 X169.241 Y55.501 Z2.000 I54.264 J-30.692 F600.000 
G2 X172.646 Y59.079 Z2.000 I19.059 J-14.724 F600.000 
G2 X177.164 Y61.838 Z2.000 I9.577 J-10.605 F600.000 
G2 X181.262 Y62.152 Z2.000 I2.605 J-7.120 F600.000 
G2 X185.329 Y58.514 Z2.000 I-0.804 J-4.993 F600.000 
G2 X185.612 Y56.086 Z2.000 I-8.888 J-2.263 F600.000 
G2 X184.314 Y49.460 Z2.000 I-25.018 J1.460 F600.000 
G2 X179.579 Y39.663 Z2.000 I-47.827 J17.073 F600.000 
G2 X158.270 Y17.771 Z2.000 I-62.680 J39.695 F600.000 
G1 X156.618 Y14.099 Z2.000 F600.000 
G2 X159.421 Y16.906 Z2.000 I45.192 J-42.336 F600.000 
G2 X163.256 Y20.077 Z2.000 I25.527 J-26.962 F600.000 
G2 X169.061 Y23.263 Z2.000 I14.155 J-18.907 F600.000 
G2 X175.191 Y23.894 Z2.000 I4.271 J-11.392 F600.000 
G2 X179.951 Y20.360 Z2.000 I-1.021 J-6.348 F600.000 
G2 X180.555 Y14.834 Z2.000 I-8.272 J-3.700 F600.000 
G2 X178.067 Y9.089 Z2.000 I-16.216 J3.612 F600.000 
G2 X171.702 Y3.311 Z2.000 I-16.193 J11.442 F600.000 
G2 X171.637 Y-1.576 Z2.000 I-10.220 J-2.308 F600.000 
G3 X170.372 Y-6.097 Z2.000 I342.208 J-98.246 F600.000 
G3 X170.175 Y-8.956 Z2.000 I7.588 J-1.958 F600.000 
G3 X170.374 Y-9.509 Z2.000 I0.966 J0.036 F600.000 
G3 X171.423 Y-9.511 Z2.000 I0.527 J1.271 F600.000 
G3 X174.048 Y-7.782 Z2.000 I-4.975 J10.405 F600.000 
G3 X179.477 Y-1.869 Z2.000 I-29.042 J32.122 F600.000 
G1 X179.385 Y-1.466 Z2.000 F600.000 
G2 X183.279 Y3.341 Z2.000 I3.773 J0.924 F600.000 
G3 X185.434 Y6.529 Z2.000 I-88.055 J61.818 F600.000 
G1 X185.614 Y6.731 Z2.000 F600.000 
G2 X190.271 Y17.568 Z2.000 I10032.637 J-4305.367 F600.000 
G2 X199.374 Y37.046 Z2.000 I252.699 J-106.222 F600.000 
G2 X205.684 Y48.104 Z2.000 I122.152 J-62.379 F600.000 
G2 X211.126 Y55.516 Z2.000 I51.810 J-32.337 F600.000 
G2 X215.595 Y59.812 Z2.000 I21.831 J-18.237 F600.000 
G2 X221.048 Y62.188 Z2.000 I7.160 J-8.987 F600.000 
G2 X225.563 Y61.677 Z2.000 I1.350 J-8.267 F600.000 
G2 X228.767 Y58.101 Z2.000 I-1.817 J-4.852 F600.000 
G2 X228.827 Y53.535 Z2.000 I-11.832 J-2.439 F600.000 
G2 X226.691 Y46.405 Z2.000 I-41.629 J8.587 F600.000 
G2 X218.964 Y31.682 Z2.000 I-79.626 J32.403 F600.000 
G2 X206.092 Y15.574 Z2.000 I-99.444 J66.268 F600.000 
G2 X200.166 Y9.961 Z2.000 I-48.004 J44.742 F600.000 
G2 X194.645 Y6.131 Z2.000 I-20.515 J23.677 F600.000 
G1 X188.645 Y-8.262 Z2.000 F600.000 
G3 X189.841 Y-8.583 Z2.000 I1.624 J3.664 F600.000 
G3 X194.879 Y-8.069 Z2.000 I1.146 J13.716 F600.000 
G3 X201.148 Y-4.751 Z2.000 I-6.029 J18.971 F600.000 
G3 X208.147 Y2.646 Z2.000 I-24.758 J30.438 F600.000 
G3 X210.796 Y6.540 Z2.000 I-97.318 J69.036 F600.000 
G2 X212.354 Y7.205 Z2.000 I1.308 J-0.907 F600.000 
G2 X215.775 Y12.436 Z2.000 I42.882 J-24.304 F600.000 
G2 X224.481 Y21.975 Z2.000 I63.959 J-49.630 F600.000 
G2 X226.379 Y22.131 Z2.000 I1.044 J-1.077 F600.000 
G1 X228.476 Y20.680 Z2.000 F600.000 
G2 X228.864 Y18.605 Z2.000 I-0.854 J-1.233 F600.000 
G3 X224.891 Y12.659 Z2.000 I296.878 J-202.677 F600.000 
G3 X218.405 Y0.905 Z2.000 I58.227 J-39.796 F600.000 
G3 X217.150 Y-2.705 Z2.000 I20.702 J-9.221 F600.000 
G3 X216.676 Y-7.035 Z2.000 I12.076 J-3.512 F600.000 
G3 X217.151 Y-8.979 Z2.000 I4.516 J0.074 F600.000 
G3 X217.778 Y-9.565 Z2.000 I0.983 J0.423 F600.000 
G3 X220.461 Y-9.408 Z2.000 I1.073 J4.679 F600.000 
G3 X224.431 Y-7.135 Z2.000 I-5.918 J14.942 F600.000 
G3 X231.543 Y-0.240 Z2.000 I-31.820 J39.936 F600.000 
G3 X247.937 Y23.393 Z2.000 I-120.090 J100.809 F600.000 
G2 X249.896 Y23.987 Z2.000 I1.297 J-0.753 F600.000 
G1 X253.444 Y22.245 Z2.000 F600.000 
G2 X254.118 Y20.214 Z2.000 I-0.661 J-1.347 F600.000 
G2 X251.442 Y15.039 Z2.000 I-347.922 J176.640 F600.000 
G2 X244.108 Y1.324 Z2.000 I-2162.687 J1147.630 F600.000 
G3 X240.966 Y-5.150 Z2.000 I70.069 J-38.007 F600.000 
G3 X239.992 Y-8.113 Z2.000 I12.795 J-5.849 F600.000 
G3 X239.902 Y-9.030 Z2.000 I2.844 J-0.742 F600.000 
G3 X240.975 Y-8.801 Z2.000 I-0.149 J3.320 F600.000 
G3 X242.758 Y-7.764 Z2.000 I-3.131 J7.435 F600.000 
G3 X248.370 Y-2.213 Z2.000 I-23.416 J29.290 F600.000 
G3 X254.767 Y6.545 Z2.000 I-90.022 J72.458 F600.000 
G2 X255.238 Y6.981 Z2.000 I1.063 J-0.678 F600.000 
G2 X255.611 Y9.202 Z2.000 I32.835 J-4.370 F600.000 
G2 X259.191 Y21.314 Z2.000 I73.044 J-15.004 F600.000 
G2 X272.448 Y44.960 Z2.000 I92.664 J-36.415 F600.000 
G2 X279.997 Y53.459 Z2.000 I51.339 J-37.996 F600.000 
G2 X285.079 Y57.394 Z2.000 I22.668 J-24.026 F600.000 
G2 X287.830 Y58.798 Z2.000 I8.599 J-13.451 F600.000 
G2 X292.119 Y59.521 Z2.000 I3.592 J-8.222 F600.000 
G2 X294.712 Y58.718 Z2.000 I-0.321 J-5.622 F600.000 
G0 Z10.000 
G0 X172.247 Y18.097 Z10.000 
G0 X172.247 Y18.097 Z10.000 
G1 X172.247 Y18.097 Z2.000 F100.000 
G3 X172.005 Y18.257 Z2.000 I-0.300 J-0.192 F600.000 
G3 X169.737 Y17.712 Z2.000 I0.109 J-5.449 F600.000 
G3 X166.085 Y15.365 Z2.000 I10.790 J-20.802 F600.000 
G3 X158.802 Y8.076 Z2.000 I35.643 J-42.897 F600.000 
G2 X161.866 Y9.179 Z2.000 I4.067 J-6.489 F600.000 
G2 X168.011 Y8.336 Z2.000 I1.834 J-9.454 F600.000 
G3 X172.368 Y16.485 Z2.000 I-9.231 J10.174 F600.000 
G3 X172.247 Y18.097 Z2.000 I-3.256 J0.567 F600.000 
G1 X172.247 Y18.097 Z0.000 F100.000 
G3 X172.005 Y18.257 Z0.000 I-0.300 J-0.192 F600.000 
G3 X169.737 Y17.712 Z0.000 I0.109 J-5.449 F600.000 
G3 X166.085 Y15.365 Z0.000 I10.790 J-20.802 F600.000 
G3 X158.802 Y8.076 Z0.000 I35.643 J-42.897 F600.000 
G2 X161.866 Y9.179 Z0.000 I4.067 J-6.489 F600.000 
G2 X168.011 Y8.336 Z0.000 I1.834 J-9.454 F600.000 
G3 X172.368 Y16.485 Z0.000 I-9.231 J10.174 F600.000 
G3 X172.247 Y18.097 Z0.000 I-3.256 J0.567 F600.000 
G0 Z10.000 
G0 X171.244 Y23.857 Z10.000 
G0 X171.244 Y23.857 Z10.000 
G1 X171.244 Y23.857 Z0.000 F100.000 
G2 X175.191 Y23.894 Z0.000 I2.088 J-11.985 F600.000 
G2 X179.951 Y20.360 Z0.000 I-1.021 J-6.348 F600.000 
G2 X180.555 Y14.834 Z0.000 I-8.272 J-3.700 F600.000 
G2 X178.067 Y9.089 Z0.000 I-16.216 J3.612 F600.000 
G2 X171.702 Y3.311 Z0.000 I-16.193 J11.442 F600.000 
G2 X171.637 Y-1.576 Z0.000 I-10.220 J-2.308 F600.000 
G3 X170.372 Y-6.097 Z0.000 I342.208 J-98.246 F600.000 
G3 X170.175 Y-8.956 Z0.000 I7.588 J-1.958 F600.000 
G3 X170.374 Y-9.509 Z0.000 I0.966 J0.036 F600.000 
G3 X171.423 Y-9.511 Z0.000 I0.527 J1.271 F600.000 
G3 X174.048 Y-7.782 Z0.000 I-4.975 J10.405 F600.000 
G3 X179.477 Y-1.869 Z0.000 I-29.042 J32.122 F600.000 
G1 X179.385 Y-1.466 Z0.000 F600.000 
G2 X183.279 Y3.341 Z0.000 I3.773 J0.924 F600.000 
G3 X185.434 Y6.529 Z0.000 I-88.055 J61.818 F600.000 
G1 X185.614 Y6.731 Z0.000 F600.000 
G2 X190.271 Y17.568 Z0.000 I10032.637 J-4305.367 F600.000 
G2 X199.374 Y37.046 Z0.000 I252.699 J-106.222 F600.000 
G2 X205.684 Y48.104 Z0.000 I122.152 J-62.379 F600.000 
G2 X211.126 Y55.516 Z0.000 I51.810 J-32.337 F600.000 
G2 X215.595 Y59.812 Z0.000 I21.831 J-18.237 F600.000 
G2 X221.048 Y62.188 Z0.000 I7.160 J-8.987 F600.000 
G2 X225.563 Y61.677 Z0.000 I1.350 J-8.267 F600.000 
G2 X228.767 Y58.101 Z0.000 I-1.817 J-4.852 F600.000 
G2 X228.827 Y53.535 Z0.000 I-11.832 J-2.439 F600.000 
G2 X226.691 Y46.405 Z0.000 I-41.629 J8.587 F600.000 
G2 X218.964 Y31.682 Z0.000 I-79.626 J32.403 F600.000 
G2 X206.092 Y15.574 Z0.000 I-99.444 J66.268 F600.000 
G2 X200.166 Y9.961 Z0.000 I-48.004 J44.742 F600.000 
G2 X194.645 Y6.131 Z0.000 I-20.515 J23.677 F600.000 
G1 X188.645 Y-8.262 Z0.000 F600.000 
G3 X189.841 Y-8.583 Z0.000 I1.624 J3.664 F600.000 
G3 X194.879 Y-8.069 Z0.000 I1.146 J13.716 F600.000 
G3 X201.148 Y-4.751 Z0.000 I-6.029 J18.971 F600.000 
G3 X208.147 Y2.646 Z0.000 I-24.758 J30.438 F600.000 
G3 X210.796 Y6.540 Z0.000 I-97.318 J69.036 F600.000 
G2 X212.354 Y7.205 Z0.000 I1.308 J-0.907 F600.000 
G2 X215.775 Y12.436 Z0.000 I42.882 J-24.304 F600.000 
G2 X224.481 Y21.975 Z0.000 I63.959 J-49.630 F600.000 
G2 X226.379 Y22.131 Z0.000 I1.044 J-1.077 F600.000 
G1 X228.476 Y20.680 Z0.000 F600.000 
G2 X228.864 Y18.605 Z0.000 I-0.854 J-1.233 F600.000 
G3 X224.891 Y12.659 Z0.000 I296.878 J-202.677 F600.000 
G3 X218.405 Y0.905 Z0.000 I58.227 J-39.796 F600.000 
G3 X217.150 Y-2.705 Z0.000 I20.702 J-9.221 F600.000 
G3 X216.676 Y-7.035 Z0.000 I12.076 J-3.512 F600.000 
G3 X217.151 Y-8.979 Z0.000 I4.516 J0.074 F600.000 
G3 X217.778 Y-9.565 Z0.000 I0.983 J0.423 F600.000 
G3 X220.461 Y-9.408 Z0.000 I1.073 J4.679 F600.000 
G3 X224.431 Y-7.135 Z0.000 I-5.918 J14.942 F600.000 
G3 X231.543 Y-0.240 Z0.000 I-31.820 J39.936 F600.000 
G3 X247.937 Y23.393 Z0.000 I-120.090 J100.809 F600.000 
G2 X249.896 Y23.987 Z0.000 I1.297 J-0.753 F600.000 
G1 X253.444 Y22.245 Z0.000 F600.000 
G2 X254.118 Y20.214 Z0.000 I-0.661 J-1.347 F600.000 
G2 X251.442 Y15.039 Z0.000 I-347.922 J176.640 F600.000 
G2 X244.108 Y1.324 Z0.000 I-2162.687 J1147.630 F600.000 
G3 X240.966 Y-5.150 Z0.000 I70.069 J-38.007 F600.000 
G3 X239.992 Y-8.113 Z0.000 I12.795 J-5.849 F600.000 
G3 X239.902 Y-9.030 Z0.000 I2.844 J-0.742 F600.000 
G3 X240.975 Y-8.801 Z0.000 I-0.149 J3.320 F600.000 
G3 X242.758 Y-7.764 Z0.000 I-3.131 J7.435 F600.000 
G3 X248.370 Y-2.213 Z0.000 I-23.416 J29.290 F600.000 
G3 X254.767 Y6.545 Z0.000 I-90.022 J72.458 F600.000 
G2 X255.238 Y6.981 Z0.000 I1.063 J-0.678 F600.000 
G2 X255.611 Y9.202 Z0.000 I32.835 J-4.370 F600.000 
G2 X259.191 Y21.314 Z0.000 I73.044 J-15.004 F600.000 
G2 X272.448 Y44.960 Z0.000 I92.664 J-36.415 F600.000 
G2 X279.997 Y53.459 Z0.000 I51.339 J-37.996 F600.000 
G2 X285.079 Y57.394 Z0.000 I22.668 J-24.026 F600.000 
G2 X287.830 Y58.798 Z0.000 I8.599 J-13.451 F600.000 
G2 X292.119 Y59.521 Z0.000 I3.592 J-8.222 F600.000 
G2 X295.106 Y58.456 Z0.000 I-0.321 J-5.622 F600.000 
G2 X296.826 Y55.427 Z0.000 I-2.830 J-3.609 F600.000 
G2 X296.472 Y51.098 Z0.000 I-12.557 J-1.154 F600.000 
G2 X294.417 Y45.276 Z0.000 I-43.800 J12.185 F600.000 
G2 X283.486 Y26.844 Z0.000 I-83.254 J36.919 F600.000 
G2 X269.819 Y10.695 Z0.000 I-218.983 J171.461 F600.000 
G2 X266.125 Y6.925 Z0.000 I-76.088 J70.867 F600.000 
G3 X262.980 Y3.956 Z0.000 I36.001 J-41.281 F600.000 
G3 X262.728 Y1.956 Z0.000 I12.487 J-2.591 F600.000 
G3 X262.770 Y-3.149 Z0.000 I80.831 J-1.889 F600.000 
G3 X263.583 Y-6.884 Z0.000 I10.306 J0.289 F600.000 
G3 X266.101 Y-8.653 Z0.000 I2.762 J1.256 F600.000 
G3 X269.290 Y-7.877 Z0.000 I0.182 J6.194 F600.000 
G3 X274.325 Y-3.923 Z0.000 I-11.896 J20.331 F600.000 
G3 X279.181 Y1.919 Z0.000 I-43.146 J40.803 F600.000 
G3 X282.346 Y6.543 Z0.000 I-123.857 J88.177 F600.000 
G2 X284.490 Y6.905 Z0.000 I1.244 J-0.838 F600.000 
G1 X286.296 Y5.550 Z0.000 F600.000 
G2 X286.812 Y3.855 Z0.000 I-0.900 J-1.200 F600.000 
G2 X286.221 Y2.842 Z0.000 I-4.791 J2.116 F600.000 
G2 X278.167 Y-7.850 Z0.000 I-49.313 J28.766 F600.000 
G2 X271.967 Y-12.661 Z0.000 I-19.422 J18.627 F600.000 
G2 X262.104 Y-13.409 Z0.000 I-5.695 J9.700 F600.000 
G2 X258.171 Y-10.538 Z0.000 I3.831 J9.378 F600.000 
G2 X254.940 Y-2.702 Z0.000 I12.011 J9.536 F600.000 
G2 X250.047 Y-8.646 Z0.000 I-49.876 J36.077 F600.000 
G2 X244.239 Y-13.255 Z0.000 I-18.265 J17.050 F600.000 
G2 X239.459 Y-14.589 Z0.000 I-4.918 J8.391 F600.000 
G2 X233.369 Y-11.143 Z0.000 I-0.250 J6.662 F600.000 
G2 X232.511 Y-7.390 Z0.000 I6.433 J3.446 F600.000 
G2 X229.696 Y-10.046 Z0.000 I-46.264 J46.213 F600.000 
G2 X223.238 Y-14.229 Z0.000 I-16.950 J19.092 F600.000 
G2 X217.550 Y-15.238 Z0.000 I-4.832 J10.699 F600.000 
G2 X210.036 Y-10.539 Z0.000 I0.484 J9.129 F600.000 
G2 X208.653 Y-5.073 Z0.000 I11.135 J5.726 F600.000 
G1 X207.596 Y-6.168 Z0.000 F600.000 
G2 X198.218 Y-12.642 Z0.000 I-20.985 J20.371 F600.000 
G2 X190.167 Y-14.106 Z0.000 I-7.068 J15.999 F600.000 
G2 X186.555 Y-13.343 Z0.000 I0.390 J10.785 F600.000 
G2 X174.655 Y-42.606 Z0.000 I-4639.830 J1869.751 F600.000 
G2 X173.901 Y-43.397 Z0.000 I-1.388 J0.568 F600.000 
G2 X172.600 Y-43.381 Z0.000 I-0.634 J1.359 F600.000 
G1 X167.535 Y-40.865 Z0.000 F600.000 
G2 X166.818 Y-38.944 Z0.000 I0.667 J1.343 F600.000 
G3 X177.884 Y-11.656 Z0.000 I-999.374 J421.136 F600.000 
G2 X175.042 Y-13.797 Z0.000 I-14.577 J16.391 F600.000 
G2 X170.152 Y-15.522 Z0.000 I-5.896 J8.922 F600.000 
G2 X165.063 Y-14.544 Z0.000 I-0.987 J8.599 F600.000 
G2 X161.596 Y-9.312 Z0.000 I3.074 J5.801 F600.000 
G2 X162.238 Y-4.601 Z0.000 I13.556 J0.550 F600.000 
G3 X163.848 Y0.474 Z0.000 I-44.368 J16.864 F600.000 
G2 X161.431 Y0.240 Z0.000 I-2.749 J15.810 F600.000 
G2 X158.354 Y0.888 Z0.000 I-0.320 J6.109 F600.000 
G2 X156.391 Y5.186 Z0.000 I1.537 J3.299 F600.000 
G1 X156.290 Y5.064 Z0.000 F600.000 
G3 X149.845 Y-3.539 Z0.000 I134.143 J-107.217 F600.000 
G1 X148.703 Y-5.462 Z0.000 F600.000 
G3 X144.206 Y-13.771 Z0.000 I166.278 J-95.368 F600.000 
G2 X143.503 Y-14.749 Z0.000 I-3.329 J1.649 F600.000 
G2 X141.710 Y-14.989 Z0.000 I-1.060 J1.103 F600.000 
G1 X137.210 Y-13.811 Z0.000 F600.000 
G2 X136.092 Y-12.422 Z0.000 I0.378 J1.448 F600.000 
G2 X131.935 Y-15.469 Z0.000 I-17.514 J19.531 F600.000 
G2 X127.959 Y-16.920 Z0.000 I-5.453 J8.770 F600.000 
G2 X122.046 Y-15.513 Z0.000 I-1.328 J7.542 F600.000 
G2 X119.301 Y-9.745 Z0.000 I4.445 J5.653 F600.000 
G2 X120.241 Y-5.244 Z0.000 I13.808 J-0.535 F600.000 
G2 X121.825 Y-1.744 Z0.000 I46.416 J-18.897 F600.000 
G2 X126.176 Y5.723 Z0.000 I78.453 J-40.712 F600.000 
G3 X130.381 Y13.326 Z0.000 I-41.343 J27.827 F600.000 
G3 X130.724 Y15.025 Z0.000 I-4.064 J1.707 F600.000 
G3 X130.115 Y16.688 Z0.000 I-2.132 J0.162 F600.000 
G3 X128.795 Y16.987 Z0.000 I-0.987 J-1.297 F600.000 
G3 X125.617 Y15.415 Z0.000 I2.340 J-8.731 F600.000 
G3 X123.104 Y13.340 Z0.000 I22.341 J-29.610 F600.000 
G3 X117.400 Y7.279 Z0.000 I45.910 J-48.921 F600.000 
G3 X110.925 Y-0.867 Z0.000 I190.282 J-157.904 F600.000 
G2 X104.287 Y-9.663 Z0.000 I-880.262 J657.355 F600.000 
G2 X100.287 Y-15.027 Z0.000 I-1330.933 J988.438 F600.000 
G2 X98.542 Y-15.492 Z0.000 I-1.181 J0.925 F600.000 
G1 X94.251 Y-13.750 Z0.000 F600.000 
G2 X93.604 Y-11.476 Z0.000 I0.564 J1.390 F600.000 
G3 X98.934 Y-4.149 Z0.000 I-1449.082 J1059.842 F600.000 
G3 X108.539 Y11.538 Z0.000 I-84.226 J62.353 F600.000 
G3 X109.805 Y14.388 Z0.000 I-25.444 J13.010 F600.000 
G3 X110.854 Y18.490 Z0.000 I-14.523 J5.898 F600.000 
G3 X110.800 Y19.363 Z0.000 I-2.187 J0.304 F600.000 
G3 X109.926 Y19.190 Z0.000 I-0.212 J-1.225 F600.000 
G3 X107.725 Y17.228 Z0.000 I8.504 J-11.758 F600.000 
G3 X104.031 Y12.434 Z0.000 I35.223 J-30.959 F600.000 
G3 X99.038 Y4.591 Z0.000 I581.135 J-375.466 F600.000 
G2 X98.866 Y3.617 Z0.000 I-1.476 J-0.242 F600.000 
G2 X92.131 Y-6.327 Z0.000 I-51.987 J27.961 F600.000 
G2 X88.225 Y-10.073 Z0.000 I-18.841 J15.735 F600.000 
G2 X83.145 Y-12.882 Z0.000 I-10.488 J12.965 F600.000 
G2 X77.905 Y-13.316 Z0.000 I-3.449 J9.807 F600.000 
G2 X73.922 Y-10.909 Z0.000 I0.866 J5.931 F600.000 
G2 X72.651 Y-7.802 Z0.000 I6.468 J4.459 F600.000 
G2 X67.190 Y-12.558 Z0.000 I-22.342 J20.136 F600.000 
G2 X58.829 Y-15.545 Z0.000 I-9.639 J13.788 F600.000 
G2 X53.834 Y-14.985 Z0.000 I-1.195 J11.909 F600.000 
G2 X47.574 Y-8.372 Z0.000 I3.058 J9.164 F600.000 
G2 X46.491 Y-9.657 Z0.000 I-17.588 J13.730 F600.000 
G2 X40.853 Y-14.252 Z0.000 I-14.854 J12.469 F600.000 
G2 X38.506 Y-15.066 Z0.000 I-3.959 J7.619 F600.000 
G2 X33.560 Y-14.708 Z0.000 I-1.713 J10.674 F600.000 
G2 X28.698 Y-9.377 Z0.000 I2.104 J6.802 F600.000 
G2 X28.835 Y-3.271 Z0.000 I15.134 J2.714 F600.000 
G2 X30.868 Y2.394 Z0.000 I32.307 J-8.394 F600.000 
G2 X34.602 Y9.159 Z0.000 I59.782 J-28.589 F600.000 
G3 X38.543 Y15.934 Z0.000 I-64.213 J41.888 F600.000 
G3 X39.160 Y17.676 Z0.000 I-4.968 J2.738 F600.000 
G3 X39.106 Y18.420 Z0.000 I-1.142 J0.292 F600.000 
G3 X36.594 Y18.156 Z0.000 I-0.523 J-7.113 F600.000 
G3 X32.238 Y15.974 Z0.000 I5.288 J-15.995 F600.000 
G3 X26.001 Y10.635 Z0.000 I27.129 J-38.006 F600.000 
G3 X16.312 Y-1.068 Z0.000 I85.808 J-80.900 F600.000 
G1 X8.977 Y-14.808 Z0.000 F600.000 
G2 X7.101 Y-15.496 Z0.000 I-1.323 J0.706 F600.000 
G1 X2.714 Y-13.754 Z0.000 F600.000 
G2 X1.904 Y-11.735 Z0.000 I0.554 J1.394 F600.000 
G1 X2.453 Y-10.538 Z0.000 F600.000 
G2 X-0.985 Y-12.993 Z0.000 I-16.090 J18.891 F600.000 
G2 X-9.492 Y-15.143 Z0.000 I-7.566 J12.034 F600.000 
G2 X-17.440 Y-10.078 Z0.000 I0.437 J9.453 F600.000 
G2 X-18.893 Y-2.133 Z0.000 I13.710 J6.613 F600.000 
G2 X-17.247 Y6.152 Z0.000 I52.836 J-6.192 F600.000 
G2 X-10.205 Y23.559 Z0.000 I94.032 J-27.912 F600.000 
G1 X-15.733 Y23.559 Z0.000 F600.000 
G2 X-17.133 Y25.598 Z0.000 I0.000 J1.500 F600.000 
G1 X-16.165 Y28.114 Z0.000 F600.000 
G2 X-14.765 Y29.075 Z0.000 I1.400 J-0.538 F600.000 
G1 X-7.134 Y29.075 Z0.000 F600.000 
G2 X0.744 Y40.765 Z0.000 I94.805 J-55.396 F600.000 
G2 X4.771 Y45.201 Z0.000 I28.525 J-21.853 F600.000 
G2 X6.598 Y45.403 Z0.000 I1.044 J-1.077 F600.000 
G1 X8.760 Y44.081 Z0.000 F600.000 
G2 X9.266 Y42.035 Z0.000 I-0.783 J-1.279 F600.000 
G3 X1.920 Y29.075 Z0.000 I214.401 J-130.105 F600.000 
G1 X15.203 Y29.075 Z0.000 F600.000 
G2 X16.603 Y27.037 Z0.000 I-0.000 J-1.500 F600.000 
G1 X15.635 Y24.521 Z0.000 F600.000 
G2 X14.235 Y23.559 Z0.000 I-1.400 J0.538 F600.000 
G1 X-0.959 Y23.559 Z0.000 F600.000 
G3 X-3.636 Y17.939 Z0.000 I187.745 J-92.885 F600.000 
G3 X-9.418 Y3.257 Z0.000 I106.596 J-50.454 F600.000 
G3 X-10.888 Y-3.787 Z0.000 I31.485 J-10.244 F600.000 
G3 X-10.737 Y-7.038 Z0.000 I10.709 J-1.134 F600.000 
G3 X-8.604 Y-9.341 Z0.000 I3.061 J0.696 F600.000 
G3 X-5.739 Y-9.232 Z0.000 I1.255 J4.714 F600.000 
G3 X-2.893 Y-7.686 Z0.000 I-4.776 J12.193 F600.000 
G3 X0.776 Y-4.482 Z0.000 I-15.259 J21.178 F600.000 
G3 X9.023 Y6.493 Z0.000 I-45.359 J42.669 F600.000 
G2 X10.390 Y7.193 Z0.000 I1.254 J-0.764 F600.000 
G2 X15.199 Y18.113 Z0.000 I1934.249 J-845.321 F600.000 
G2 X24.242 Y38.104 Z0.000 I848.127 J-371.627 F600.000 
G2 X30.092 Y49.358 Z0.000 I90.888 J-40.094 F600.000 
G2 X36.314 Y57.565 Z0.000 I38.571 J-22.783 F600.000 
G2 X40.898 Y61.097 Z0.000 I13.427 J-12.685 F600.000 
G2 X46.201 Y62.264 Z0.000 I4.554 J-8.064 F600.000 
G2 X51.189 Y58.178 Z0.000 I-0.287 J-5.438 F600.000 
G2 X51.210 Y54.133 Z0.000 I-9.712 J-2.074 F600.000 
G2 X49.253 Y48.678 Z0.000 I-23.597 J5.387 F600.000 
G2 X45.523 Y42.396 Z0.000 I-55.003 J28.416 F600.000 
G2 X39.932 Y35.057 Z0.000 I-70.202 J47.676 F600.000 
G2 X24.449 Y18.598 Z0.000 I-149.739 J125.347 F600.000 
G1 X23.033 Y15.501 Z0.000 F600.000 
G2 X29.912 Y21.024 Z0.000 I27.719 J-27.484 F600.000 
G2 X36.054 Y23.705 Z0.000 I11.283 J-17.471 F600.000 
G2 X41.077 Y23.842 Z0.000 I2.835 J-11.745 F600.000 
G2 X45.786 Y19.971 Z0.000 I-1.285 J-6.362 F600.000 
G2 X46.201 Y14.751 Z0.000 I-8.926 J-3.336 F600.000 
G2 X44.354 Y9.505 Z0.000 I-27.377 J6.688 F600.000 
G2 X40.886 Y2.778 Z0.000 I-155.249 J75.795 F600.000 
G3 X37.425 Y-4.334 Z0.000 I47.523 J-27.526 F600.000 
G3 X36.608 Y-8.209 Z0.000 I9.720 J-4.073 F600.000 
G3 X36.894 Y-9.433 Z0.000 I2.457 J-0.071 F600.000 
G3 X37.159 Y-9.673 Z0.000 I0.326 J0.094 F600.000 
G3 X38.874 Y-9.217 Z0.000 I0.169 J2.816 F600.000 
G3 X41.844 Y-6.634 Z0.000 I-11.288 J15.983 F600.000 
G3 X45.099 Y-2.643 Z0.000 I-28.767 J26.780 F600.000 
G3 X48.892 Y3.034 Z0.000 I-64.909 J47.481 F600.000 
G2 X53.041 Y9.936 Z0.000 I28.311 J-12.321 F600.000 
G2 X63.933 Y19.759 Z0.000 I29.228 J-21.455 F600.000 
G2 X71.852 Y22.749 Z0.000 I13.153 J-22.858 F600.000 
G2 X80.054 Y22.554 Z0.000 I3.671 J-18.198 F600.000 
G2 X83.200 Y21.068 Z0.000 I-1.938 J-8.175 F600.000 
G2 X85.285 Y18.619 Z0.000 I-3.943 J-5.470 F600.000 
G2 X87.827 Y21.511 Z0.000 I79.175 J-66.999 F600.000 
G2 X89.546 Y21.885 Z0.000 I1.118 J-1.000 F600.000 
G1 X91.094 Y21.208 Z0.000 F600.000 
G2 X91.814 Y19.123 Z0.000 I-0.601 J-1.374 F600.000 
G2 X87.591 Y11.354 Z0.000 I-669.610 J358.938 F600.000 
G1 X84.960 Y6.253 Z0.000 F600.000 
G3 X82.523 Y1.007 Z0.000 I65.015 J-33.391 F600.000 
G3 X80.539 Y-4.624 Z0.000 I39.017 J-16.917 F600.000 
G3 X80.252 Y-7.411 Z0.000 I7.559 J-2.186 F600.000 
G3 X80.318 Y-7.701 Z0.000 I0.425 J-0.056 F600.000 
G3 X80.720 Y-7.769 Z0.000 I0.431 J1.324 F600.000 
G3 X83.028 Y-7.191 Z0.000 I0.232 J3.968 F600.000 
G3 X86.889 Y-4.067 Z0.000 I-8.642 J14.627 F600.000 
G3 X93.890 Y5.462 Z0.000 I-46.481 J41.490 F600.000 
G2 X94.095 Y6.505 Z0.000 I1.411 J0.264 F600.000 
G2 X99.833 Y15.522 Z0.000 I870.651 J-547.645 F600.000 
G2 X103.527 Y20.411 Z0.000 I37.517 J-24.503 F600.000 
G2 X107.098 Y23.570 Z0.000 I12.790 J-10.863 F600.000 
G2 X110.115 Y24.656 Z0.000 I3.919 J-6.154 F600.000 
G2 X115.945 Y22.556 Z0.000 I0.939 J-6.538 F600.000 
G2 X117.992 Y17.621 Z0.000 I-6.487 J-5.583 F600.000 
G2 X121.885 Y20.373 Z0.000 I20.859 J-25.378 F600.000 
G2 X126.643 Y22.340 Z0.000 I8.487 J-13.790 F600.000 
G2 X134.036 Y20.734 Z0.000 I2.050 J-8.382 F600.000 
G2 X136.689 Y16.762 Z0.000 I-5.680 J-6.666 F600.000 
G2 X137.009 Y10.036 Z0.000 I-12.749 J-3.976 F600.000 
G2 X135.092 Y4.647 Z0.000 I-23.516 J5.327 F600.000 
G2 X129.758 Y-4.791 Z0.000 I-109.527 J55.678 F600.000 
G3 X128.011 Y-8.316 Z0.000 I27.546 J-15.852 F600.000 
G3 X127.413 Y-10.987 Z0.000 I6.479 J-2.852 F600.000 
G3 X127.444 Y-11.337 Z0.000 I1.484 J-0.043 F600.000 
G3 X129.199 Y-10.835 Z0.000 I-0.275 J4.282 F600.000 
G3 X132.950 Y-7.772 Z0.000 I-11.040 J17.347 F600.000 
G3 X135.256 Y-5.191 Z0.000 I-30.005 J29.127 F600.000 
G3 X143.824 Y6.535 Z0.000 I-91.619 J75.943 F600.000 
G2 X144.585 Y7.113 Z0.000 I1.191 J-0.777 F600.000 
G2 X160.174 Y40.647 Z0.000 I898.051 J-397.094 F600.000 
G2 X163.777 Y47.396 Z0.000 I109.328 J-54.021 F600.000 
G2 X169.241 Y55.501 Z0.000 I54.264 J-30.692 F600.000 
G2 X172.646 Y59.079 Z0.000 I19.059 J-14.724 F600.000 
G2 X177.164 Y61.838 Z0.000 I9.577 J-10.605 F600.000 
G2 X181.262 Y62.152 Z0.000 I2.605 J-7.120 F600.000 
G2 X185.329 Y58.514 Z0.000 I-0.804 J-4.993 F600.000 
G2 X185.612 Y56.086 Z0.000 I-8.888 J-2.263 F600.000 
G2 X184.314 Y49.460 Z0.000 I-25.018 J1.460 F600.000 
G2 X179.579 Y39.663 Z0.000 I-47.827 J17.073 F600.000 
G2 X158.270 Y17.771 Z0.000 I-62.680 J39.695 F600.000 
G1 X156.618 Y14.099 Z0.000 F600.000 
G2 X159.421 Y16.906 Z0.000 I45.192 J-42.336 F600.000 
G2 X163.256 Y20.077 Z0.000 I25.527 J-26.962 F600.000 
G2 X169.061 Y23.263 Z0.000 I14.155 J-18.907 F600.000 
G2 X171.244 Y23.857 Z0.000 I4.271 J-11.392 F600.000 
G0 Z10.000 
G0 Z10.000 
(finish operation: Profile)
(begin operation: Profile001)
(machine units: mm/min)
(Profile001) 
(Compensated Tool Path. Diameter: 3.0) 
G0 Z10.000 
G0 X45.822 Y56.693 
G1 X45.822 Y56.693 Z2.000 F100.000 
G2 X45.856 Y56.638 Z2.000 I-0.136 J-0.122 F600.000 
G2 X45.857 Y55.895 Z2.000 I-2.052 J-0.374 F600.000 
G2 X45.335 Y54.088 Z2.000 I-9.447 J1.751 F600.000 
G2 X41.699 Y47.084 Z2.000 I-36.909 J14.713 F600.000 
G2 X30.908 Y33.121 Z2.000 I-94.960 J62.243 F600.000 
G1 X34.184 Y40.477 Z2.000 F600.000 
G2 X39.035 Y50.339 Z2.000 I120.644 J-53.216 F600.000 
G2 X40.423 Y52.655 Z2.000 I28.838 J-15.713 F600.000 
G2 X43.031 Y55.776 Z2.000 I11.298 J-6.792 F600.000 
G2 X45.648 Y56.749 Z2.000 I2.668 J-3.169 F600.000 
G2 X45.822 Y56.693 Z2.000 I0.039 J-0.179 F600.000 
G1 X45.822 Y56.693 Z0.000 F100.000 
G2 X45.856 Y56.638 Z0.000 I-0.136 J-0.122 F600.000 
G2 X45.857 Y55.895 Z0.000 I-2.052 J-0.374 F600.000 
G2 X45.335 Y54.088 Z0.000 I-9.447 J1.751 F600.000 
G2 X41.699 Y47.084 Z0.000 I-36.909 J14.713 F600.000 
G2 X30.908 Y33.121 Z0.000 I-94.960 J62.243 F600.000 
G1 X34.184 Y40.477 Z0.000 F600.000 
G2 X39.035 Y50.339 Z0.000 I120.644 J-53.216 F600.000 
G2 X40.423 Y52.655 Z0.000 I28.838 J-15.713 F600.000 
G2 X43.031 Y55.776 Z0.000 I11.298 J-6.792 F600.000 
G2 X45.648 Y56.749 Z0.000 I2.668 J-3.169 F600.000 
G2 X45.822 Y56.693 Z0.000 I0.039 J-0.179 F600.000 
G0 Z10.000 
G0 Z10.000 
G0 X45.822 Y56.693 
G0 X69.659 Y15.127 
G0 X69.659 Y15.127 
G1 X69.659 Y15.127 Z2.000 F100.000 
G2 X71.259 Y15.964 Z2.000 I11.560 J-20.157 F600.000 
G2 X77.934 Y17.356 Z2.000 I5.947 J-11.814 F600.000 
G2 X80.649 Y15.821 Z2.000 I-0.142 J-3.419 F600.000 
G2 X81.262 Y13.498 Z2.000 I-4.749 J-2.496 F600.000 
G3 X76.743 Y6.241 Z2.000 I189.564 J-123.080 F600.000 
G2 X74.390 Y2.306 Z2.000 I-105.029 J60.139 F600.000 
G1 X70.872 Y-2.162 Z2.000 F600.000 
G2 X66.936 Y-6.362 Z2.000 I-25.861 J20.288 F600.000 
G2 X64.418 Y-8.293 Z2.000 I-11.086 J11.854 F600.000 
G2 X60.239 Y-9.926 Z2.000 I-5.673 J8.351 F600.000 
G2 X58.385 Y-10.012 Z2.000 I-1.387 J9.886 F600.000 
G2 X55.877 Y-8.153 Z2.000 I0.120 J2.782 F600.000 
G2 X55.526 Y-5.016 Z2.000 I8.208 J2.506 F600.000 
G2 X57.209 Y0.967 Z2.000 I19.108 J-2.146 F600.000 
G2 X65.225 Y11.826 Z2.000 I31.360 J-14.762 F600.000 
G2 X69.659 Y15.127 Z2.000 I15.994 J-16.856 F600.000 
G1 X69.659 Y15.127 Z0.000 F100.000 
G2 X71.259 Y15.964 Z0.000 I11.560 J-20.157 F600.000 
G2 X77.934 Y17.356 Z0.000 I5.947 J-11.814 F600.000 
G2 X80.649 Y15.821 Z0.000 I-0.142 J-3.419 F600.000 
G2 X81.262 Y13.498 Z0.000 I-4.749 J-2.496 F600.000 
G3 X76.743 Y6.241 Z0.000 I189.564 J-123.080 F600.000 
G2 X74.390 Y2.306 Z0.000 I-105.029 J60.139 F600.000 
G1 X70.872 Y-2.162 Z0.000 F600.000 
G2 X66.936 Y-6.362 Z0.000 I-25.861 J20.288 F600.000 
G2 X64.418 Y-8.293 Z0.000 I-11.086 J11.854 F600.000 
G2 X60.239 Y-9.926 Z0.000 I-5.673 J8.351 F600.000 
G2 X58.385 Y-10.012 Z0.000 I-1.387 J9.886 F600.000 
G2 X55.877 Y-8.153 Z0.000 I0.120 J2.782 F600.000 
G2 X55.526 Y-5.016 Z0.000 I8.208 J2.506 F600.000 
G2 X57.209 Y0.967 Z0.000 I19.108 J-2.146 F600.000 
G2 X65.225 Y11.826 Z0.000 I31.360 J-14.762 F600.000 
G2 X69.659 Y15.127 Z0.000 I15.994 J-16.856 F600.000 
G0 Z10.000 
G0 Z10.000 
G0 Z10.000 
G0 X0.000 Y0.000 
G0 X163.079 Y28.634 
G0 X163.079 Y28.634 
G1 X163.079 Y28.634 Z2.000 F100.000 
G2 X169.525 Y42.786 Z2.000 I424.724 J-184.919 F600.000 
G2 X173.272 Y49.883 Z2.000 I89.586 J-42.760 F600.000 
G2 X176.402 Y54.442 Z2.000 I31.541 J-18.298 F600.000 
G2 X178.444 Y56.271 Z2.000 I6.590 J-5.303 F600.000 
G2 X180.044 Y56.736 Z2.000 I1.511 J-2.210 F600.000 
G2 X179.565 Y53.143 Z2.000 I-14.264 J0.072 F600.000 
G2 X175.054 Y42.976 Z2.000 I-35.470 J9.654 F600.000 
G2 X163.079 Y28.634 Z2.000 I-58.302 J36.508 F600.000 
G1 X163.079 Y28.634 Z0.000 F100.000 
G2 X169.525 Y42.786 Z0.000 I424.724 J-184.919 F600.000 
G2 X173.272 Y49.883 Z0.000 I89.586 J-42.760 F600.000 
G2 X176.402 Y54.442 Z0.000 I31.541 J-18.298 F600.000 
G2 X178.444 Y56.271 Z0.000 I6.590 J-5.303 F600.000 
G2 X180.044 Y56.736 Z0.000 I1.511 J-2.210 F600.000 
G2 X179.565 Y53.143 Z0.000 I-14.264 J0.072 F600.000 
G2 X175.054 Y42.976 Z0.000 I-35.470 J9.654 F600.000 
G2 X163.079 Y28.634 Z0.000 I-58.302 J36.508 F600.000 
G0 Z10.000 
G0 Z10.000 
G0 X163.079 Y28.634 
G0 X198.931 Y16.481 
G0 X198.931 Y16.481 
G1 X198.931 Y16.481 Z2.000 F100.000 
G1 X200.188 Y19.492 Z2.000 F600.000 
G2 X206.735 Y34.754 Z2.000 I416.795 J-169.775 F600.000 
G2 X214.202 Y48.597 Z2.000 I91.414 J-40.376 F600.000 
G2 X216.628 Y51.924 Z2.000 I30.117 J-19.408 F600.000 
G2 X220.064 Y55.337 Z2.000 I15.256 J-11.921 F600.000 
G2 X222.855 Y56.464 Z2.000 I3.393 J-4.381 F600.000 
G2 X223.021 Y55.404 Z2.000 I-3.397 J-1.076 F600.000 
G2 X222.216 Y51.078 Z2.000 I-17.250 J0.971 F600.000 
G2 X218.474 Y42.535 Z2.000 I-52.591 J17.947 F600.000 
G2 X205.879 Y24.041 Z2.000 I-104.316 J57.508 F600.000 
G2 X198.931 Y16.481 Z2.000 I-63.808 J51.671 F600.000 
G1 X198.931 Y16.481 Z0.000 F100.000 
G1 X200.188 Y19.492 Z0.000 F600.000 
G2 X206.735 Y34.754 Z0.000 I416.795 J-169.775 F600.000 
G2 X214.202 Y48.597 Z0.000 I91.414 J-40.376 F600.000 
G2 X216.628 Y51.924 Z0.000 I30.117 J-19.408 F600.000 
G2 X220.064 Y55.337 Z0.000 I15.256 J-11.921 F600.000 
G2 X222.855 Y56.464 Z0.000 I3.393 J-4.381 F600.000 
G2 X223.021 Y55.404 Z0.000 I-3.397 J-1.076 F600.000 
G2 X222.216 Y51.078 Z0.000 I-17.250 J0.971 F600.000 
G2 X218.474 Y42.535 Z0.000 I-52.591 J17.947 F600.000 
G2 X205.879 Y24.041 Z0.000 I-104.316 J57.508 F600.000 
G2 X198.931 Y16.481 Z0.000 I-63.808 J51.671 F600.000 
G0 Z10.000 
G0 Z10.000 
G0 X198.931 Y16.481 
G0 X265.290 Y14.181 
G0 X265.290 Y14.181 
G1 X265.290 Y14.181 Z2.000 F100.000 
G2 X268.319 Y22.505 Z2.000 I62.375 J-17.985 F600.000 
G2 X284.055 Y48.052 Z2.000 I92.002 J-39.051 F600.000 
G2 X288.448 Y52.386 Z2.000 I26.821 J-22.789 F600.000 
G2 X290.670 Y53.825 Z2.000 I6.901 J-8.224 F600.000 
G2 X291.170 Y53.997 Z2.000 I0.878 J-1.732 F600.000 
G2 X291.260 Y53.783 Z2.000 I-0.708 J-0.422 F600.000 
G2 X290.596 Y50.194 Z2.000 I-11.733 J0.314 F600.000 
G2 X286.381 Y41.393 Z2.000 I-51.440 J19.225 F600.000 
G2 X280.215 Y32.172 Z2.000 I-114.154 J69.662 F600.000 
G2 X265.290 Y14.181 Z2.000 I-169.286 J125.252 F600.000 
G1 X265.290 Y14.181 Z0.000 F100.000 
G2 X268.319 Y22.505 Z0.000 I62.375 J-17.985 F600.000 
G2 X284.055 Y48.052 Z0.000 I92.002 J-39.051 F600.000 
G2 X288.448 Y52.386 Z0.000 I26.821 J-22.789 F600.000 
G2 X290.670 Y53.825 Z0.000 I6.901 J-8.224 F600.000 
G2 X291.170 Y53.997 Z0.000 I0.878 J-1.732 F600.000 
G2 X291.260 Y53.783 Z0.000 I-0.708 J-0.422 F600.000 
G2 X290.596 Y50.194 Z0.000 I-11.733 J0.314 F600.000 
G2 X286.381 Y41.393 Z0.000 I-51.440 J19.225 F600.000 
G2 X280.215 Y32.172 Z0.000 I-114.154 J69.662 F600.000 
G2 X265.290 Y14.181 Z0.000 I-169.286 J125.252 F600.000 
G0 Z10.000 
G0 Z10.000 
(finish operation: Profile001)
(begin postamble)
M05
G17 G54 G90 G80 G40
M2
