(Exported by FreeCAD)
(Post Processor: linuxcnc_post)
(Output Time:2022-01-28 13:35:25.070598)
(begin preamble)
G17 G54 G40 G49 G80 G90
G21
(begin operation: Fixture)
(machine units: mm/min)
G54 
(finish operation: Fixture)
(begin operation: 6.4mm Endmill005)
(machine units: mm/min)
(6.4mm Endmill005) 
M5
M6 T2 
G43 H2 
M3 S10000 
(finish operation: 6.4mm Endmill005)
(begin operation: Engrave001)
(machine units: mm/min)
(Engrave001) 
G0 Z5.000 
G0 Z5.000 
G0 X136.000 Y100.000 
G0 Z3.000 
G1 X136.000 Y100.000 Z-2.000 F600.000 
G1 X130.960 Y100.000 Z-2.000 F600.000 
G1 X130.960 Y180.040 Z-2.000 F600.000 
G1 X101.320 Y180.040 Z-2.000 F600.000 
G1 X101.320 Y184.480 Z-2.000 F600.000 
G1 X165.600 Y184.480 Z-2.000 F600.000 
G1 X165.600 Y180.040 Z-2.000 F600.000 
G1 X136.000 Y180.040 Z-2.000 F600.000 
G1 X136.000 Y100.000 Z-2.000 F600.000 
G1 X136.000 Y100.000 Z-3.000 F600.000 
G1 X130.960 Y100.000 Z-3.000 F600.000 
G1 X130.960 Y180.040 Z-3.000 F600.000 
G1 X101.320 Y180.040 Z-3.000 F600.000 
G1 X101.320 Y184.480 Z-3.000 F600.000 
G1 X165.600 Y184.480 Z-3.000 F600.000 
G1 X165.600 Y180.040 Z-3.000 F600.000 
G1 X136.000 Y180.040 Z-3.000 F600.000 
G1 X136.000 Y100.000 Z-3.000 F600.000 
G0 Z5.000 
G0 Z5.000 
G0 X224.800 Y100.000 
G0 Z3.000 
G1 X224.800 Y100.000 Z-2.000 F600.000 
G1 X219.760 Y100.000 Z-2.000 F600.000 
G1 X219.760 Y137.200 Z-2.000 F600.000 
G1 X219.724 Y138.631 Z-2.000 F600.000 
G1 X219.617 Y139.991 Z-2.000 F600.000 
G1 X219.445 Y141.280 Z-2.000 F600.000 
G1 X219.208 Y142.501 Z-2.000 F600.000 
G1 X218.912 Y143.655 Z-2.000 F600.000 
G1 X218.557 Y144.743 Z-2.000 F600.000 
G1 X218.148 Y145.768 Z-2.000 F600.000 
G1 X217.685 Y146.732 Z-2.000 F600.000 
G1 X217.170 Y147.636 Z-2.000 F600.000 
G1 X216.605 Y148.483 Z-2.000 F600.000 
G1 X215.991 Y149.273 Z-2.000 F600.000 
G1 X215.327 Y150.009 Z-2.000 F600.000 
G1 X214.613 Y150.691 Z-2.000 F600.000 
G1 X213.850 Y151.319 Z-2.000 F600.000 
G1 X213.036 Y151.895 Z-2.000 F600.000 
G1 X212.171 Y152.419 Z-2.000 F600.000 
G1 X211.252 Y152.889 Z-2.000 F600.000 
G1 X210.279 Y153.304 Z-2.000 F600.000 
G1 X209.249 Y153.665 Z-2.000 F600.000 
G1 X208.161 Y153.968 Z-2.000 F600.000 
G1 X207.013 Y154.211 Z-2.000 F600.000 
G1 X205.803 Y154.393 Z-2.000 F600.000 
G1 X204.529 Y154.510 Z-2.000 F600.000 
G1 X203.734 Y154.547 Z-2.000 F600.000 
G1 X202.920 Y154.560 Z-2.000 F600.000 
G1 X201.514 Y154.524 Z-2.000 F600.000 
G1 X200.114 Y154.415 Z-2.000 F600.000 
G1 X198.723 Y154.235 Z-2.000 F600.000 
G1 X197.346 Y153.982 Z-2.000 F600.000 
G1 X195.985 Y153.660 Z-2.000 F600.000 
G1 X194.646 Y153.267 Z-2.000 F600.000 
G1 X193.331 Y152.806 Z-2.000 F600.000 
G1 X192.045 Y152.278 Z-2.000 F600.000 
G1 X190.791 Y151.684 Z-2.000 F600.000 
G1 X189.573 Y151.027 Z-2.000 F600.000 
G1 X188.393 Y150.308 Z-2.000 F600.000 
G1 X187.254 Y149.528 Z-2.000 F600.000 
G1 X186.160 Y148.690 Z-2.000 F600.000 
G1 X185.113 Y147.796 Z-2.000 F600.000 
G1 X184.364 Y147.094 Z-2.000 F600.000 
G1 X183.640 Y146.360 Z-2.000 F600.000 
G1 X183.640 Y100.000 Z-2.000 F600.000 
G1 X178.720 Y100.000 Z-2.000 F600.000 
G1 X178.720 Y192.160 Z-2.000 F600.000 
G1 X183.640 Y192.160 Z-2.000 F600.000 
G1 X183.640 Y150.680 Z-2.000 F600.000 
G1 X184.767 Y151.677 Z-2.000 F600.000 
G1 X185.939 Y152.619 Z-2.000 F600.000 
G1 X187.155 Y153.502 Z-2.000 F600.000 
G1 X188.410 Y154.324 Z-2.000 F600.000 
G1 X189.702 Y155.083 Z-2.000 F600.000 
G1 X191.026 Y155.777 Z-2.000 F600.000 
G1 X192.380 Y156.405 Z-2.000 F600.000 
G1 X193.759 Y156.964 Z-2.000 F600.000 
G1 X195.159 Y157.454 Z-2.000 F600.000 
G1 X196.577 Y157.872 Z-2.000 F600.000 
G1 X198.009 Y158.219 Z-2.000 F600.000 
G1 X199.451 Y158.493 Z-2.000 F600.000 
G1 X200.899 Y158.695 Z-2.000 F600.000 
G1 X202.350 Y158.823 Z-2.000 F600.000 
G1 X203.254 Y158.866 Z-2.000 F600.000 
G1 X204.160 Y158.880 Z-2.000 F600.000 
G1 X205.621 Y158.844 Z-2.000 F600.000 
G1 X207.026 Y158.737 Z-2.000 F600.000 
G1 X208.378 Y158.562 Z-2.000 F600.000 
G1 X209.675 Y158.322 Z-2.000 F600.000 
G1 X210.918 Y158.018 Z-2.000 F600.000 
G1 X212.107 Y157.653 Z-2.000 F600.000 
G1 X213.243 Y157.229 Z-2.000 F600.000 
G1 X214.327 Y156.748 Z-2.000 F600.000 
G1 X215.358 Y156.211 Z-2.000 F600.000 
G1 X216.338 Y155.619 Z-2.000 F600.000 
G1 X217.266 Y154.973 Z-2.000 F600.000 
G1 X218.143 Y154.274 Z-2.000 F600.000 
G1 X218.970 Y153.523 Z-2.000 F600.000 
G1 X219.745 Y152.721 Z-2.000 F600.000 
G1 X220.470 Y151.866 Z-2.000 F600.000 
G1 X221.142 Y150.960 Z-2.000 F600.000 
G1 X221.763 Y150.001 Z-2.000 F600.000 
G1 X222.331 Y148.990 Z-2.000 F600.000 
G1 X222.844 Y147.926 Z-2.000 F600.000 
G1 X223.302 Y146.809 Z-2.000 F600.000 
G1 X223.703 Y145.639 Z-2.000 F600.000 
G1 X224.045 Y144.414 Z-2.000 F600.000 
G1 X224.327 Y143.135 Z-2.000 F600.000 
G1 X224.545 Y141.801 Z-2.000 F600.000 
G1 X224.697 Y140.412 Z-2.000 F600.000 
G1 X224.782 Y138.968 Z-2.000 F600.000 
G1 X224.796 Y138.447 Z-2.000 F600.000 
G1 X224.800 Y137.920 Z-2.000 F600.000 
G1 X224.800 Y100.000 Z-2.000 F600.000 
G1 X224.800 Y100.000 Z-3.000 F600.000 
G1 X219.760 Y100.000 Z-3.000 F600.000 
G1 X219.760 Y137.200 Z-3.000 F600.000 
G1 X219.724 Y138.631 Z-3.000 F600.000 
G1 X219.617 Y139.991 Z-3.000 F600.000 
G1 X219.445 Y141.280 Z-3.000 F600.000 
G1 X219.208 Y142.501 Z-3.000 F600.000 
G1 X218.912 Y143.655 Z-3.000 F600.000 
G1 X218.557 Y144.743 Z-3.000 F600.000 
G1 X218.148 Y145.768 Z-3.000 F600.000 
G1 X217.685 Y146.732 Z-3.000 F600.000 
G1 X217.170 Y147.636 Z-3.000 F600.000 
G1 X216.605 Y148.483 Z-3.000 F600.000 
G1 X215.991 Y149.273 Z-3.000 F600.000 
G1 X215.327 Y150.009 Z-3.000 F600.000 
G1 X214.613 Y150.691 Z-3.000 F600.000 
G1 X213.850 Y151.319 Z-3.000 F600.000 
G1 X213.036 Y151.895 Z-3.000 F600.000 
G1 X212.171 Y152.419 Z-3.000 F600.000 
G1 X211.252 Y152.889 Z-3.000 F600.000 
G1 X210.279 Y153.304 Z-3.000 F600.000 
G1 X209.249 Y153.665 Z-3.000 F600.000 
G1 X208.161 Y153.968 Z-3.000 F600.000 
G1 X207.013 Y154.211 Z-3.000 F600.000 
G1 X205.803 Y154.393 Z-3.000 F600.000 
G1 X204.529 Y154.510 Z-3.000 F600.000 
G1 X203.734 Y154.547 Z-3.000 F600.000 
G1 X202.920 Y154.560 Z-3.000 F600.000 
G1 X201.514 Y154.524 Z-3.000 F600.000 
G1 X200.114 Y154.415 Z-3.000 F600.000 
G1 X198.723 Y154.235 Z-3.000 F600.000 
G1 X197.346 Y153.982 Z-3.000 F600.000 
G1 X195.985 Y153.660 Z-3.000 F600.000 
G1 X194.646 Y153.267 Z-3.000 F600.000 
G1 X193.331 Y152.806 Z-3.000 F600.000 
G1 X192.045 Y152.278 Z-3.000 F600.000 
G1 X190.791 Y151.684 Z-3.000 F600.000 
G1 X189.573 Y151.027 Z-3.000 F600.000 
G1 X188.393 Y150.308 Z-3.000 F600.000 
G1 X187.254 Y149.528 Z-3.000 F600.000 
G1 X186.160 Y148.690 Z-3.000 F600.000 
G1 X185.113 Y147.796 Z-3.000 F600.000 
G1 X184.364 Y147.094 Z-3.000 F600.000 
G1 X183.640 Y146.360 Z-3.000 F600.000 
G1 X183.640 Y100.000 Z-3.000 F600.000 
G1 X178.720 Y100.000 Z-3.000 F600.000 
G1 X178.720 Y192.160 Z-3.000 F600.000 
G1 X183.640 Y192.160 Z-3.000 F600.000 
G1 X183.640 Y150.680 Z-3.000 F600.000 
G1 X184.767 Y151.677 Z-3.000 F600.000 
G1 X185.939 Y152.619 Z-3.000 F600.000 
G1 X187.155 Y153.502 Z-3.000 F600.000 
G1 X188.410 Y154.324 Z-3.000 F600.000 
G1 X189.702 Y155.083 Z-3.000 F600.000 
G1 X191.026 Y155.777 Z-3.000 F600.000 
G1 X192.380 Y156.405 Z-3.000 F600.000 
G1 X193.759 Y156.964 Z-3.000 F600.000 
G1 X195.159 Y157.454 Z-3.000 F600.000 
G1 X196.577 Y157.872 Z-3.000 F600.000 
G1 X198.009 Y158.219 Z-3.000 F600.000 
G1 X199.451 Y158.493 Z-3.000 F600.000 
G1 X200.899 Y158.695 Z-3.000 F600.000 
G1 X202.350 Y158.823 Z-3.000 F600.000 
G1 X203.254 Y158.866 Z-3.000 F600.000 
G1 X204.160 Y158.880 Z-3.000 F600.000 
G1 X205.621 Y158.844 Z-3.000 F600.000 
G1 X207.026 Y158.737 Z-3.000 F600.000 
G1 X208.378 Y158.562 Z-3.000 F600.000 
G1 X209.675 Y158.322 Z-3.000 F600.000 
G1 X210.918 Y158.018 Z-3.000 F600.000 
G1 X212.107 Y157.653 Z-3.000 F600.000 
G1 X213.243 Y157.229 Z-3.000 F600.000 
G1 X214.327 Y156.748 Z-3.000 F600.000 
G1 X215.358 Y156.211 Z-3.000 F600.000 
G1 X216.338 Y155.619 Z-3.000 F600.000 
G1 X217.266 Y154.973 Z-3.000 F600.000 
G1 X218.143 Y154.274 Z-3.000 F600.000 
G1 X218.970 Y153.523 Z-3.000 F600.000 
G1 X219.745 Y152.721 Z-3.000 F600.000 
G1 X220.470 Y151.866 Z-3.000 F600.000 
G1 X221.142 Y150.960 Z-3.000 F600.000 
G1 X221.763 Y150.001 Z-3.000 F600.000 
G1 X222.331 Y148.990 Z-3.000 F600.000 
G1 X222.844 Y147.926 Z-3.000 F600.000 
G1 X223.302 Y146.809 Z-3.000 F600.000 
G1 X223.703 Y145.639 Z-3.000 F600.000 
G1 X224.045 Y144.414 Z-3.000 F600.000 
G1 X224.327 Y143.135 Z-3.000 F600.000 
G1 X224.545 Y141.801 Z-3.000 F600.000 
G1 X224.697 Y140.412 Z-3.000 F600.000 
G1 X224.782 Y138.968 Z-3.000 F600.000 
G1 X224.796 Y138.447 Z-3.000 F600.000 
G1 X224.800 Y137.920 Z-3.000 F600.000 
G1 X224.800 Y100.000 Z-3.000 F600.000 
G0 Z5.000 
G0 Z5.000 
G0 X289.960 Y104.760 
G0 Z3.000 
G1 X289.960 Y104.760 Z-2.000 F600.000 
G1 X288.803 Y104.068 Z-2.000 F600.000 
G1 X287.578 Y103.420 Z-2.000 F600.000 
G1 X286.286 Y102.818 Z-2.000 F600.000 
G1 X284.929 Y102.266 Z-2.000 F600.000 
G1 X283.510 Y101.766 Z-2.000 F600.000 
G1 X282.031 Y101.323 Z-2.000 F600.000 
G1 X280.498 Y100.938 Z-2.000 F600.000 
G1 X278.914 Y100.616 Z-2.000 F600.000 
G1 X277.286 Y100.359 Z-2.000 F600.000 
G1 X275.621 Y100.169 Z-2.000 F600.000 
G1 X273.928 Y100.050 Z-2.000 F600.000 
G1 X272.925 Y100.012 Z-2.000 F600.000 
G1 X271.920 Y100.000 Z-2.000 F600.000 
G1 X270.246 Y100.036 Z-2.000 F600.000 
G1 X268.621 Y100.143 Z-2.000 F600.000 
G1 X267.045 Y100.320 Z-2.000 F600.000 
G1 X265.518 Y100.563 Z-2.000 F600.000 
G1 X264.041 Y100.872 Z-2.000 F600.000 
G1 X262.613 Y101.244 Z-2.000 F600.000 
G1 X261.234 Y101.677 Z-2.000 F600.000 
G1 X259.903 Y102.172 Z-2.000 F600.000 
G1 X258.622 Y102.725 Z-2.000 F600.000 
G1 X257.390 Y103.336 Z-2.000 F600.000 
G1 X256.206 Y104.004 Z-2.000 F600.000 
G1 X255.071 Y104.727 Z-2.000 F600.000 
G1 X253.985 Y105.506 Z-2.000 F600.000 
G1 X252.947 Y106.339 Z-2.000 F600.000 
G1 X251.959 Y107.226 Z-2.000 F600.000 
G1 X251.019 Y108.166 Z-2.000 F600.000 
G1 X250.129 Y109.160 Z-2.000 F600.000 
G1 X249.288 Y110.208 Z-2.000 F600.000 
G1 X248.499 Y111.308 Z-2.000 F600.000 
G1 X247.761 Y112.462 Z-2.000 F600.000 
G1 X247.075 Y113.669 Z-2.000 F600.000 
G1 X246.443 Y114.930 Z-2.000 F600.000 
G1 X245.866 Y116.244 Z-2.000 F600.000 
G1 X245.345 Y117.613 Z-2.000 F600.000 
G1 X244.882 Y119.035 Z-2.000 F600.000 
G1 X244.478 Y120.512 Z-2.000 F600.000 
G1 X244.135 Y122.042 Z-2.000 F600.000 
G1 X243.856 Y123.627 Z-2.000 F600.000 
G1 X243.641 Y125.266 Z-2.000 F600.000 
G1 X243.493 Y126.959 Z-2.000 F600.000 
G1 X243.413 Y128.705 Z-2.000 F600.000 
G1 X243.400 Y129.800 Z-2.000 F600.000 
G1 X243.436 Y131.560 Z-2.000 F600.000 
G1 X243.543 Y133.275 Z-2.000 F600.000 
G1 X243.720 Y134.945 Z-2.000 F600.000 
G1 X243.964 Y136.568 Z-2.000 F600.000 
G1 X244.274 Y138.142 Z-2.000 F600.000 
G1 X244.647 Y139.665 Z-2.000 F600.000 
G1 X245.082 Y141.136 Z-2.000 F600.000 
G1 X245.577 Y142.555 Z-2.000 F600.000 
G1 X246.129 Y143.919 Z-2.000 F600.000 
G1 X246.737 Y145.228 Z-2.000 F600.000 
G1 X247.399 Y146.480 Z-2.000 F600.000 
G1 X248.112 Y147.676 Z-2.000 F600.000 
G1 X248.876 Y148.815 Z-2.000 F600.000 
G1 X249.688 Y149.895 Z-2.000 F600.000 
G1 X250.547 Y150.917 Z-2.000 F600.000 
G1 X251.451 Y151.880 Z-2.000 F600.000 
G1 X252.399 Y152.783 Z-2.000 F600.000 
G1 X253.390 Y153.627 Z-2.000 F600.000 
G1 X254.422 Y154.410 Z-2.000 F600.000 
G1 X255.495 Y155.133 Z-2.000 F600.000 
G1 X256.607 Y155.795 Z-2.000 F600.000 
G1 X257.759 Y156.395 Z-2.000 F600.000 
G1 X258.949 Y156.932 Z-2.000 F600.000 
G1 X260.176 Y157.406 Z-2.000 F600.000 
G1 X261.441 Y157.817 Z-2.000 F600.000 
G1 X262.743 Y158.162 Z-2.000 F600.000 
G1 X264.081 Y158.442 Z-2.000 F600.000 
G1 X265.455 Y158.654 Z-2.000 F600.000 
G1 X266.866 Y158.797 Z-2.000 F600.000 
G1 X268.311 Y158.870 Z-2.000 F600.000 
G1 X269.080 Y158.880 Z-2.000 F600.000 
G1 X270.498 Y158.844 Z-2.000 F600.000 
G1 X271.882 Y158.737 Z-2.000 F600.000 
G1 X273.231 Y158.560 Z-2.000 F600.000 
G1 X274.545 Y158.315 Z-2.000 F600.000 
G1 X275.822 Y158.004 Z-2.000 F600.000 
G1 X277.063 Y157.627 Z-2.000 F600.000 
G1 X278.265 Y157.186 Z-2.000 F600.000 
G1 X279.428 Y156.683 Z-2.000 F600.000 
G1 X280.552 Y156.118 Z-2.000 F600.000 
G1 X281.634 Y155.493 Z-2.000 F600.000 
G1 X282.675 Y154.808 Z-2.000 F600.000 
G1 X283.672 Y154.065 Z-2.000 F600.000 
G1 X284.626 Y153.264 Z-2.000 F600.000 
G1 X285.533 Y152.407 Z-2.000 F600.000 
G1 X286.393 Y151.495 Z-2.000 F600.000 
G1 X287.205 Y150.527 Z-2.000 F600.000 
G1 X287.967 Y149.507 Z-2.000 F600.000 
G1 X288.677 Y148.434 Z-2.000 F600.000 
G1 X289.333 Y147.309 Z-2.000 F600.000 
G1 X289.934 Y146.135 Z-2.000 F600.000 
G1 X290.478 Y144.912 Z-2.000 F600.000 
G1 X290.963 Y143.641 Z-2.000 F600.000 
G1 X291.388 Y142.324 Z-2.000 F600.000 
G1 X291.750 Y140.962 Z-2.000 F600.000 
G1 X292.047 Y139.558 Z-2.000 F600.000 
G1 X292.279 Y138.112 Z-2.000 F600.000 
G1 X292.442 Y136.627 Z-2.000 F600.000 
G1 X292.536 Y135.104 Z-2.000 F600.000 
G1 X292.560 Y133.840 Z-2.000 F600.000 
G1 X292.546 Y132.069 Z-2.000 F600.000 
G1 X292.484 Y130.693 Z-2.000 F600.000 
G1 X292.417 Y130.025 Z-2.000 F600.000 
G1 X292.320 Y129.440 Z-2.000 F600.000 
G1 X248.440 Y129.440 Z-2.000 F600.000 
G1 X248.529 Y127.717 Z-2.000 F600.000 
G1 X248.687 Y126.057 Z-2.000 F600.000 
G1 X248.911 Y124.459 Z-2.000 F600.000 
G1 X249.199 Y122.925 Z-2.000 F600.000 
G1 X249.548 Y121.454 Z-2.000 F600.000 
G1 X249.957 Y120.045 Z-2.000 F600.000 
G1 X250.423 Y118.698 Z-2.000 F600.000 
G1 X250.944 Y117.413 Z-2.000 F600.000 
G1 X251.519 Y116.188 Z-2.000 F600.000 
G1 X252.145 Y115.024 Z-2.000 F600.000 
G1 X252.821 Y113.920 Z-2.000 F600.000 
G1 X253.547 Y112.874 Z-2.000 F600.000 
G1 X254.320 Y111.887 Z-2.000 F600.000 
G1 X255.140 Y110.957 Z-2.000 F600.000 
G1 X256.006 Y110.084 Z-2.000 F600.000 
G1 X256.918 Y109.269 Z-2.000 F600.000 
G1 X257.876 Y108.510 Z-2.000 F600.000 
G1 X258.879 Y107.808 Z-2.000 F600.000 
G1 X259.929 Y107.163 Z-2.000 F600.000 
G1 X261.024 Y106.576 Z-2.000 F600.000 
G1 X262.166 Y106.046 Z-2.000 F600.000 
G1 X263.354 Y105.575 Z-2.000 F600.000 
G1 X264.590 Y105.164 Z-2.000 F600.000 
G1 X265.874 Y104.815 Z-2.000 F600.000 
G1 X267.206 Y104.527 Z-2.000 F600.000 
G1 X268.588 Y104.305 Z-2.000 F600.000 
G1 X270.019 Y104.148 Z-2.000 F600.000 
G1 X271.501 Y104.060 Z-2.000 F600.000 
G1 X272.640 Y104.040 Z-2.000 F600.000 
G1 X274.172 Y104.076 Z-2.000 F600.000 
G1 X275.720 Y104.185 Z-2.000 F600.000 
G1 X277.279 Y104.368 Z-2.000 F600.000 
G1 X278.846 Y104.624 Z-2.000 F600.000 
G1 X280.414 Y104.954 Z-2.000 F600.000 
G1 X281.979 Y105.358 Z-2.000 F600.000 
G1 X283.535 Y105.834 Z-2.000 F600.000 
G1 X285.075 Y106.381 Z-2.000 F600.000 
G1 X286.594 Y106.998 Z-2.000 F600.000 
G1 X288.087 Y107.683 Z-2.000 F600.000 
G1 X288.880 Y108.080 Z-2.000 F600.000 
G1 X289.960 Y104.760 Z-2.000 F600.000 
G1 X289.960 Y104.760 Z-3.000 F600.000 
G1 X288.803 Y104.068 Z-3.000 F600.000 
G1 X287.578 Y103.420 Z-3.000 F600.000 
G1 X286.286 Y102.818 Z-3.000 F600.000 
G1 X284.929 Y102.266 Z-3.000 F600.000 
G1 X283.510 Y101.766 Z-3.000 F600.000 
G1 X282.031 Y101.323 Z-3.000 F600.000 
G1 X280.498 Y100.938 Z-3.000 F600.000 
G1 X278.914 Y100.616 Z-3.000 F600.000 
G1 X277.286 Y100.359 Z-3.000 F600.000 
G1 X275.621 Y100.169 Z-3.000 F600.000 
G1 X273.928 Y100.050 Z-3.000 F600.000 
G1 X272.925 Y100.012 Z-3.000 F600.000 
G1 X271.920 Y100.000 Z-3.000 F600.000 
G1 X270.246 Y100.036 Z-3.000 F600.000 
G1 X268.621 Y100.143 Z-3.000 F600.000 
G1 X267.045 Y100.320 Z-3.000 F600.000 
G1 X265.518 Y100.563 Z-3.000 F600.000 
G1 X264.041 Y100.872 Z-3.000 F600.000 
G1 X262.613 Y101.244 Z-3.000 F600.000 
G1 X261.234 Y101.677 Z-3.000 F600.000 
G1 X259.903 Y102.172 Z-3.000 F600.000 
G1 X258.622 Y102.725 Z-3.000 F600.000 
G1 X257.390 Y103.336 Z-3.000 F600.000 
G1 X256.206 Y104.004 Z-3.000 F600.000 
G1 X255.071 Y104.727 Z-3.000 F600.000 
G1 X253.985 Y105.506 Z-3.000 F600.000 
G1 X252.947 Y106.339 Z-3.000 F600.000 
G1 X251.959 Y107.226 Z-3.000 F600.000 
G1 X251.019 Y108.166 Z-3.000 F600.000 
G1 X250.129 Y109.160 Z-3.000 F600.000 
G1 X249.288 Y110.208 Z-3.000 F600.000 
G1 X248.499 Y111.308 Z-3.000 F600.000 
G1 X247.761 Y112.462 Z-3.000 F600.000 
G1 X247.075 Y113.669 Z-3.000 F600.000 
G1 X246.443 Y114.930 Z-3.000 F600.000 
G1 X245.866 Y116.244 Z-3.000 F600.000 
G1 X245.345 Y117.613 Z-3.000 F600.000 
G1 X244.882 Y119.035 Z-3.000 F600.000 
G1 X244.478 Y120.512 Z-3.000 F600.000 
G1 X244.135 Y122.042 Z-3.000 F600.000 
G1 X243.856 Y123.627 Z-3.000 F600.000 
G1 X243.641 Y125.266 Z-3.000 F600.000 
G1 X243.493 Y126.959 Z-3.000 F600.000 
G1 X243.413 Y128.705 Z-3.000 F600.000 
G1 X243.400 Y129.800 Z-3.000 F600.000 
G1 X243.436 Y131.560 Z-3.000 F600.000 
G1 X243.543 Y133.275 Z-3.000 F600.000 
G1 X243.720 Y134.945 Z-3.000 F600.000 
G1 X243.964 Y136.568 Z-3.000 F600.000 
G1 X244.274 Y138.142 Z-3.000 F600.000 
G1 X244.647 Y139.665 Z-3.000 F600.000 
G1 X245.082 Y141.136 Z-3.000 F600.000 
G1 X245.577 Y142.555 Z-3.000 F600.000 
G1 X246.129 Y143.919 Z-3.000 F600.000 
G1 X246.737 Y145.228 Z-3.000 F600.000 
G1 X247.399 Y146.480 Z-3.000 F600.000 
G1 X248.112 Y147.676 Z-3.000 F600.000 
G1 X248.876 Y148.815 Z-3.000 F600.000 
G1 X249.688 Y149.895 Z-3.000 F600.000 
G1 X250.547 Y150.917 Z-3.000 F600.000 
G1 X251.451 Y151.880 Z-3.000 F600.000 
G1 X252.399 Y152.783 Z-3.000 F600.000 
G1 X253.390 Y153.627 Z-3.000 F600.000 
G1 X254.422 Y154.410 Z-3.000 F600.000 
G1 X255.495 Y155.133 Z-3.000 F600.000 
G1 X256.607 Y155.795 Z-3.000 F600.000 
G1 X257.759 Y156.395 Z-3.000 F600.000 
G1 X258.949 Y156.932 Z-3.000 F600.000 
G1 X260.176 Y157.406 Z-3.000 F600.000 
G1 X261.441 Y157.817 Z-3.000 F600.000 
G1 X262.743 Y158.162 Z-3.000 F600.000 
G1 X264.081 Y158.442 Z-3.000 F600.000 
G1 X265.455 Y158.654 Z-3.000 F600.000 
G1 X266.866 Y158.797 Z-3.000 F600.000 
G1 X268.311 Y158.870 Z-3.000 F600.000 
G1 X269.080 Y158.880 Z-3.000 F600.000 
G1 X270.498 Y158.844 Z-3.000 F600.000 
G1 X271.882 Y158.737 Z-3.000 F600.000 
G1 X273.231 Y158.560 Z-3.000 F600.000 
G1 X274.545 Y158.315 Z-3.000 F600.000 
G1 X275.822 Y158.004 Z-3.000 F600.000 
G1 X277.063 Y157.627 Z-3.000 F600.000 
G1 X278.265 Y157.186 Z-3.000 F600.000 
G1 X279.428 Y156.683 Z-3.000 F600.000 
G1 X280.552 Y156.118 Z-3.000 F600.000 
G1 X281.634 Y155.493 Z-3.000 F600.000 
G1 X282.675 Y154.808 Z-3.000 F600.000 
G1 X283.672 Y154.065 Z-3.000 F600.000 
G1 X284.626 Y153.264 Z-3.000 F600.000 
G1 X285.533 Y152.407 Z-3.000 F600.000 
G1 X286.393 Y151.495 Z-3.000 F600.000 
G1 X287.205 Y150.527 Z-3.000 F600.000 
G1 X287.967 Y149.507 Z-3.000 F600.000 
G1 X288.677 Y148.434 Z-3.000 F600.000 
G1 X289.333 Y147.309 Z-3.000 F600.000 
G1 X289.934 Y146.135 Z-3.000 F600.000 
G1 X290.478 Y144.912 Z-3.000 F600.000 
G1 X290.963 Y143.641 Z-3.000 F600.000 
G1 X291.388 Y142.324 Z-3.000 F600.000 
G1 X291.750 Y140.962 Z-3.000 F600.000 
G1 X292.047 Y139.558 Z-3.000 F600.000 
G1 X292.279 Y138.112 Z-3.000 F600.000 
G1 X292.442 Y136.627 Z-3.000 F600.000 
G1 X292.536 Y135.104 Z-3.000 F600.000 
G1 X292.560 Y133.840 Z-3.000 F600.000 
G1 X292.546 Y132.069 Z-3.000 F600.000 
G1 X292.484 Y130.693 Z-3.000 F600.000 
G1 X292.417 Y130.025 Z-3.000 F600.000 
G1 X292.320 Y129.440 Z-3.000 F600.000 
G1 X248.440 Y129.440 Z-3.000 F600.000 
G1 X248.529 Y127.717 Z-3.000 F600.000 
G1 X248.687 Y126.057 Z-3.000 F600.000 
G1 X248.911 Y124.459 Z-3.000 F600.000 
G1 X249.199 Y122.925 Z-3.000 F600.000 
G1 X249.548 Y121.454 Z-3.000 F600.000 
G1 X249.957 Y120.045 Z-3.000 F600.000 
G1 X250.423 Y118.698 Z-3.000 F600.000 
G1 X250.944 Y117.413 Z-3.000 F600.000 
G1 X251.519 Y116.188 Z-3.000 F600.000 
G1 X252.145 Y115.024 Z-3.000 F600.000 
G1 X252.821 Y113.920 Z-3.000 F600.000 
G1 X253.547 Y112.874 Z-3.000 F600.000 
G1 X254.320 Y111.887 Z-3.000 F600.000 
G1 X255.140 Y110.957 Z-3.000 F600.000 
G1 X256.006 Y110.084 Z-3.000 F600.000 
G1 X256.918 Y109.269 Z-3.000 F600.000 
G1 X257.876 Y108.510 Z-3.000 F600.000 
G1 X258.879 Y107.808 Z-3.000 F600.000 
G1 X259.929 Y107.163 Z-3.000 F600.000 
G1 X261.024 Y106.576 Z-3.000 F600.000 
G1 X262.166 Y106.046 Z-3.000 F600.000 
G1 X263.354 Y105.575 Z-3.000 F600.000 
G1 X264.590 Y105.164 Z-3.000 F600.000 
G1 X265.874 Y104.815 Z-3.000 F600.000 
G1 X267.206 Y104.527 Z-3.000 F600.000 
G1 X268.588 Y104.305 Z-3.000 F600.000 
G1 X270.019 Y104.148 Z-3.000 F600.000 
G1 X271.501 Y104.060 Z-3.000 F600.000 
G1 X272.640 Y104.040 Z-3.000 F600.000 
G1 X274.172 Y104.076 Z-3.000 F600.000 
G1 X275.720 Y104.185 Z-3.000 F600.000 
G1 X277.279 Y104.368 Z-3.000 F600.000 
G1 X278.846 Y104.624 Z-3.000 F600.000 
G1 X280.414 Y104.954 Z-3.000 F600.000 
G1 X281.979 Y105.358 Z-3.000 F600.000 
G1 X283.535 Y105.834 Z-3.000 F600.000 
G1 X285.075 Y106.381 Z-3.000 F600.000 
G1 X286.594 Y106.998 Z-3.000 F600.000 
G1 X288.087 Y107.683 Z-3.000 F600.000 
G1 X288.880 Y108.080 Z-3.000 F600.000 
G1 X289.960 Y104.760 Z-3.000 F600.000 
G0 Z5.000 
G0 Z5.000 
G0 X268.600 Y154.560 
G0 Z3.000 
G1 X268.600 Y154.560 Z-2.000 F600.000 
G1 X269.961 Y154.524 Z-2.000 F600.000 
G1 X271.268 Y154.417 Z-2.000 F600.000 
G1 X272.524 Y154.242 Z-2.000 F600.000 
G1 X273.728 Y154.002 Z-2.000 F600.000 
G1 X274.881 Y153.698 Z-2.000 F600.000 
G1 X275.985 Y153.333 Z-2.000 F600.000 
G1 X277.040 Y152.908 Z-2.000 F600.000 
G1 X278.046 Y152.424 Z-2.000 F600.000 
G1 X279.005 Y151.883 Z-2.000 F600.000 
G1 X279.916 Y151.286 Z-2.000 F600.000 
G1 X280.782 Y150.632 Z-2.000 F600.000 
G1 X281.601 Y149.922 Z-2.000 F600.000 
G1 X282.374 Y149.155 Z-2.000 F600.000 
G1 X283.100 Y148.333 Z-2.000 F600.000 
G1 X283.779 Y147.453 Z-2.000 F600.000 
G1 X284.411 Y146.516 Z-2.000 F600.000 
G1 X284.994 Y145.520 Z-2.000 F600.000 
G1 X285.527 Y144.465 Z-2.000 F600.000 
G1 X286.009 Y143.350 Z-2.000 F600.000 
G1 X286.437 Y142.174 Z-2.000 F600.000 
G1 X286.810 Y140.936 Z-2.000 F600.000 
G1 X287.125 Y139.635 Z-2.000 F600.000 
G1 X287.379 Y138.271 Z-2.000 F600.000 
G1 X287.572 Y136.843 Z-2.000 F600.000 
G1 X287.698 Y135.351 Z-2.000 F600.000 
G1 X287.760 Y133.280 Z-2.000 F600.000 
G1 X248.560 Y133.280 Z-2.000 F600.000 
G1 X248.689 Y134.917 Z-2.000 F600.000 
G1 X248.885 Y136.483 Z-2.000 F600.000 
G1 X249.145 Y137.978 Z-2.000 F600.000 
G1 X249.465 Y139.401 Z-2.000 F600.000 
G1 X249.844 Y140.756 Z-2.000 F600.000 
G1 X250.278 Y142.041 Z-2.000 F600.000 
G1 X250.765 Y143.258 Z-2.000 F600.000 
G1 X251.303 Y144.408 Z-2.000 F600.000 
G1 X251.890 Y145.493 Z-2.000 F600.000 
G1 X252.525 Y146.513 Z-2.000 F600.000 
G1 X253.206 Y147.471 Z-2.000 F600.000 
G1 X253.931 Y148.366 Z-2.000 F600.000 
G1 X254.700 Y149.200 Z-2.000 F600.000 
G1 X255.513 Y149.974 Z-2.000 F600.000 
G1 X256.368 Y150.689 Z-2.000 F600.000 
G1 X257.266 Y151.344 Z-2.000 F600.000 
G1 X258.207 Y151.941 Z-2.000 F600.000 
G1 X259.192 Y152.479 Z-2.000 F600.000 
G1 X260.220 Y152.958 Z-2.000 F600.000 
G1 X261.293 Y153.377 Z-2.000 F600.000 
G1 X262.412 Y153.735 Z-2.000 F600.000 
G1 X263.576 Y154.031 Z-2.000 F600.000 
G1 X264.788 Y154.263 Z-2.000 F600.000 
G1 X266.048 Y154.430 Z-2.000 F600.000 
G1 X267.356 Y154.530 Z-2.000 F600.000 
G1 X268.600 Y154.560 Z-2.000 F600.000 
G1 X268.600 Y154.560 Z-3.000 F600.000 
G1 X269.961 Y154.524 Z-3.000 F600.000 
G1 X271.268 Y154.417 Z-3.000 F600.000 
G1 X272.524 Y154.242 Z-3.000 F600.000 
G1 X273.728 Y154.002 Z-3.000 F600.000 
G1 X274.881 Y153.698 Z-3.000 F600.000 
G1 X275.985 Y153.333 Z-3.000 F600.000 
G1 X277.040 Y152.908 Z-3.000 F600.000 
G1 X278.046 Y152.424 Z-3.000 F600.000 
G1 X279.005 Y151.883 Z-3.000 F600.000 
G1 X279.916 Y151.286 Z-3.000 F600.000 
G1 X280.782 Y150.632 Z-3.000 F600.000 
G1 X281.601 Y149.922 Z-3.000 F600.000 
G1 X282.374 Y149.155 Z-3.000 F600.000 
G1 X283.100 Y148.333 Z-3.000 F600.000 
G1 X283.779 Y147.453 Z-3.000 F600.000 
G1 X284.411 Y146.516 Z-3.000 F600.000 
G1 X284.994 Y145.520 Z-3.000 F600.000 
G1 X285.527 Y144.465 Z-3.000 F600.000 
G1 X286.009 Y143.350 Z-3.000 F600.000 
G1 X286.437 Y142.174 Z-3.000 F600.000 
G1 X286.810 Y140.936 Z-3.000 F600.000 
G1 X287.125 Y139.635 Z-3.000 F600.000 
G1 X287.379 Y138.271 Z-3.000 F600.000 
G1 X287.572 Y136.843 Z-3.000 F600.000 
G1 X287.698 Y135.351 Z-3.000 F600.000 
G1 X287.760 Y133.280 Z-3.000 F600.000 
G1 X248.560 Y133.280 Z-3.000 F600.000 
G1 X248.689 Y134.917 Z-3.000 F600.000 
G1 X248.885 Y136.483 Z-3.000 F600.000 
G1 X249.145 Y137.978 Z-3.000 F600.000 
G1 X249.465 Y139.401 Z-3.000 F600.000 
G1 X249.844 Y140.756 Z-3.000 F600.000 
G1 X250.278 Y142.041 Z-3.000 F600.000 
G1 X250.765 Y143.258 Z-3.000 F600.000 
G1 X251.303 Y144.408 Z-3.000 F600.000 
G1 X251.890 Y145.493 Z-3.000 F600.000 
G1 X252.525 Y146.513 Z-3.000 F600.000 
G1 X253.206 Y147.471 Z-3.000 F600.000 
G1 X253.931 Y148.366 Z-3.000 F600.000 
G1 X254.700 Y149.200 Z-3.000 F600.000 
G1 X255.513 Y149.974 Z-3.000 F600.000 
G1 X256.368 Y150.689 Z-3.000 F600.000 
G1 X257.266 Y151.344 Z-3.000 F600.000 
G1 X258.207 Y151.941 Z-3.000 F600.000 
G1 X259.192 Y152.479 Z-3.000 F600.000 
G1 X260.220 Y152.958 Z-3.000 F600.000 
G1 X261.293 Y153.377 Z-3.000 F600.000 
G1 X262.412 Y153.735 Z-3.000 F600.000 
G1 X263.576 Y154.031 Z-3.000 F600.000 
G1 X264.788 Y154.263 Z-3.000 F600.000 
G1 X266.048 Y154.430 Z-3.000 F600.000 
G1 X267.356 Y154.530 Z-3.000 F600.000 
G1 X268.600 Y154.560 Z-3.000 F600.000 
G0 Z5.000 
G0 Z5.000 
G0 X346.640 Y100.000 
G0 Z3.000 
G1 X346.640 Y100.000 Z-2.000 F600.000 
G1 X341.720 Y100.000 Z-2.000 F600.000 
G1 X341.720 Y184.480 Z-2.000 F600.000 
G1 X347.480 Y184.480 Z-2.000 F600.000 
G1 X380.560 Y118.200 Z-2.000 F600.000 
G1 X414.200 Y184.480 Z-2.000 F600.000 
G1 X419.760 Y184.480 Z-2.000 F600.000 
G1 X419.760 Y100.000 Z-2.000 F600.000 
G1 X414.720 Y100.000 Z-2.000 F600.000 
G1 X414.720 Y176.000 Z-2.000 F600.000 
G1 X382.520 Y112.800 Z-2.000 F600.000 
G1 X378.200 Y112.800 Z-2.000 F600.000 
G1 X346.640 Y175.840 Z-2.000 F600.000 
G1 X346.640 Y100.000 Z-2.000 F600.000 
G1 X346.640 Y100.000 Z-3.000 F600.000 
G1 X341.720 Y100.000 Z-3.000 F600.000 
G1 X341.720 Y184.480 Z-3.000 F600.000 
G1 X347.480 Y184.480 Z-3.000 F600.000 
G1 X380.560 Y118.200 Z-3.000 F600.000 
G1 X414.200 Y184.480 Z-3.000 F600.000 
G1 X419.760 Y184.480 Z-3.000 F600.000 
G1 X419.760 Y100.000 Z-3.000 F600.000 
G1 X414.720 Y100.000 Z-3.000 F600.000 
G1 X414.720 Y176.000 Z-3.000 F600.000 
G1 X382.520 Y112.800 Z-3.000 F600.000 
G1 X378.200 Y112.800 Z-3.000 F600.000 
G1 X346.640 Y175.840 Z-3.000 F600.000 
G1 X346.640 Y100.000 Z-3.000 F600.000 
G0 Z5.000 
G0 Z5.000 
G0 X487.080 Y104.760 
G0 Z3.000 
G1 X487.080 Y104.760 Z-2.000 F600.000 
G1 X485.923 Y104.068 Z-2.000 F600.000 
G1 X484.698 Y103.420 Z-2.000 F600.000 
G1 X483.406 Y102.818 Z-2.000 F600.000 
G1 X482.049 Y102.266 Z-2.000 F600.000 
G1 X480.630 Y101.766 Z-2.000 F600.000 
G1 X479.151 Y101.323 Z-2.000 F600.000 
G1 X477.618 Y100.938 Z-2.000 F600.000 
G1 X476.034 Y100.616 Z-2.000 F600.000 
G1 X474.406 Y100.359 Z-2.000 F600.000 
G1 X472.741 Y100.169 Z-2.000 F600.000 
G1 X471.048 Y100.050 Z-2.000 F600.000 
G1 X470.045 Y100.012 Z-2.000 F600.000 
G1 X469.040 Y100.000 Z-2.000 F600.000 
G1 X467.366 Y100.036 Z-2.000 F600.000 
G1 X465.741 Y100.143 Z-2.000 F600.000 
G1 X464.165 Y100.320 Z-2.000 F600.000 
G1 X462.638 Y100.563 Z-2.000 F600.000 
G1 X461.161 Y100.872 Z-2.000 F600.000 
G1 X459.733 Y101.244 Z-2.000 F600.000 
G1 X458.354 Y101.677 Z-2.000 F600.000 
G1 X457.023 Y102.172 Z-2.000 F600.000 
G1 X455.742 Y102.725 Z-2.000 F600.000 
G1 X454.510 Y103.336 Z-2.000 F600.000 
G1 X453.326 Y104.004 Z-2.000 F600.000 
G1 X452.191 Y104.727 Z-2.000 F600.000 
G1 X451.105 Y105.506 Z-2.000 F600.000 
G1 X450.067 Y106.339 Z-2.000 F600.000 
G1 X449.079 Y107.226 Z-2.000 F600.000 
G1 X448.139 Y108.166 Z-2.000 F600.000 
G1 X447.249 Y109.160 Z-2.000 F600.000 
G1 X446.408 Y110.208 Z-2.000 F600.000 
G1 X445.619 Y111.308 Z-2.000 F600.000 
G1 X444.881 Y112.462 Z-2.000 F600.000 
G1 X444.195 Y113.669 Z-2.000 F600.000 
G1 X443.563 Y114.930 Z-2.000 F600.000 
G1 X442.986 Y116.244 Z-2.000 F600.000 
G1 X442.465 Y117.613 Z-2.000 F600.000 
G1 X442.002 Y119.035 Z-2.000 F600.000 
G1 X441.598 Y120.512 Z-2.000 F600.000 
G1 X441.255 Y122.042 Z-2.000 F600.000 
G1 X440.976 Y123.627 Z-2.000 F600.000 
G1 X440.761 Y125.266 Z-2.000 F600.000 
G1 X440.613 Y126.959 Z-2.000 F600.000 
G1 X440.533 Y128.705 Z-2.000 F600.000 
G1 X440.520 Y129.800 Z-2.000 F600.000 
G1 X440.556 Y131.560 Z-2.000 F600.000 
G1 X440.663 Y133.275 Z-2.000 F600.000 
G1 X440.840 Y134.945 Z-2.000 F600.000 
G1 X441.084 Y136.568 Z-2.000 F600.000 
G1 X441.394 Y138.142 Z-2.000 F600.000 
G1 X441.767 Y139.665 Z-2.000 F600.000 
G1 X442.202 Y141.136 Z-2.000 F600.000 
G1 X442.697 Y142.555 Z-2.000 F600.000 
G1 X443.249 Y143.919 Z-2.000 F600.000 
G1 X443.857 Y145.228 Z-2.000 F600.000 
G1 X444.519 Y146.480 Z-2.000 F600.000 
G1 X445.232 Y147.676 Z-2.000 F600.000 
G1 X445.996 Y148.815 Z-2.000 F600.000 
G1 X446.808 Y149.895 Z-2.000 F600.000 
G1 X447.667 Y150.917 Z-2.000 F600.000 
G1 X448.571 Y151.880 Z-2.000 F600.000 
G1 X449.519 Y152.783 Z-2.000 F600.000 
G1 X450.510 Y153.627 Z-2.000 F600.000 
G1 X451.542 Y154.410 Z-2.000 F600.000 
G1 X452.615 Y155.133 Z-2.000 F600.000 
G1 X453.727 Y155.795 Z-2.000 F600.000 
G1 X454.879 Y156.395 Z-2.000 F600.000 
G1 X456.069 Y156.932 Z-2.000 F600.000 
G1 X457.296 Y157.406 Z-2.000 F600.000 
G1 X458.561 Y157.817 Z-2.000 F600.000 
G1 X459.863 Y158.162 Z-2.000 F600.000 
G1 X461.201 Y158.442 Z-2.000 F600.000 
G1 X462.575 Y158.654 Z-2.000 F600.000 
G1 X463.986 Y158.797 Z-2.000 F600.000 
G1 X465.431 Y158.870 Z-2.000 F600.000 
G1 X466.200 Y158.880 Z-2.000 F600.000 
G1 X467.618 Y158.844 Z-2.000 F600.000 
G1 X469.002 Y158.737 Z-2.000 F600.000 
G1 X470.351 Y158.560 Z-2.000 F600.000 
G1 X471.665 Y158.315 Z-2.000 F600.000 
G1 X472.942 Y158.004 Z-2.000 F600.000 
G1 X474.183 Y157.627 Z-2.000 F600.000 
G1 X475.385 Y157.186 Z-2.000 F600.000 
G1 X476.548 Y156.683 Z-2.000 F600.000 
G1 X477.672 Y156.118 Z-2.000 F600.000 
G1 X478.754 Y155.493 Z-2.000 F600.000 
G1 X479.795 Y154.808 Z-2.000 F600.000 
G1 X480.792 Y154.065 Z-2.000 F600.000 
G1 X481.746 Y153.264 Z-2.000 F600.000 
G1 X482.653 Y152.407 Z-2.000 F600.000 
G1 X483.513 Y151.495 Z-2.000 F600.000 
G1 X484.325 Y150.527 Z-2.000 F600.000 
G1 X485.087 Y149.507 Z-2.000 F600.000 
G1 X485.797 Y148.434 Z-2.000 F600.000 
G1 X486.453 Y147.309 Z-2.000 F600.000 
G1 X487.054 Y146.135 Z-2.000 F600.000 
G1 X487.598 Y144.912 Z-2.000 F600.000 
G1 X488.083 Y143.641 Z-2.000 F600.000 
G1 X488.508 Y142.324 Z-2.000 F600.000 
G1 X488.870 Y140.962 Z-2.000 F600.000 
G1 X489.167 Y139.558 Z-2.000 F600.000 
G1 X489.399 Y138.112 Z-2.000 F600.000 
G1 X489.562 Y136.627 Z-2.000 F600.000 
G1 X489.656 Y135.104 Z-2.000 F600.000 
G1 X489.680 Y133.840 Z-2.000 F600.000 
G1 X489.666 Y132.069 Z-2.000 F600.000 
G1 X489.604 Y130.693 Z-2.000 F600.000 
G1 X489.537 Y130.025 Z-2.000 F600.000 
G1 X489.440 Y129.440 Z-2.000 F600.000 
G1 X445.560 Y129.440 Z-2.000 F600.000 
G1 X445.649 Y127.717 Z-2.000 F600.000 
G1 X445.807 Y126.057 Z-2.000 F600.000 
G1 X446.031 Y124.459 Z-2.000 F600.000 
G1 X446.319 Y122.925 Z-2.000 F600.000 
G1 X446.668 Y121.454 Z-2.000 F600.000 
G1 X447.077 Y120.045 Z-2.000 F600.000 
G1 X447.543 Y118.698 Z-2.000 F600.000 
G1 X448.064 Y117.413 Z-2.000 F600.000 
G1 X448.639 Y116.188 Z-2.000 F600.000 
G1 X449.265 Y115.024 Z-2.000 F600.000 
G1 X449.941 Y113.920 Z-2.000 F600.000 
G1 X450.667 Y112.874 Z-2.000 F600.000 
G1 X451.440 Y111.887 Z-2.000 F600.000 
G1 X452.260 Y110.957 Z-2.000 F600.000 
G1 X453.126 Y110.084 Z-2.000 F600.000 
G1 X454.038 Y109.269 Z-2.000 F600.000 
G1 X454.996 Y108.510 Z-2.000 F600.000 
G1 X455.999 Y107.808 Z-2.000 F600.000 
G1 X457.049 Y107.163 Z-2.000 F600.000 
G1 X458.144 Y106.576 Z-2.000 F600.000 
G1 X459.286 Y106.046 Z-2.000 F600.000 
G1 X460.474 Y105.575 Z-2.000 F600.000 
G1 X461.710 Y105.164 Z-2.000 F600.000 
G1 X462.994 Y104.815 Z-2.000 F600.000 
G1 X464.326 Y104.527 Z-2.000 F600.000 
G1 X465.708 Y104.305 Z-2.000 F600.000 
G1 X467.139 Y104.148 Z-2.000 F600.000 
G1 X468.621 Y104.060 Z-2.000 F600.000 
G1 X469.760 Y104.040 Z-2.000 F600.000 
G1 X471.292 Y104.076 Z-2.000 F600.000 
G1 X472.840 Y104.185 Z-2.000 F600.000 
G1 X474.399 Y104.368 Z-2.000 F600.000 
G1 X475.966 Y104.624 Z-2.000 F600.000 
G1 X477.534 Y104.954 Z-2.000 F600.000 
G1 X479.099 Y105.358 Z-2.000 F600.000 
G1 X480.655 Y105.834 Z-2.000 F600.000 
G1 X482.195 Y106.381 Z-2.000 F600.000 
G1 X483.714 Y106.998 Z-2.000 F600.000 
G1 X485.207 Y107.683 Z-2.000 F600.000 
G1 X486.000 Y108.080 Z-2.000 F600.000 
G1 X487.080 Y104.760 Z-2.000 F600.000 
G1 X487.080 Y104.760 Z-3.000 F600.000 
G1 X485.923 Y104.068 Z-3.000 F600.000 
G1 X484.698 Y103.420 Z-3.000 F600.000 
G1 X483.406 Y102.818 Z-3.000 F600.000 
G1 X482.049 Y102.266 Z-3.000 F600.000 
G1 X480.630 Y101.766 Z-3.000 F600.000 
G1 X479.151 Y101.323 Z-3.000 F600.000 
G1 X477.618 Y100.938 Z-3.000 F600.000 
G1 X476.034 Y100.616 Z-3.000 F600.000 
G1 X474.406 Y100.359 Z-3.000 F600.000 
G1 X472.741 Y100.169 Z-3.000 F600.000 
G1 X471.048 Y100.050 Z-3.000 F600.000 
G1 X470.045 Y100.012 Z-3.000 F600.000 
G1 X469.040 Y100.000 Z-3.000 F600.000 
G1 X467.366 Y100.036 Z-3.000 F600.000 
G1 X465.741 Y100.143 Z-3.000 F600.000 
G1 X464.165 Y100.320 Z-3.000 F600.000 
G1 X462.638 Y100.563 Z-3.000 F600.000 
G1 X461.161 Y100.872 Z-3.000 F600.000 
G1 X459.733 Y101.244 Z-3.000 F600.000 
G1 X458.354 Y101.677 Z-3.000 F600.000 
G1 X457.023 Y102.172 Z-3.000 F600.000 
G1 X455.742 Y102.725 Z-3.000 F600.000 
G1 X454.510 Y103.336 Z-3.000 F600.000 
G1 X453.326 Y104.004 Z-3.000 F600.000 
G1 X452.191 Y104.727 Z-3.000 F600.000 
G1 X451.105 Y105.506 Z-3.000 F600.000 
G1 X450.067 Y106.339 Z-3.000 F600.000 
G1 X449.079 Y107.226 Z-3.000 F600.000 
G1 X448.139 Y108.166 Z-3.000 F600.000 
G1 X447.249 Y109.160 Z-3.000 F600.000 
G1 X446.408 Y110.208 Z-3.000 F600.000 
G1 X445.619 Y111.308 Z-3.000 F600.000 
G1 X444.881 Y112.462 Z-3.000 F600.000 
G1 X444.195 Y113.669 Z-3.000 F600.000 
G1 X443.563 Y114.930 Z-3.000 F600.000 
G1 X442.986 Y116.244 Z-3.000 F600.000 
G1 X442.465 Y117.613 Z-3.000 F600.000 
G1 X442.002 Y119.035 Z-3.000 F600.000 
G1 X441.598 Y120.512 Z-3.000 F600.000 
G1 X441.255 Y122.042 Z-3.000 F600.000 
G1 X440.976 Y123.627 Z-3.000 F600.000 
G1 X440.761 Y125.266 Z-3.000 F600.000 
G1 X440.613 Y126.959 Z-3.000 F600.000 
G1 X440.533 Y128.705 Z-3.000 F600.000 
G1 X440.520 Y129.800 Z-3.000 F600.000 
G1 X440.556 Y131.560 Z-3.000 F600.000 
G1 X440.663 Y133.275 Z-3.000 F600.000 
G1 X440.840 Y134.945 Z-3.000 F600.000 
G1 X441.084 Y136.568 Z-3.000 F600.000 
G1 X441.394 Y138.142 Z-3.000 F600.000 
G1 X441.767 Y139.665 Z-3.000 F600.000 
G1 X442.202 Y141.136 Z-3.000 F600.000 
G1 X442.697 Y142.555 Z-3.000 F600.000 
G1 X443.249 Y143.919 Z-3.000 F600.000 
G1 X443.857 Y145.228 Z-3.000 F600.000 
G1 X444.519 Y146.480 Z-3.000 F600.000 
G1 X445.232 Y147.676 Z-3.000 F600.000 
G1 X445.996 Y148.815 Z-3.000 F600.000 
G1 X446.808 Y149.895 Z-3.000 F600.000 
G1 X447.667 Y150.917 Z-3.000 F600.000 
G1 X448.571 Y151.880 Z-3.000 F600.000 
G1 X449.519 Y152.783 Z-3.000 F600.000 
G1 X450.510 Y153.627 Z-3.000 F600.000 
G1 X451.542 Y154.410 Z-3.000 F600.000 
G1 X452.615 Y155.133 Z-3.000 F600.000 
G1 X453.727 Y155.795 Z-3.000 F600.000 
G1 X454.879 Y156.395 Z-3.000 F600.000 
G1 X456.069 Y156.932 Z-3.000 F600.000 
G1 X457.296 Y157.406 Z-3.000 F600.000 
G1 X458.561 Y157.817 Z-3.000 F600.000 
G1 X459.863 Y158.162 Z-3.000 F600.000 
G1 X461.201 Y158.442 Z-3.000 F600.000 
G1 X462.575 Y158.654 Z-3.000 F600.000 
G1 X463.986 Y158.797 Z-3.000 F600.000 
G1 X465.431 Y158.870 Z-3.000 F600.000 
G1 X466.200 Y158.880 Z-3.000 F600.000 
G1 X467.618 Y158.844 Z-3.000 F600.000 
G1 X469.002 Y158.737 Z-3.000 F600.000 
G1 X470.351 Y158.560 Z-3.000 F600.000 
G1 X471.665 Y158.315 Z-3.000 F600.000 
G1 X472.942 Y158.004 Z-3.000 F600.000 
G1 X474.183 Y157.627 Z-3.000 F600.000 
G1 X475.385 Y157.186 Z-3.000 F600.000 
G1 X476.548 Y156.683 Z-3.000 F600.000 
G1 X477.672 Y156.118 Z-3.000 F600.000 
G1 X478.754 Y155.493 Z-3.000 F600.000 
G1 X479.795 Y154.808 Z-3.000 F600.000 
G1 X480.792 Y154.065 Z-3.000 F600.000 
G1 X481.746 Y153.264 Z-3.000 F600.000 
G1 X482.653 Y152.407 Z-3.000 F600.000 
G1 X483.513 Y151.495 Z-3.000 F600.000 
G1 X484.325 Y150.527 Z-3.000 F600.000 
G1 X485.087 Y149.507 Z-3.000 F600.000 
G1 X485.797 Y148.434 Z-3.000 F600.000 
G1 X486.453 Y147.309 Z-3.000 F600.000 
G1 X487.054 Y146.135 Z-3.000 F600.000 
G1 X487.598 Y144.912 Z-3.000 F600.000 
G1 X488.083 Y143.641 Z-3.000 F600.000 
G1 X488.508 Y142.324 Z-3.000 F600.000 
G1 X488.870 Y140.962 Z-3.000 F600.000 
G1 X489.167 Y139.558 Z-3.000 F600.000 
G1 X489.399 Y138.112 Z-3.000 F600.000 
G1 X489.562 Y136.627 Z-3.000 F600.000 
G1 X489.656 Y135.104 Z-3.000 F600.000 
G1 X489.680 Y133.840 Z-3.000 F600.000 
G1 X489.666 Y132.069 Z-3.000 F600.000 
G1 X489.604 Y130.693 Z-3.000 F600.000 
G1 X489.537 Y130.025 Z-3.000 F600.000 
G1 X489.440 Y129.440 Z-3.000 F600.000 
G1 X445.560 Y129.440 Z-3.000 F600.000 
G1 X445.649 Y127.717 Z-3.000 F600.000 
G1 X445.807 Y126.057 Z-3.000 F600.000 
G1 X446.031 Y124.459 Z-3.000 F600.000 
G1 X446.319 Y122.925 Z-3.000 F600.000 
G1 X446.668 Y121.454 Z-3.000 F600.000 
G1 X447.077 Y120.045 Z-3.000 F600.000 
G1 X447.543 Y118.698 Z-3.000 F600.000 
G1 X448.064 Y117.413 Z-3.000 F600.000 
G1 X448.639 Y116.188 Z-3.000 F600.000 
G1 X449.265 Y115.024 Z-3.000 F600.000 
G1 X449.941 Y113.920 Z-3.000 F600.000 
G1 X450.667 Y112.874 Z-3.000 F600.000 
G1 X451.440 Y111.887 Z-3.000 F600.000 
G1 X452.260 Y110.957 Z-3.000 F600.000 
G1 X453.126 Y110.084 Z-3.000 F600.000 
G1 X454.038 Y109.269 Z-3.000 F600.000 
G1 X454.996 Y108.510 Z-3.000 F600.000 
G1 X455.999 Y107.808 Z-3.000 F600.000 
G1 X457.049 Y107.163 Z-3.000 F600.000 
G1 X458.144 Y106.576 Z-3.000 F600.000 
G1 X459.286 Y106.046 Z-3.000 F600.000 
G1 X460.474 Y105.575 Z-3.000 F600.000 
G1 X461.710 Y105.164 Z-3.000 F600.000 
G1 X462.994 Y104.815 Z-3.000 F600.000 
G1 X464.326 Y104.527 Z-3.000 F600.000 
G1 X465.708 Y104.305 Z-3.000 F600.000 
G1 X467.139 Y104.148 Z-3.000 F600.000 
G1 X468.621 Y104.060 Z-3.000 F600.000 
G1 X469.760 Y104.040 Z-3.000 F600.000 
G1 X471.292 Y104.076 Z-3.000 F600.000 
G1 X472.840 Y104.185 Z-3.000 F600.000 
G1 X474.399 Y104.368 Z-3.000 F600.000 
G1 X475.966 Y104.624 Z-3.000 F600.000 
G1 X477.534 Y104.954 Z-3.000 F600.000 
G1 X479.099 Y105.358 Z-3.000 F600.000 
G1 X480.655 Y105.834 Z-3.000 F600.000 
G1 X482.195 Y106.381 Z-3.000 F600.000 
G1 X483.714 Y106.998 Z-3.000 F600.000 
G1 X485.207 Y107.683 Z-3.000 F600.000 
G1 X486.000 Y108.080 Z-3.000 F600.000 
G1 X487.080 Y104.760 Z-3.000 F600.000 
G0 Z5.000 
G0 Z5.000 
G0 X465.720 Y154.560 
G0 Z3.000 
G1 X465.720 Y154.560 Z-2.000 F600.000 
G1 X467.081 Y154.524 Z-2.000 F600.000 
G1 X468.388 Y154.417 Z-2.000 F600.000 
G1 X469.644 Y154.242 Z-2.000 F600.000 
G1 X470.848 Y154.002 Z-2.000 F600.000 
G1 X472.001 Y153.698 Z-2.000 F600.000 
G1 X473.105 Y153.333 Z-2.000 F600.000 
G1 X474.160 Y152.908 Z-2.000 F600.000 
G1 X475.166 Y152.424 Z-2.000 F600.000 
G1 X476.125 Y151.883 Z-2.000 F600.000 
G1 X477.036 Y151.286 Z-2.000 F600.000 
G1 X477.902 Y150.632 Z-2.000 F600.000 
G1 X478.721 Y149.922 Z-2.000 F600.000 
G1 X479.494 Y149.155 Z-2.000 F600.000 
G1 X480.220 Y148.333 Z-2.000 F600.000 
G1 X480.899 Y147.453 Z-2.000 F600.000 
G1 X481.531 Y146.516 Z-2.000 F600.000 
G1 X482.114 Y145.520 Z-2.000 F600.000 
G1 X482.647 Y144.465 Z-2.000 F600.000 
G1 X483.129 Y143.350 Z-2.000 F600.000 
G1 X483.557 Y142.174 Z-2.000 F600.000 
G1 X483.930 Y140.936 Z-2.000 F600.000 
G1 X484.245 Y139.635 Z-2.000 F600.000 
G1 X484.499 Y138.271 Z-2.000 F600.000 
G1 X484.692 Y136.843 Z-2.000 F600.000 
G1 X484.818 Y135.351 Z-2.000 F600.000 
G1 X484.880 Y133.280 Z-2.000 F600.000 
G1 X445.680 Y133.280 Z-2.000 F600.000 
G1 X445.809 Y134.917 Z-2.000 F600.000 
G1 X446.005 Y136.483 Z-2.000 F600.000 
G1 X446.265 Y137.978 Z-2.000 F600.000 
G1 X446.585 Y139.401 Z-2.000 F600.000 
G1 X446.964 Y140.756 Z-2.000 F600.000 
G1 X447.398 Y142.041 Z-2.000 F600.000 
G1 X447.885 Y143.258 Z-2.000 F600.000 
G1 X448.423 Y144.408 Z-2.000 F600.000 
G1 X449.010 Y145.493 Z-2.000 F600.000 
G1 X449.645 Y146.513 Z-2.000 F600.000 
G1 X450.326 Y147.471 Z-2.000 F600.000 
G1 X451.051 Y148.366 Z-2.000 F600.000 
G1 X451.820 Y149.200 Z-2.000 F600.000 
G1 X452.633 Y149.974 Z-2.000 F600.000 
G1 X453.488 Y150.689 Z-2.000 F600.000 
G1 X454.386 Y151.344 Z-2.000 F600.000 
G1 X455.327 Y151.941 Z-2.000 F600.000 
G1 X456.312 Y152.479 Z-2.000 F600.000 
G1 X457.340 Y152.958 Z-2.000 F600.000 
G1 X458.413 Y153.377 Z-2.000 F600.000 
G1 X459.532 Y153.735 Z-2.000 F600.000 
G1 X460.696 Y154.031 Z-2.000 F600.000 
G1 X461.908 Y154.263 Z-2.000 F600.000 
G1 X463.168 Y154.430 Z-2.000 F600.000 
G1 X464.476 Y154.530 Z-2.000 F600.000 
G1 X465.720 Y154.560 Z-2.000 F600.000 
G1 X465.720 Y154.560 Z-3.000 F600.000 
G1 X467.081 Y154.524 Z-3.000 F600.000 
G1 X468.388 Y154.417 Z-3.000 F600.000 
G1 X469.644 Y154.242 Z-3.000 F600.000 
G1 X470.848 Y154.002 Z-3.000 F600.000 
G1 X472.001 Y153.698 Z-3.000 F600.000 
G1 X473.105 Y153.333 Z-3.000 F600.000 
G1 X474.160 Y152.908 Z-3.000 F600.000 
G1 X475.166 Y152.424 Z-3.000 F600.000 
G1 X476.125 Y151.883 Z-3.000 F600.000 
G1 X477.036 Y151.286 Z-3.000 F600.000 
G1 X477.902 Y150.632 Z-3.000 F600.000 
G1 X478.721 Y149.922 Z-3.000 F600.000 
G1 X479.494 Y149.155 Z-3.000 F600.000 
G1 X480.220 Y148.333 Z-3.000 F600.000 
G1 X480.899 Y147.453 Z-3.000 F600.000 
G1 X481.531 Y146.516 Z-3.000 F600.000 
G1 X482.114 Y145.520 Z-3.000 F600.000 
G1 X482.647 Y144.465 Z-3.000 F600.000 
G1 X483.129 Y143.350 Z-3.000 F600.000 
G1 X483.557 Y142.174 Z-3.000 F600.000 
G1 X483.930 Y140.936 Z-3.000 F600.000 
G1 X484.245 Y139.635 Z-3.000 F600.000 
G1 X484.499 Y138.271 Z-3.000 F600.000 
G1 X484.692 Y136.843 Z-3.000 F600.000 
G1 X484.818 Y135.351 Z-3.000 F600.000 
G1 X484.880 Y133.280 Z-3.000 F600.000 
G1 X445.680 Y133.280 Z-3.000 F600.000 
G1 X445.809 Y134.917 Z-3.000 F600.000 
G1 X446.005 Y136.483 Z-3.000 F600.000 
G1 X446.265 Y137.978 Z-3.000 F600.000 
G1 X446.585 Y139.401 Z-3.000 F600.000 
G1 X446.964 Y140.756 Z-3.000 F600.000 
G1 X447.398 Y142.041 Z-3.000 F600.000 
G1 X447.885 Y143.258 Z-3.000 F600.000 
G1 X448.423 Y144.408 Z-3.000 F600.000 
G1 X449.010 Y145.493 Z-3.000 F600.000 
G1 X449.645 Y146.513 Z-3.000 F600.000 
G1 X450.326 Y147.471 Z-3.000 F600.000 
G1 X451.051 Y148.366 Z-3.000 F600.000 
G1 X451.820 Y149.200 Z-3.000 F600.000 
G1 X452.633 Y149.974 Z-3.000 F600.000 
G1 X453.488 Y150.689 Z-3.000 F600.000 
G1 X454.386 Y151.344 Z-3.000 F600.000 
G1 X455.327 Y151.941 Z-3.000 F600.000 
G1 X456.312 Y152.479 Z-3.000 F600.000 
G1 X457.340 Y152.958 Z-3.000 F600.000 
G1 X458.413 Y153.377 Z-3.000 F600.000 
G1 X459.532 Y153.735 Z-3.000 F600.000 
G1 X460.696 Y154.031 Z-3.000 F600.000 
G1 X461.908 Y154.263 Z-3.000 F600.000 
G1 X463.168 Y154.430 Z-3.000 F600.000 
G1 X464.476 Y154.530 Z-3.000 F600.000 
G1 X465.720 Y154.560 Z-3.000 F600.000 
G0 Z5.000 
G0 Z5.000 
G0 X555.040 Y100.000 
G0 Z3.000 
G1 X555.040 Y100.000 Z-2.000 F600.000 
G1 X550.000 Y100.000 Z-2.000 F600.000 
G1 X550.000 Y137.200 Z-2.000 F600.000 
G1 X549.964 Y138.645 Z-2.000 F600.000 
G1 X549.857 Y140.015 Z-2.000 F600.000 
G1 X549.685 Y141.310 Z-2.000 F600.000 
G1 X549.449 Y142.533 Z-2.000 F600.000 
G1 X549.153 Y143.687 Z-2.000 F600.000 
G1 X548.800 Y144.773 Z-2.000 F600.000 
G1 X548.392 Y145.795 Z-2.000 F600.000 
G1 X547.932 Y146.754 Z-2.000 F600.000 
G1 X547.419 Y147.652 Z-2.000 F600.000 
G1 X546.857 Y148.493 Z-2.000 F600.000 
G1 X546.245 Y149.277 Z-2.000 F600.000 
G1 X545.584 Y150.007 Z-2.000 F600.000 
G1 X544.872 Y150.683 Z-2.000 F600.000 
G1 X544.110 Y151.308 Z-2.000 F600.000 
G1 X543.296 Y151.880 Z-2.000 F600.000 
G1 X542.429 Y152.400 Z-2.000 F600.000 
G1 X541.506 Y152.869 Z-2.000 F600.000 
G1 X540.526 Y153.284 Z-2.000 F600.000 
G1 X539.487 Y153.645 Z-2.000 F600.000 
G1 X538.385 Y153.950 Z-2.000 F600.000 
G1 X537.220 Y154.196 Z-2.000 F600.000 
G1 X535.987 Y154.381 Z-2.000 F600.000 
G1 X534.684 Y154.503 Z-2.000 F600.000 
G1 X533.813 Y154.546 Z-2.000 F600.000 
G1 X532.920 Y154.560 Z-2.000 F600.000 
G1 X531.475 Y154.524 Z-2.000 F600.000 
G1 X530.027 Y154.415 Z-2.000 F600.000 
G1 X528.581 Y154.235 Z-2.000 F600.000 
G1 X527.144 Y153.982 Z-2.000 F600.000 
G1 X525.725 Y153.659 Z-2.000 F600.000 
G1 X524.332 Y153.268 Z-2.000 F600.000 
G1 X522.971 Y152.810 Z-2.000 F600.000 
G1 X521.649 Y152.290 Z-2.000 F600.000 
G1 X520.375 Y151.710 Z-2.000 F600.000 
G1 X519.155 Y151.075 Z-2.000 F600.000 
G1 X517.993 Y150.388 Z-2.000 F600.000 
G1 X516.895 Y149.654 Z-2.000 F600.000 
G1 X515.864 Y148.879 Z-2.000 F600.000 
G1 X514.904 Y148.065 Z-2.000 F600.000 
G1 X514.444 Y147.638 Z-2.000 F600.000 
G1 X514.000 Y147.200 Z-2.000 F600.000 
G1 X514.000 Y100.000 Z-2.000 F600.000 
G1 X508.960 Y100.000 Z-2.000 F600.000 
G1 X508.960 Y158.880 Z-2.000 F600.000 
G1 X512.640 Y158.880 Z-2.000 F600.000 
G1 X513.600 Y151.160 Z-2.000 F600.000 
G1 X514.664 Y152.089 Z-2.000 F600.000 
G1 X515.780 Y152.967 Z-2.000 F600.000 
G1 X516.947 Y153.793 Z-2.000 F600.000 
G1 X518.161 Y154.564 Z-2.000 F600.000 
G1 X519.422 Y155.278 Z-2.000 F600.000 
G1 X520.725 Y155.933 Z-2.000 F600.000 
G1 X522.069 Y156.527 Z-2.000 F600.000 
G1 X523.451 Y157.058 Z-2.000 F600.000 
G1 X524.867 Y157.525 Z-2.000 F600.000 
G1 X526.313 Y157.924 Z-2.000 F600.000 
G1 X527.786 Y158.256 Z-2.000 F600.000 
G1 X529.283 Y158.519 Z-2.000 F600.000 
G1 X530.799 Y158.711 Z-2.000 F600.000 
G1 X532.330 Y158.831 Z-2.000 F600.000 
G1 X533.223 Y158.868 Z-2.000 F600.000 
G1 X534.120 Y158.880 Z-2.000 F600.000 
G1 X535.612 Y158.844 Z-2.000 F600.000 
G1 X537.046 Y158.737 Z-2.000 F600.000 
G1 X538.422 Y158.563 Z-2.000 F600.000 
G1 X539.741 Y158.323 Z-2.000 F600.000 
G1 X541.003 Y158.020 Z-2.000 F600.000 
G1 X542.209 Y157.657 Z-2.000 F600.000 
G1 X543.360 Y157.234 Z-2.000 F600.000 
G1 X544.456 Y156.755 Z-2.000 F600.000 
G1 X545.499 Y156.221 Z-2.000 F600.000 
G1 X546.488 Y155.633 Z-2.000 F600.000 
G1 X547.424 Y154.991 Z-2.000 F600.000 
G1 X548.308 Y154.298 Z-2.000 F600.000 
G1 X549.141 Y153.553 Z-2.000 F600.000 
G1 X549.922 Y152.757 Z-2.000 F600.000 
G1 X550.651 Y151.909 Z-2.000 F600.000 
G1 X551.328 Y151.010 Z-2.000 F600.000 
G1 X551.953 Y150.060 Z-2.000 F600.000 
G1 X552.525 Y149.057 Z-2.000 F600.000 
G1 X553.043 Y148.002 Z-2.000 F600.000 
G1 X553.505 Y146.894 Z-2.000 F600.000 
G1 X553.911 Y145.733 Z-2.000 F600.000 
G1 X554.258 Y144.517 Z-2.000 F600.000 
G1 X554.544 Y143.246 Z-2.000 F600.000 
G1 X554.768 Y141.920 Z-2.000 F600.000 
G1 X554.926 Y140.539 Z-2.000 F600.000 
G1 X555.017 Y139.102 Z-2.000 F600.000 
G1 X555.034 Y138.514 Z-2.000 F600.000 
G1 X555.040 Y137.920 Z-2.000 F600.000 
G1 X555.040 Y100.000 Z-2.000 F600.000 
G1 X555.040 Y100.000 Z-3.000 F600.000 
G1 X550.000 Y100.000 Z-3.000 F600.000 
G1 X550.000 Y137.200 Z-3.000 F600.000 
G1 X549.964 Y138.645 Z-3.000 F600.000 
G1 X549.857 Y140.015 Z-3.000 F600.000 
G1 X549.685 Y141.310 Z-3.000 F600.000 
G1 X549.449 Y142.533 Z-3.000 F600.000 
G1 X549.153 Y143.687 Z-3.000 F600.000 
G1 X548.800 Y144.773 Z-3.000 F600.000 
G1 X548.392 Y145.795 Z-3.000 F600.000 
G1 X547.932 Y146.754 Z-3.000 F600.000 
G1 X547.419 Y147.652 Z-3.000 F600.000 
G1 X546.857 Y148.493 Z-3.000 F600.000 
G1 X546.245 Y149.277 Z-3.000 F600.000 
G1 X545.584 Y150.007 Z-3.000 F600.000 
G1 X544.872 Y150.683 Z-3.000 F600.000 
G1 X544.110 Y151.308 Z-3.000 F600.000 
G1 X543.296 Y151.880 Z-3.000 F600.000 
G1 X542.429 Y152.400 Z-3.000 F600.000 
G1 X541.506 Y152.869 Z-3.000 F600.000 
G1 X540.526 Y153.284 Z-3.000 F600.000 
G1 X539.487 Y153.645 Z-3.000 F600.000 
G1 X538.385 Y153.950 Z-3.000 F600.000 
G1 X537.220 Y154.196 Z-3.000 F600.000 
G1 X535.987 Y154.381 Z-3.000 F600.000 
G1 X534.684 Y154.503 Z-3.000 F600.000 
G1 X533.813 Y154.546 Z-3.000 F600.000 
G1 X532.920 Y154.560 Z-3.000 F600.000 
G1 X531.475 Y154.524 Z-3.000 F600.000 
G1 X530.027 Y154.415 Z-3.000 F600.000 
G1 X528.581 Y154.235 Z-3.000 F600.000 
G1 X527.144 Y153.982 Z-3.000 F600.000 
G1 X525.725 Y153.659 Z-3.000 F600.000 
G1 X524.332 Y153.268 Z-3.000 F600.000 
G1 X522.971 Y152.810 Z-3.000 F600.000 
G1 X521.649 Y152.290 Z-3.000 F600.000 
G1 X520.375 Y151.710 Z-3.000 F600.000 
G1 X519.155 Y151.075 Z-3.000 F600.000 
G1 X517.993 Y150.388 Z-3.000 F600.000 
G1 X516.895 Y149.654 Z-3.000 F600.000 
G1 X515.864 Y148.879 Z-3.000 F600.000 
G1 X514.904 Y148.065 Z-3.000 F600.000 
G1 X514.444 Y147.638 Z-3.000 F600.000 
G1 X514.000 Y147.200 Z-3.000 F600.000 
G1 X514.000 Y100.000 Z-3.000 F600.000 
G1 X508.960 Y100.000 Z-3.000 F600.000 
G1 X508.960 Y158.880 Z-3.000 F600.000 
G1 X512.640 Y158.880 Z-3.000 F600.000 
G1 X513.600 Y151.160 Z-3.000 F600.000 
G1 X514.664 Y152.089 Z-3.000 F600.000 
G1 X515.780 Y152.967 Z-3.000 F600.000 
G1 X516.947 Y153.793 Z-3.000 F600.000 
G1 X518.161 Y154.564 Z-3.000 F600.000 
G1 X519.422 Y155.278 Z-3.000 F600.000 
G1 X520.725 Y155.933 Z-3.000 F600.000 
G1 X522.069 Y156.527 Z-3.000 F600.000 
G1 X523.451 Y157.058 Z-3.000 F600.000 
G1 X524.867 Y157.525 Z-3.000 F600.000 
G1 X526.313 Y157.924 Z-3.000 F600.000 
G1 X527.786 Y158.256 Z-3.000 F600.000 
G1 X529.283 Y158.519 Z-3.000 F600.000 
G1 X530.799 Y158.711 Z-3.000 F600.000 
G1 X532.330 Y158.831 Z-3.000 F600.000 
G1 X533.223 Y158.868 Z-3.000 F600.000 
G1 X534.120 Y158.880 Z-3.000 F600.000 
G1 X535.612 Y158.844 Z-3.000 F600.000 
G1 X537.046 Y158.737 Z-3.000 F600.000 
G1 X538.422 Y158.563 Z-3.000 F600.000 
G1 X539.741 Y158.323 Z-3.000 F600.000 
G1 X541.003 Y158.020 Z-3.000 F600.000 
G1 X542.209 Y157.657 Z-3.000 F600.000 
G1 X543.360 Y157.234 Z-3.000 F600.000 
G1 X544.456 Y156.755 Z-3.000 F600.000 
G1 X545.499 Y156.221 Z-3.000 F600.000 
G1 X546.488 Y155.633 Z-3.000 F600.000 
G1 X547.424 Y154.991 Z-3.000 F600.000 
G1 X548.308 Y154.298 Z-3.000 F600.000 
G1 X549.141 Y153.553 Z-3.000 F600.000 
G1 X549.922 Y152.757 Z-3.000 F600.000 
G1 X550.651 Y151.909 Z-3.000 F600.000 
G1 X551.328 Y151.010 Z-3.000 F600.000 
G1 X551.953 Y150.060 Z-3.000 F600.000 
G1 X552.525 Y149.057 Z-3.000 F600.000 
G1 X553.043 Y148.002 Z-3.000 F600.000 
G1 X553.505 Y146.894 Z-3.000 F600.000 
G1 X553.911 Y145.733 Z-3.000 F600.000 
G1 X554.258 Y144.517 Z-3.000 F600.000 
G1 X554.544 Y143.246 Z-3.000 F600.000 
G1 X554.768 Y141.920 Z-3.000 F600.000 
G1 X554.926 Y140.539 Z-3.000 F600.000 
G1 X555.017 Y139.102 Z-3.000 F600.000 
G1 X555.034 Y138.514 Z-3.000 F600.000 
G1 X555.040 Y137.920 Z-3.000 F600.000 
G1 X555.040 Y100.000 Z-3.000 F600.000 
G0 Z5.000 
G0 Z5.000 
G0 X582.480 Y151.880 
G0 Z3.000 
G1 X582.480 Y151.880 Z-2.000 F600.000 
G1 X578.440 Y151.880 Z-2.000 F600.000 
G1 X577.680 Y184.480 Z-2.000 F600.000 
G1 X583.240 Y184.480 Z-2.000 F600.000 
G1 X582.480 Y151.880 Z-2.000 F600.000 
G1 X582.480 Y151.880 Z-3.000 F600.000 
G1 X578.440 Y151.880 Z-3.000 F600.000 
G1 X577.680 Y184.480 Z-3.000 F600.000 
G1 X583.240 Y184.480 Z-3.000 F600.000 
G1 X582.480 Y151.880 Z-3.000 F600.000 
G0 Z5.000 
G0 Z5.000 
G0 X643.720 Y115.920 
G0 Z3.000 
G1 X643.720 Y115.920 Z-2.000 F600.000 
G1 X643.684 Y114.801 Z-2.000 F600.000 
G1 X643.577 Y113.723 Z-2.000 F600.000 
G1 X643.401 Y112.683 Z-2.000 F600.000 
G1 X643.159 Y111.681 Z-2.000 F600.000 
G1 X642.851 Y110.718 Z-2.000 F600.000 
G1 X642.479 Y109.791 Z-2.000 F600.000 
G1 X642.044 Y108.901 Z-2.000 F600.000 
G1 X641.546 Y108.048 Z-2.000 F600.000 
G1 X640.984 Y107.230 Z-2.000 F600.000 
G1 X640.360 Y106.449 Z-2.000 F600.000 
G1 X639.671 Y105.704 Z-2.000 F600.000 
G1 X638.917 Y104.997 Z-2.000 F600.000 
G1 X638.096 Y104.327 Z-2.000 F600.000 
G1 X637.209 Y103.697 Z-2.000 F600.000 
G1 X636.252 Y103.108 Z-2.000 F600.000 
G1 X635.226 Y102.561 Z-2.000 F600.000 
G1 X634.127 Y102.060 Z-2.000 F600.000 
G1 X632.956 Y101.606 Z-2.000 F600.000 
G1 X631.711 Y101.202 Z-2.000 F600.000 
G1 X630.391 Y100.851 Z-2.000 F600.000 
G1 X628.995 Y100.556 Z-2.000 F600.000 
G1 X627.523 Y100.321 Z-2.000 F600.000 
G1 X625.975 Y100.147 Z-2.000 F600.000 
G1 X624.349 Y100.039 Z-2.000 F600.000 
G1 X622.560 Y100.000 Z-2.000 F600.000 
G1 X620.810 Y100.036 Z-2.000 F600.000 
G1 X619.000 Y100.146 Z-2.000 F600.000 
G1 X617.140 Y100.332 Z-2.000 F600.000 
G1 X615.240 Y100.595 Z-2.000 F600.000 
G1 X613.314 Y100.936 Z-2.000 F600.000 
G1 X611.374 Y101.352 Z-2.000 F600.000 
G1 X609.435 Y101.843 Z-2.000 F600.000 
G1 X607.511 Y102.406 Z-2.000 F600.000 
G1 X605.615 Y103.036 Z-2.000 F600.000 
G1 X603.761 Y103.728 Z-2.000 F600.000 
G1 X601.960 Y104.479 Z-2.000 F600.000 
G1 X601.256 Y104.795 Z-2.000 F600.000 
G1 X600.560 Y105.120 Z-2.000 F600.000 
G1 X601.920 Y108.960 Z-2.000 F600.000 
G1 X603.583 Y108.238 Z-2.000 F600.000 
G1 X605.332 Y107.558 Z-2.000 F600.000 
G1 X607.155 Y106.925 Z-2.000 F600.000 
G1 X609.040 Y106.348 Z-2.000 F600.000 
G1 X610.971 Y105.832 Z-2.000 F600.000 
G1 X612.928 Y105.384 Z-2.000 F600.000 
G1 X614.892 Y105.008 Z-2.000 F600.000 
G1 X616.840 Y104.708 Z-2.000 F600.000 
G1 X618.750 Y104.488 Z-2.000 F600.000 
G1 X620.599 Y104.347 Z-2.000 F600.000 
G1 X622.920 Y104.280 Z-2.000 F600.000 
G1 X624.504 Y104.316 Z-2.000 F600.000 
G1 X625.991 Y104.422 Z-2.000 F600.000 
G1 X627.383 Y104.592 Z-2.000 F600.000 
G1 X628.681 Y104.823 Z-2.000 F600.000 
G1 X629.886 Y105.111 Z-2.000 F600.000 
G1 X631.000 Y105.451 Z-2.000 F600.000 
G1 X632.027 Y105.839 Z-2.000 F600.000 
G1 X632.970 Y106.272 Z-2.000 F600.000 
G1 X633.830 Y106.746 Z-2.000 F600.000 
G1 X634.612 Y107.260 Z-2.000 F600.000 
G1 X635.318 Y107.810 Z-2.000 F600.000 
G1 X635.952 Y108.395 Z-2.000 F600.000 
G1 X636.517 Y109.015 Z-2.000 F600.000 
G1 X637.014 Y109.668 Z-2.000 F600.000 
G1 X637.445 Y110.356 Z-2.000 F600.000 
G1 X637.813 Y111.078 Z-2.000 F600.000 
G1 X638.116 Y111.836 Z-2.000 F600.000 
G1 X638.356 Y112.631 Z-2.000 F600.000 
G1 X638.531 Y113.465 Z-2.000 F600.000 
G1 X638.640 Y114.340 Z-2.000 F600.000 
G1 X638.670 Y114.825 Z-2.000 F600.000 
G1 X638.680 Y115.320 Z-2.000 F600.000 
G1 X638.644 Y116.232 Z-2.000 F600.000 
G1 X638.539 Y117.086 Z-2.000 F600.000 
G1 X638.369 Y117.889 Z-2.000 F600.000 
G1 X638.135 Y118.646 Z-2.000 F600.000 
G1 X637.839 Y119.363 Z-2.000 F600.000 
G1 X637.480 Y120.045 Z-2.000 F600.000 
G1 X637.057 Y120.696 Z-2.000 F600.000 
G1 X636.565 Y121.319 Z-2.000 F600.000 
G1 X636.000 Y121.920 Z-2.000 F600.000 
G1 X635.356 Y122.499 Z-2.000 F600.000 
G1 X634.625 Y123.060 Z-2.000 F600.000 
G1 X633.796 Y123.606 Z-2.000 F600.000 
G1 X632.858 Y124.137 Z-2.000 F600.000 
G1 X631.794 Y124.658 Z-2.000 F600.000 
G1 X630.583 Y125.171 Z-2.000 F600.000 
G1 X629.196 Y125.683 Z-2.000 F600.000 
G1 X627.587 Y126.202 Z-2.000 F600.000 
G1 X625.671 Y126.748 Z-2.000 F600.000 
G1 X623.261 Y127.367 Z-2.000 F600.000 
G1 X619.409 Y128.303 Z-2.000 F600.000 
G1 X616.594 Y129.023 Z-2.000 F600.000 
G1 X614.382 Y129.656 Z-2.000 F600.000 
G1 X612.558 Y130.254 Z-2.000 F600.000 
G1 X610.998 Y130.843 Z-2.000 F600.000 
G1 X609.643 Y131.436 Z-2.000 F600.000 
G1 X608.459 Y132.034 Z-2.000 F600.000 
G1 X607.417 Y132.645 Z-2.000 F600.000 
G1 X606.495 Y133.270 Z-2.000 F600.000 
G1 X605.679 Y133.913 Z-2.000 F600.000 
G1 X604.957 Y134.576 Z-2.000 F600.000 
G1 X604.319 Y135.262 Z-2.000 F600.000 
G1 X603.759 Y135.972 Z-2.000 F600.000 
G1 X603.271 Y136.711 Z-2.000 F600.000 
G1 X602.850 Y137.481 Z-2.000 F600.000 
G1 X602.495 Y138.286 Z-2.000 F600.000 
G1 X602.203 Y139.130 Z-2.000 F600.000 
G1 X601.974 Y140.018 Z-2.000 F600.000 
G1 X601.809 Y140.955 Z-2.000 F600.000 
G1 X601.710 Y141.947 Z-2.000 F600.000 
G1 X601.680 Y142.920 Z-2.000 F600.000 
G1 X601.716 Y143.989 Z-2.000 F600.000 
G1 X601.823 Y145.025 Z-2.000 F600.000 
G1 X601.999 Y146.027 Z-2.000 F600.000 
G1 X602.243 Y146.996 Z-2.000 F600.000 
G1 X602.553 Y147.933 Z-2.000 F600.000 
G1 X602.928 Y148.839 Z-2.000 F600.000 
G1 X603.370 Y149.714 Z-2.000 F600.000 
G1 X603.877 Y150.558 Z-2.000 F600.000 
G1 X604.450 Y151.371 Z-2.000 F600.000 
G1 X605.089 Y152.153 Z-2.000 F600.000 
G1 X605.797 Y152.902 Z-2.000 F600.000 
G1 X606.573 Y153.618 Z-2.000 F600.000 
G1 X607.419 Y154.300 Z-2.000 F600.000 
G1 X608.337 Y154.944 Z-2.000 F600.000 
G1 X609.326 Y155.551 Z-2.000 F600.000 
G1 X610.389 Y156.116 Z-2.000 F600.000 
G1 X611.526 Y156.638 Z-2.000 F600.000 
G1 X612.737 Y157.113 Z-2.000 F600.000 
G1 X614.023 Y157.539 Z-2.000 F600.000 
G1 X615.383 Y157.912 Z-2.000 F600.000 
G1 X616.817 Y158.229 Z-2.000 F600.000 
G1 X618.324 Y158.487 Z-2.000 F600.000 
G1 X619.902 Y158.683 Z-2.000 F600.000 
G1 X621.550 Y158.813 Z-2.000 F600.000 
G1 X622.722 Y158.863 Z-2.000 F600.000 
G1 X623.920 Y158.880 Z-2.000 F600.000 
G1 X625.644 Y158.844 Z-2.000 F600.000 
G1 X627.424 Y158.735 Z-2.000 F600.000 
G1 X629.231 Y158.551 Z-2.000 F600.000 
G1 X631.032 Y158.295 Z-2.000 F600.000 
G1 X632.794 Y157.972 Z-2.000 F600.000 
G1 X634.485 Y157.589 Z-2.000 F600.000 
G1 X636.075 Y157.153 Z-2.000 F600.000 
G1 X637.543 Y156.677 Z-2.000 F600.000 
G1 X638.873 Y156.169 Z-2.000 F600.000 
G1 X640.056 Y155.640 Z-2.000 F600.000 
G1 X640.760 Y155.280 Z-2.000 F600.000 
G1 X639.400 Y151.520 Z-2.000 F600.000 
G1 X638.104 Y152.038 Z-2.000 F600.000 
G1 X636.665 Y152.535 Z-2.000 F600.000 
G1 X635.095 Y152.999 Z-2.000 F600.000 
G1 X633.415 Y153.420 Z-2.000 F600.000 
G1 X631.653 Y153.786 Z-2.000 F600.000 
G1 X629.840 Y154.088 Z-2.000 F600.000 
G1 X628.011 Y154.318 Z-2.000 F600.000 
G1 X626.198 Y154.473 Z-2.000 F600.000 
G1 X624.433 Y154.550 Z-2.000 F600.000 
G1 X623.560 Y154.560 Z-2.000 F600.000 
G1 X621.932 Y154.524 Z-2.000 F600.000 
G1 X620.386 Y154.418 Z-2.000 F600.000 
G1 X618.924 Y154.246 Z-2.000 F600.000 
G1 X617.549 Y154.012 Z-2.000 F600.000 
G1 X616.262 Y153.720 Z-2.000 F600.000 
G1 X615.063 Y153.374 Z-2.000 F600.000 
G1 X613.954 Y152.980 Z-2.000 F600.000 
G1 X612.932 Y152.540 Z-2.000 F600.000 
G1 X611.997 Y152.059 Z-2.000 F600.000 
G1 X611.147 Y151.540 Z-2.000 F600.000 
G1 X610.379 Y150.988 Z-2.000 F600.000 
G1 X609.690 Y150.403 Z-2.000 F600.000 
G1 X609.078 Y149.789 Z-2.000 F600.000 
G1 X608.541 Y149.146 Z-2.000 F600.000 
G1 X608.075 Y148.477 Z-2.000 F600.000 
G1 X607.680 Y147.780 Z-2.000 F600.000 
G1 X607.353 Y147.056 Z-2.000 F600.000 
G1 X607.093 Y146.304 Z-2.000 F600.000 
G1 X606.901 Y145.524 Z-2.000 F600.000 
G1 X606.777 Y144.713 Z-2.000 F600.000 
G1 X606.734 Y144.182 Z-2.000 F600.000 
G1 X606.720 Y143.640 Z-2.000 F600.000 
G1 X606.756 Y142.779 Z-2.000 F600.000 
G1 X606.861 Y141.972 Z-2.000 F600.000 
G1 X607.031 Y141.214 Z-2.000 F600.000 
G1 X607.265 Y140.499 Z-2.000 F600.000 
G1 X607.563 Y139.820 Z-2.000 F600.000 
G1 X607.924 Y139.174 Z-2.000 F600.000 
G1 X608.352 Y138.556 Z-2.000 F600.000 
G1 X608.851 Y137.961 Z-2.000 F600.000 
G1 X609.427 Y137.387 Z-2.000 F600.000 
G1 X610.087 Y136.831 Z-2.000 F600.000 
G1 X610.840 Y136.290 Z-2.000 F600.000 
G1 X611.698 Y135.762 Z-2.000 F600.000 
G1 X612.676 Y135.245 Z-2.000 F600.000 
G1 X613.793 Y134.735 Z-2.000 F600.000 
G1 X615.076 Y134.227 Z-2.000 F600.000 
G1 X616.563 Y133.714 Z-2.000 F600.000 
G1 X618.320 Y133.180 Z-2.000 F600.000 
G1 X620.481 Y132.595 Z-2.000 F600.000 
G1 X623.444 Y131.853 Z-2.000 F600.000 
G1 X625.457 Y131.356 Z-2.000 F600.000 
G1 X628.277 Y130.621 Z-2.000 F600.000 
G1 X630.500 Y129.972 Z-2.000 F600.000 
G1 X632.344 Y129.359 Z-2.000 F600.000 
G1 X633.930 Y128.753 Z-2.000 F600.000 
G1 X635.312 Y128.145 Z-2.000 F600.000 
G1 X636.524 Y127.529 Z-2.000 F600.000 
G1 X637.596 Y126.901 Z-2.000 F600.000 
G1 X638.548 Y126.259 Z-2.000 F600.000 
G1 X639.394 Y125.598 Z-2.000 F600.000 
G1 X640.147 Y124.916 Z-2.000 F600.000 
G1 X640.814 Y124.213 Z-2.000 F600.000 
G1 X641.404 Y123.484 Z-2.000 F600.000 
G1 X641.921 Y122.727 Z-2.000 F600.000 
G1 X642.370 Y121.939 Z-2.000 F600.000 
G1 X642.754 Y121.117 Z-2.000 F600.000 
G1 X643.074 Y120.255 Z-2.000 F600.000 
G1 X643.331 Y119.351 Z-2.000 F600.000 
G1 X643.525 Y118.399 Z-2.000 F600.000 
G1 X643.654 Y117.394 Z-2.000 F600.000 
G1 X643.703 Y116.670 Z-2.000 F600.000 
G1 X643.720 Y115.920 Z-2.000 F600.000 
G1 X643.720 Y115.920 Z-3.000 F600.000 
G1 X643.684 Y114.801 Z-3.000 F600.000 
G1 X643.577 Y113.723 Z-3.000 F600.000 
G1 X643.401 Y112.683 Z-3.000 F600.000 
G1 X643.159 Y111.681 Z-3.000 F600.000 
G1 X642.851 Y110.718 Z-3.000 F600.000 
G1 X642.479 Y109.791 Z-3.000 F600.000 
G1 X642.044 Y108.901 Z-3.000 F600.000 
G1 X641.546 Y108.048 Z-3.000 F600.000 
G1 X640.984 Y107.230 Z-3.000 F600.000 
G1 X640.360 Y106.449 Z-3.000 F600.000 
G1 X639.671 Y105.704 Z-3.000 F600.000 
G1 X638.917 Y104.997 Z-3.000 F600.000 
G1 X638.096 Y104.327 Z-3.000 F600.000 
G1 X637.209 Y103.697 Z-3.000 F600.000 
G1 X636.252 Y103.108 Z-3.000 F600.000 
G1 X635.226 Y102.561 Z-3.000 F600.000 
G1 X634.127 Y102.060 Z-3.000 F600.000 
G1 X632.956 Y101.606 Z-3.000 F600.000 
G1 X631.711 Y101.202 Z-3.000 F600.000 
G1 X630.391 Y100.851 Z-3.000 F600.000 
G1 X628.995 Y100.556 Z-3.000 F600.000 
G1 X627.523 Y100.321 Z-3.000 F600.000 
G1 X625.975 Y100.147 Z-3.000 F600.000 
G1 X624.349 Y100.039 Z-3.000 F600.000 
G1 X622.560 Y100.000 Z-3.000 F600.000 
G1 X620.810 Y100.036 Z-3.000 F600.000 
G1 X619.000 Y100.146 Z-3.000 F600.000 
G1 X617.140 Y100.332 Z-3.000 F600.000 
G1 X615.240 Y100.595 Z-3.000 F600.000 
G1 X613.314 Y100.936 Z-3.000 F600.000 
G1 X611.374 Y101.352 Z-3.000 F600.000 
G1 X609.435 Y101.843 Z-3.000 F600.000 
G1 X607.511 Y102.406 Z-3.000 F600.000 
G1 X605.615 Y103.036 Z-3.000 F600.000 
G1 X603.761 Y103.728 Z-3.000 F600.000 
G1 X601.960 Y104.479 Z-3.000 F600.000 
G1 X601.256 Y104.795 Z-3.000 F600.000 
G1 X600.560 Y105.120 Z-3.000 F600.000 
G1 X601.920 Y108.960 Z-3.000 F600.000 
G1 X603.583 Y108.238 Z-3.000 F600.000 
G1 X605.332 Y107.558 Z-3.000 F600.000 
G1 X607.155 Y106.925 Z-3.000 F600.000 
G1 X609.040 Y106.348 Z-3.000 F600.000 
G1 X610.971 Y105.832 Z-3.000 F600.000 
G1 X612.928 Y105.384 Z-3.000 F600.000 
G1 X614.892 Y105.008 Z-3.000 F600.000 
G1 X616.840 Y104.708 Z-3.000 F600.000 
G1 X618.750 Y104.488 Z-3.000 F600.000 
G1 X620.599 Y104.347 Z-3.000 F600.000 
G1 X622.920 Y104.280 Z-3.000 F600.000 
G1 X624.504 Y104.316 Z-3.000 F600.000 
G1 X625.991 Y104.422 Z-3.000 F600.000 
G1 X627.383 Y104.592 Z-3.000 F600.000 
G1 X628.681 Y104.823 Z-3.000 F600.000 
G1 X629.886 Y105.111 Z-3.000 F600.000 
G1 X631.000 Y105.451 Z-3.000 F600.000 
G1 X632.027 Y105.839 Z-3.000 F600.000 
G1 X632.970 Y106.272 Z-3.000 F600.000 
G1 X633.830 Y106.746 Z-3.000 F600.000 
G1 X634.612 Y107.260 Z-3.000 F600.000 
G1 X635.318 Y107.810 Z-3.000 F600.000 
G1 X635.952 Y108.395 Z-3.000 F600.000 
G1 X636.517 Y109.015 Z-3.000 F600.000 
G1 X637.014 Y109.668 Z-3.000 F600.000 
G1 X637.445 Y110.356 Z-3.000 F600.000 
G1 X637.813 Y111.078 Z-3.000 F600.000 
G1 X638.116 Y111.836 Z-3.000 F600.000 
G1 X638.356 Y112.631 Z-3.000 F600.000 
G1 X638.531 Y113.465 Z-3.000 F600.000 
G1 X638.640 Y114.340 Z-3.000 F600.000 
G1 X638.670 Y114.825 Z-3.000 F600.000 
G1 X638.680 Y115.320 Z-3.000 F600.000 
G1 X638.644 Y116.232 Z-3.000 F600.000 
G1 X638.539 Y117.086 Z-3.000 F600.000 
G1 X638.369 Y117.889 Z-3.000 F600.000 
G1 X638.135 Y118.646 Z-3.000 F600.000 
G1 X637.839 Y119.363 Z-3.000 F600.000 
G1 X637.480 Y120.045 Z-3.000 F600.000 
G1 X637.057 Y120.696 Z-3.000 F600.000 
G1 X636.565 Y121.319 Z-3.000 F600.000 
G1 X636.000 Y121.920 Z-3.000 F600.000 
G1 X635.356 Y122.499 Z-3.000 F600.000 
G1 X634.625 Y123.060 Z-3.000 F600.000 
G1 X633.796 Y123.606 Z-3.000 F600.000 
G1 X632.858 Y124.137 Z-3.000 F600.000 
G1 X631.794 Y124.658 Z-3.000 F600.000 
G1 X630.583 Y125.171 Z-3.000 F600.000 
G1 X629.196 Y125.683 Z-3.000 F600.000 
G1 X627.587 Y126.202 Z-3.000 F600.000 
G1 X625.671 Y126.748 Z-3.000 F600.000 
G1 X623.261 Y127.367 Z-3.000 F600.000 
G1 X619.409 Y128.303 Z-3.000 F600.000 
G1 X616.594 Y129.023 Z-3.000 F600.000 
G1 X614.382 Y129.656 Z-3.000 F600.000 
G1 X612.558 Y130.254 Z-3.000 F600.000 
G1 X610.998 Y130.843 Z-3.000 F600.000 
G1 X609.643 Y131.436 Z-3.000 F600.000 
G1 X608.459 Y132.034 Z-3.000 F600.000 
G1 X607.417 Y132.645 Z-3.000 F600.000 
G1 X606.495 Y133.270 Z-3.000 F600.000 
G1 X605.679 Y133.913 Z-3.000 F600.000 
G1 X604.957 Y134.576 Z-3.000 F600.000 
G1 X604.319 Y135.262 Z-3.000 F600.000 
G1 X603.759 Y135.972 Z-3.000 F600.000 
G1 X603.271 Y136.711 Z-3.000 F600.000 
G1 X602.850 Y137.481 Z-3.000 F600.000 
G1 X602.495 Y138.286 Z-3.000 F600.000 
G1 X602.203 Y139.130 Z-3.000 F600.000 
G1 X601.974 Y140.018 Z-3.000 F600.000 
G1 X601.809 Y140.955 Z-3.000 F600.000 
G1 X601.710 Y141.947 Z-3.000 F600.000 
G1 X601.680 Y142.920 Z-3.000 F600.000 
G1 X601.716 Y143.989 Z-3.000 F600.000 
G1 X601.823 Y145.025 Z-3.000 F600.000 
G1 X601.999 Y146.027 Z-3.000 F600.000 
G1 X602.243 Y146.996 Z-3.000 F600.000 
G1 X602.553 Y147.933 Z-3.000 F600.000 
G1 X602.928 Y148.839 Z-3.000 F600.000 
G1 X603.370 Y149.714 Z-3.000 F600.000 
G1 X603.877 Y150.558 Z-3.000 F600.000 
G1 X604.450 Y151.371 Z-3.000 F600.000 
G1 X605.089 Y152.153 Z-3.000 F600.000 
G1 X605.797 Y152.902 Z-3.000 F600.000 
G1 X606.573 Y153.618 Z-3.000 F600.000 
G1 X607.419 Y154.300 Z-3.000 F600.000 
G1 X608.337 Y154.944 Z-3.000 F600.000 
G1 X609.326 Y155.551 Z-3.000 F600.000 
G1 X610.389 Y156.116 Z-3.000 F600.000 
G1 X611.526 Y156.638 Z-3.000 F600.000 
G1 X612.737 Y157.113 Z-3.000 F600.000 
G1 X614.023 Y157.539 Z-3.000 F600.000 
G1 X615.383 Y157.912 Z-3.000 F600.000 
G1 X616.817 Y158.229 Z-3.000 F600.000 
G1 X618.324 Y158.487 Z-3.000 F600.000 
G1 X619.902 Y158.683 Z-3.000 F600.000 
G1 X621.550 Y158.813 Z-3.000 F600.000 
G1 X622.722 Y158.863 Z-3.000 F600.000 
G1 X623.920 Y158.880 Z-3.000 F600.000 
G1 X625.644 Y158.844 Z-3.000 F600.000 
G1 X627.424 Y158.735 Z-3.000 F600.000 
G1 X629.231 Y158.551 Z-3.000 F600.000 
G1 X631.032 Y158.295 Z-3.000 F600.000 
G1 X632.794 Y157.972 Z-3.000 F600.000 
G1 X634.485 Y157.589 Z-3.000 F600.000 
G1 X636.075 Y157.153 Z-3.000 F600.000 
G1 X637.543 Y156.677 Z-3.000 F600.000 
G1 X638.873 Y156.169 Z-3.000 F600.000 
G1 X640.056 Y155.640 Z-3.000 F600.000 
G1 X640.760 Y155.280 Z-3.000 F600.000 
G1 X639.400 Y151.520 Z-3.000 F600.000 
G1 X638.104 Y152.038 Z-3.000 F600.000 
G1 X636.665 Y152.535 Z-3.000 F600.000 
G1 X635.095 Y152.999 Z-3.000 F600.000 
G1 X633.415 Y153.420 Z-3.000 F600.000 
G1 X631.653 Y153.786 Z-3.000 F600.000 
G1 X629.840 Y154.088 Z-3.000 F600.000 
G1 X628.011 Y154.318 Z-3.000 F600.000 
G1 X626.198 Y154.473 Z-3.000 F600.000 
G1 X624.433 Y154.550 Z-3.000 F600.000 
G1 X623.560 Y154.560 Z-3.000 F600.000 
G1 X621.932 Y154.524 Z-3.000 F600.000 
G1 X620.386 Y154.418 Z-3.000 F600.000 
G1 X618.924 Y154.246 Z-3.000 F600.000 
G1 X617.549 Y154.012 Z-3.000 F600.000 
G1 X616.262 Y153.720 Z-3.000 F600.000 
G1 X615.063 Y153.374 Z-3.000 F600.000 
G1 X613.954 Y152.980 Z-3.000 F600.000 
G1 X612.932 Y152.540 Z-3.000 F600.000 
G1 X611.997 Y152.059 Z-3.000 F600.000 
G1 X611.147 Y151.540 Z-3.000 F600.000 
G1 X610.379 Y150.988 Z-3.000 F600.000 
G1 X609.690 Y150.403 Z-3.000 F600.000 
G1 X609.078 Y149.789 Z-3.000 F600.000 
G1 X608.541 Y149.146 Z-3.000 F600.000 
G1 X608.075 Y148.477 Z-3.000 F600.000 
G1 X607.680 Y147.780 Z-3.000 F600.000 
G1 X607.353 Y147.056 Z-3.000 F600.000 
G1 X607.093 Y146.304 Z-3.000 F600.000 
G1 X606.901 Y145.524 Z-3.000 F600.000 
G1 X606.777 Y144.713 Z-3.000 F600.000 
G1 X606.734 Y144.182 Z-3.000 F600.000 
G1 X606.720 Y143.640 Z-3.000 F600.000 
G1 X606.756 Y142.779 Z-3.000 F600.000 
G1 X606.861 Y141.972 Z-3.000 F600.000 
G1 X607.031 Y141.214 Z-3.000 F600.000 
G1 X607.265 Y140.499 Z-3.000 F600.000 
G1 X607.563 Y139.820 Z-3.000 F600.000 
G1 X607.924 Y139.174 Z-3.000 F600.000 
G1 X608.352 Y138.556 Z-3.000 F600.000 
G1 X608.851 Y137.961 Z-3.000 F600.000 
G1 X609.427 Y137.387 Z-3.000 F600.000 
G1 X610.087 Y136.831 Z-3.000 F600.000 
G1 X610.840 Y136.290 Z-3.000 F600.000 
G1 X611.698 Y135.762 Z-3.000 F600.000 
G1 X612.676 Y135.245 Z-3.000 F600.000 
G1 X613.793 Y134.735 Z-3.000 F600.000 
G1 X615.076 Y134.227 Z-3.000 F600.000 
G1 X616.563 Y133.714 Z-3.000 F600.000 
G1 X618.320 Y133.180 Z-3.000 F600.000 
G1 X620.481 Y132.595 Z-3.000 F600.000 
G1 X623.444 Y131.853 Z-3.000 F600.000 
G1 X625.457 Y131.356 Z-3.000 F600.000 
G1 X628.277 Y130.621 Z-3.000 F600.000 
G1 X630.500 Y129.972 Z-3.000 F600.000 
G1 X632.344 Y129.359 Z-3.000 F600.000 
G1 X633.930 Y128.753 Z-3.000 F600.000 
G1 X635.312 Y128.145 Z-3.000 F600.000 
G1 X636.524 Y127.529 Z-3.000 F600.000 
G1 X637.596 Y126.901 Z-3.000 F600.000 
G1 X638.548 Y126.259 Z-3.000 F600.000 
G1 X639.394 Y125.598 Z-3.000 F600.000 
G1 X640.147 Y124.916 Z-3.000 F600.000 
G1 X640.814 Y124.213 Z-3.000 F600.000 
G1 X641.404 Y123.484 Z-3.000 F600.000 
G1 X641.921 Y122.727 Z-3.000 F600.000 
G1 X642.370 Y121.939 Z-3.000 F600.000 
G1 X642.754 Y121.117 Z-3.000 F600.000 
G1 X643.074 Y120.255 Z-3.000 F600.000 
G1 X643.331 Y119.351 Z-3.000 F600.000 
G1 X643.525 Y118.399 Z-3.000 F600.000 
G1 X643.654 Y117.394 Z-3.000 F600.000 
G1 X643.703 Y116.670 Z-3.000 F600.000 
G1 X643.720 Y115.920 Z-3.000 F600.000 
G0 Z5.000 
G0 Z5.000 
G0 X742.320 Y122.840 
G0 Z3.000 
G1 X742.320 Y122.840 Z-2.000 F600.000 
G1 X742.284 Y121.533 Z-2.000 F600.000 
G1 X742.176 Y120.258 Z-2.000 F600.000 
G1 X741.999 Y119.015 Z-2.000 F600.000 
G1 X741.754 Y117.804 Z-2.000 F600.000 
G1 X741.441 Y116.626 Z-2.000 F600.000 
G1 X741.062 Y115.480 Z-2.000 F600.000 
G1 X740.617 Y114.366 Z-2.000 F600.000 
G1 X740.107 Y113.285 Z-2.000 F600.000 
G1 X739.533 Y112.237 Z-2.000 F600.000 
G1 X738.894 Y111.222 Z-2.000 F600.000 
G1 X738.190 Y110.241 Z-2.000 F600.000 
G1 X737.422 Y109.294 Z-2.000 F600.000 
G1 X736.589 Y108.383 Z-2.000 F600.000 
G1 X735.691 Y107.509 Z-2.000 F600.000 
G1 X734.727 Y106.673 Z-2.000 F600.000 
G1 X733.697 Y105.876 Z-2.000 F600.000 
G1 X732.600 Y105.120 Z-2.000 F600.000 
G1 X731.437 Y104.407 Z-2.000 F600.000 
G1 X730.208 Y103.739 Z-2.000 F600.000 
G1 X728.911 Y103.118 Z-2.000 F600.000 
G1 X727.547 Y102.546 Z-2.000 F600.000 
G1 X726.116 Y102.025 Z-2.000 F600.000 
G1 X724.619 Y101.558 Z-2.000 F600.000 
G1 X723.056 Y101.147 Z-2.000 F600.000 
G1 X721.428 Y100.795 Z-2.000 F600.000 
G1 X719.735 Y100.504 Z-2.000 F600.000 
G1 X717.978 Y100.277 Z-2.000 F600.000 
G1 X716.160 Y100.116 Z-2.000 F600.000 
G1 X714.280 Y100.023 Z-2.000 F600.000 
G1 X713.504 Y100.006 Z-2.000 F600.000 
G1 X712.720 Y100.000 Z-2.000 F600.000 
G1 X710.789 Y100.036 Z-2.000 F600.000 
G1 X708.803 Y100.146 Z-2.000 F600.000 
G1 X706.768 Y100.332 Z-2.000 F600.000 
G1 X704.691 Y100.595 Z-2.000 F600.000 
G1 X702.579 Y100.936 Z-2.000 F600.000 
G1 X700.441 Y101.354 Z-2.000 F600.000 
G1 X698.285 Y101.851 Z-2.000 F600.000 
G1 X696.119 Y102.424 Z-2.000 F600.000 
G1 X693.954 Y103.073 Z-2.000 F600.000 
G1 X691.799 Y103.795 Z-2.000 F600.000 
G1 X689.661 Y104.588 Z-2.000 F600.000 
G1 X687.551 Y105.449 Z-2.000 F600.000 
G1 X685.680 Y106.280 Z-2.000 F600.000 
G1 X687.280 Y110.320 Z-2.000 F600.000 
G1 X689.520 Y109.414 Z-2.000 F600.000 
G1 X691.789 Y108.574 Z-2.000 F600.000 
G1 X694.073 Y107.807 Z-2.000 F600.000 
G1 X696.359 Y107.115 Z-2.000 F600.000 
G1 X698.634 Y106.502 Z-2.000 F600.000 
G1 X700.884 Y105.970 Z-2.000 F600.000 
G1 X703.098 Y105.522 Z-2.000 F600.000 
G1 X705.263 Y105.158 Z-2.000 F600.000 
G1 X707.370 Y104.877 Z-2.000 F600.000 
G1 X709.408 Y104.679 Z-2.000 F600.000 
G1 X711.371 Y104.561 Z-2.000 F600.000 
G1 X712.351 Y104.530 Z-2.000 F600.000 
G1 X713.320 Y104.520 Z-2.000 F600.000 
G1 X715.137 Y104.556 Z-2.000 F600.000 
G1 X716.882 Y104.663 Z-2.000 F600.000 
G1 X718.553 Y104.836 Z-2.000 F600.000 
G1 X720.150 Y105.075 Z-2.000 F600.000 
G1 X721.671 Y105.374 Z-2.000 F600.000 
G1 X723.117 Y105.732 Z-2.000 F600.000 
G1 X724.487 Y106.146 Z-2.000 F600.000 
G1 X725.782 Y106.611 Z-2.000 F600.000 
G1 X727.002 Y107.127 Z-2.000 F600.000 
G1 X728.147 Y107.689 Z-2.000 F600.000 
G1 X729.219 Y108.295 Z-2.000 F600.000 
G1 X730.218 Y108.943 Z-2.000 F600.000 
G1 X731.145 Y109.630 Z-2.000 F600.000 
G1 X732.002 Y110.355 Z-2.000 F600.000 
G1 X732.789 Y111.116 Z-2.000 F600.000 
G1 X733.508 Y111.912 Z-2.000 F600.000 
G1 X734.159 Y112.742 Z-2.000 F600.000 
G1 X734.744 Y113.604 Z-2.000 F600.000 
G1 X735.263 Y114.498 Z-2.000 F600.000 
G1 X735.716 Y115.424 Z-2.000 F600.000 
G1 X736.104 Y116.382 Z-2.000 F600.000 
G1 X736.425 Y117.372 Z-2.000 F600.000 
G1 X736.681 Y118.395 Z-2.000 F600.000 
G1 X736.869 Y119.449 Z-2.000 F600.000 
G1 X736.989 Y120.537 Z-2.000 F600.000 
G1 X737.040 Y121.880 Z-2.000 F600.000 
G1 X737.004 Y122.994 Z-2.000 F600.000 
G1 X736.898 Y124.052 Z-2.000 F600.000 
G1 X736.726 Y125.057 Z-2.000 F600.000 
G1 X736.489 Y126.016 Z-2.000 F600.000 
G1 X736.189 Y126.932 Z-2.000 F600.000 
G1 X735.826 Y127.810 Z-2.000 F600.000 
G1 X735.399 Y128.655 Z-2.000 F600.000 
G1 X734.907 Y129.470 Z-2.000 F600.000 
G1 X734.347 Y130.259 Z-2.000 F600.000 
G1 X733.715 Y131.023 Z-2.000 F600.000 
G1 X733.007 Y131.768 Z-2.000 F600.000 
G1 X732.216 Y132.494 Z-2.000 F600.000 
G1 X731.337 Y133.204 Z-2.000 F600.000 
G1 X730.359 Y133.902 Z-2.000 F600.000 
G1 X729.273 Y134.588 Z-2.000 F600.000 
G1 X728.065 Y135.267 Z-2.000 F600.000 
G1 X726.718 Y135.942 Z-2.000 F600.000 
G1 X725.211 Y136.618 Z-2.000 F600.000 
G1 X723.510 Y137.303 Z-2.000 F600.000 
G1 X721.569 Y138.009 Z-2.000 F600.000 
G1 X719.303 Y138.761 Z-2.000 F600.000 
G1 X716.529 Y139.612 Z-2.000 F600.000 
G1 X712.639 Y140.746 Z-2.000 F600.000 
G1 X709.460 Y141.678 Z-2.000 F600.000 
G1 X706.363 Y142.641 Z-2.000 F600.000 
G1 X703.875 Y143.488 Z-2.000 F600.000 
G1 X701.760 Y144.286 Z-2.000 F600.000 
G1 X699.912 Y145.064 Z-2.000 F600.000 
G1 X698.284 Y145.830 Z-2.000 F600.000 
G1 X696.835 Y146.595 Z-2.000 F600.000 
G1 X695.536 Y147.364 Z-2.000 F600.000 
G1 X694.365 Y148.144 Z-2.000 F600.000 
G1 X693.309 Y148.936 Z-2.000 F600.000 
G1 X692.354 Y149.744 Z-2.000 F600.000 
G1 X691.493 Y150.569 Z-2.000 F600.000 
G1 X690.716 Y151.415 Z-2.000 F600.000 
G1 X690.019 Y152.284 Z-2.000 F600.000 
G1 X689.395 Y153.179 Z-2.000 F600.000 
G1 X688.841 Y154.102 Z-2.000 F600.000 
G1 X688.355 Y155.056 Z-2.000 F600.000 
G1 X687.934 Y156.045 Z-2.000 F600.000 
G1 X687.576 Y157.073 Z-2.000 F600.000 
G1 X687.282 Y158.142 Z-2.000 F600.000 
G1 X687.052 Y159.258 Z-2.000 F600.000 
G1 X686.887 Y160.425 Z-2.000 F600.000 
G1 X686.789 Y161.647 Z-2.000 F600.000 
G1 X686.760 Y162.800 Z-2.000 F600.000 
G1 X686.796 Y164.092 Z-2.000 F600.000 
G1 X686.903 Y165.344 Z-2.000 F600.000 
G1 X687.080 Y166.557 Z-2.000 F600.000 
G1 X687.324 Y167.732 Z-2.000 F600.000 
G1 X687.634 Y168.871 Z-2.000 F600.000 
G1 X688.009 Y169.973 Z-2.000 F600.000 
G1 X688.448 Y171.039 Z-2.000 F600.000 
G1 X688.951 Y172.070 Z-2.000 F600.000 
G1 X689.518 Y173.067 Z-2.000 F600.000 
G1 X690.149 Y174.029 Z-2.000 F600.000 
G1 X690.845 Y174.957 Z-2.000 F600.000 
G1 X691.606 Y175.850 Z-2.000 F600.000 
G1 X692.432 Y176.708 Z-2.000 F600.000 
G1 X693.326 Y177.531 Z-2.000 F600.000 
G1 X694.287 Y178.317 Z-2.000 F600.000 
G1 X695.318 Y179.066 Z-2.000 F600.000 
G1 X696.420 Y179.776 Z-2.000 F600.000 
G1 X697.594 Y180.445 Z-2.000 F600.000 
G1 X698.841 Y181.072 Z-2.000 F600.000 
G1 X700.162 Y181.654 Z-2.000 F600.000 
G1 X701.559 Y182.189 Z-2.000 F600.000 
G1 X703.032 Y182.675 Z-2.000 F600.000 
G1 X704.582 Y183.109 Z-2.000 F600.000 
G1 X706.210 Y183.489 Z-2.000 F600.000 
G1 X707.916 Y183.811 Z-2.000 F600.000 
G1 X709.699 Y184.074 Z-2.000 F600.000 
G1 X711.561 Y184.274 Z-2.000 F600.000 
G1 X713.499 Y184.408 Z-2.000 F600.000 
G1 X716.400 Y184.480 Z-2.000 F600.000 
G1 X718.469 Y184.443 Z-2.000 F600.000 
G1 X720.528 Y184.334 Z-2.000 F600.000 
G1 X722.566 Y184.152 Z-2.000 F600.000 
G1 X724.574 Y183.899 Z-2.000 F600.000 
G1 X726.544 Y183.577 Z-2.000 F600.000 
G1 X728.469 Y183.189 Z-2.000 F600.000 
G1 X730.343 Y182.736 Z-2.000 F600.000 
G1 X732.162 Y182.221 Z-2.000 F600.000 
G1 X733.920 Y181.647 Z-2.000 F600.000 
G1 X735.616 Y181.016 Z-2.000 F600.000 
G1 X737.248 Y180.331 Z-2.000 F600.000 
G1 X737.948 Y180.012 Z-2.000 F600.000 
G1 X738.640 Y179.680 Z-2.000 F600.000 
G1 X737.040 Y175.680 Z-2.000 F600.000 
G1 X735.461 Y176.361 Z-2.000 F600.000 
G1 X733.808 Y176.995 Z-2.000 F600.000 
G1 X732.085 Y177.578 Z-2.000 F600.000 
G1 X730.295 Y178.107 Z-2.000 F600.000 
G1 X728.445 Y178.579 Z-2.000 F600.000 
G1 X726.541 Y178.990 Z-2.000 F600.000 
G1 X724.590 Y179.336 Z-2.000 F600.000 
G1 X722.601 Y179.616 Z-2.000 F600.000 
G1 X720.584 Y179.827 Z-2.000 F600.000 
G1 X718.549 Y179.966 Z-2.000 F600.000 
G1 X715.640 Y180.040 Z-2.000 F600.000 
G1 X713.668 Y180.004 Z-2.000 F600.000 
G1 X711.797 Y179.898 Z-2.000 F600.000 
G1 X710.027 Y179.725 Z-2.000 F600.000 
G1 X708.356 Y179.490 Z-2.000 F600.000 
G1 X706.782 Y179.196 Z-2.000 F600.000 
G1 X705.304 Y178.847 Z-2.000 F600.000 
G1 X703.919 Y178.446 Z-2.000 F600.000 
G1 X702.624 Y177.996 Z-2.000 F600.000 
G1 X701.418 Y177.501 Z-2.000 F600.000 
G1 X700.296 Y176.962 Z-2.000 F600.000 
G1 X699.256 Y176.383 Z-2.000 F600.000 
G1 X698.296 Y175.766 Z-2.000 F600.000 
G1 X697.412 Y175.111 Z-2.000 F600.000 
G1 X696.601 Y174.421 Z-2.000 F600.000 
G1 X695.861 Y173.696 Z-2.000 F600.000 
G1 X695.190 Y172.937 Z-2.000 F600.000 
G1 X694.586 Y172.144 Z-2.000 F600.000 
G1 X694.047 Y171.316 Z-2.000 F600.000 
G1 X693.571 Y170.453 Z-2.000 F600.000 
G1 X693.159 Y169.554 Z-2.000 F600.000 
G1 X692.810 Y168.618 Z-2.000 F600.000 
G1 X692.525 Y167.642 Z-2.000 F600.000 
G1 X692.304 Y166.625 Z-2.000 F600.000 
G1 X692.148 Y165.566 Z-2.000 F600.000 
G1 X692.060 Y164.462 Z-2.000 F600.000 
G1 X692.040 Y163.600 Z-2.000 F600.000 
G1 X692.076 Y162.477 Z-2.000 F600.000 
G1 X692.182 Y161.413 Z-2.000 F600.000 
G1 X692.354 Y160.402 Z-2.000 F600.000 
G1 X692.590 Y159.439 Z-2.000 F600.000 
G1 X692.889 Y158.521 Z-2.000 F600.000 
G1 X693.251 Y157.641 Z-2.000 F600.000 
G1 X693.676 Y156.796 Z-2.000 F600.000 
G1 X694.166 Y155.983 Z-2.000 F600.000 
G1 X694.724 Y155.197 Z-2.000 F600.000 
G1 X695.351 Y154.436 Z-2.000 F600.000 
G1 X696.055 Y153.696 Z-2.000 F600.000 
G1 X696.839 Y152.976 Z-2.000 F600.000 
G1 X697.711 Y152.273 Z-2.000 F600.000 
G1 X698.680 Y151.584 Z-2.000 F600.000 
G1 X699.756 Y150.907 Z-2.000 F600.000 
G1 X700.952 Y150.239 Z-2.000 F600.000 
G1 X702.284 Y149.577 Z-2.000 F600.000 
G1 X703.774 Y148.916 Z-2.000 F600.000 
G1 X705.453 Y148.249 Z-2.000 F600.000 
G1 X707.367 Y147.563 Z-2.000 F600.000 
G1 X709.597 Y146.837 Z-2.000 F600.000 
G1 X712.313 Y146.023 Z-2.000 F600.000 
G1 X716.055 Y144.961 Z-2.000 F600.000 
G1 X718.636 Y144.231 Z-2.000 F600.000 
G1 X721.930 Y143.256 Z-2.000 F600.000 
G1 X724.537 Y142.412 Z-2.000 F600.000 
G1 X726.729 Y141.625 Z-2.000 F600.000 
G1 X728.635 Y140.862 Z-2.000 F600.000 
G1 X730.312 Y140.109 Z-2.000 F600.000 
G1 X731.802 Y139.359 Z-2.000 F600.000 
G1 X733.138 Y138.603 Z-2.000 F600.000 
G1 X734.340 Y137.837 Z-2.000 F600.000 
G1 X735.426 Y137.058 Z-2.000 F600.000 
G1 X736.408 Y136.263 Z-2.000 F600.000 
G1 X737.295 Y135.450 Z-2.000 F600.000 
G1 X738.096 Y134.615 Z-2.000 F600.000 
G1 X738.818 Y133.758 Z-2.000 F600.000 
G1 X739.465 Y132.874 Z-2.000 F600.000 
G1 X740.041 Y131.962 Z-2.000 F600.000 
G1 X740.550 Y131.019 Z-2.000 F600.000 
G1 X740.995 Y130.040 Z-2.000 F600.000 
G1 X741.375 Y129.023 Z-2.000 F600.000 
G1 X741.693 Y127.964 Z-2.000 F600.000 
G1 X741.947 Y126.858 Z-2.000 F600.000 
G1 X742.137 Y125.702 Z-2.000 F600.000 
G1 X742.261 Y124.491 Z-2.000 F600.000 
G1 X742.320 Y122.840 Z-2.000 F600.000 
G1 X742.320 Y122.840 Z-3.000 F600.000 
G1 X742.284 Y121.533 Z-3.000 F600.000 
G1 X742.176 Y120.258 Z-3.000 F600.000 
G1 X741.999 Y119.015 Z-3.000 F600.000 
G1 X741.754 Y117.804 Z-3.000 F600.000 
G1 X741.441 Y116.626 Z-3.000 F600.000 
G1 X741.062 Y115.480 Z-3.000 F600.000 
G1 X740.617 Y114.366 Z-3.000 F600.000 
G1 X740.107 Y113.285 Z-3.000 F600.000 
G1 X739.533 Y112.237 Z-3.000 F600.000 
G1 X738.894 Y111.222 Z-3.000 F600.000 
G1 X738.190 Y110.241 Z-3.000 F600.000 
G1 X737.422 Y109.294 Z-3.000 F600.000 
G1 X736.589 Y108.383 Z-3.000 F600.000 
G1 X735.691 Y107.509 Z-3.000 F600.000 
G1 X734.727 Y106.673 Z-3.000 F600.000 
G1 X733.697 Y105.876 Z-3.000 F600.000 
G1 X732.600 Y105.120 Z-3.000 F600.000 
G1 X731.437 Y104.407 Z-3.000 F600.000 
G1 X730.208 Y103.739 Z-3.000 F600.000 
G1 X728.911 Y103.118 Z-3.000 F600.000 
G1 X727.547 Y102.546 Z-3.000 F600.000 
G1 X726.116 Y102.025 Z-3.000 F600.000 
G1 X724.619 Y101.558 Z-3.000 F600.000 
G1 X723.056 Y101.147 Z-3.000 F600.000 
G1 X721.428 Y100.795 Z-3.000 F600.000 
G1 X719.735 Y100.504 Z-3.000 F600.000 
G1 X717.978 Y100.277 Z-3.000 F600.000 
G1 X716.160 Y100.116 Z-3.000 F600.000 
G1 X714.280 Y100.023 Z-3.000 F600.000 
G1 X713.504 Y100.006 Z-3.000 F600.000 
G1 X712.720 Y100.000 Z-3.000 F600.000 
G1 X710.789 Y100.036 Z-3.000 F600.000 
G1 X708.803 Y100.146 Z-3.000 F600.000 
G1 X706.768 Y100.332 Z-3.000 F600.000 
G1 X704.691 Y100.595 Z-3.000 F600.000 
G1 X702.579 Y100.936 Z-3.000 F600.000 
G1 X700.441 Y101.354 Z-3.000 F600.000 
G1 X698.285 Y101.851 Z-3.000 F600.000 
G1 X696.119 Y102.424 Z-3.000 F600.000 
G1 X693.954 Y103.073 Z-3.000 F600.000 
G1 X691.799 Y103.795 Z-3.000 F600.000 
G1 X689.661 Y104.588 Z-3.000 F600.000 
G1 X687.551 Y105.449 Z-3.000 F600.000 
G1 X685.680 Y106.280 Z-3.000 F600.000 
G1 X687.280 Y110.320 Z-3.000 F600.000 
G1 X689.520 Y109.414 Z-3.000 F600.000 
G1 X691.789 Y108.574 Z-3.000 F600.000 
G1 X694.073 Y107.807 Z-3.000 F600.000 
G1 X696.359 Y107.115 Z-3.000 F600.000 
G1 X698.634 Y106.502 Z-3.000 F600.000 
G1 X700.884 Y105.970 Z-3.000 F600.000 
G1 X703.098 Y105.522 Z-3.000 F600.000 
G1 X705.263 Y105.158 Z-3.000 F600.000 
G1 X707.370 Y104.877 Z-3.000 F600.000 
G1 X709.408 Y104.679 Z-3.000 F600.000 
G1 X711.371 Y104.561 Z-3.000 F600.000 
G1 X712.351 Y104.530 Z-3.000 F600.000 
G1 X713.320 Y104.520 Z-3.000 F600.000 
G1 X715.137 Y104.556 Z-3.000 F600.000 
G1 X716.882 Y104.663 Z-3.000 F600.000 
G1 X718.553 Y104.836 Z-3.000 F600.000 
G1 X720.150 Y105.075 Z-3.000 F600.000 
G1 X721.671 Y105.374 Z-3.000 F600.000 
G1 X723.117 Y105.732 Z-3.000 F600.000 
G1 X724.487 Y106.146 Z-3.000 F600.000 
G1 X725.782 Y106.611 Z-3.000 F600.000 
G1 X727.002 Y107.127 Z-3.000 F600.000 
G1 X728.147 Y107.689 Z-3.000 F600.000 
G1 X729.219 Y108.295 Z-3.000 F600.000 
G1 X730.218 Y108.943 Z-3.000 F600.000 
G1 X731.145 Y109.630 Z-3.000 F600.000 
G1 X732.002 Y110.355 Z-3.000 F600.000 
G1 X732.789 Y111.116 Z-3.000 F600.000 
G1 X733.508 Y111.912 Z-3.000 F600.000 
G1 X734.159 Y112.742 Z-3.000 F600.000 
G1 X734.744 Y113.604 Z-3.000 F600.000 
G1 X735.263 Y114.498 Z-3.000 F600.000 
G1 X735.716 Y115.424 Z-3.000 F600.000 
G1 X736.104 Y116.382 Z-3.000 F600.000 
G1 X736.425 Y117.372 Z-3.000 F600.000 
G1 X736.681 Y118.395 Z-3.000 F600.000 
G1 X736.869 Y119.449 Z-3.000 F600.000 
G1 X736.989 Y120.537 Z-3.000 F600.000 
G1 X737.040 Y121.880 Z-3.000 F600.000 
G1 X737.004 Y122.994 Z-3.000 F600.000 
G1 X736.898 Y124.052 Z-3.000 F600.000 
G1 X736.726 Y125.057 Z-3.000 F600.000 
G1 X736.489 Y126.016 Z-3.000 F600.000 
G1 X736.189 Y126.932 Z-3.000 F600.000 
G1 X735.826 Y127.810 Z-3.000 F600.000 
G1 X735.399 Y128.655 Z-3.000 F600.000 
G1 X734.907 Y129.470 Z-3.000 F600.000 
G1 X734.347 Y130.259 Z-3.000 F600.000 
G1 X733.715 Y131.023 Z-3.000 F600.000 
G1 X733.007 Y131.768 Z-3.000 F600.000 
G1 X732.216 Y132.494 Z-3.000 F600.000 
G1 X731.337 Y133.204 Z-3.000 F600.000 
G1 X730.359 Y133.902 Z-3.000 F600.000 
G1 X729.273 Y134.588 Z-3.000 F600.000 
G1 X728.065 Y135.267 Z-3.000 F600.000 
G1 X726.718 Y135.942 Z-3.000 F600.000 
G1 X725.211 Y136.618 Z-3.000 F600.000 
G1 X723.510 Y137.303 Z-3.000 F600.000 
G1 X721.569 Y138.009 Z-3.000 F600.000 
G1 X719.303 Y138.761 Z-3.000 F600.000 
G1 X716.529 Y139.612 Z-3.000 F600.000 
G1 X712.639 Y140.746 Z-3.000 F600.000 
G1 X709.460 Y141.678 Z-3.000 F600.000 
G1 X706.363 Y142.641 Z-3.000 F600.000 
G1 X703.875 Y143.488 Z-3.000 F600.000 
G1 X701.760 Y144.286 Z-3.000 F600.000 
G1 X699.912 Y145.064 Z-3.000 F600.000 
G1 X698.284 Y145.830 Z-3.000 F600.000 
G1 X696.835 Y146.595 Z-3.000 F600.000 
G1 X695.536 Y147.364 Z-3.000 F600.000 
G1 X694.365 Y148.144 Z-3.000 F600.000 
G1 X693.309 Y148.936 Z-3.000 F600.000 
G1 X692.354 Y149.744 Z-3.000 F600.000 
G1 X691.493 Y150.569 Z-3.000 F600.000 
G1 X690.716 Y151.415 Z-3.000 F600.000 
G1 X690.019 Y152.284 Z-3.000 F600.000 
G1 X689.395 Y153.179 Z-3.000 F600.000 
G1 X688.841 Y154.102 Z-3.000 F600.000 
G1 X688.355 Y155.056 Z-3.000 F600.000 
G1 X687.934 Y156.045 Z-3.000 F600.000 
G1 X687.576 Y157.073 Z-3.000 F600.000 
G1 X687.282 Y158.142 Z-3.000 F600.000 
G1 X687.052 Y159.258 Z-3.000 F600.000 
G1 X686.887 Y160.425 Z-3.000 F600.000 
G1 X686.789 Y161.647 Z-3.000 F600.000 
G1 X686.760 Y162.800 Z-3.000 F600.000 
G1 X686.796 Y164.092 Z-3.000 F600.000 
G1 X686.903 Y165.344 Z-3.000 F600.000 
G1 X687.080 Y166.557 Z-3.000 F600.000 
G1 X687.324 Y167.732 Z-3.000 F600.000 
G1 X687.634 Y168.871 Z-3.000 F600.000 
G1 X688.009 Y169.973 Z-3.000 F600.000 
G1 X688.448 Y171.039 Z-3.000 F600.000 
G1 X688.951 Y172.070 Z-3.000 F600.000 
G1 X689.518 Y173.067 Z-3.000 F600.000 
G1 X690.149 Y174.029 Z-3.000 F600.000 
G1 X690.845 Y174.957 Z-3.000 F600.000 
G1 X691.606 Y175.850 Z-3.000 F600.000 
G1 X692.432 Y176.708 Z-3.000 F600.000 
G1 X693.326 Y177.531 Z-3.000 F600.000 
G1 X694.287 Y178.317 Z-3.000 F600.000 
G1 X695.318 Y179.066 Z-3.000 F600.000 
G1 X696.420 Y179.776 Z-3.000 F600.000 
G1 X697.594 Y180.445 Z-3.000 F600.000 
G1 X698.841 Y181.072 Z-3.000 F600.000 
G1 X700.162 Y181.654 Z-3.000 F600.000 
G1 X701.559 Y182.189 Z-3.000 F600.000 
G1 X703.032 Y182.675 Z-3.000 F600.000 
G1 X704.582 Y183.109 Z-3.000 F600.000 
G1 X706.210 Y183.489 Z-3.000 F600.000 
G1 X707.916 Y183.811 Z-3.000 F600.000 
G1 X709.699 Y184.074 Z-3.000 F600.000 
G1 X711.561 Y184.274 Z-3.000 F600.000 
G1 X713.499 Y184.408 Z-3.000 F600.000 
G1 X716.400 Y184.480 Z-3.000 F600.000 
G1 X718.469 Y184.443 Z-3.000 F600.000 
G1 X720.528 Y184.334 Z-3.000 F600.000 
G1 X722.566 Y184.152 Z-3.000 F600.000 
G1 X724.574 Y183.899 Z-3.000 F600.000 
G1 X726.544 Y183.577 Z-3.000 F600.000 
G1 X728.469 Y183.189 Z-3.000 F600.000 
G1 X730.343 Y182.736 Z-3.000 F600.000 
G1 X732.162 Y182.221 Z-3.000 F600.000 
G1 X733.920 Y181.647 Z-3.000 F600.000 
G1 X735.616 Y181.016 Z-3.000 F600.000 
G1 X737.248 Y180.331 Z-3.000 F600.000 
G1 X737.948 Y180.012 Z-3.000 F600.000 
G1 X738.640 Y179.680 Z-3.000 F600.000 
G1 X737.040 Y175.680 Z-3.000 F600.000 
G1 X735.461 Y176.361 Z-3.000 F600.000 
G1 X733.808 Y176.995 Z-3.000 F600.000 
G1 X732.085 Y177.578 Z-3.000 F600.000 
G1 X730.295 Y178.107 Z-3.000 F600.000 
G1 X728.445 Y178.579 Z-3.000 F600.000 
G1 X726.541 Y178.990 Z-3.000 F600.000 
G1 X724.590 Y179.336 Z-3.000 F600.000 
G1 X722.601 Y179.616 Z-3.000 F600.000 
G1 X720.584 Y179.827 Z-3.000 F600.000 
G1 X718.549 Y179.966 Z-3.000 F600.000 
G1 X715.640 Y180.040 Z-3.000 F600.000 
G1 X713.668 Y180.004 Z-3.000 F600.000 
G1 X711.797 Y179.898 Z-3.000 F600.000 
G1 X710.027 Y179.725 Z-3.000 F600.000 
G1 X708.356 Y179.490 Z-3.000 F600.000 
G1 X706.782 Y179.196 Z-3.000 F600.000 
G1 X705.304 Y178.847 Z-3.000 F600.000 
G1 X703.919 Y178.446 Z-3.000 F600.000 
G1 X702.624 Y177.996 Z-3.000 F600.000 
G1 X701.418 Y177.501 Z-3.000 F600.000 
G1 X700.296 Y176.962 Z-3.000 F600.000 
G1 X699.256 Y176.383 Z-3.000 F600.000 
G1 X698.296 Y175.766 Z-3.000 F600.000 
G1 X697.412 Y175.111 Z-3.000 F600.000 
G1 X696.601 Y174.421 Z-3.000 F600.000 
G1 X695.861 Y173.696 Z-3.000 F600.000 
G1 X695.190 Y172.937 Z-3.000 F600.000 
G1 X694.586 Y172.144 Z-3.000 F600.000 
G1 X694.047 Y171.316 Z-3.000 F600.000 
G1 X693.571 Y170.453 Z-3.000 F600.000 
G1 X693.159 Y169.554 Z-3.000 F600.000 
G1 X692.810 Y168.618 Z-3.000 F600.000 
G1 X692.525 Y167.642 Z-3.000 F600.000 
G1 X692.304 Y166.625 Z-3.000 F600.000 
G1 X692.148 Y165.566 Z-3.000 F600.000 
G1 X692.060 Y164.462 Z-3.000 F600.000 
G1 X692.040 Y163.600 Z-3.000 F600.000 
G1 X692.076 Y162.477 Z-3.000 F600.000 
G1 X692.182 Y161.413 Z-3.000 F600.000 
G1 X692.354 Y160.402 Z-3.000 F600.000 
G1 X692.590 Y159.439 Z-3.000 F600.000 
G1 X692.889 Y158.521 Z-3.000 F600.000 
G1 X693.251 Y157.641 Z-3.000 F600.000 
G1 X693.676 Y156.796 Z-3.000 F600.000 
G1 X694.166 Y155.983 Z-3.000 F600.000 
G1 X694.724 Y155.197 Z-3.000 F600.000 
G1 X695.351 Y154.436 Z-3.000 F600.000 
G1 X696.055 Y153.696 Z-3.000 F600.000 
G1 X696.839 Y152.976 Z-3.000 F600.000 
G1 X697.711 Y152.273 Z-3.000 F600.000 
G1 X698.680 Y151.584 Z-3.000 F600.000 
G1 X699.756 Y150.907 Z-3.000 F600.000 
G1 X700.952 Y150.239 Z-3.000 F600.000 
G1 X702.284 Y149.577 Z-3.000 F600.000 
G1 X703.774 Y148.916 Z-3.000 F600.000 
G1 X705.453 Y148.249 Z-3.000 F600.000 
G1 X707.367 Y147.563 Z-3.000 F600.000 
G1 X709.597 Y146.837 Z-3.000 F600.000 
G1 X712.313 Y146.023 Z-3.000 F600.000 
G1 X716.055 Y144.961 Z-3.000 F600.000 
G1 X718.636 Y144.231 Z-3.000 F600.000 
G1 X721.930 Y143.256 Z-3.000 F600.000 
G1 X724.537 Y142.412 Z-3.000 F600.000 
G1 X726.729 Y141.625 Z-3.000 F600.000 
G1 X728.635 Y140.862 Z-3.000 F600.000 
G1 X730.312 Y140.109 Z-3.000 F600.000 
G1 X731.802 Y139.359 Z-3.000 F600.000 
G1 X733.138 Y138.603 Z-3.000 F600.000 
G1 X734.340 Y137.837 Z-3.000 F600.000 
G1 X735.426 Y137.058 Z-3.000 F600.000 
G1 X736.408 Y136.263 Z-3.000 F600.000 
G1 X737.295 Y135.450 Z-3.000 F600.000 
G1 X738.096 Y134.615 Z-3.000 F600.000 
G1 X738.818 Y133.758 Z-3.000 F600.000 
G1 X739.465 Y132.874 Z-3.000 F600.000 
G1 X740.041 Y131.962 Z-3.000 F600.000 
G1 X740.550 Y131.019 Z-3.000 F600.000 
G1 X740.995 Y130.040 Z-3.000 F600.000 
G1 X741.375 Y129.023 Z-3.000 F600.000 
G1 X741.693 Y127.964 Z-3.000 F600.000 
G1 X741.947 Y126.858 Z-3.000 F600.000 
G1 X742.137 Y125.702 Z-3.000 F600.000 
G1 X742.261 Y124.491 Z-3.000 F600.000 
G1 X742.320 Y122.840 Z-3.000 F600.000 
G0 Z5.000 
G0 Z5.000 
G0 X808.480 Y100.000 
G0 Z3.000 
G1 X808.480 Y100.000 Z-2.000 F600.000 
G1 X803.440 Y100.000 Z-2.000 F600.000 
G1 X803.440 Y137.200 Z-2.000 F600.000 
G1 X803.404 Y138.631 Z-2.000 F600.000 
G1 X803.297 Y139.991 Z-2.000 F600.000 
G1 X803.125 Y141.280 Z-2.000 F600.000 
G1 X802.888 Y142.501 Z-2.000 F600.000 
G1 X802.592 Y143.655 Z-2.000 F600.000 
G1 X802.237 Y144.743 Z-2.000 F600.000 
G1 X801.828 Y145.768 Z-2.000 F600.000 
G1 X801.365 Y146.732 Z-2.000 F600.000 
G1 X800.850 Y147.636 Z-2.000 F600.000 
G1 X800.285 Y148.483 Z-2.000 F600.000 
G1 X799.671 Y149.273 Z-2.000 F600.000 
G1 X799.007 Y150.009 Z-2.000 F600.000 
G1 X798.293 Y150.691 Z-2.000 F600.000 
G1 X797.530 Y151.319 Z-2.000 F600.000 
G1 X796.716 Y151.895 Z-2.000 F600.000 
G1 X795.851 Y152.419 Z-2.000 F600.000 
G1 X794.932 Y152.889 Z-2.000 F600.000 
G1 X793.959 Y153.304 Z-2.000 F600.000 
G1 X792.929 Y153.665 Z-2.000 F600.000 
G1 X791.841 Y153.968 Z-2.000 F600.000 
G1 X790.693 Y154.211 Z-2.000 F600.000 
G1 X789.483 Y154.393 Z-2.000 F600.000 
G1 X788.209 Y154.510 Z-2.000 F600.000 
G1 X787.414 Y154.547 Z-2.000 F600.000 
G1 X786.600 Y154.560 Z-2.000 F600.000 
G1 X785.194 Y154.524 Z-2.000 F600.000 
G1 X783.794 Y154.415 Z-2.000 F600.000 
G1 X782.403 Y154.235 Z-2.000 F600.000 
G1 X781.026 Y153.982 Z-2.000 F600.000 
G1 X779.665 Y153.660 Z-2.000 F600.000 
G1 X778.326 Y153.267 Z-2.000 F600.000 
G1 X777.011 Y152.806 Z-2.000 F600.000 
G1 X775.725 Y152.278 Z-2.000 F600.000 
G1 X774.471 Y151.684 Z-2.000 F600.000 
G1 X773.253 Y151.027 Z-2.000 F600.000 
G1 X772.073 Y150.308 Z-2.000 F600.000 
G1 X770.934 Y149.528 Z-2.000 F600.000 
G1 X769.840 Y148.690 Z-2.000 F600.000 
G1 X768.793 Y147.796 Z-2.000 F600.000 
G1 X768.044 Y147.094 Z-2.000 F600.000 
G1 X767.320 Y146.360 Z-2.000 F600.000 
G1 X767.320 Y100.000 Z-2.000 F600.000 
G1 X762.400 Y100.000 Z-2.000 F600.000 
G1 X762.400 Y192.160 Z-2.000 F600.000 
G1 X767.320 Y192.160 Z-2.000 F600.000 
G1 X767.320 Y150.680 Z-2.000 F600.000 
G1 X768.447 Y151.677 Z-2.000 F600.000 
G1 X769.619 Y152.619 Z-2.000 F600.000 
G1 X770.835 Y153.502 Z-2.000 F600.000 
G1 X772.090 Y154.324 Z-2.000 F600.000 
G1 X773.382 Y155.083 Z-2.000 F600.000 
G1 X774.706 Y155.777 Z-2.000 F600.000 
G1 X776.060 Y156.405 Z-2.000 F600.000 
G1 X777.439 Y156.964 Z-2.000 F600.000 
G1 X778.839 Y157.454 Z-2.000 F600.000 
G1 X780.257 Y157.872 Z-2.000 F600.000 
G1 X781.689 Y158.219 Z-2.000 F600.000 
G1 X783.131 Y158.493 Z-2.000 F600.000 
G1 X784.579 Y158.695 Z-2.000 F600.000 
G1 X786.030 Y158.823 Z-2.000 F600.000 
G1 X786.934 Y158.866 Z-2.000 F600.000 
G1 X787.840 Y158.880 Z-2.000 F600.000 
G1 X789.301 Y158.844 Z-2.000 F600.000 
G1 X790.706 Y158.737 Z-2.000 F600.000 
G1 X792.058 Y158.562 Z-2.000 F600.000 
G1 X793.355 Y158.322 Z-2.000 F600.000 
G1 X794.598 Y158.018 Z-2.000 F600.000 
G1 X795.787 Y157.653 Z-2.000 F600.000 
G1 X796.923 Y157.229 Z-2.000 F600.000 
G1 X798.007 Y156.748 Z-2.000 F600.000 
G1 X799.038 Y156.211 Z-2.000 F600.000 
G1 X800.018 Y155.619 Z-2.000 F600.000 
G1 X800.946 Y154.973 Z-2.000 F600.000 
G1 X801.823 Y154.274 Z-2.000 F600.000 
G1 X802.650 Y153.523 Z-2.000 F600.000 
G1 X803.425 Y152.721 Z-2.000 F600.000 
G1 X804.150 Y151.866 Z-2.000 F600.000 
G1 X804.822 Y150.960 Z-2.000 F600.000 
G1 X805.443 Y150.001 Z-2.000 F600.000 
G1 X806.011 Y148.990 Z-2.000 F600.000 
G1 X806.524 Y147.926 Z-2.000 F600.000 
G1 X806.982 Y146.809 Z-2.000 F600.000 
G1 X807.383 Y145.639 Z-2.000 F600.000 
G1 X807.725 Y144.414 Z-2.000 F600.000 
G1 X808.007 Y143.135 Z-2.000 F600.000 
G1 X808.225 Y141.801 Z-2.000 F600.000 
G1 X808.377 Y140.412 Z-2.000 F600.000 
G1 X808.462 Y138.968 Z-2.000 F600.000 
G1 X808.476 Y138.447 Z-2.000 F600.000 
G1 X808.480 Y137.920 Z-2.000 F600.000 
G1 X808.480 Y100.000 Z-2.000 F600.000 
G1 X808.480 Y100.000 Z-3.000 F600.000 
G1 X803.440 Y100.000 Z-3.000 F600.000 
G1 X803.440 Y137.200 Z-3.000 F600.000 
G1 X803.404 Y138.631 Z-3.000 F600.000 
G1 X803.297 Y139.991 Z-3.000 F600.000 
G1 X803.125 Y141.280 Z-3.000 F600.000 
G1 X802.888 Y142.501 Z-3.000 F600.000 
G1 X802.592 Y143.655 Z-3.000 F600.000 
G1 X802.237 Y144.743 Z-3.000 F600.000 
G1 X801.828 Y145.768 Z-3.000 F600.000 
G1 X801.365 Y146.732 Z-3.000 F600.000 
G1 X800.850 Y147.636 Z-3.000 F600.000 
G1 X800.285 Y148.483 Z-3.000 F600.000 
G1 X799.671 Y149.273 Z-3.000 F600.000 
G1 X799.007 Y150.009 Z-3.000 F600.000 
G1 X798.293 Y150.691 Z-3.000 F600.000 
G1 X797.530 Y151.319 Z-3.000 F600.000 
G1 X796.716 Y151.895 Z-3.000 F600.000 
G1 X795.851 Y152.419 Z-3.000 F600.000 
G1 X794.932 Y152.889 Z-3.000 F600.000 
G1 X793.959 Y153.304 Z-3.000 F600.000 
G1 X792.929 Y153.665 Z-3.000 F600.000 
G1 X791.841 Y153.968 Z-3.000 F600.000 
G1 X790.693 Y154.211 Z-3.000 F600.000 
G1 X789.483 Y154.393 Z-3.000 F600.000 
G1 X788.209 Y154.510 Z-3.000 F600.000 
G1 X787.414 Y154.547 Z-3.000 F600.000 
G1 X786.600 Y154.560 Z-3.000 F600.000 
G1 X785.194 Y154.524 Z-3.000 F600.000 
G1 X783.794 Y154.415 Z-3.000 F600.000 
G1 X782.403 Y154.235 Z-3.000 F600.000 
G1 X781.026 Y153.982 Z-3.000 F600.000 
G1 X779.665 Y153.660 Z-3.000 F600.000 
G1 X778.326 Y153.267 Z-3.000 F600.000 
G1 X777.011 Y152.806 Z-3.000 F600.000 
G1 X775.725 Y152.278 Z-3.000 F600.000 
G1 X774.471 Y151.684 Z-3.000 F600.000 
G1 X773.253 Y151.027 Z-3.000 F600.000 
G1 X772.073 Y150.308 Z-3.000 F600.000 
G1 X770.934 Y149.528 Z-3.000 F600.000 
G1 X769.840 Y148.690 Z-3.000 F600.000 
G1 X768.793 Y147.796 Z-3.000 F600.000 
G1 X768.044 Y147.094 Z-3.000 F600.000 
G1 X767.320 Y146.360 Z-3.000 F600.000 
G1 X767.320 Y100.000 Z-3.000 F600.000 
G1 X762.400 Y100.000 Z-3.000 F600.000 
G1 X762.400 Y192.160 Z-3.000 F600.000 
G1 X767.320 Y192.160 Z-3.000 F600.000 
G1 X767.320 Y150.680 Z-3.000 F600.000 
G1 X768.447 Y151.677 Z-3.000 F600.000 
G1 X769.619 Y152.619 Z-3.000 F600.000 
G1 X770.835 Y153.502 Z-3.000 F600.000 
G1 X772.090 Y154.324 Z-3.000 F600.000 
G1 X773.382 Y155.083 Z-3.000 F600.000 
G1 X774.706 Y155.777 Z-3.000 F600.000 
G1 X776.060 Y156.405 Z-3.000 F600.000 
G1 X777.439 Y156.964 Z-3.000 F600.000 
G1 X778.839 Y157.454 Z-3.000 F600.000 
G1 X780.257 Y157.872 Z-3.000 F600.000 
G1 X781.689 Y158.219 Z-3.000 F600.000 
G1 X783.131 Y158.493 Z-3.000 F600.000 
G1 X784.579 Y158.695 Z-3.000 F600.000 
G1 X786.030 Y158.823 Z-3.000 F600.000 
G1 X786.934 Y158.866 Z-3.000 F600.000 
G1 X787.840 Y158.880 Z-3.000 F600.000 
G1 X789.301 Y158.844 Z-3.000 F600.000 
G1 X790.706 Y158.737 Z-3.000 F600.000 
G1 X792.058 Y158.562 Z-3.000 F600.000 
G1 X793.355 Y158.322 Z-3.000 F600.000 
G1 X794.598 Y158.018 Z-3.000 F600.000 
G1 X795.787 Y157.653 Z-3.000 F600.000 
G1 X796.923 Y157.229 Z-3.000 F600.000 
G1 X798.007 Y156.748 Z-3.000 F600.000 
G1 X799.038 Y156.211 Z-3.000 F600.000 
G1 X800.018 Y155.619 Z-3.000 F600.000 
G1 X800.946 Y154.973 Z-3.000 F600.000 
G1 X801.823 Y154.274 Z-3.000 F600.000 
G1 X802.650 Y153.523 Z-3.000 F600.000 
G1 X803.425 Y152.721 Z-3.000 F600.000 
G1 X804.150 Y151.866 Z-3.000 F600.000 
G1 X804.822 Y150.960 Z-3.000 F600.000 
G1 X805.443 Y150.001 Z-3.000 F600.000 
G1 X806.011 Y148.990 Z-3.000 F600.000 
G1 X806.524 Y147.926 Z-3.000 F600.000 
G1 X806.982 Y146.809 Z-3.000 F600.000 
G1 X807.383 Y145.639 Z-3.000 F600.000 
G1 X807.725 Y144.414 Z-3.000 F600.000 
G1 X808.007 Y143.135 Z-3.000 F600.000 
G1 X808.225 Y141.801 Z-3.000 F600.000 
G1 X808.377 Y140.412 Z-3.000 F600.000 
G1 X808.462 Y138.968 Z-3.000 F600.000 
G1 X808.476 Y138.447 Z-3.000 F600.000 
G1 X808.480 Y137.920 Z-3.000 F600.000 
G1 X808.480 Y100.000 Z-3.000 F600.000 
G0 Z5.000 
G0 Z5.000 
G0 X873.640 Y104.760 
G0 Z3.000 
G1 X873.640 Y104.760 Z-2.000 F600.000 
G1 X872.483 Y104.068 Z-2.000 F600.000 
G1 X871.258 Y103.420 Z-2.000 F600.000 
G1 X869.966 Y102.818 Z-2.000 F600.000 
G1 X868.609 Y102.266 Z-2.000 F600.000 
G1 X867.190 Y101.766 Z-2.000 F600.000 
G1 X865.711 Y101.323 Z-2.000 F600.000 
G1 X864.178 Y100.938 Z-2.000 F600.000 
G1 X862.594 Y100.616 Z-2.000 F600.000 
G1 X860.966 Y100.359 Z-2.000 F600.000 
G1 X859.301 Y100.169 Z-2.000 F600.000 
G1 X857.608 Y100.050 Z-2.000 F600.000 
G1 X856.605 Y100.012 Z-2.000 F600.000 
G1 X855.600 Y100.000 Z-2.000 F600.000 
G1 X853.926 Y100.036 Z-2.000 F600.000 
G1 X852.301 Y100.143 Z-2.000 F600.000 
G1 X850.725 Y100.320 Z-2.000 F600.000 
G1 X849.198 Y100.563 Z-2.000 F600.000 
G1 X847.721 Y100.872 Z-2.000 F600.000 
G1 X846.293 Y101.244 Z-2.000 F600.000 
G1 X844.914 Y101.677 Z-2.000 F600.000 
G1 X843.583 Y102.172 Z-2.000 F600.000 
G1 X842.302 Y102.725 Z-2.000 F600.000 
G1 X841.070 Y103.336 Z-2.000 F600.000 
G1 X839.886 Y104.004 Z-2.000 F600.000 
G1 X838.751 Y104.727 Z-2.000 F600.000 
G1 X837.665 Y105.506 Z-2.000 F600.000 
G1 X836.627 Y106.339 Z-2.000 F600.000 
G1 X835.639 Y107.226 Z-2.000 F600.000 
G1 X834.699 Y108.166 Z-2.000 F600.000 
G1 X833.809 Y109.160 Z-2.000 F600.000 
G1 X832.968 Y110.208 Z-2.000 F600.000 
G1 X832.179 Y111.308 Z-2.000 F600.000 
G1 X831.441 Y112.462 Z-2.000 F600.000 
G1 X830.755 Y113.669 Z-2.000 F600.000 
G1 X830.123 Y114.930 Z-2.000 F600.000 
G1 X829.546 Y116.244 Z-2.000 F600.000 
G1 X829.025 Y117.613 Z-2.000 F600.000 
G1 X828.562 Y119.035 Z-2.000 F600.000 
G1 X828.158 Y120.512 Z-2.000 F600.000 
G1 X827.815 Y122.042 Z-2.000 F600.000 
G1 X827.536 Y123.627 Z-2.000 F600.000 
G1 X827.321 Y125.266 Z-2.000 F600.000 
G1 X827.173 Y126.959 Z-2.000 F600.000 
G1 X827.093 Y128.705 Z-2.000 F600.000 
G1 X827.080 Y129.800 Z-2.000 F600.000 
G1 X827.116 Y131.560 Z-2.000 F600.000 
G1 X827.223 Y133.275 Z-2.000 F600.000 
G1 X827.400 Y134.945 Z-2.000 F600.000 
G1 X827.644 Y136.568 Z-2.000 F600.000 
G1 X827.954 Y138.142 Z-2.000 F600.000 
G1 X828.327 Y139.665 Z-2.000 F600.000 
G1 X828.762 Y141.136 Z-2.000 F600.000 
G1 X829.257 Y142.555 Z-2.000 F600.000 
G1 X829.809 Y143.919 Z-2.000 F600.000 
G1 X830.417 Y145.228 Z-2.000 F600.000 
G1 X831.079 Y146.480 Z-2.000 F600.000 
G1 X831.792 Y147.676 Z-2.000 F600.000 
G1 X832.556 Y148.815 Z-2.000 F600.000 
G1 X833.368 Y149.895 Z-2.000 F600.000 
G1 X834.227 Y150.917 Z-2.000 F600.000 
G1 X835.131 Y151.880 Z-2.000 F600.000 
G1 X836.079 Y152.783 Z-2.000 F600.000 
G1 X837.070 Y153.627 Z-2.000 F600.000 
G1 X838.102 Y154.410 Z-2.000 F600.000 
G1 X839.175 Y155.133 Z-2.000 F600.000 
G1 X840.287 Y155.795 Z-2.000 F600.000 
G1 X841.439 Y156.395 Z-2.000 F600.000 
G1 X842.629 Y156.932 Z-2.000 F600.000 
G1 X843.856 Y157.406 Z-2.000 F600.000 
G1 X845.121 Y157.817 Z-2.000 F600.000 
G1 X846.423 Y158.162 Z-2.000 F600.000 
G1 X847.761 Y158.442 Z-2.000 F600.000 
G1 X849.135 Y158.654 Z-2.000 F600.000 
G1 X850.546 Y158.797 Z-2.000 F600.000 
G1 X851.991 Y158.870 Z-2.000 F600.000 
G1 X852.760 Y158.880 Z-2.000 F600.000 
G1 X854.178 Y158.844 Z-2.000 F600.000 
G1 X855.562 Y158.737 Z-2.000 F600.000 
G1 X856.911 Y158.560 Z-2.000 F600.000 
G1 X858.225 Y158.315 Z-2.000 F600.000 
G1 X859.502 Y158.004 Z-2.000 F600.000 
G1 X860.743 Y157.627 Z-2.000 F600.000 
G1 X861.945 Y157.186 Z-2.000 F600.000 
G1 X863.108 Y156.683 Z-2.000 F600.000 
G1 X864.232 Y156.118 Z-2.000 F600.000 
G1 X865.314 Y155.493 Z-2.000 F600.000 
G1 X866.355 Y154.808 Z-2.000 F600.000 
G1 X867.352 Y154.065 Z-2.000 F600.000 
G1 X868.306 Y153.264 Z-2.000 F600.000 
G1 X869.213 Y152.407 Z-2.000 F600.000 
G1 X870.073 Y151.495 Z-2.000 F600.000 
G1 X870.885 Y150.527 Z-2.000 F600.000 
G1 X871.647 Y149.507 Z-2.000 F600.000 
G1 X872.357 Y148.434 Z-2.000 F600.000 
G1 X873.013 Y147.309 Z-2.000 F600.000 
G1 X873.614 Y146.135 Z-2.000 F600.000 
G1 X874.158 Y144.912 Z-2.000 F600.000 
G1 X874.643 Y143.641 Z-2.000 F600.000 
G1 X875.068 Y142.324 Z-2.000 F600.000 
G1 X875.430 Y140.962 Z-2.000 F600.000 
G1 X875.727 Y139.558 Z-2.000 F600.000 
G1 X875.959 Y138.112 Z-2.000 F600.000 
G1 X876.122 Y136.627 Z-2.000 F600.000 
G1 X876.216 Y135.104 Z-2.000 F600.000 
G1 X876.240 Y133.840 Z-2.000 F600.000 
G1 X876.226 Y132.069 Z-2.000 F600.000 
G1 X876.164 Y130.693 Z-2.000 F600.000 
G1 X876.097 Y130.025 Z-2.000 F600.000 
G1 X876.000 Y129.440 Z-2.000 F600.000 
G1 X832.120 Y129.440 Z-2.000 F600.000 
G1 X832.209 Y127.717 Z-2.000 F600.000 
G1 X832.367 Y126.057 Z-2.000 F600.000 
G1 X832.591 Y124.459 Z-2.000 F600.000 
G1 X832.879 Y122.925 Z-2.000 F600.000 
G1 X833.228 Y121.454 Z-2.000 F600.000 
G1 X833.637 Y120.045 Z-2.000 F600.000 
G1 X834.103 Y118.698 Z-2.000 F600.000 
G1 X834.624 Y117.413 Z-2.000 F600.000 
G1 X835.199 Y116.188 Z-2.000 F600.000 
G1 X835.825 Y115.024 Z-2.000 F600.000 
G1 X836.501 Y113.920 Z-2.000 F600.000 
G1 X837.227 Y112.874 Z-2.000 F600.000 
G1 X838.000 Y111.887 Z-2.000 F600.000 
