(Exported by FreeCAD)
(Post Processor: linuxcnc_post)
(Output Time:2022-01-30 16:04:10.711953)
(begin preamble)
G17 G54 G40 G49 G80 G90
G21
(begin operation: Fixture)
(machine units: mm/min)
G54 
(finish operation: Fixture)
(begin operation: 6.4mm Endmill001)
(machine units: mm/min)
(6.4mm Endmill001) 
M5
M6 T2 
G43 H2 
M3 S10000 
(finish operation: 6.4mm Endmill001)
(begin operation: Profile)
(machine units: mm/min)
(Profile) 
(Compensated Tool Path. Diameter: 6.4) 
G0 Z5.000 
G0 X821.324 Y183.564 
G0 Z3.000 
G1 X821.324 Y183.564 Z3.000 F600.000 
G2 X828.118 Y167.261 Z3.000 I-16.406 J-16.405 F600.000 
G1 X828.120 Y36.840 Z3.000 F600.000 
G2 X805.021 Y13.642 Z3.000 I-23.201 J0.002 F600.000 
G1 X34.920 Y13.640 Z3.000 F600.000 
G2 X11.722 Y36.739 Z3.000 I0.002 J23.201 F600.000 
G1 X11.720 Y167.160 Z3.000 F600.000 
G2 X34.819 Y190.358 Z3.000 I23.201 J-0.002 F600.000 
G1 X804.920 Y190.360 Z3.000 F600.000 
G2 X821.324 Y183.564 Z3.000 I-0.002 J-23.201 F600.000 
G0 Z5.000 
G0 Z5.000 
(finish operation: Profile)
(begin operation: 90 Deg. V-Bit001)
(machine units: mm/min)
(90 Deg. V-Bit001) 
M5
M6 T3 
G43 H3 
M3 S10000 
(finish operation: 90 Deg. V-Bit001)
(begin operation: Vcarve)
(machine units: mm/min)
(starting) 
G0 Z3.000 
G0 X39.920 Y70.000 Z3.000 
G1 X39.920 Y70.000 Z0.500 F600.000 
G1 X48.585 Y78.665 Z-4.000 F600.000 
G1 X48.277 Y79.762 Z-4.000 F600.000 
G1 X48.047 Y80.848 Z-4.000 F600.000 
G1 X47.893 Y81.927 Z-4.000 F600.000 
G1 X47.813 Y83.001 Z-4.000 F600.000 
G1 X47.800 Y83.640 Z-4.000 F600.000 
G1 X47.800 Y140.800 Z-4.000 F600.000 
G1 X47.836 Y141.871 Z-4.000 F600.000 
G1 X47.946 Y142.942 Z-4.000 F600.000 
G1 X48.129 Y144.018 Z-4.000 F600.000 
G1 X48.386 Y145.100 Z-4.000 F600.000 
G1 X48.595 Y145.805 Z-4.000 F600.000 
G1 X39.920 Y154.480 Z0.500 F600.000 
G0 Z3.000 
G0 X48.595 Y145.805 Z3.000 
G1 X48.595 Y145.805 Z-4.000 F600.000 
G1 X49.653 Y146.312 Z-4.000 F600.000 
G1 X50.696 Y146.732 Z-4.000 F600.000 
G1 X51.725 Y147.068 Z-4.000 F600.000 
G1 X52.743 Y147.325 Z-4.000 F600.000 
G1 X53.751 Y147.504 Z-4.000 F600.000 
G1 X54.754 Y147.609 Z-4.000 F600.000 
G1 X55.680 Y147.640 Z-4.000 F600.000 
G1 X68.680 Y147.640 Z-4.000 F600.000 
G1 X68.808 Y147.639 Z-4.000 F600.000 
G1 X69.888 Y147.629 Z-4.000 F600.000 
G1 X70.524 Y147.620 Z-4.000 F600.000 
G1 X70.773 Y147.615 Z-4.000 F600.000 
G1 X71.092 Y147.604 Z-4.000 F600.000 
G1 X72.250 Y147.558 Z-4.000 F600.000 
G1 X72.444 Y147.548 Z-4.000 F600.000 
G1 X72.721 Y147.532 Z-4.000 F600.000 
G1 X73.382 Y147.485 Z-4.000 F600.000 
G1 X74.345 Y147.409 Z-4.000 F600.000 
G1 X74.497 Y147.397 Z-4.000 F600.000 
G1 X74.620 Y147.385 Z-4.000 F600.000 
G1 X75.593 Y147.278 Z-4.000 F600.000 
G1 X76.198 Y147.207 Z-4.000 F600.000 
G1 X76.501 Y147.168 Z-4.000 F600.000 
G1 X76.665 Y147.145 Z-4.000 F600.000 
G1 X77.719 Y146.986 Z-4.000 F600.000 
G1 X78.034 Y146.936 Z-4.000 F600.000 
G1 X78.336 Y146.885 Z-4.000 F600.000 
G1 X78.753 Y146.808 Z-4.000 F600.000 
G1 X79.763 Y146.613 Z-4.000 F600.000 
G1 X79.822 Y146.601 Z-4.000 F600.000 
G1 X80.148 Y146.531 Z-4.000 F600.000 
G1 X80.750 Y146.393 Z-4.000 F600.000 
G1 X81.589 Y146.192 Z-4.000 F600.000 
G1 X81.719 Y146.161 Z-4.000 F600.000 
G1 X81.919 Y146.107 Z-4.000 F600.000 
G1 X82.663 Y145.901 Z-4.000 F600.000 
G1 X83.314 Y145.714 Z-4.000 F600.000 
G1 X83.589 Y145.632 Z-4.000 F600.000 
G1 X83.667 Y145.607 Z-4.000 F600.000 
G1 X84.487 Y145.337 Z-4.000 F600.000 
G1 X85.015 Y145.157 Z-4.000 F600.000 
G1 X85.363 Y145.035 Z-4.000 F600.000 
G1 X85.368 Y145.032 Z-4.000 F600.000 
G1 X86.224 Y144.705 Z-4.000 F600.000 
G1 X86.666 Y144.531 Z-4.000 F600.000 
G1 X87.037 Y144.379 Z-4.000 F600.000 
G1 X87.060 Y144.369 Z-4.000 F600.000 
G1 X87.871 Y144.011 Z-4.000 F600.000 
G1 X88.292 Y143.819 Z-4.000 F600.000 
G1 X88.661 Y143.646 Z-4.000 F600.000 
G1 X88.662 Y143.645 Z-4.000 F600.000 
G1 X89.428 Y143.258 Z-4.000 F600.000 
G1 X89.869 Y143.029 Z-4.000 F600.000 
G1 X90.179 Y142.864 Z-4.000 F600.000 
G1 X90.246 Y142.826 Z-4.000 F600.000 
G1 X90.901 Y142.450 Z-4.000 F600.000 
G1 X91.405 Y142.153 Z-4.000 F600.000 
G1 X91.606 Y142.033 Z-4.000 F600.000 
G1 X91.777 Y141.924 Z-4.000 F600.000 
G1 X92.289 Y141.592 Z-4.000 F600.000 
G1 X92.887 Y141.194 Z-4.000 F600.000 
G1 X92.952 Y141.151 Z-4.000 F600.000 
G1 X93.256 Y140.936 Z-4.000 F600.000 
G1 X93.591 Y140.691 Z-4.000 F600.000 
G1 X94.216 Y140.223 Z-4.000 F600.000 
G1 X94.315 Y140.146 Z-4.000 F600.000 
G1 X94.671 Y139.864 Z-4.000 F600.000 
G1 X94.815 Y139.746 Z-4.000 F600.000 
G1 X95.398 Y139.256 Z-4.000 F600.000 
G1 X95.677 Y139.014 Z-4.000 F600.000 
G1 X95.970 Y138.756 Z-4.000 F600.000 
G1 X96.031 Y138.698 Z-4.000 F600.000 
G1 X96.516 Y138.240 Z-4.000 F600.000 
G1 X96.982 Y137.788 Z-4.000 F600.000 
G1 X97.046 Y137.726 Z-4.000 F600.000 
G1 X97.308 Y137.456 Z-4.000 F600.000 
G1 X97.554 Y137.194 Z-4.000 F600.000 
G1 X98.054 Y136.650 Z-4.000 F600.000 
G1 X98.201 Y136.486 Z-4.000 F600.000 
G1 X98.510 Y136.130 Z-4.000 F600.000 
G1 X98.535 Y136.100 Z-4.000 F600.000 
G1 X98.996 Y135.536 Z-4.000 F600.000 
G1 X99.343 Y135.099 Z-4.000 F600.000 
G1 X99.448 Y134.966 Z-4.000 F600.000 
G1 X99.631 Y134.721 Z-4.000 F600.000 
G1 X99.878 Y134.379 Z-4.000 F600.000 
G1 X100.298 Y133.784 Z-4.000 F600.000 
G1 X100.402 Y133.631 Z-4.000 F600.000 
G1 X100.655 Y133.252 Z-4.000 F600.000 
G1 X100.703 Y133.176 Z-4.000 F600.000 
G1 X101.093 Y132.552 Z-4.000 F600.000 
G1 X101.364 Y132.104 Z-4.000 F600.000 
G1 X101.474 Y131.921 Z-4.000 F600.000 
G1 X101.593 Y131.707 Z-4.000 F600.000 
G1 X101.830 Y131.274 Z-4.000 F600.000 
G1 X102.182 Y130.611 Z-4.000 F600.000 
G1 X102.238 Y130.502 Z-4.000 F600.000 
G1 X102.437 Y130.104 Z-4.000 F600.000 
G1 X102.517 Y129.937 Z-4.000 F600.000 
G1 X102.837 Y129.247 Z-4.000 F600.000 
G1 X103.017 Y128.845 Z-4.000 F600.000 
G1 X103.149 Y128.542 Z-4.000 F600.000 
G1 X103.190 Y128.441 Z-4.000 F600.000 
G1 X103.437 Y127.823 Z-4.000 F600.000 
G1 X103.705 Y127.127 Z-4.000 F600.000 
G1 X103.720 Y127.088 Z-4.000 F600.000 
G1 X103.848 Y126.728 Z-4.000 F600.000 
G1 X103.982 Y126.335 Z-4.000 F600.000 
G1 X104.235 Y125.561 Z-4.000 F600.000 
G1 X104.297 Y125.364 Z-4.000 F600.000 
G1 X104.413 Y124.981 Z-4.000 F600.000 
G1 X104.471 Y124.776 Z-4.000 F600.000 
G1 X104.689 Y123.978 Z-4.000 F600.000 
G1 X104.796 Y123.564 Z-4.000 F600.000 
G1 X104.892 Y123.180 Z-4.000 F600.000 
G1 X104.898 Y123.152 Z-4.000 F600.000 
G1 X105.085 Y122.311 Z-4.000 F600.000 
G1 X105.210 Y121.715 Z-4.000 F600.000 
G1 X105.262 Y121.456 Z-4.000 F600.000 
G1 X105.281 Y121.350 Z-4.000 F600.000 
G1 X105.415 Y120.579 Z-4.000 F600.000 
G1 X105.535 Y119.837 Z-4.000 F600.000 
G1 X105.559 Y119.685 Z-4.000 F600.000 
G1 X105.587 Y119.476 Z-4.000 F600.000 
G1 X105.678 Y118.770 Z-4.000 F600.000 
G1 X105.777 Y117.916 Z-4.000 F600.000 
G1 X105.787 Y117.837 Z-4.000 F600.000 
G1 X105.811 Y117.578 Z-4.000 F600.000 
G1 X105.869 Y116.885 Z-4.000 F600.000 
G1 X105.937 Y115.972 Z-4.000 F600.000 
G1 X105.941 Y115.920 Z-4.000 F600.000 
G1 X105.955 Y115.651 Z-4.000 F600.000 
G1 X105.986 Y114.925 Z-4.000 F600.000 
G1 X106.017 Y113.999 Z-4.000 F600.000 
G1 X106.020 Y113.921 Z-4.000 F600.000 
G1 X106.022 Y113.685 Z-4.000 F600.000 
G1 X106.025 Y112.853 Z-4.000 F600.000 
G1 X106.019 Y111.990 Z-4.000 F600.000 
G1 X106.017 Y111.798 Z-4.000 F600.000 
G1 X106.013 Y111.692 Z-4.000 F600.000 
G1 X105.979 Y110.758 Z-4.000 F600.000 
G1 X105.943 Y110.024 Z-4.000 F600.000 
G1 X105.928 Y109.738 Z-4.000 F600.000 
G1 X105.927 Y109.737 Z-4.000 F600.000 
G1 X105.850 Y108.729 Z-4.000 F600.000 
G1 X105.796 Y108.120 Z-4.000 F600.000 
G1 X105.766 Y107.811 Z-4.000 F600.000 
G1 X105.758 Y107.738 Z-4.000 F600.000 
G1 X105.641 Y106.765 Z-4.000 F600.000 
G1 X105.572 Y106.241 Z-4.000 F600.000 
G1 X105.526 Y105.919 Z-4.000 F600.000 
G1 X105.509 Y105.804 Z-4.000 F600.000 
G1 X105.353 Y104.857 Z-4.000 F600.000 
G1 X105.272 Y104.399 Z-4.000 F600.000 
G1 X105.212 Y104.080 Z-4.000 F600.000 
G1 X105.182 Y103.929 Z-4.000 F600.000 
G1 X104.989 Y103.015 Z-4.000 F600.000 
G1 X104.898 Y102.611 Z-4.000 F600.000 
G1 X104.817 Y102.266 Z-4.000 F600.000 
G1 X104.778 Y102.111 Z-4.000 F600.000 
G1 X104.548 Y101.226 Z-4.000 F600.000 
G1 X104.444 Y100.848 Z-4.000 F600.000 
G1 X104.347 Y100.508 Z-4.000 F600.000 
G1 X104.301 Y100.357 Z-4.000 F600.000 
G1 X104.034 Y99.502 Z-4.000 F600.000 
G1 X103.916 Y99.143 Z-4.000 F600.000 
G1 X103.798 Y98.796 Z-4.000 F600.000 
G1 X103.750 Y98.660 Z-4.000 F600.000 
G1 X103.445 Y97.832 Z-4.000 F600.000 
G1 X103.311 Y97.483 Z-4.000 F600.000 
G1 X103.170 Y97.126 Z-4.000 F600.000 
G1 X103.125 Y97.018 Z-4.000 F600.000 
G1 X102.782 Y96.217 Z-4.000 F600.000 
G1 X102.627 Y95.865 Z-4.000 F600.000 
G1 X102.464 Y95.510 Z-4.000 F600.000 
G1 X102.425 Y95.428 Z-4.000 F600.000 
G1 X102.048 Y94.661 Z-4.000 F600.000 
G1 X101.867 Y94.302 Z-4.000 F600.000 
G1 X101.682 Y93.950 Z-4.000 F600.000 
G1 X101.655 Y93.900 Z-4.000 F600.000 
G1 X101.239 Y93.155 Z-4.000 F600.000 
G1 X101.032 Y92.797 Z-4.000 F600.000 
G1 X100.826 Y92.449 Z-4.000 F600.000 
G1 X100.809 Y92.422 Z-4.000 F600.000 
G1 X100.357 Y91.708 Z-4.000 F600.000 
G1 X100.124 Y91.349 Z-4.000 F600.000 
G1 X99.892 Y91.004 Z-4.000 F600.000 
G1 X99.892 Y91.004 Z-4.000 F600.000 
G1 X99.400 Y90.314 Z-4.000 F600.000 
G1 X99.139 Y89.958 Z-4.000 F600.000 
G1 X98.896 Y89.636 Z-4.000 F600.000 
G1 X98.891 Y89.629 Z-4.000 F600.000 
G1 X98.368 Y88.976 Z-4.000 F600.000 
G1 X98.089 Y88.636 Z-4.000 F600.000 
G1 X97.827 Y88.327 Z-4.000 F600.000 
G1 X97.816 Y88.314 Z-4.000 F600.000 
G1 X97.262 Y87.697 Z-4.000 F600.000 
G1 X96.965 Y87.374 Z-4.000 F600.000 
G1 X96.681 Y87.075 Z-4.000 F600.000 
G1 X96.681 Y87.074 Z-4.000 F600.000 
G1 X96.078 Y86.474 Z-4.000 F600.000 
G1 X95.783 Y86.188 Z-4.000 F600.000 
G1 X95.478 Y85.901 Z-4.000 F600.000 
G1 X95.459 Y85.884 Z-4.000 F600.000 
G1 X94.815 Y85.311 Z-4.000 F600.000 
G1 X94.532 Y85.065 Z-4.000 F600.000 
G1 X94.218 Y84.801 Z-4.000 F600.000 
G1 X94.156 Y84.751 Z-4.000 F600.000 
G1 X93.478 Y84.212 Z-4.000 F600.000 
G1 X93.226 Y84.018 Z-4.000 F600.000 
G1 X92.906 Y83.778 Z-4.000 F600.000 
G1 X92.779 Y83.685 Z-4.000 F600.000 
G1 X92.063 Y83.178 Z-4.000 F600.000 
G1 X91.869 Y83.045 Z-4.000 F600.000 
G1 X91.533 Y82.821 Z-4.000 F600.000 
G1 X91.323 Y82.685 Z-4.000 F600.000 
G1 X90.564 Y82.209 Z-4.000 F600.000 
G1 X90.450 Y82.139 Z-4.000 F600.000 
G1 X90.118 Y81.943 Z-4.000 F600.000 
G1 X89.788 Y81.754 Z-4.000 F600.000 
G1 X88.993 Y81.313 Z-4.000 F600.000 
G1 X88.989 Y81.310 Z-4.000 F600.000 
G1 X88.659 Y81.138 Z-4.000 F600.000 
G1 X88.178 Y80.896 Z-4.000 F600.000 
G1 X87.483 Y80.556 Z-4.000 F600.000 
G1 X87.347 Y80.491 Z-4.000 F600.000 
G1 X87.145 Y80.400 Z-4.000 F600.000 
G1 X86.494 Y80.113 Z-4.000 F600.000 
G1 X85.923 Y79.870 Z-4.000 F600.000 
G1 X85.620 Y79.746 Z-4.000 F600.000 
G1 X85.599 Y79.738 Z-4.000 F600.000 
G1 X84.732 Y79.407 Z-4.000 F600.000 
G1 X84.329 Y79.259 Z-4.000 F600.000 
G1 X84.009 Y79.146 Z-4.000 F600.000 
G1 X83.824 Y79.084 Z-4.000 F600.000 
G1 X82.898 Y78.781 Z-4.000 F600.000 
G1 X82.693 Y78.717 Z-4.000 F600.000 
G1 X82.378 Y78.623 Z-4.000 F600.000 
G1 X81.956 Y78.502 Z-4.000 F600.000 
G1 X81.015 Y78.244 Z-4.000 F600.000 
G1 X80.995 Y78.239 Z-4.000 F600.000 
G1 X80.710 Y78.168 Z-4.000 F600.000 
G1 X80.016 Y78.003 Z-4.000 F600.000 
G1 X79.299 Y77.842 Z-4.000 F600.000 
G1 X79.021 Y77.783 Z-4.000 F600.000 
G1 X79.006 Y77.780 Z-4.000 F600.000 
G1 X78.009 Y77.590 Z-4.000 F600.000 
G1 X77.548 Y77.508 Z-4.000 F600.000 
G1 X77.259 Y77.460 Z-4.000 F600.000 
G1 X76.983 Y77.416 Z-4.000 F600.000 
G1 X75.940 Y77.264 Z-4.000 F600.000 
G1 X75.754 Y77.239 Z-4.000 F600.000 
G1 X75.484 Y77.206 Z-4.000 F600.000 
G1 X74.877 Y77.137 Z-4.000 F600.000 
G1 X73.930 Y77.039 Z-4.000 F600.000 
G1 X73.801 Y77.027 Z-4.000 F600.000 
G1 X73.666 Y77.016 Z-4.000 F600.000 
G1 X72.714 Y76.946 Z-4.000 F600.000 
G1 X72.065 Y76.906 Z-4.000 F600.000 
G1 X71.808 Y76.893 Z-4.000 F600.000 
G1 X71.605 Y76.883 Z-4.000 F600.000 
G1 X70.484 Y76.845 Z-4.000 F600.000 
G1 X70.159 Y76.838 Z-4.000 F600.000 
G1 X70.039 Y76.836 Z-4.000 F600.000 
G1 X69.352 Y76.826 Z-4.000 F600.000 
G1 X68.168 Y76.820 Z-4.000 F600.000 
G1 X55.680 Y76.820 Z-4.000 F600.000 
G1 X54.684 Y76.856 Z-4.000 F600.000 
G1 X53.687 Y76.966 Z-4.000 F600.000 
G1 X52.685 Y77.149 Z-4.000 F600.000 
G1 X51.678 Y77.407 Z-4.000 F600.000 
G1 X50.661 Y77.743 Z-4.000 F600.000 
G1 X49.633 Y78.161 Z-4.000 F600.000 
G1 X48.585 Y78.665 Z-4.000 F600.000 
G0 Z3.000 
G0 X129.280 Y112.400 Z3.000 
G1 X129.280 Y112.400 Z0.500 F600.000 
G1 X130.041 Y113.977 Z-0.733 F600.000 
G1 X130.055 Y114.005 Z-0.755 F600.000 
G1 X130.827 Y115.569 Z-1.995 F600.000 
G1 X130.856 Y115.626 Z-2.040 F600.000 
G1 X131.637 Y117.175 Z-3.284 F600.000 
G1 X131.686 Y117.271 Z-3.362 F600.000 
G1 X132.481 Y118.807 Z-4.000 F600.000 
G1 X132.546 Y118.933 Z-4.000 F600.000 
G1 X133.027 Y119.841 Z-4.000 F600.000 
G1 X131.516 Y120.549 Z-4.000 F600.000 
G1 X129.631 Y121.396 Z-2.762 F600.000 
G1 X127.663 Y122.239 Z-1.176 F600.000 
G1 X125.600 Y123.080 Z0.500 F600.000 
G0 Z3.000 
G0 X133.027 Y119.841 Z3.000 
G1 X133.027 Y119.841 Z-4.000 F600.000 
G1 X133.254 Y119.915 Z-4.000 F600.000 
G1 X133.481 Y119.984 Z-4.000 F600.000 
G1 X133.599 Y120.020 Z-4.000 F600.000 
G1 X134.605 Y120.318 Z-4.000 F600.000 
G1 X134.715 Y120.349 Z-4.000 F600.000 
G1 X134.832 Y120.381 Z-4.000 F600.000 
G1 X135.941 Y120.680 Z-4.000 F600.000 
G1 X135.983 Y120.691 Z-4.000 F600.000 
G1 X136.069 Y120.712 Z-4.000 F600.000 
G1 X137.172 Y120.979 Z-4.000 F600.000 
G1 X137.304 Y121.010 Z-4.000 F600.000 
G1 X137.386 Y121.029 Z-4.000 F600.000 
G1 X138.399 Y121.248 Z-4.000 F600.000 
G1 X138.535 Y121.276 Z-4.000 F600.000 
G1 X138.811 Y121.332 Z-4.000 F600.000 
G1 X139.623 Y121.486 Z-4.000 F600.000 
G1 X139.760 Y121.511 Z-4.000 F600.000 
G1 X140.250 Y121.598 Z-4.000 F600.000 
G1 X140.841 Y121.695 Z-4.000 F600.000 
G1 X140.987 Y121.718 Z-4.000 F600.000 
G1 X141.700 Y121.825 Z-4.000 F600.000 
G1 X142.060 Y121.875 Z-4.000 F600.000 
G1 X142.217 Y121.895 Z-4.000 F600.000 
G1 X143.156 Y122.011 Z-4.000 F600.000 
G1 X143.284 Y122.025 Z-4.000 F600.000 
G1 X143.433 Y122.042 Z-4.000 F600.000 
G1 X144.491 Y122.145 Z-4.000 F600.000 
G1 X144.614 Y122.157 Z-4.000 F600.000 
G1 X144.651 Y122.160 Z-4.000 F600.000 
G1 X145.704 Y122.234 Z-4.000 F600.000 
G1 X145.867 Y122.245 Z-4.000 F600.000 
G1 X146.061 Y122.256 Z-4.000 F600.000 
G1 X146.914 Y122.294 Z-4.000 F600.000 
G1 X147.080 Y122.300 Z-4.000 F600.000 
G1 X147.500 Y122.313 Z-4.000 F600.000 
G1 X147.964 Y122.321 Z-4.000 F600.000 
G1 X148.110 Y122.323 Z-4.000 F600.000 
G1 X148.922 Y122.327 Z-4.000 F600.000 
G1 X148.969 Y122.327 Z-4.000 F600.000 
G1 X149.132 Y122.324 Z-4.000 F600.000 
G1 X149.966 Y122.305 Z-4.000 F600.000 
G1 X150.142 Y122.301 Z-4.000 F600.000 
G1 X150.319 Y122.294 Z-4.000 F600.000 
G1 X150.949 Y122.262 Z-4.000 F600.000 
G1 X151.136 Y122.251 Z-4.000 F600.000 
G1 X151.735 Y122.211 Z-4.000 F600.000 
G1 X151.919 Y122.196 Z-4.000 F600.000 
G1 X152.120 Y122.178 Z-4.000 F600.000 
G1 X152.877 Y122.104 Z-4.000 F600.000 
G1 X153.089 Y122.082 Z-4.000 F600.000 
G1 X153.090 Y122.082 Z-4.000 F600.000 
G1 X153.822 Y121.986 Z-4.000 F600.000 
G1 X154.051 Y121.954 Z-4.000 F600.000 
G1 X154.378 Y121.905 Z-4.000 F600.000 
G1 X154.758 Y121.841 Z-4.000 F600.000 
G1 X155.003 Y121.799 Z-4.000 F600.000 
G1 X155.598 Y121.688 Z-4.000 F600.000 
G1 X155.685 Y121.670 Z-4.000 F600.000 
G1 X155.935 Y121.616 Z-4.000 F600.000 
G1 X156.592 Y121.467 Z-4.000 F600.000 
G1 X156.750 Y121.431 Z-4.000 F600.000 
G1 X156.868 Y121.400 Z-4.000 F600.000 
G1 X157.500 Y121.229 Z-4.000 F600.000 
G1 X157.787 Y121.150 Z-4.000 F600.000 
G1 X157.834 Y121.135 Z-4.000 F600.000 
G1 X158.392 Y120.959 Z-4.000 F600.000 
G1 X158.701 Y120.858 Z-4.000 F600.000 
G1 X158.849 Y120.807 Z-4.000 F600.000 
G1 X159.282 Y120.649 Z-4.000 F600.000 
G1 X159.597 Y120.530 Z-4.000 F600.000 
G1 X159.799 Y120.450 Z-4.000 F600.000 
G1 X160.152 Y120.302 Z-4.000 F600.000 
G1 X160.496 Y120.152 Z-4.000 F600.000 
G1 X160.680 Y120.069 Z-4.000 F600.000 
G1 X161.025 Y119.903 Z-4.000 F600.000 
G1 X161.372 Y119.730 Z-4.000 F600.000 
G1 X161.498 Y119.665 Z-4.000 F600.000 
G1 X161.875 Y119.459 Z-4.000 F600.000 
G1 X162.248 Y119.248 Z-4.000 F600.000 
G1 X162.257 Y119.243 Z-4.000 F600.000 
G1 X162.722 Y118.954 Z-4.000 F600.000 
G1 X162.956 Y118.807 Z-4.000 F600.000 
G1 X163.077 Y118.722 Z-4.000 F600.000 
G1 X163.525 Y118.407 Z-4.000 F600.000 
G1 X163.599 Y118.356 Z-4.000 F600.000 
G1 X163.885 Y118.135 Z-4.000 F600.000 
G1 X164.193 Y117.889 Z-4.000 F600.000 
G1 X164.304 Y117.796 Z-4.000 F600.000 
G1 X164.666 Y117.483 Z-4.000 F600.000 
G1 X164.745 Y117.411 Z-4.000 F600.000 
G1 X165.053 Y117.119 Z-4.000 F600.000 
G1 X165.254 Y116.925 Z-4.000 F600.000 
G1 X165.407 Y116.762 Z-4.000 F600.000 
G1 X165.724 Y116.420 Z-4.000 F600.000 
G1 X165.764 Y116.374 Z-4.000 F600.000 
G1 X166.076 Y116.007 Z-4.000 F600.000 
G1 X166.166 Y115.896 Z-4.000 F600.000 
G1 X166.398 Y115.594 Z-4.000 F600.000 
G1 X166.580 Y115.355 Z-4.000 F600.000 
G1 X166.702 Y115.176 Z-4.000 F600.000 
G1 X166.966 Y114.785 Z-4.000 F600.000 
G1 X166.993 Y114.742 Z-4.000 F600.000 
G1 X167.126 Y114.529 Z-4.000 F600.000 
G1 X167.255 Y114.314 Z-4.000 F600.000 
G1 X167.330 Y114.184 Z-4.000 F600.000 
G1 X167.510 Y113.857 Z-4.000 F600.000 
G1 X167.673 Y113.553 Z-4.000 F600.000 
G1 X167.745 Y113.403 Z-4.000 F600.000 
G1 X167.969 Y112.925 Z-4.000 F600.000 
G1 X167.992 Y112.879 Z-4.000 F600.000 
G1 X168.166 Y112.462 Z-4.000 F600.000 
G1 X168.284 Y112.164 Z-4.000 F600.000 
G1 X168.358 Y111.964 Z-4.000 F600.000 
G1 X168.519 Y111.509 Z-4.000 F600.000 
G1 X168.553 Y111.405 Z-4.000 F600.000 
G1 X168.679 Y110.992 Z-4.000 F600.000 
G1 X168.795 Y110.595 Z-4.000 F600.000 
G1 X168.808 Y110.544 Z-4.000 F600.000 
G1 X168.939 Y110.008 Z-4.000 F600.000 
G1 X169.005 Y109.734 Z-4.000 F600.000 
G1 X169.039 Y109.559 Z-4.000 F600.000 
G1 X169.144 Y109.005 Z-4.000 F600.000 
G1 X169.179 Y108.818 Z-4.000 F600.000 
G1 X169.214 Y108.573 Z-4.000 F600.000 
G1 X169.293 Y108.001 Z-4.000 F600.000 
G1 X169.312 Y107.855 Z-4.000 F600.000 
G1 X169.339 Y107.585 Z-4.000 F600.000 
G1 X169.390 Y106.994 Z-4.000 F600.000 
G1 X169.404 Y106.835 Z-4.000 F600.000 
G1 X169.415 Y106.612 Z-4.000 F600.000 
G1 X169.440 Y106.003 Z-4.000 F600.000 
G1 X169.448 Y105.800 Z-4.000 F600.000 
G1 X169.449 Y105.760 Z-4.000 F600.000 
G1 X169.460 Y104.566 Z-4.000 F600.000 
G1 X169.460 Y104.320 Z-4.000 F600.000 
G1 X169.424 Y103.259 Z-4.000 F600.000 
G1 X169.314 Y102.197 Z-4.000 F600.000 
G1 X169.131 Y101.131 Z-4.000 F600.000 
G1 X168.846 Y99.960 Z-4.000 F600.000 
G1 X161.819 Y99.960 Z-3.861 F600.000 
G1 X161.615 Y99.958 Z-3.859 F600.000 
G1 X159.474 Y99.907 Z-3.860 F600.000 
G1 X158.842 Y99.888 Z-3.856 F600.000 
G1 X158.758 Y99.885 Z-3.856 F600.000 
G1 X157.248 Y99.824 Z-3.860 F600.000 
G1 X156.198 Y99.773 Z-3.855 F600.000 
G1 X156.099 Y99.768 Z-3.855 F600.000 
G1 X155.110 Y99.709 Z-3.861 F600.000 
G1 X153.745 Y99.615 Z-3.858 F600.000 
G1 X153.627 Y99.606 Z-3.858 F600.000 
G1 X153.062 Y99.560 Z-3.865 F600.000 
G1 X151.476 Y99.414 Z-3.868 F600.000 
G1 X151.330 Y99.399 Z-3.870 F600.000 
G1 X151.101 Y99.375 Z-3.874 F600.000 
G1 X149.376 Y99.170 Z-3.889 F600.000 
G1 X149.230 Y99.151 Z-3.891 F600.000 
G1 X149.202 Y99.147 Z-3.892 F600.000 
G1 X147.452 Y98.884 Z-3.923 F600.000 
G1 X147.439 Y98.882 Z-3.923 F600.000 
G1 X147.277 Y98.854 Z-3.926 F600.000 
G1 X146.465 Y98.707 Z-3.945 F600.000 
G1 X146.346 Y98.684 Z-3.949 F600.000 
G1 X145.766 Y98.570 Z-3.971 F600.000 
G1 X145.579 Y98.531 Z-3.976 F600.000 
G1 X145.448 Y98.503 Z-3.980 F600.000 
G1 X144.725 Y98.340 Z-4.000 F600.000 
G1 X144.577 Y98.306 Z-4.000 F600.000 
G1 X144.176 Y98.208 Z-4.000 F600.000 
G1 X143.898 Y98.137 Z-4.000 F600.000 
G1 X143.724 Y98.090 Z-4.000 F600.000 
G1 X143.085 Y97.912 Z-4.000 F600.000 
G1 X142.899 Y97.858 Z-4.000 F600.000 
G1 X142.684 Y97.793 Z-4.000 F600.000 
G1 X142.302 Y97.672 Z-4.000 F600.000 
G1 X142.088 Y97.601 Z-4.000 F600.000 
G1 X141.530 Y97.408 Z-4.000 F600.000 
G1 X141.295 Y97.324 Z-4.000 F600.000 
G1 X141.291 Y97.322 Z-4.000 F600.000 
G1 X140.772 Y97.117 Z-4.000 F600.000 
G1 X140.503 Y97.007 Z-4.000 F600.000 
G1 X140.017 Y96.798 Z-4.000 F600.000 
G1 X140.015 Y96.798 Z-4.000 F600.000 
G1 X139.712 Y96.655 Z-4.000 F600.000 
G1 X139.262 Y96.433 Z-4.000 F600.000 
G1 X138.939 Y96.268 Z-4.000 F600.000 
G1 X138.847 Y96.217 Z-4.000 F600.000 
G1 X138.523 Y96.035 Z-4.000 F600.000 
G1 X138.143 Y95.811 Z-4.000 F600.000 
G1 X137.794 Y95.595 Z-4.000 F600.000 
G1 X137.755 Y95.570 Z-4.000 F600.000 
G1 X137.354 Y95.298 Z-4.000 F600.000 
G1 X136.995 Y95.041 Z-4.000 F600.000 
G1 X136.860 Y94.943 Z-4.000 F600.000 
G1 X136.564 Y94.708 Z-4.000 F600.000 
G1 X136.233 Y94.434 Z-4.000 F600.000 
G1 X136.045 Y94.276 Z-4.000 F600.000 
G1 X135.795 Y94.044 Z-4.000 F600.000 
G1 X135.491 Y93.752 Z-4.000 F600.000 
G1 X135.343 Y93.608 Z-4.000 F600.000 
G1 X135.051 Y93.292 Z-4.000 F600.000 
G1 X134.772 Y92.981 Z-4.000 F600.000 
G1 X134.748 Y92.953 Z-4.000 F600.000 
G1 X134.332 Y92.431 Z-4.000 F600.000 
G1 X134.253 Y92.327 Z-4.000 F600.000 
G1 X134.087 Y92.092 Z-4.000 F600.000 
G1 X133.848 Y91.742 Z-4.000 F600.000 
G1 X133.700 Y91.497 Z-4.000 F600.000 
G1 X133.521 Y91.194 Z-4.000 F600.000 
G1 X133.488 Y91.134 Z-4.000 F600.000 
G1 X133.258 Y90.691 Z-4.000 F600.000 
G1 X133.171 Y90.496 Z-4.000 F600.000 
G1 X133.051 Y90.221 Z-4.000 F600.000 
G1 X133.005 Y90.105 Z-4.000 F600.000 
G1 X132.884 Y89.785 Z-4.000 F600.000 
G1 X132.783 Y89.460 Z-4.000 F600.000 
G1 X132.754 Y89.362 Z-4.000 F600.000 
G1 X132.673 Y89.044 Z-4.000 F600.000 
G1 X132.649 Y88.948 Z-4.000 F600.000 
G1 X132.566 Y88.520 Z-4.000 F600.000 
G1 X132.561 Y88.483 Z-4.000 F600.000 
G1 X132.511 Y88.125 Z-4.000 F600.000 
G1 X132.505 Y88.072 Z-4.000 F600.000 
G1 X132.465 Y87.589 Z-4.000 F600.000 
G1 X132.465 Y87.582 Z-4.000 F600.000 
G1 X132.454 Y87.229 Z-4.000 F600.000 
G1 X132.451 Y87.057 Z-4.000 F600.000 
G1 X132.460 Y86.683 Z-4.000 F600.000 
G1 X132.467 Y86.480 Z-4.000 F600.000 
G1 X132.477 Y86.335 Z-4.000 F600.000 
G1 X132.521 Y85.834 Z-4.000 F600.000 
G1 X132.529 Y85.772 Z-4.000 F600.000 
G1 X132.569 Y85.471 Z-4.000 F600.000 
G1 X132.575 Y85.431 Z-4.000 F600.000 
G1 X132.628 Y85.132 Z-4.000 F600.000 
G1 X132.684 Y84.879 Z-4.000 F600.000 
G1 X132.700 Y84.803 Z-4.000 F600.000 
G1 X132.767 Y84.549 Z-4.000 F600.000 
G1 X132.784 Y84.483 Z-4.000 F600.000 
G1 X132.879 Y84.174 Z-4.000 F600.000 
G1 X132.926 Y84.042 Z-4.000 F600.000 
G1 X132.986 Y83.873 Z-4.000 F600.000 
G1 X133.045 Y83.723 Z-4.000 F600.000 
G1 X133.103 Y83.581 Z-4.000 F600.000 
G1 X133.237 Y83.284 Z-4.000 F600.000 
G1 X133.282 Y83.194 Z-4.000 F600.000 
G1 X133.385 Y82.988 Z-4.000 F600.000 
G1 X133.437 Y82.891 Z-4.000 F600.000 
G1 X133.548 Y82.692 Z-4.000 F600.000 
G1 X133.707 Y82.431 Z-4.000 F600.000 
G1 X133.734 Y82.386 Z-4.000 F600.000 
G1 X133.894 Y82.144 Z-4.000 F600.000 
G1 X133.936 Y82.083 Z-4.000 F600.000 
G1 X134.162 Y81.772 Z-4.000 F600.000 
G1 X134.216 Y81.703 Z-4.000 F600.000 
G1 X134.414 Y81.454 Z-4.000 F600.000 
G1 X134.432 Y81.432 Z-4.000 F600.000 
G1 X134.691 Y81.133 Z-4.000 F600.000 
G1 X134.762 Y81.057 Z-4.000 F600.000 
G1 X135.003 Y80.801 Z-4.000 F600.000 
G1 X135.004 Y80.800 Z-4.000 F600.000 
G1 X135.344 Y80.467 Z-4.000 F600.000 
G1 X135.358 Y80.455 Z-4.000 F600.000 
G1 X135.622 Y80.216 Z-4.000 F600.000 
G1 X135.715 Y80.134 Z-4.000 F600.000 
G1 X135.974 Y79.920 Z-4.000 F600.000 
G1 X136.122 Y79.799 Z-4.000 F600.000 
G1 X136.257 Y79.694 Z-4.000 F600.000 
G1 X136.569 Y79.462 Z-4.000 F600.000 
G1 X136.634 Y79.416 Z-4.000 F600.000 
G1 X136.938 Y79.206 Z-4.000 F600.000 
G1 X137.056 Y79.126 Z-4.000 F600.000 
G1 X137.273 Y78.989 Z-4.000 F600.000 
G1 X137.578 Y78.799 Z-4.000 F600.000 
G1 X137.593 Y78.790 Z-4.000 F600.000 
G1 X138.117 Y78.496 Z-4.000 F600.000 
G1 X138.148 Y78.479 Z-4.000 F600.000 
G1 X138.757 Y78.168 Z-4.000 F600.000 
G1 X138.809 Y78.143 Z-4.000 F600.000 
G1 X139.405 Y77.872 Z-4.000 F600.000 
G1 X139.441 Y77.857 Z-4.000 F600.000 
G1 X140.097 Y77.592 Z-4.000 F600.000 
G1 X140.195 Y77.556 Z-4.000 F600.000 
G1 X140.789 Y77.345 Z-4.000 F600.000 
G1 X140.836 Y77.330 Z-4.000 F600.000 
G1 X141.602 Y77.094 Z-4.000 F600.000 
G1 X141.618 Y77.089 Z-4.000 F600.000 
G1 X142.138 Y76.951 Z-4.000 F600.000 
G1 X142.442 Y76.877 Z-4.000 F600.000 
G1 X143.006 Y76.751 Z-4.000 F600.000 
G1 X143.306 Y76.687 Z-4.000 F600.000 
G1 X143.496 Y76.654 Z-4.000 F600.000 
G1 X144.211 Y76.535 Z-4.000 F600.000 
G1 X144.417 Y76.504 Z-4.000 F600.000 
G1 X144.863 Y76.446 Z-4.000 F600.000 
G1 X145.151 Y76.413 Z-4.000 F600.000 
G1 X145.835 Y76.348 Z-4.000 F600.000 
G1 X146.242 Y76.317 Z-4.000 F600.000 
G1 X146.314 Y76.312 Z-4.000 F600.000 
G1 X147.263 Y76.273 Z-4.000 F600.000 
G1 X147.437 Y76.267 Z-4.000 F600.000 
G1 X147.637 Y76.268 Z-4.000 F600.000 
G1 X148.533 Y76.277 Z-4.000 F600.000 
G1 X148.704 Y76.283 Z-4.000 F600.000 
G1 X149.048 Y76.299 Z-4.000 F600.000 
G1 X149.604 Y76.332 Z-4.000 F600.000 
G1 X150.160 Y76.379 Z-4.000 F600.000 
G1 X150.425 Y76.405 Z-4.000 F600.000 
G1 X150.642 Y76.428 Z-4.000 F600.000 
G1 X151.263 Y76.509 Z-4.000 F600.000 
G1 X151.487 Y76.541 Z-4.000 F600.000 
G1 X151.652 Y76.565 Z-4.000 F600.000 
G1 X152.309 Y76.681 Z-4.000 F600.000 
G1 X152.526 Y76.721 Z-4.000 F600.000 
G1 X152.636 Y76.742 Z-4.000 F600.000 
G1 X153.330 Y76.896 Z-4.000 F600.000 
G1 X153.542 Y76.946 Z-4.000 F600.000 
G1 X153.597 Y76.959 Z-4.000 F600.000 
G1 X154.325 Y77.155 Z-4.000 F600.000 
G1 X154.529 Y77.213 Z-4.000 F600.000 
G1 X154.532 Y77.213 Z-4.000 F600.000 
G1 X155.292 Y77.456 Z-4.000 F600.000 
G1 X155.445 Y77.506 Z-4.000 F600.000 
G1 X155.487 Y77.522 Z-4.000 F600.000 
G1 X156.229 Y77.796 Z-4.000 F600.000 
G1 X156.337 Y77.838 Z-4.000 F600.000 
G1 X156.429 Y77.877 Z-4.000 F600.000 
G1 X157.147 Y78.183 Z-4.000 F600.000 
G1 X157.210 Y78.210 Z-4.000 F600.000 
G1 X157.330 Y78.267 Z-4.000 F600.000 
G1 X158.025 Y78.603 Z-4.000 F600.000 
G1 X158.069 Y78.625 Z-4.000 F600.000 
G1 X158.203 Y78.696 Z-4.000 F600.000 
G1 X158.872 Y79.060 Z-4.000 F600.000 
G1 X158.912 Y79.083 Z-4.000 F600.000 
G1 X159.046 Y79.163 Z-4.000 F600.000 
G1 X159.690 Y79.556 Z-4.000 F600.000 
G1 X159.738 Y79.586 Z-4.000 F600.000 
G1 X159.850 Y79.661 Z-3.995 F600.000 
G1 X160.468 Y80.080 Z-3.863 F600.000 
G1 X160.624 Y80.189 Z-3.831 F600.000 
G1 X160.654 Y80.210 Z-3.825 F600.000 
G1 X161.236 Y80.590 Z-3.745 F600.000 
G1 X161.395 Y80.685 Z-3.735 F600.000 
G1 X162.026 Y81.026 Z-3.742 F600.000 
G1 X162.189 Y81.106 Z-3.755 F600.000 
G1 X162.847 Y81.393 Z-3.854 F600.000 
G1 X163.042 Y81.469 Z-3.896 F600.000 
G1 X163.733 Y81.706 Z-4.000 F600.000 
G1 X163.941 Y81.769 Z-4.000 F600.000 
G1 X164.670 Y81.959 Z-4.000 F600.000 
G1 X169.178 Y82.963 Z-4.000 F600.000 
G1 X169.585 Y81.928 Z-4.000 F600.000 
G1 X169.910 Y80.906 Z-4.000 F600.000 
G1 X170.155 Y79.896 Z-4.000 F600.000 
G1 X170.281 Y79.196 Z-4.000 F600.000 
G1 X170.694 Y76.506 Z-4.000 F600.000 
G0 Z3.000 
G0 X184.638 Y82.963 Z3.000 
G1 X184.638 Y82.963 Z-4.000 F600.000 
G1 X182.751 Y84.355 Z-4.000 F600.000 
G1 X180.779 Y85.920 Z-4.000 F600.000 
G1 X169.460 Y95.600 Z-4.000 F600.000 
G1 X169.424 Y96.661 Z-4.000 F600.000 
G1 X169.314 Y97.723 Z-4.000 F600.000 
G1 X169.131 Y98.789 Z-4.000 F600.000 
G1 X168.846 Y99.960 Z-4.000 F600.000 
G0 Z3.000 
G0 X165.920 Y70.001 Z3.000 
G1 X165.920 Y70.001 Z0.500 F600.000 
G1 X170.694 Y76.506 Z-4.000 F600.000 
G1 X177.200 Y70.000 Z0.500 F600.000 
G0 Z3.000 
G0 X192.440 Y70.000 Z3.000 
G1 X192.440 Y70.000 Z0.500 F600.000 
G1 X200.300 Y77.860 Z-4.000 F600.000 
G1 X208.160 Y70.000 Z0.500 F600.000 
G0 Z3.000 
G0 X200.300 Y77.860 Z3.000 
G1 X200.300 Y77.860 Z-4.000 F600.000 
G1 X200.300 Y107.560 Z-4.000 F600.000 
G1 X200.336 Y108.629 Z-4.000 F600.000 
G1 X200.446 Y109.700 Z-4.000 F600.000 
G1 X200.629 Y110.774 Z-4.000 F600.000 
G1 X200.886 Y111.854 Z-4.000 F600.000 
G1 X201.101 Y112.580 Z-4.000 F600.000 
G0 Z3.000 
G0 X199.185 Y122.135 Z3.000 
G1 X199.185 Y122.135 Z-4.000 F600.000 
G1 X199.482 Y118.313 Z-4.000 F600.000 
G1 X199.597 Y117.302 Z-4.000 F600.000 
G1 X199.786 Y116.288 Z-4.000 F600.000 
G1 X200.050 Y115.267 Z-4.000 F600.000 
G1 X200.392 Y114.236 Z-4.000 F600.000 
G1 X200.815 Y113.194 Z-4.000 F600.000 
G1 X200.955 Y112.887 Z-4.000 F600.000 
G1 X201.101 Y112.580 Z-4.000 F600.000 
G1 X202.383 Y112.766 Z-4.000 F600.000 
G1 X203.656 Y112.995 Z-4.000 F600.000 
G1 X204.082 Y113.087 Z-4.000 F600.000 
G1 X205.223 Y113.381 Z-4.000 F600.000 
G1 X205.565 Y113.484 Z-4.000 F600.000 
G1 X206.597 Y113.844 Z-4.000 F600.000 
G1 X206.878 Y113.956 Z-4.000 F600.000 
G1 X207.820 Y114.384 Z-4.000 F600.000 
G1 X208.076 Y114.516 Z-4.000 F600.000 
G1 X208.945 Y115.017 Z-4.000 F600.000 
G1 X209.168 Y115.161 Z-4.000 F600.000 
G1 X209.978 Y115.741 Z-4.000 F600.000 
G1 X210.196 Y115.914 Z-4.000 F600.000 
G1 X210.490 Y116.156 Z-4.000 F600.000 
G1 X210.967 Y116.564 Z-4.000 F600.000 
G1 X211.190 Y116.749 Z-4.000 F600.000 
G1 X211.479 Y116.983 Z-4.000 F600.000 
G1 X211.987 Y117.373 Z-4.000 F600.000 
G1 X212.243 Y117.563 Z-4.000 F600.000 
G1 X212.368 Y117.655 Z-4.000 F600.000 
G1 X213.075 Y118.138 Z-4.000 F600.000 
G1 X213.261 Y118.263 Z-4.000 F600.000 
G1 X213.343 Y118.314 Z-4.000 F600.000 
G1 X214.158 Y118.810 Z-4.000 F600.000 
G1 X214.208 Y118.838 Z-4.000 F600.000 
G1 X214.507 Y119.003 Z-4.000 F600.000 
G1 X215.050 Y119.294 Z-4.000 F600.000 
G1 X215.404 Y119.471 Z-4.000 F600.000 
G1 X215.718 Y119.623 Z-4.000 F600.000 
G1 X215.936 Y119.725 Z-4.000 F600.000 
G1 X216.646 Y120.032 Z-4.000 F600.000 
G1 X216.816 Y120.105 Z-4.000 F600.000 
G1 X216.989 Y120.169 Z-4.000 F600.000 
G1 X217.696 Y120.429 Z-4.000 F600.000 
G1 X217.947 Y120.513 Z-4.000 F600.000 
G1 X218.308 Y120.628 Z-4.000 F600.000 
G1 X218.563 Y120.706 Z-4.000 F600.000 
G1 X219.291 Y120.903 Z-4.000 F600.000 
G1 X219.427 Y120.940 Z-4.000 F600.000 
G1 X219.657 Y120.991 Z-4.000 F600.000 
G1 X220.292 Y121.125 Z-4.000 F600.000 
G1 X220.663 Y121.192 Z-4.000 F600.000 
G1 X221.055 Y121.257 Z-4.000 F600.000 
G1 X221.153 Y121.272 Z-4.000 F600.000 
G1 X222.068 Y121.383 Z-4.000 F600.000 
G1 X222.083 Y121.384 Z-4.000 F600.000 
G1 X222.445 Y121.415 Z-4.000 F600.000 
G1 X222.457 Y121.416 Z-4.000 F600.000 
G1 X222.886 Y121.440 Z-4.000 F600.000 
G1 X223.319 Y121.458 Z-4.000 F600.000 
G1 X223.407 Y121.460 Z-4.000 F600.000 
G1 X223.726 Y121.466 Z-4.000 F600.000 
G1 X223.751 Y121.465 Z-4.000 F600.000 
G1 X224.198 Y121.460 Z-4.000 F600.000 
G1 X224.424 Y121.454 Z-4.000 F600.000 
G1 X224.682 Y121.101 Z-4.000 F600.000 
G1 X224.936 Y120.746 Z-4.000 F600.000 
G1 X225.803 Y119.502 Z-4.000 F600.000 
G1 X225.988 Y119.233 Z-4.000 F600.000 
G1 X226.818 Y117.992 Z-3.763 F600.000 
G1 X226.960 Y117.775 Z-3.573 F600.000 
G1 X227.742 Y116.550 Z-2.518 F600.000 
G1 X227.836 Y116.400 Z-2.390 F600.000 
G1 X228.565 Y115.204 Z-1.395 F600.000 
G1 X228.627 Y115.100 Z-1.309 F600.000 
G1 X229.293 Y113.948 Z-0.385 F600.000 
G1 X229.323 Y113.896 Z-0.343 F600.000 
G1 X229.920 Y112.800 Z0.500 F600.000 
G0 Z3.000 
G0 X224.424 Y121.454 Z3.000 
G1 X224.424 Y121.454 Z-4.000 F600.000 
G1 X224.608 Y121.601 Z-4.000 F600.000 
G1 X225.510 Y122.288 Z-4.000 F600.000 
G1 X226.450 Y122.968 Z-4.000 F600.000 
G1 X227.453 Y123.657 Z-4.000 F600.000 
G1 X228.514 Y124.349 Z-3.651 F600.000 
G1 X229.639 Y125.042 Z-2.726 F600.000 
G1 X230.834 Y125.734 Z-1.735 F600.000 
G1 X232.106 Y126.426 Z-0.666 F600.000 
G1 X233.480 Y127.120 Z0.500 F600.000 
G0 Z3.000 
G0 X243.640 Y128.880 Z3.000 
G1 X243.640 Y128.880 Z0.500 F600.000 
G1 X250.386 Y122.134 Z-4.000 F600.000 
G1 X256.160 Y128.880 Z0.500 F600.000 
G0 Z3.000 
G0 X250.386 Y122.134 Z3.000 
G1 X250.386 Y122.134 Z-4.000 F600.000 
G1 X250.682 Y118.314 Z-4.000 F600.000 
G1 X250.797 Y117.303 Z-4.000 F600.000 
G1 X250.986 Y116.289 Z-4.000 F600.000 
G1 X251.250 Y115.267 Z-4.000 F600.000 
G1 X251.592 Y114.237 Z-4.000 F600.000 
G1 X252.015 Y113.195 Z-4.000 F600.000 
G1 X252.155 Y112.887 Z-4.000 F600.000 
G1 X252.301 Y112.580 Z-4.000 F600.000 
G1 X253.583 Y112.766 Z-4.000 F600.000 
G1 X254.856 Y112.995 Z-4.000 F600.000 
G1 X255.282 Y113.087 Z-4.000 F600.000 
G1 X256.423 Y113.381 Z-4.000 F600.000 
G1 X256.765 Y113.484 Z-4.000 F600.000 
G1 X257.797 Y113.844 Z-4.000 F600.000 
G1 X258.078 Y113.956 Z-4.000 F600.000 
G1 X259.020 Y114.384 Z-4.000 F600.000 
G1 X259.276 Y114.516 Z-4.000 F600.000 
G1 X260.145 Y115.017 Z-4.000 F600.000 
G1 X260.368 Y115.161 Z-4.000 F600.000 
G1 X261.178 Y115.741 Z-4.000 F600.000 
G1 X261.396 Y115.914 Z-4.000 F600.000 
G1 X261.690 Y116.156 Z-4.000 F600.000 
G1 X262.167 Y116.564 Z-4.000 F600.000 
G1 X262.392 Y116.751 Z-4.000 F600.000 
G1 X262.679 Y116.983 Z-4.000 F600.000 
G1 X263.189 Y117.374 Z-4.000 F600.000 
G1 X263.442 Y117.562 Z-4.000 F600.000 
G1 X263.569 Y117.655 Z-4.000 F600.000 
G1 X264.273 Y118.137 Z-4.000 F600.000 
G1 X264.461 Y118.263 Z-4.000 F600.000 
G1 X264.543 Y118.314 Z-4.000 F600.000 
G1 X265.358 Y118.810 Z-4.000 F600.000 
G1 X265.408 Y118.838 Z-4.000 F600.000 
G1 X265.707 Y119.003 Z-4.000 F600.000 
G1 X266.250 Y119.294 Z-4.000 F600.000 
G1 X266.604 Y119.471 Z-4.000 F600.000 
G1 X266.918 Y119.623 Z-4.000 F600.000 
G1 X267.136 Y119.725 Z-4.000 F600.000 
G1 X267.846 Y120.032 Z-4.000 F600.000 
G1 X268.016 Y120.105 Z-4.000 F600.000 
G1 X268.189 Y120.169 Z-4.000 F600.000 
G1 X268.896 Y120.429 Z-4.000 F600.000 
G1 X269.147 Y120.513 Z-4.000 F600.000 
G1 X269.508 Y120.628 Z-4.000 F600.000 
G1 X269.763 Y120.706 Z-4.000 F600.000 
G1 X270.491 Y120.903 Z-4.000 F600.000 
G1 X270.627 Y120.940 Z-4.000 F600.000 
G1 X270.857 Y120.991 Z-4.000 F600.000 
G1 X271.492 Y121.125 Z-4.000 F600.000 
G1 X271.863 Y121.192 Z-4.000 F600.000 
G1 X272.255 Y121.257 Z-4.000 F600.000 
G1 X272.353 Y121.272 Z-4.000 F600.000 
G1 X273.268 Y121.383 Z-4.000 F600.000 
G1 X273.283 Y121.384 Z-4.000 F600.000 
G1 X273.645 Y121.415 Z-4.000 F600.000 
G1 X273.657 Y121.416 Z-4.000 F600.000 
G1 X274.086 Y121.440 Z-4.000 F600.000 
G1 X274.519 Y121.458 Z-4.000 F600.000 
G1 X274.607 Y121.460 Z-4.000 F600.000 
G1 X274.926 Y121.465 Z-4.000 F600.000 
G1 X274.951 Y121.465 Z-4.000 F600.000 
G1 X275.398 Y121.460 Z-4.000 F600.000 
G1 X275.624 Y121.454 Z-4.000 F600.000 
G1 X275.883 Y121.100 Z-4.000 F600.000 
G1 X276.138 Y120.744 Z-4.000 F600.000 
G1 X277.004 Y119.501 Z-4.000 F600.000 
G1 X277.188 Y119.233 Z-4.000 F600.000 
G1 X278.018 Y117.992 Z-3.763 F600.000 
G1 X278.160 Y117.775 Z-3.573 F600.000 
G1 X278.942 Y116.550 Z-2.518 F600.000 
G1 X279.036 Y116.400 Z-2.390 F600.000 
G1 X279.765 Y115.204 Z-1.395 F600.000 
G1 X279.827 Y115.100 Z-1.309 F600.000 
G1 X280.493 Y113.948 Z-0.385 F600.000 
G1 X280.523 Y113.896 Z-0.343 F600.000 
G1 X281.120 Y112.800 Z0.500 F600.000 
G0 Z3.000 
G0 X275.624 Y121.454 Z3.000 
G1 X275.624 Y121.454 Z-4.000 F600.000 
G1 X275.808 Y121.601 Z-4.000 F600.000 
G1 X276.710 Y122.288 Z-4.000 F600.000 
G1 X277.650 Y122.968 Z-4.000 F600.000 
G1 X278.653 Y123.657 Z-4.000 F600.000 
G1 X279.716 Y124.350 Z-3.649 F600.000 
G1 X280.839 Y125.042 Z-2.727 F600.000 
G1 X282.034 Y125.734 Z-1.735 F600.000 
G1 X283.306 Y126.426 Z-0.666 F600.000 
G1 X284.680 Y127.120 Z0.500 F600.000 
G0 Z3.000 
G0 X286.360 Y128.880 Z3.000 
G1 X286.360 Y128.880 Z0.500 F600.000 
G1 X297.852 Y120.993 Z-4.000 F600.000 
G1 X303.680 Y128.880 Z0.500 F600.000 
G0 Z3.000 
G0 X297.852 Y120.993 Z3.000 
G1 X297.852 Y120.993 Z-4.000 F600.000 
G1 X311.535 Y81.432 Z-4.000 F600.000 
G1 X311.885 Y80.531 Z-4.000 F600.000 
G1 X312.303 Y79.656 Z-4.000 F600.000 
G1 X312.791 Y78.804 Z-4.000 F600.000 
G1 X313.350 Y77.975 Z-4.000 F600.000 
G1 X313.984 Y77.165 Z-4.000 F600.000 
G1 X314.696 Y76.375 Z-4.000 F600.000 
G1 X315.490 Y75.602 Z-4.000 F600.000 
G1 X316.372 Y74.847 Z-4.000 F600.000 
G1 X316.891 Y74.442 Z-4.000 F600.000 
G1 X317.434 Y74.046 Z-4.000 F600.000 
G1 X318.461 Y74.779 Z-4.000 F600.000 
G1 X319.386 Y75.528 Z-4.000 F600.000 
G1 X320.217 Y76.293 Z-4.000 F600.000 
G1 X320.959 Y77.074 Z-4.000 F600.000 
G1 X321.618 Y77.872 Z-4.000 F600.000 
G1 X322.197 Y78.687 Z-4.000 F600.000 
G1 X322.700 Y79.522 Z-4.000 F600.000 
G1 X323.131 Y80.376 Z-4.000 F600.000 
G1 X323.351 Y80.886 Z-4.000 F600.000 
G1 X323.547 Y81.404 Z-4.000 F600.000 
G1 X337.764 Y121.705 Z-4.000 F600.000 
G1 X332.560 Y128.880 Z0.500 F600.000 
G0 Z3.000 
G0 X337.764 Y121.705 Z3.000 
G1 X337.764 Y121.705 Z-4.000 F600.000 
G1 X348.160 Y128.880 Z0.500 F600.000 
G0 Z3.000 
G0 X364.020 Y154.420 Z3.000 
G1 X364.020 Y154.420 Z-4.000 F600.000 
G1 X371.760 Y162.160 Z0.500 F600.000 
G0 Z3.000 
G0 X356.280 Y162.160 Z3.000 
G1 X356.280 Y162.160 Z0.500 F600.000 
G1 X364.020 Y154.420 Z-4.000 F600.000 
G1 X364.020 Y88.560 Z-4.000 F600.000 
G1 X364.022 Y88.338 Z-4.000 F600.000 
G1 X364.033 Y87.571 Z-4.000 F600.000 
G1 X364.039 Y87.314 Z-4.000 F600.000 
G1 X364.049 Y87.057 Z-4.000 F600.000 
G1 X364.067 Y86.673 Z-4.000 F600.000 
G1 X364.086 Y86.329 Z-4.000 F600.000 
G1 X364.113 Y85.944 Z-4.000 F600.000 
G1 X364.131 Y85.776 Z-4.000 F600.000 
G1 X364.181 Y85.327 Z-4.000 F600.000 
G1 X364.213 Y85.089 Z-4.000 F600.000 
G1 X364.262 Y84.751 Z-4.000 F600.000 
G1 X364.311 Y84.489 Z-4.000 F600.000 
G1 X364.365 Y84.212 Z-4.000 F600.000 
G1 X364.444 Y83.845 Z-4.000 F600.000 
G1 X364.477 Y83.702 Z-4.000 F600.000 
G1 X364.603 Y83.232 Z-4.000 F600.000 
G1 X364.620 Y83.177 Z-4.000 F600.000 
G1 X364.738 Y82.799 Z-4.000 F600.000 
G1 X364.812 Y82.581 Z-4.000 F600.000 
G1 X364.878 Y82.396 Z-4.000 F600.000 
G1 X365.028 Y82.018 Z-4.000 F600.000 
G1 X365.096 Y81.868 Z-4.000 F600.000 
G1 X365.187 Y81.665 Z-4.000 F600.000 
G1 X365.344 Y81.345 Z-4.000 F600.000 
G1 X365.353 Y81.327 Z-4.000 F600.000 
G1 X365.507 Y81.039 Z-4.000 F600.000 
G1 X365.680 Y80.751 Z-4.000 F600.000 
G1 X365.759 Y80.631 Z-4.000 F600.000 
G1 X365.855 Y80.486 Z-4.000 F600.000 
G1 X366.038 Y80.228 Z-4.000 F600.000 
G1 X366.091 Y80.157 Z-4.000 F600.000 
G1 X366.234 Y79.970 Z-4.000 F600.000 
G1 X366.440 Y79.724 Z-4.000 F600.000 
G1 X366.649 Y79.498 Z-4.000 F600.000 
G1 X366.659 Y79.487 Z-4.000 F600.000 
G1 X366.898 Y79.247 Z-4.000 F600.000 
G1 X367.054 Y79.099 Z-4.000 F600.000 
G1 X367.157 Y79.002 Z-4.000 F600.000 
G1 X367.441 Y78.758 Z-4.000 F600.000 
G1 X367.745 Y78.523 Z-4.000 F600.000 
G1 X367.753 Y78.516 Z-4.000 F600.000 
G1 X368.097 Y78.270 Z-4.000 F600.000 
G1 X368.202 Y78.198 Z-4.000 F600.000 
G1 X368.472 Y78.021 Z-4.000 F600.000 
G1 X368.889 Y77.775 Z-4.000 F600.000 
G1 X368.966 Y77.734 Z-4.000 F600.000 
G1 X369.346 Y77.534 Z-4.000 F600.000 
G1 X369.464 Y77.475 Z-4.000 F600.000 
G1 X369.842 Y77.294 Z-4.000 F600.000 
G1 X370.257 Y77.121 Z-4.000 F600.000 
G1 X370.383 Y77.070 Z-4.000 F600.000 
G1 X370.784 Y76.920 Z-4.000 F600.000 
G1 X370.964 Y76.855 Z-4.000 F600.000 
G1 X371.545 Y76.676 Z-4.000 F600.000 
G1 X371.599 Y76.660 Z-4.000 F600.000 
G1 X372.099 Y76.528 Z-4.000 F600.000 
G1 X372.277 Y76.484 Z-4.000 F600.000 
G1 X372.835 Y76.369 Z-4.000 F600.000 
G1 X372.988 Y76.341 Z-4.000 F600.000 
G1 X372.999 Y70.049 Z0.451 F600.000 
G0 Z3.000 
G0 X372.988 Y76.341 Z3.000 
G1 X372.988 Y76.341 Z-4.000 F600.000 
G1 X373.416 Y76.272 Z-4.000 F600.000 
G1 X374.098 Y76.182 Z-4.000 F600.000 
G1 X374.207 Y76.170 Z-4.000 F600.000 
G1 X374.708 Y76.129 Z-4.000 F600.000 
G1 X375.298 Y76.095 Z-4.000 F600.000 
G1 X375.446 Y76.090 Z-4.000 F600.000 
G1 X375.938 Y76.084 Z-4.000 F600.000 
G1 X376.485 Y76.092 Z-4.000 F600.000 
G1 X376.689 Y76.098 Z-4.000 F600.000 
G1 X377.129 Y76.124 Z-4.000 F600.000 
G1 X377.159 Y76.164 Z-4.000 F600.000 
G1 X377.534 Y76.666 Z-4.000 F600.000 
G1 X377.950 Y77.244 Z-4.000 F600.000 
G1 X378.161 Y77.545 Z-3.899 F600.000 
G1 X378.569 Y78.142 Z-3.334 F600.000 
G1 X378.713 Y78.359 Z-3.132 F600.000 
G1 X379.112 Y78.972 Z-2.571 F600.000 
G1 X379.222 Y79.144 Z-2.416 F600.000 
G1 X379.609 Y79.769 Z-1.862 F600.000 
G1 X379.682 Y79.889 Z-1.758 F600.000 
G1 X380.059 Y80.526 Z-1.211 F600.000 
G1 X380.110 Y80.615 Z-1.136 F600.000 
G1 X380.474 Y81.259 Z-0.599 F600.000 
G1 X380.503 Y81.313 Z-0.555 F600.000 
G1 X380.853 Y81.962 Z-0.031 F600.000 
G1 X380.867 Y81.989 Z-0.009 F600.000 
G1 X381.200 Y82.640 Z0.500 F600.000 
G0 Z3.000 
G0 X377.129 Y76.124 Z3.000 
G1 X377.129 Y76.124 Z-4.000 F600.000 
G1 X378.032 Y75.562 Z-4.000 F600.000 
G1 X379.526 Y74.683 Z-3.432 F600.000 
G1 X380.251 Y74.276 Z-2.858 F600.000 
G1 X381.026 Y73.855 Z-2.241 F600.000 
G1 X381.824 Y73.438 Z-1.600 F600.000 
G1 X382.649 Y73.022 Z-0.933 F600.000 
G1 X383.503 Y72.611 Z-0.237 F600.000 
G1 X384.400 Y72.200 Z0.500 F600.000 
G0 Z3.000 
G0 X423.880 Y74.640 Z3.000 
G1 X423.880 Y74.640 Z0.500 F600.000 
G1 X425.726 Y75.513 Z-1.013 F600.000 
G1 X427.512 Y76.391 Z-2.466 F600.000 
G1 X429.246 Y77.274 Z-3.868 F600.000 
G1 X430.933 Y78.163 Z-4.000 F600.000 
G1 X431.375 Y78.404 Z-4.000 F600.000 
G1 X430.957 Y79.142 Z-4.000 F600.000 
G1 X430.887 Y79.268 Z-4.000 F600.000 
G1 X429.963 Y80.938 Z-3.489 F600.000 
G1 X429.907 Y81.041 Z-3.406 F600.000 
G1 X429.020 Y82.683 Z-2.080 F600.000 
G1 X428.983 Y82.753 Z-2.025 F600.000 
G1 X428.138 Y84.359 Z-0.748 F600.000 
G1 X428.120 Y84.395 Z-0.721 F600.000 
G1 X427.320 Y85.960 Z0.500 F600.000 
G0 Z3.000 
G0 X431.375 Y78.404 Z3.000 
G1 X431.375 Y78.404 Z-4.000 F600.000 
G1 X432.104 Y78.207 Z-4.000 F600.000 
G1 X432.223 Y78.177 Z-4.000 F600.000 
G1 X432.327 Y78.149 Z-4.000 F600.000 
G1 X433.529 Y77.854 Z-4.000 F600.000 
G1 X433.634 Y77.829 Z-4.000 F600.000 
G1 X433.648 Y77.826 Z-4.000 F600.000 
G1 X434.948 Y77.536 Z-4.000 F600.000 
G1 X434.995 Y77.526 Z-4.000 F600.000 
G1 X435.066 Y77.512 Z-4.000 F600.000 
G1 X436.367 Y77.251 Z-4.000 F600.000 
G1 X436.381 Y77.249 Z-4.000 F600.000 
G1 X436.487 Y77.229 Z-4.000 F600.000 
G1 X437.753 Y77.003 Z-4.000 F600.000 
G1 X437.795 Y76.996 Z-4.000 F600.000 
G1 X437.909 Y76.978 Z-4.000 F600.000 
G1 X439.153 Y76.783 Z-4.000 F600.000 
G1 X439.206 Y76.775 Z-4.000 F600.000 
G1 X439.329 Y76.758 Z-4.000 F600.000 
G1 X440.561 Y76.592 Z-4.000 F600.000 
G1 X440.610 Y76.586 Z-4.000 F600.000 
G1 X440.734 Y76.572 Z-4.000 F600.000 
G1 X441.977 Y76.432 Z-4.000 F600.000 
G1 X441.991 Y76.431 Z-4.000 F600.000 
G1 X442.118 Y76.419 Z-4.000 F600.000 
G1 X443.346 Y76.308 Z-4.000 F600.000 
G1 X443.391 Y76.305 Z-4.000 F600.000 
G1 X443.493 Y76.298 Z-4.000 F600.000 
G1 X444.686 Y76.220 Z-4.000 F600.000 
G1 X444.801 Y76.213 Z-4.000 F600.000 
G1 X444.836 Y76.212 Z-4.000 F600.000 
G1 X445.988 Y76.164 Z-4.000 F600.000 
G1 X446.165 Y76.159 Z-4.000 F600.000 
G1 X446.205 Y76.157 Z-4.000 F600.000 
G1 X447.271 Y76.143 Z-4.000 F600.000 
G1 X447.481 Y76.142 Z-4.000 F600.000 
G1 X447.597 Y76.142 Z-4.000 F600.000 
G1 X447.599 Y70.075 Z0.425 F600.000 
G0 Z3.000 
G0 X447.597 Y76.142 Z3.000 
G1 X447.597 Y76.142 Z-4.000 F600.000 
G1 X448.695 Y76.160 Z-4.000 F600.000 
G1 X448.940 Y76.167 Z-4.000 F600.000 
G1 X448.963 Y76.169 Z-4.000 F600.000 
G1 X450.115 Y76.229 Z-4.000 F600.000 
G1 X450.234 Y76.237 Z-4.000 F600.000 
G1 X450.408 Y76.251 Z-4.000 F600.000 
G1 X451.479 Y76.350 Z-4.000 F600.000 
G1 X451.496 Y76.351 Z-4.000 F600.000 
G1 X451.812 Y76.390 Z-4.000 F600.000 
G1 X452.674 Y76.505 Z-4.000 F600.000 
G1 X452.836 Y76.529 Z-4.000 F600.000 
G1 X453.188 Y76.588 Z-4.000 F600.000 
G1 X453.819 Y76.701 Z-4.000 F600.000 
G1 X454.144 Y76.765 Z-4.000 F600.000 
G1 X454.543 Y76.851 Z-4.000 F600.000 
G1 X454.908 Y76.934 Z-4.000 F600.000 
G1 X455.433 Y77.066 Z-4.000 F600.000 
G1 X455.870 Y77.183 Z-4.000 F600.000 
G1 X455.942 Y77.204 Z-4.000 F600.000 
G1 X456.692 Y77.435 Z-4.000 F600.000 
G1 X456.924 Y77.509 Z-4.000 F600.000 
G1 X457.194 Y77.607 Z-4.000 F600.000 
G1 X457.844 Y77.851 Z-4.000 F600.000 
G1 X457.950 Y77.892 Z-4.000 F600.000 
G1 X458.507 Y78.130 Z-4.000 F600.000 
G1 X458.702 Y78.218 Z-4.000 F600.000 
G1 X459.192 Y78.453 Z-4.000 F600.000 
G1 X459.506 Y78.608 Z-4.000 F600.000 
G1 X459.808 Y78.776 Z-4.000 F600.000 
G1 X460.245 Y79.026 Z-4.000 F600.000 
G1 X460.425 Y79.134 Z-4.000 F600.000 
G1 X460.925 Y79.451 Z-4.000 F600.000 
G1 X460.943 Y79.464 Z-4.000 F600.000 
G1 X461.224 Y79.661 Z-4.000 F600.000 
G1 X461.548 Y79.895 Z-4.000 F600.000 
G1 X461.575 Y79.916 Z-4.000 F600.000 
G1 X461.837 Y80.123 Z-4.000 F600.000 
G1 X462.110 Y80.343 Z-4.000 F600.000 
G1 X462.194 Y80.417 Z-4.000 F600.000 
G1 X462.439 Y80.634 Z-4.000 F600.000 
G1 X462.618 Y80.796 Z-4.000 F600.000 
G1 X462.795 Y80.971 Z-4.000 F600.000 
G1 X463.022 Y81.198 Z-4.000 F600.000 
G1 X463.077 Y81.254 Z-4.000 F600.000 
G1 X463.392 Y81.602 Z-4.000 F600.000 
G1 X463.482 Y81.705 Z-4.000 F600.000 
G1 X463.596 Y81.842 Z-4.000 F600.000 
G1 X463.846 Y82.153 Z-4.000 F600.000 
G1 X463.933 Y82.272 Z-4.000 F600.000 
G1 X464.115 Y82.525 Z-4.000 F600.000 
G1 X464.170 Y82.601 Z-4.000 F600.000 
G1 X464.436 Y83.015 Z-4.000 F600.000 
G1 X464.453 Y83.042 Z-4.000 F600.000 
G1 X464.593 Y83.282 Z-4.000 F600.000 
G1 X464.705 Y83.479 Z-4.000 F600.000 
G1 X464.863 Y83.791 Z-4.000 F600.000 
G1 X464.927 Y83.923 Z-4.000 F600.000 
G1 X464.994 Y84.070 Z-4.000 F600.000 
G1 X465.125 Y84.368 Z-4.000 F600.000 
G1 X465.225 Y84.629 Z-4.000 F600.000 
G1 X465.297 Y84.823 Z-4.000 F600.000 
G1 X465.329 Y84.920 Z-4.000 F600.000 
G1 X465.447 Y85.286 Z-4.000 F600.000 
G1 X465.499 Y85.478 Z-4.000 F600.000 
G1 X465.573 Y85.765 Z-4.000 F600.000 
G1 X465.577 Y85.781 Z-4.000 F600.000 
G1 X465.680 Y86.269 Z-4.000 F600.000 
G1 X465.698 Y86.384 Z-4.000 F600.000 
G1 X465.747 Y86.697 Z-4.000 F600.000 
G1 X465.762 Y86.792 Z-4.000 F600.000 
G1 X465.811 Y87.268 Z-4.000 F600.000 
G1 X465.818 Y87.349 Z-4.000 F600.000 
G1 X465.833 Y87.590 Z-4.000 F600.000 
G1 X465.850 Y87.941 Z-4.000 F600.000 
G1 X465.849 Y88.301 Z-4.000 F600.000 
G1 X465.846 Y88.567 Z-4.000 F600.000 
G1 X465.838 Y88.765 Z-4.000 F600.000 
G1 X465.820 Y89.120 Z-4.000 F600.000 
G1 X465.771 Y89.595 Z-4.000 F600.000 
G1 X465.767 Y89.625 Z-4.000 F600.000 
G1 X465.706 Y90.037 Z-4.000 F600.000 
G1 X465.701 Y90.072 Z-4.000 F600.000 
G1 X465.624 Y90.474 Z-4.000 F600.000 
G1 X465.534 Y90.833 Z-4.000 F600.000 
G1 X465.508 Y90.922 Z-4.000 F600.000 
G1 X465.436 Y91.158 Z-4.000 F600.000 
G1 X465.378 Y91.332 Z-4.000 F600.000 
G1 X465.337 Y91.454 Z-4.000 F600.000 
G1 X465.229 Y91.729 Z-4.000 F600.000 
G1 X465.110 Y91.997 Z-4.000 F600.000 
G1 X465.026 Y92.162 Z-4.000 F600.000 
G1 X464.979 Y92.253 Z-4.000 F600.000 
G1 X464.837 Y92.511 Z-4.000 F600.000 
G1 X464.822 Y92.536 Z-4.000 F600.000 
G1 X464.679 Y92.775 Z-4.000 F600.000 
G1 X464.500 Y93.044 Z-4.000 F600.000 
G1 X464.330 Y93.273 Z-4.000 F600.000 
G1 X464.292 Y93.323 Z-4.000 F600.000 
G1 X464.065 Y93.609 Z-4.000 F600.000 
G1 X464.064 Y93.611 Z-4.000 F600.000 
G1 X463.805 Y93.914 Z-4.000 F600.000 
G1 X463.508 Y94.227 Z-4.000 F600.000 
G1 X463.506 Y94.228 Z-4.000 F600.000 
G1 X463.199 Y94.529 Z-4.000 F600.000 
G1 X463.179 Y94.549 Z-4.000 F600.000 
G1 X462.818 Y94.877 Z-4.000 F600.000 
G1 X462.636 Y95.028 Z-4.000 F600.000 
G1 X462.417 Y95.207 Z-4.000 F600.000 
G1 X462.293 Y95.305 Z-4.000 F600.000 
G1 X461.981 Y95.545 Z-4.000 F600.000 
G1 X461.772 Y95.693 Z-4.000 F600.000 
G1 X461.513 Y95.872 Z-4.000 F600.000 
G1 X461.400 Y95.948 Z-4.000 F600.000 
G1 X461.013 Y96.199 Z-4.000 F600.000 
G1 X460.890 Y96.272 Z-4.000 F600.000 
G1 X460.508 Y96.498 Z-4.000 F600.000 
G1 X460.489 Y96.509 Z-4.000 F600.000 
G1 X460.068 Y96.739 Z-4.000 F600.000 
G1 X459.639 Y96.962 Z-4.000 F600.000 
G1 X459.311 Y97.128 Z-4.000 F600.000 
G1 X459.240 Y97.160 Z-4.000 F600.000 
G1 X458.783 Y97.367 Z-4.000 F600.000 
G1 X458.455 Y97.512 Z-4.000 F600.000 
G1 X458.048 Y97.682 Z-4.000 F600.000 
G1 X457.973 Y97.712 Z-4.000 F600.000 
G1 X457.679 Y97.827 Z-4.000 F600.000 
G1 X457.171 Y98.015 Z-4.000 F600.000 
G1 X456.914 Y98.109 Z-4.000 F600.000 
G1 X456.699 Y98.183 Z-4.000 F600.000 
G1 X456.381 Y98.289 Z-4.000 F600.000 
G1 X456.069 Y98.390 Z-4.000 F600.000 
G1 X455.288 Y98.627 Z-4.000 F600.000 
G1 X454.930 Y98.732 Z-4.000 F600.000 
G1 X454.600 Y98.824 Z-4.000 F600.000 
G1 X453.830 Y99.027 Z-4.000 F600.000 
G1 X453.372 Y99.144 Z-4.000 F600.000 
G1 X453.140 Y99.201 Z-4.000 F600.000 
G1 X452.342 Y99.388 Z-4.000 F600.000 
G1 X451.832 Y99.506 Z-4.000 F600.000 
G1 X451.668 Y99.543 Z-4.000 F600.000 
G1 X450.291 Y99.839 Z-4.000 F600.000 
G1 X450.192 Y99.861 Z-4.000 F600.000 
G1 X449.325 Y100.039 Z-4.000 F600.000 
G1 X449.272 Y100.051 Z-4.000 F600.000 
G1 X448.757 Y100.160 Z-4.000 F600.000 
G1 X448.697 Y100.172 Z-4.000 F600.000 
G1 X446.412 Y100.644 Z-4.000 F600.000 
G1 X446.257 Y100.677 Z-4.000 F600.000 
G1 X445.732 Y100.792 Z-4.000 F600.000 
G1 X444.928 Y100.974 Z-4.000 F600.000 
G1 X444.734 Y101.020 Z-4.000 F600.000 
G1 X443.488 Y101.322 Z-4.000 F600.000 
G1 X443.218 Y101.391 Z-4.000 F600.000 
G1 X442.760 Y101.513 Z-4.000 F600.000 
G1 X442.063 Y101.708 Z-4.000 F600.000 
G1 X441.795 Y101.786 Z-4.000 F600.000 
G1 X441.377 Y101.913 Z-4.000 F600.000 
G1 X441.256 Y101.951 Z-4.000 F600.000 
G1 X441.036 Y102.024 Z-4.000 F600.000 
G1 X440.523 Y102.197 Z-4.000 F600.000 
G1 X440.263 Y102.289 Z-4.000 F600.000 
G1 X440.042 Y102.368 Z-4.000 F600.000 
G1 X439.777 Y102.469 Z-4.000 F600.000 
G1 X439.476 Y102.589 Z-4.000 F600.000 
G1 X439.018 Y102.776 Z-4.000 F600.000 
G1 X438.790 Y102.873 Z-4.000 F600.000 
G1 X438.657 Y102.935 Z-4.000 F600.000 
G1 X438.230 Y103.135 Z-4.000 F600.000 
G1 X437.822 Y103.336 Z-4.000 F600.000 
G1 X437.605 Y103.446 Z-4.000 F600.000 
G1 X437.422 Y103.544 Z-4.000 F600.000 
G1 X437.108 Y103.718 Z-4.000 F600.000 
G1 X436.951 Y103.812 Z-4.000 F600.000 
G1 X436.611 Y104.017 Z-4.000 F600.000 
G1 X436.582 Y104.036 Z-4.000 F600.000 
G1 X436.150 Y104.319 Z-4.000 F600.000 
G1 X436.047 Y104.392 Z-4.000 F600.000 
G1 X435.722 Y104.624 Z-4.000 F600.000 
G1 X435.710 Y104.633 Z-4.000 F600.000 
G1 X435.336 Y104.922 Z-4.000 F600.000 
G1 X435.140 Y105.087 Z-4.000 F600.000 
G1 X434.983 Y105.222 Z-4.000 F600.000 
G1 X434.840 Y105.350 Z-4.000 F600.000 
G1 X434.661 Y105.513 Z-4.000 F600.000 
G1 X434.377 Y105.795 Z-4.000 F600.000 
G1 X434.228 Y105.958 Z-4.000 F600.000 
G1 X434.123 Y106.072 Z-4.000 F600.000 
G1 X433.970 Y106.249 Z-4.000 F600.000 
G1 X433.901 Y106.331 Z-4.000 F600.000 
G1 X433.708 Y106.576 Z-4.000 F600.000 
G1 X433.537 Y106.816 Z-4.000 F600.000 
G1 X433.425 Y106.990 Z-4.000 F600.000 
G1 X433.386 Y107.050 Z-4.000 F600.000 
G1 X433.250 Y107.277 Z-4.000 F600.000 
G1 X433.229 Y107.316 Z-4.000 F600.000 
G1 X433.126 Y107.506 Z-4.000 F600.000 
G1 X433.010 Y107.746 Z-4.000 F600.000 
G1 X432.900 Y108.005 Z-4.000 F600.000 
G1 X432.821 Y108.218 Z-4.000 F600.000 
G1 X432.797 Y108.282 Z-4.000 F600.000 
G1 X432.701 Y108.579 Z-4.000 F600.000 
G1 X432.699 Y108.589 Z-4.000 F600.000 
G1 X432.603 Y108.933 Z-4.000 F600.000 
G1 X432.516 Y109.325 Z-4.000 F600.000 
G1 X432.476 Y109.565 Z-4.000 F600.000 
G1 X432.442 Y109.771 Z-4.000 F600.000 
G1 X432.418 Y109.951 Z-4.000 F600.000 
G1 X432.379 Y110.274 Z-4.000 F600.000 
G1 X432.343 Y110.828 Z-4.000 F600.000 
G1 X432.341 Y110.906 Z-4.000 F600.000 
G1 X432.335 Y111.311 Z-4.000 F600.000 
G1 X432.333 Y111.438 Z-4.000 F600.000 
G1 X432.356 Y112.002 Z-4.000 F600.000 
G1 X432.364 Y112.087 Z-4.000 F600.000 
G1 X432.390 Y112.361 Z-4.000 F600.000 
G1 X432.408 Y112.533 Z-4.000 F600.000 
G1 X432.486 Y113.036 Z-4.000 F600.000 
G1 X432.491 Y113.060 Z-4.000 F600.000 
G1 X432.545 Y113.324 Z-4.000 F600.000 
G1 X432.587 Y113.515 Z-4.000 F600.000 
G1 X432.710 Y113.970 Z-4.000 F600.000 
G1 X432.724 Y114.012 Z-4.000 F600.000 
G1 X432.807 Y114.268 Z-4.000 F600.000 
G1 X432.857 Y114.415 Z-4.000 F600.000 
G1 X433.029 Y114.853 Z-4.000 F600.000 
G1 X433.066 Y114.934 Z-4.000 F600.000 
G1 X433.178 Y115.179 Z-4.000 F600.000 
G1 X433.226 Y115.283 Z-4.000 F600.000 
G1 X433.455 Y115.715 Z-4.000 F600.000 
G1 X433.484 Y115.764 Z-4.000 F600.000 
G1 X433.623 Y115.997 Z-4.000 F600.000 
G1 X433.715 Y116.148 Z-4.000 F600.000 
G1 X433.976 Y116.531 Z-4.000 F600.000 
G1 X434.016 Y116.587 Z-4.000 F600.000 
G1 X434.140 Y116.753 Z-4.000 F600.000 
G1 X434.357 Y117.033 Z-4.000 F600.000 
G1 X434.550 Y117.258 Z-4.000 F600.000 
G1 X434.736 Y117.471 Z-4.000 F600.000 
G1 X434.745 Y117.482 Z-4.000 F600.000 
G1 X435.118 Y117.867 Z-4.000 F600.000 
G1 X435.186 Y117.935 Z-4.000 F600.000 
G1 X435.328 Y118.068 Z-4.000 F600.000 
G1 X435.681 Y118.390 Z-4.000 F600.000 
G1 X435.722 Y118.424 Z-4.000 F600.000 
G1 X435.954 Y118.616 Z-4.000 F600.000 
G1 X436.236 Y118.843 Z-4.000 F600.000 
G1 X436.325 Y118.908 Z-4.000 F600.000 
G1 X436.576 Y119.091 Z-4.000 F600.000 
G1 X436.852 Y119.287 Z-4.000 F600.000 
G1 X437.118 Y119.458 Z-4.000 F600.000 
G1 X437.530 Y119.715 Z-4.000 F600.000 
G1 X437.680 Y119.803 Z-4.000 F600.000 
G1 X438.271 Y120.133 Z-4.000 F600.000 
G1 X438.319 Y120.157 Z-4.000 F600.000 
G1 X438.959 Y120.471 Z-4.000 F600.000 
G1 X439.075 Y120.527 Z-4.000 F600.000 
G1 X439.515 Y120.717 Z-4.000 F600.000 
G1 X439.947 Y120.894 Z-4.000 F600.000 
G1 X440.235 Y121.005 Z-4.000 F600.000 
G1 X440.721 Y121.182 Z-4.000 F600.000 
G1 X440.879 Y121.235 Z-4.000 F600.000 
G1 X441.518 Y121.439 Z-4.000 F600.000 
G1 X441.870 Y121.546 Z-4.000 F600.000 
G1 X441.933 Y121.563 Z-4.000 F600.000 
G1 X442.810 Y121.792 Z-4.000 F600.000 
G1 X442.921 Y121.821 Z-4.000 F600.000 
G1 X443.173 Y121.877 Z-4.000 F600.000 
G1 X444.029 Y122.059 Z-4.000 F600.000 
G1 X444.126 Y122.078 Z-4.000 F600.000 
G1 X444.443 Y122.136 Z-4.000 F600.000 
G1 X445.193 Y122.261 Z-4.000 F600.000 
G1 X445.476 Y122.304 Z-4.000 F600.000 
G1 X445.766 Y122.345 Z-4.000 F600.000 
G1 X446.413 Y122.428 Z-4.000 F600.000 
G1 X446.874 Y122.480 Z-4.000 F600.000 
G1 X447.125 Y122.506 Z-4.000 F600.000 
G1 X447.685 Y122.557 Z-4.000 F600.000 
G1 X448.309 Y122.606 Z-4.000 F600.000 
G1 X448.545 Y122.622 Z-4.000 F600.000 
G1 X449.007 Y122.649 Z-4.000 F600.000 
G1 X449.802 Y122.684 Z-4.000 F600.000 
G1 X450.008 Y122.692 Z-4.000 F600.000 
G1 X450.380 Y122.702 Z-4.000 F600.000 
G1 X451.338 Y122.716 Z-4.000 F600.000 
G1 X451.562 Y122.718 Z-4.000 F600.000 
G1 X451.807 Y122.717 Z-4.000 F600.000 
G1 X452.943 Y122.699 Z-4.000 F600.000 
G1 X453.437 Y122.687 Z-4.000 F600.000 
G1 X453.658 Y122.680 Z-4.000 F600.000 
G1 X454.093 Y122.661 Z-4.000 F600.000 
G1 X455.243 Y122.600 Z-4.000 F600.000 
G1 X455.615 Y122.576 Z-4.000 F600.000 
G1 X455.811 Y122.563 Z-4.000 F600.000 
G1 X456.396 Y122.516 Z-4.000 F600.000 
G1 X457.542 Y122.414 Z-4.000 F600.000 
G1 X457.831 Y122.386 Z-4.000 F600.000 
G1 X458.009 Y122.367 Z-4.000 F600.000 
G1 X458.682 Y122.291 Z-4.000 F600.000 
G1 X459.812 Y122.152 Z-4.000 F600.000 
G1 X460.076 Y122.116 Z-4.000 F600.000 
G1 X460.247 Y122.093 Z-4.000 F600.000 
G1 X460.932 Y121.991 Z-4.000 F600.000 
G1 X462.036 Y121.817 Z-4.000 F600.000 
G1 X462.341 Y121.766 Z-4.000 F600.000 
G1 X462.495 Y121.740 Z-4.000 F600.000 
G1 X463.121 Y121.625 Z-4.000 F600.000 
G1 X463.460 Y121.560 Z-4.000 F600.000 
G1 X464.383 Y120.083 Z-4.000 F600.000 
G1 X464.479 Y119.926 Z-4.000 F600.000 
G1 X466.130 Y117.206 Z-1.841 F600.000 
G1 X466.174 Y117.131 Z-1.777 F600.000 
G1 X467.760 Y114.440 Z0.500 F600.000 
G0 Z3.000 
G0 X463.460 Y121.560 Z3.000 
G1 X463.460 Y121.560 Z-4.000 F600.000 
G1 X464.336 Y122.082 Z-4.000 F600.000 
G1 X465.634 Y122.839 Z-3.897 F600.000 
G1 X466.953 Y123.588 Z-2.841 F600.000 
G1 X468.298 Y124.331 Z-1.759 F600.000 
G1 X469.674 Y125.069 Z-0.645 F600.000 
G1 X471.080 Y125.800 Z0.500 F600.000 
G0 Z3.000 
G0 X513.520 Y154.480 Z3.000 
G1 X513.520 Y154.480 Z0.500 F600.000 
G1 X522.294 Y145.706 Z-4.000 F600.000 
G1 X521.975 Y144.604 Z-4.000 F600.000 
G1 X521.734 Y143.513 Z-4.000 F600.000 
G1 X521.570 Y142.429 Z-4.000 F600.000 
G1 X521.480 Y141.350 Z-4.000 F600.000 
G1 X521.460 Y140.560 Z-4.000 F600.000 
G1 X521.460 Y110.960 Z-4.000 F600.000 
G1 X521.496 Y109.885 Z-4.000 F600.000 
G1 X521.606 Y108.809 Z-4.000 F600.000 
G1 X521.789 Y107.730 Z-4.000 F600.000 
G1 X522.046 Y106.644 Z-4.000 F600.000 
G1 X522.381 Y105.550 Z-4.000 F600.000 
G1 X522.653 Y104.805 Z-4.000 F600.000 
G1 X522.959 Y104.060 Z-4.000 F600.000 
G1 X522.511 Y102.938 Z-4.000 F600.000 
G1 X522.146 Y101.829 Z-4.000 F600.000 
G1 X521.862 Y100.732 Z-4.000 F600.000 
G1 X521.654 Y99.644 Z-4.000 F600.000 
G1 X521.522 Y98.563 Z-4.000 F600.000 
G1 X521.475 Y97.861 Z-4.000 F600.000 
G1 X521.460 Y97.160 Z-4.000 F600.000 
G1 X521.460 Y77.940 Z-4.000 F600.000 
G0 Z3.000 
G0 X529.400 Y70.000 Z3.000 
G1 X529.400 Y70.000 Z0.500 F600.000 
G1 X521.460 Y77.940 Z-4.000 F600.000 
G1 X513.520 Y70.000 Z0.500 F600.000 
G0 Z3.000 
G0 X522.959 Y104.060 Z3.000 
G1 X522.959 Y104.060 Z-4.000 F600.000 
G1 X529.400 Y104.060 Z-4.000 F600.000 
G1 X540.020 Y104.060 Z-4.000 F600.000 
G1 X541.793 Y104.075 Z-4.000 F600.000 
G1 X542.920 Y104.106 Z-4.000 F600.000 
G1 X543.023 Y104.109 Z-4.000 F600.000 
G1 X543.458 Y104.124 Z-4.000 F600.000 
G1 X543.954 Y104.151 Z-4.000 F600.000 
G1 X544.182 Y104.165 Z-4.000 F600.000 
G1 X545.078 Y104.227 Z-4.000 F600.000 
G1 X545.089 Y104.228 Z-4.000 F600.000 
G1 X545.328 Y104.252 Z-4.000 F600.000 
G1 X546.208 Y104.346 Z-4.000 F600.000 
G1 X546.442 Y104.373 Z-4.000 F600.000 
G1 X546.649 Y104.399 Z-4.000 F600.000 
G1 X547.297 Y104.492 Z-4.000 F600.000 
G1 X547.549 Y104.531 Z-4.000 F600.000 
G1 X548.170 Y104.633 Z-4.000 F600.000 
G1 X548.379 Y104.672 Z-4.000 F600.000 
G1 X548.634 Y104.721 Z-4.000 F600.000 
G1 X549.438 Y104.886 Z-4.000 F600.000 
G1 X549.635 Y104.928 Z-4.000 F600.000 
G1 X549.713 Y104.947 Z-4.000 F600.000 
G1 X550.490 Y105.140 Z-4.000 F600.000 
G1 X550.769 Y105.213 Z-4.000 F600.000 
G1 X551.043 Y105.287 Z-4.000 F600.000 
G1 X551.522 Y105.428 Z-4.000 F600.000 
G1 X551.813 Y105.518 Z-4.000 F600.000 
G1 X552.395 Y105.703 Z-4.000 F600.000 
G1 X552.540 Y105.753 Z-4.000 F600.000 
G1 X552.835 Y105.859 Z-4.000 F600.000 
G1 X553.537 Y106.118 Z-4.000 F600.000 
G1 X553.688 Y106.176 Z-4.000 F600.000 
G1 X553.851 Y106.243 Z-4.000 F600.000 
G1 X554.526 Y106.530 Z-4.000 F600.000 
G1 X554.833 Y106.665 Z-4.000 F600.000 
G1 X554.919 Y106.704 Z-4.000 F600.000 
G1 X555.483 Y106.976 Z-4.000 F600.000 
G1 X555.803 Y107.136 Z-4.000 F600.000 
G1 X556.086 Y107.282 Z-4.000 F600.000 
G1 X556.429 Y107.469 Z-4.000 F600.000 
G1 X556.748 Y107.649 Z-4.000 F600.000 
G1 X557.189 Y107.905 Z-4.000 F600.000 
G1 X557.350 Y108.004 Z-4.000 F600.000 
G1 X557.681 Y108.214 Z-4.000 F600.000 
G1 X558.229 Y108.572 Z-4.000 F600.000 
G1 X558.259 Y108.593 Z-4.000 F600.000 
G1 X558.575 Y108.818 Z-4.000 F600.000 
G1 X559.127 Y109.222 Z-4.000 F600.000 
G1 X559.205 Y109.280 Z-4.000 F600.000 
G1 X559.445 Y109.472 Z-4.000 F600.000 
G1 X559.971 Y109.903 Z-4.000 F600.000 
G1 X560.116 Y110.024 Z-4.000 F600.000 
G1 X560.283 Y110.175 Z-4.000 F600.000 
G1 X560.782 Y110.631 Z-4.000 F600.000 
G1 X560.994 Y110.829 Z-4.000 F600.000 
G1 X561.091 Y110.927 Z-4.000 F600.000 
G1 X561.358 Y111.197 Z-4.000 F600.000 
G1 X561.564 Y111.411 Z-4.000 F600.000 
G1 X561.747 Y111.605 Z-4.000 F600.000 
G1 X561.858 Y111.729 Z-4.000 F600.000 
G1 X562.116 Y112.022 Z-4.000 F600.000 
G1 X562.303 Y112.239 Z-4.000 F600.000 
G1 X562.473 Y112.441 Z-4.000 F600.000 
G1 X562.571 Y112.563 Z-4.000 F600.000 
G1 X562.810 Y112.868 Z-4.000 F600.000 
G1 X562.988 Y113.101 Z-4.000 F600.000 
G1 X563.136 Y113.297 Z-4.000 F600.000 
G1 X563.245 Y113.451 Z-4.000 F600.000 
G1 X563.446 Y113.739 Z-4.000 F600.000 
G1 X563.634 Y114.017 Z-4.000 F600.000 
G1 X563.748 Y114.187 Z-4.000 F600.000 
G1 X563.866 Y114.374 Z-4.000 F600.000 
G1 X564.027 Y114.636 Z-4.000 F600.000 
G1 X564.226 Y114.967 Z-4.000 F600.000 
G1 X564.298 Y115.090 Z-4.000 F600.000 
G1 X564.445 Y115.354 Z-4.000 F600.000 
G1 X564.556 Y115.559 Z-4.000 F600.000 
G1 X564.774 Y115.975 Z-4.000 F600.000 
G1 X564.799 Y116.024 Z-4.000 F600.000 
G1 X564.954 Y116.342 Z-4.000 F600.000 
G1 X565.029 Y116.502 Z-4.000 F600.000 
G1 X565.248 Y116.983 Z-4.000 F600.000 
G1 X565.252 Y116.990 Z-4.000 F600.000 
G1 X565.416 Y117.380 Z-4.000 F600.000 
G1 X565.453 Y117.470 Z-4.000 F600.000 
G1 X565.645 Y117.963 Z-4.000 F600.000 
G1 X565.680 Y118.056 Z-4.000 F600.000 
G1 X565.816 Y118.433 Z-4.000 F600.000 
G1 X565.826 Y118.465 Z-4.000 F600.000 
G1 X565.995 Y118.977 Z-4.000 F600.000 
G1 X566.046 Y119.138 Z-4.000 F600.000 
G1 X566.153 Y119.491 Z-4.000 F600.000 
G1 X566.160 Y119.516 Z-4.000 F600.000 
G1 X566.295 Y120.015 Z-4.000 F600.000 
G1 X566.354 Y120.248 Z-4.000 F600.000 
G1 X566.427 Y120.542 Z-4.000 F600.000 
G1 X566.444 Y120.618 Z-4.000 F600.000 
G1 X566.544 Y121.081 Z-4.000 F600.000 
G1 X566.604 Y121.376 Z-4.000 F600.000 
G1 X566.654 Y121.627 Z-4.000 F600.000 
G1 X566.674 Y121.747 Z-4.000 F600.000 
G1 X566.746 Y122.186 Z-4.000 F600.000 
G1 X566.798 Y122.532 Z-4.000 F600.000 
G1 X566.829 Y122.747 Z-4.000 F600.000 
G1 X566.846 Y122.887 Z-4.000 F600.000 
G1 X566.895 Y123.321 Z-4.000 F600.000 
G1 X566.934 Y123.697 Z-4.000 F600.000 
G1 X566.954 Y123.905 Z-4.000 F600.000 
G1 X566.963 Y124.029 Z-4.000 F600.000 
G1 X566.994 Y124.495 Z-4.000 F600.000 
G1 X567.014 Y124.864 Z-4.000 F600.000 
G1 X567.025 Y125.096 Z-4.000 F600.000 
G1 X567.028 Y125.238 Z-4.000 F600.000 
G1 X567.037 Y125.704 Z-4.000 F600.000 
G1 X567.040 Y126.100 Z-4.000 F600.000 
G1 X567.040 Y126.329 Z-4.000 F600.000 
G1 X567.035 Y126.501 Z-4.000 F600.000 
G1 X567.023 Y126.917 Z-4.000 F600.000 
G1 X567.002 Y127.346 Z-4.000 F600.000 
G1 X566.977 Y127.756 Z-4.000 F600.000 
G1 X566.950 Y128.123 Z-4.000 F600.000 
G1 X566.905 Y128.583 Z-4.000 F600.000 
G1 X566.858 Y129.009 Z-4.000 F600.000 
G1 X566.829 Y129.237 Z-4.000 F600.000 
G1 X566.743 Y129.817 Z-4.000 F600.000 
G1 X566.675 Y130.236 Z-4.000 F600.000 
G1 X566.664 Y130.298 Z-4.000 F600.000 
G1 X566.517 Y131.025 Z-4.000 F600.000 
G1 X566.456 Y131.314 Z-4.000 F600.000 
G1 X566.419 Y131.464 Z-4.000 F600.000 
G1 X566.220 Y132.233 Z-4.000 F600.000 
G1 X566.208 Y132.281 Z-4.000 F600.000 
G1 X566.091 Y132.667 Z-4.000 F600.000 
G1 X565.921 Y133.205 Z-4.000 F600.000 
G1 X565.849 Y133.414 Z-4.000 F600.000 
G1 X565.698 Y133.834 Z-4.000 F600.000 
G1 X565.601 Y134.089 Z-4.000 F600.000 
G1 X565.410 Y134.557 Z-4.000 F600.000 
G1 X565.250 Y134.938 Z-4.000 F600.000 
G1 X565.226 Y134.989 Z-4.000 F600.000 
G1 X564.895 Y135.685 Z-4.000 F600.000 
G1 X564.864 Y135.751 Z-4.000 F600.000 
G1 X564.689 Y136.082 Z-4.000 F600.000 
G1 X564.444 Y136.531 Z-4.000 F600.000 
G1 X564.317 Y136.751 Z-4.000 F600.000 
G1 X564.075 Y137.154 Z-4.000 F600.000 
G1 X563.993 Y137.287 Z-4.000 F600.000 
G1 X563.658 Y137.794 Z-4.000 F600.000 
G1 X563.507 Y138.020 Z-4.000 F600.000 
G1 X563.394 Y138.175 Z-4.000 F600.000 
G1 X562.979 Y138.732 Z-4.000 F600.000 
G1 X562.937 Y138.785 Z-4.000 F600.000 
G1 X562.657 Y139.133 Z-4.000 F600.000 
G1 X562.413 Y139.425 Z-4.000 F600.000 
G1 X562.160 Y139.712 Z-4.000 F600.000 
G1 X561.854 Y140.051 Z-4.000 F600.000 
G1 X561.806 Y140.102 Z-4.000 F600.000 
G1 X561.319 Y140.597 Z-4.000 F600.000 
G1 X561.156 Y140.761 Z-4.000 F600.000 
G1 X561.006 Y140.900 Z-4.000 F600.000 
G1 X560.455 Y141.402 Z-4.000 F600.000 
G1 X560.440 Y141.415 Z-4.000 F600.000 
G1 X560.107 Y141.697 Z-4.000 F600.000 
G1 X559.699 Y142.030 Z-4.000 F600.000 
G1 X559.506 Y142.180 Z-4.000 F600.000 
G1 X559.160 Y142.442 Z-4.000 F600.000 
G1 X558.890 Y142.641 Z-4.000 F600.000 
G1 X558.528 Y142.892 Z-4.000 F600.000 
G1 X558.184 Y143.126 Z-4.000 F600.000 
G1 X558.026 Y143.230 Z-4.000 F600.000 
G1 X557.522 Y143.544 Z-4.000 F600.000 
G1 X557.193 Y143.744 Z-4.000 F600.000 
G1 X557.103 Y143.797 Z-4.000 F600.000 
G1 X556.504 Y144.130 Z-4.000 F600.000 
G1 X556.146 Y144.324 Z-4.000 F600.000 
G1 X556.116 Y144.340 Z-4.000 F600.000 
G1 X555.430 Y144.679 Z-4.000 F600.000 
G1 X555.089 Y144.843 Z-4.000 F600.000 
G1 X555.067 Y144.853 Z-4.000 F600.000 
G1 X554.349 Y145.167 Z-4.000 F600.000 
G1 X554.020 Y145.307 Z-4.000 F600.000 
G1 X553.955 Y145.333 Z-4.000 F600.000 
G1 X553.257 Y145.601 Z-4.000 F600.000 
G1 X552.923 Y145.725 Z-4.000 F600.000 
G1 X552.778 Y145.776 Z-4.000 F600.000 
G1 X552.137 Y145.989 Z-4.000 F600.000 
G1 X551.812 Y146.094 Z-4.000 F600.000 
G1 X551.535 Y146.179 Z-4.000 F600.000 
G1 X551.004 Y146.330 Z-4.000 F600.000 
G1 X550.672 Y146.421 Z-4.000 F600.000 
G1 X550.230 Y146.536 Z-4.000 F600.000 
G1 X549.842 Y146.629 Z-4.000 F600.000 
G1 X549.536 Y146.699 Z-4.000 F600.000 
G1 X548.863 Y146.844 Z-4.000 F600.000 
G1 X548.687 Y146.879 Z-4.000 F600.000 
G1 X548.389 Y146.935 Z-4.000 F600.000 
G1 X547.519 Y147.086 Z-4.000 F600.000 
G1 X547.434 Y147.100 Z-4.000 F600.000 
G1 X547.209 Y147.132 Z-4.000 F600.000 
G1 X546.317 Y147.251 Z-4.000 F600.000 
G1 X546.038 Y147.285 Z-4.000 F600.000 
G1 X545.947 Y147.295 Z-4.000 F600.000 
G1 X545.127 Y147.373 Z-4.000 F600.000 
G1 X544.836 Y147.398 Z-4.000 F600.000 
G1 X544.400 Y147.429 Z-4.000 F600.000 
G1 X543.905 Y147.457 Z-4.000 F600.000 
G1 X543.634 Y147.471 Z-4.000 F600.000 
G1 X542.739 Y147.503 Z-4.000 F600.000 
G1 X542.684 Y147.505 Z-4.000 F600.000 
G1 X542.425 Y147.510 Z-4.000 F600.000 
G1 X541.457 Y147.519 Z-4.000 F600.000 
G1 X541.320 Y147.520 Z-4.000 F600.000 
G1 X535.360 Y147.520 Z-4.000 F600.000 
G1 X532.380 Y147.520 Z-4.000 F600.000 
G1 X530.890 Y147.520 Z-4.000 F600.000 
G1 X530.145 Y147.520 Z-4.000 F600.000 
G1 X529.772 Y147.520 Z-4.000 F600.000 
G1 X529.586 Y147.520 Z-4.000 F600.000 
G1 X529.493 Y147.520 Z-4.000 F600.000 
G1 X529.446 Y147.520 Z-4.000 F600.000 
G1 X529.400 Y147.520 Z-4.000 F600.000 
G1 X528.394 Y147.484 Z-4.000 F600.000 
G1 X527.386 Y147.374 Z-4.000 F600.000 
G1 X526.375 Y147.191 Z-4.000 F600.000 
G1 X525.357 Y146.933 Z-4.000 F600.000 
G1 X524.330 Y146.597 Z-4.000 F600.000 
G1 X523.292 Y146.180 Z-4.000 F600.000 
G1 X522.294 Y145.706 Z-4.000 F600.000 
G0 Z3.000 
G0 X586.680 Y162.160 Z3.000 
G1 X586.680 Y162.160 Z0.500 F600.000 
G1 X594.420 Y154.420 Z-4.000 F600.000 
G1 X594.420 Y88.560 Z-4.000 F600.000 
G1 X594.422 Y88.338 Z-4.000 F600.000 
G1 X594.433 Y87.571 Z-4.000 F600.000 
G1 X594.439 Y87.314 Z-4.000 F600.000 
G1 X594.449 Y87.057 Z-4.000 F600.000 
G1 X594.467 Y86.673 Z-4.000 F600.000 
G1 X594.486 Y86.329 Z-4.000 F600.000 
G1 X594.513 Y85.944 Z-4.000 F600.000 
G1 X594.531 Y85.776 Z-4.000 F600.000 
G1 X594.581 Y85.327 Z-4.000 F600.000 
G1 X594.613 Y85.089 Z-4.000 F600.000 
G1 X594.662 Y84.751 Z-4.000 F600.000 
G1 X594.711 Y84.489 Z-4.000 F600.000 
G1 X594.765 Y84.212 Z-4.000 F600.000 
G1 X594.844 Y83.845 Z-4.000 F600.000 
G1 X594.877 Y83.702 Z-4.000 F600.000 
G1 X595.003 Y83.232 Z-4.000 F600.000 
G1 X595.020 Y83.177 Z-4.000 F600.000 
G1 X595.138 Y82.799 Z-4.000 F600.000 
G1 X595.212 Y82.581 Z-4.000 F600.000 
G1 X595.278 Y82.396 Z-4.000 F600.000 
G1 X595.428 Y82.018 Z-4.000 F600.000 
G1 X595.496 Y81.868 Z-4.000 F600.000 
G1 X595.587 Y81.665 Z-4.000 F600.000 
G1 X595.744 Y81.345 Z-4.000 F600.000 
G1 X595.753 Y81.327 Z-4.000 F600.000 
G1 X595.907 Y81.039 Z-4.000 F600.000 
G1 X596.080 Y80.751 Z-4.000 F600.000 
G1 X596.159 Y80.631 Z-4.000 F600.000 
G1 X596.255 Y80.486 Z-4.000 F600.000 
G1 X596.438 Y80.228 Z-4.000 F600.000 
G1 X596.491 Y80.157 Z-4.000 F600.000 
G1 X596.634 Y79.970 Z-4.000 F600.000 
G1 X596.840 Y79.724 Z-4.000 F600.000 
G1 X597.049 Y79.498 Z-4.000 F600.000 
G1 X597.059 Y79.487 Z-4.000 F600.000 
G1 X597.298 Y79.247 Z-4.000 F600.000 
G1 X597.454 Y79.099 Z-4.000 F600.000 
G1 X597.557 Y79.002 Z-4.000 F600.000 
G1 X597.841 Y78.758 Z-4.000 F600.000 
G1 X598.145 Y78.523 Z-4.000 F600.000 
G1 X598.153 Y78.516 Z-4.000 F600.000 
G1 X598.497 Y78.270 Z-4.000 F600.000 
G1 X598.602 Y78.198 Z-4.000 F600.000 
G1 X598.872 Y78.021 Z-4.000 F600.000 
G1 X599.289 Y77.775 Z-4.000 F600.000 
G1 X599.366 Y77.734 Z-4.000 F600.000 
G1 X599.746 Y77.534 Z-4.000 F600.000 
G1 X599.864 Y77.475 Z-4.000 F600.000 
G1 X600.242 Y77.294 Z-4.000 F600.000 
G1 X600.657 Y77.121 Z-4.000 F600.000 
G1 X600.783 Y77.070 Z-4.000 F600.000 
G1 X601.184 Y76.920 Z-4.000 F600.000 
G1 X601.364 Y76.855 Z-4.000 F600.000 
G1 X601.945 Y76.676 Z-4.000 F600.000 
G1 X601.999 Y76.660 Z-4.000 F600.000 
G1 X602.499 Y76.528 Z-4.000 F600.000 
G1 X602.677 Y76.484 Z-4.000 F600.000 
G1 X603.235 Y76.369 Z-4.000 F600.000 
G1 X603.388 Y76.341 Z-4.000 F600.000 
G1 X603.399 Y70.049 Z0.451 F600.000 
G0 Z3.000 
G0 X603.388 Y76.341 Z3.000 
G1 X603.388 Y76.341 Z-4.000 F600.000 
G1 X603.816 Y76.272 Z-4.000 F600.000 
G1 X604.498 Y76.182 Z-4.000 F600.000 
G1 X604.607 Y76.170 Z-4.000 F600.000 
G1 X605.108 Y76.129 Z-4.000 F600.000 
G1 X605.698 Y76.095 Z-4.000 F600.000 
G1 X605.846 Y76.090 Z-4.000 F600.000 
G1 X606.338 Y76.084 Z-4.000 F600.000 
G1 X606.885 Y76.092 Z-4.000 F600.000 
G1 X607.089 Y76.098 Z-4.000 F600.000 
G1 X607.529 Y76.124 Z-4.000 F600.000 
G1 X607.559 Y76.164 Z-4.000 F600.000 
G1 X607.934 Y76.666 Z-4.000 F600.000 
G1 X608.350 Y77.244 Z-4.000 F600.000 
G1 X608.561 Y77.545 Z-3.899 F600.000 
G1 X608.969 Y78.142 Z-3.334 F600.000 
G1 X609.113 Y78.359 Z-3.132 F600.000 
G1 X609.512 Y78.972 Z-2.571 F600.000 
G1 X609.621 Y79.143 Z-2.417 F600.000 
G1 X610.009 Y79.769 Z-1.862 F600.000 
G1 X610.083 Y79.891 Z-1.756 F600.000 
G1 X610.459 Y80.527 Z-1.210 F600.000 
G1 X610.510 Y80.615 Z-1.135 F600.000 
G1 X610.874 Y81.259 Z-0.599 F600.000 
G1 X610.903 Y81.313 Z-0.555 F600.000 
G1 X611.253 Y81.962 Z-0.031 F600.000 
G1 X611.267 Y81.989 Z-0.009 F600.000 
G1 X611.600 Y82.640 Z0.500 F600.000 
G0 Z3.000 
G0 X607.529 Y76.124 Z3.000 
G1 X607.529 Y76.124 Z-4.000 F600.000 
G1 X608.432 Y75.562 Z-4.000 F600.000 
G1 X609.926 Y74.683 Z-3.432 F600.000 
G1 X610.651 Y74.276 Z-2.858 F600.000 
G1 X611.426 Y73.855 Z-2.241 F600.000 
G1 X612.224 Y73.438 Z-1.600 F600.000 
G1 X613.049 Y73.022 Z-0.933 F600.000 
G1 X613.903 Y72.611 Z-0.237 F600.000 
G1 X614.800 Y72.200 Z0.500 F600.000 
G0 Z3.000 
G0 X625.920 Y112.400 Z3.000 
G1 X625.920 Y112.400 Z0.500 F600.000 
G1 X626.681 Y113.977 Z-0.733 F600.000 
G1 X626.695 Y114.005 Z-0.755 F600.000 
G1 X627.467 Y115.569 Z-1.995 F600.000 
G1 X627.496 Y115.626 Z-2.040 F600.000 
G1 X628.277 Y117.175 Z-3.284 F600.000 
G1 X628.326 Y117.271 Z-3.362 F600.000 
G1 X629.121 Y118.807 Z-4.000 F600.000 
G1 X629.186 Y118.933 Z-4.000 F600.000 
G1 X629.667 Y119.841 Z-4.000 F600.000 
G1 X628.156 Y120.549 Z-4.000 F600.000 
G1 X626.271 Y121.396 Z-2.762 F600.000 
G1 X624.303 Y122.239 Z-1.176 F600.000 
G1 X622.240 Y123.080 Z0.500 F600.000 
G0 Z3.000 
G0 X629.667 Y119.841 Z3.000 
G1 X629.667 Y119.841 Z-4.000 F600.000 
G1 X629.894 Y119.915 Z-4.000 F600.000 
G1 X630.121 Y119.984 Z-4.000 F600.000 
G1 X630.239 Y120.020 Z-4.000 F600.000 
G1 X631.245 Y120.318 Z-4.000 F600.000 
G1 X631.355 Y120.349 Z-4.000 F600.000 
G1 X631.472 Y120.381 Z-4.000 F600.000 
G1 X632.581 Y120.680 Z-4.000 F600.000 
G1 X632.623 Y120.691 Z-4.000 F600.000 
G1 X632.709 Y120.712 Z-4.000 F600.000 
G1 X633.812 Y120.979 Z-4.000 F600.000 
G1 X633.944 Y121.010 Z-4.000 F600.000 
G1 X634.026 Y121.029 Z-4.000 F600.000 
G1 X635.039 Y121.248 Z-4.000 F600.000 
G1 X635.175 Y121.276 Z-4.000 F600.000 
G1 X635.451 Y121.332 Z-4.000 F600.000 
G1 X636.263 Y121.486 Z-4.000 F600.000 
G1 X636.400 Y121.511 Z-4.000 F600.000 
G1 X636.890 Y121.598 Z-4.000 F600.000 
G1 X637.481 Y121.695 Z-4.000 F600.000 
G1 X637.627 Y121.718 Z-4.000 F600.000 
G1 X638.340 Y121.825 Z-4.000 F600.000 
G1 X638.700 Y121.875 Z-4.000 F600.000 
G1 X638.857 Y121.895 Z-4.000 F600.000 
G1 X639.796 Y122.011 Z-4.000 F600.000 
G1 X639.924 Y122.025 Z-4.000 F600.000 
G1 X640.073 Y122.042 Z-4.000 F600.000 
G1 X641.131 Y122.145 Z-4.000 F600.000 
G1 X641.254 Y122.157 Z-4.000 F600.000 
G1 X641.291 Y122.160 Z-4.000 F600.000 
G1 X642.344 Y122.234 Z-4.000 F600.000 
G1 X642.507 Y122.245 Z-4.000 F600.000 
G1 X642.701 Y122.256 Z-4.000 F600.000 
G1 X643.554 Y122.294 Z-4.000 F600.000 
G1 X643.720 Y122.300 Z-4.000 F600.000 
G1 X644.140 Y122.313 Z-4.000 F600.000 
G1 X644.604 Y122.321 Z-4.000 F600.000 
G1 X644.750 Y122.323 Z-4.000 F600.000 
G1 X645.562 Y122.327 Z-4.000 F600.000 
G1 X645.609 Y122.327 Z-4.000 F600.000 
G1 X645.772 Y122.324 Z-4.000 F600.000 
G1 X646.606 Y122.305 Z-4.000 F600.000 
G1 X646.782 Y122.301 Z-4.000 F600.000 
G1 X646.959 Y122.294 Z-4.000 F600.000 
G1 X647.589 Y122.262 Z-4.000 F600.000 
G1 X647.776 Y122.251 Z-4.000 F600.000 
G1 X648.375 Y122.211 Z-4.000 F600.000 
G1 X648.559 Y122.196 Z-4.000 F600.000 
G1 X648.760 Y122.178 Z-4.000 F600.000 
G1 X649.517 Y122.104 Z-4.000 F600.000 
G1 X649.729 Y122.082 Z-4.000 F600.000 
G1 X649.730 Y122.082 Z-4.000 F600.000 
G1 X650.462 Y121.986 Z-4.000 F600.000 
G1 X650.691 Y121.954 Z-4.000 F600.000 
G1 X651.018 Y121.905 Z-4.000 F600.000 
G1 X651.398 Y121.841 Z-4.000 F600.000 
G1 X651.643 Y121.799 Z-4.000 F600.000 
G1 X652.238 Y121.688 Z-4.000 F600.000 
G1 X652.325 Y121.670 Z-4.000 F600.000 
G1 X652.575 Y121.616 Z-4.000 F600.000 
G1 X653.232 Y121.467 Z-4.000 F600.000 
G1 X653.390 Y121.431 Z-4.000 F600.000 
G1 X653.508 Y121.400 Z-4.000 F600.000 
G1 X654.140 Y121.229 Z-4.000 F600.000 
G1 X654.427 Y121.150 Z-4.000 F600.000 
G1 X654.474 Y121.135 Z-4.000 F600.000 
G1 X655.032 Y120.959 Z-4.000 F600.000 
G1 X655.341 Y120.858 Z-4.000 F600.000 
G1 X655.489 Y120.807 Z-4.000 F600.000 
G1 X655.922 Y120.649 Z-4.000 F600.000 
G1 X656.237 Y120.530 Z-4.000 F600.000 
G1 X656.439 Y120.450 Z-4.000 F600.000 
G1 X656.792 Y120.302 Z-4.000 F600.000 
G1 X657.136 Y120.152 Z-4.000 F600.000 
G1 X657.320 Y120.069 Z-4.000 F600.000 
G1 X657.665 Y119.903 Z-4.000 F600.000 
G1 X658.012 Y119.730 Z-4.000 F600.000 
G1 X658.138 Y119.665 Z-4.000 F600.000 
G1 X658.515 Y119.459 Z-4.000 F600.000 
G1 X658.888 Y119.248 Z-4.000 F600.000 
G1 X658.897 Y119.243 Z-4.000 F600.000 
G1 X659.362 Y118.954 Z-4.000 F600.000 
G1 X659.596 Y118.807 Z-4.000 F600.000 
G1 X659.717 Y118.722 Z-4.000 F600.000 
G1 X660.165 Y118.407 Z-4.000 F600.000 
G1 X660.239 Y118.356 Z-4.000 F600.000 
G1 X660.525 Y118.135 Z-4.000 F600.000 
G1 X660.833 Y117.889 Z-4.000 F600.000 
G1 X660.944 Y117.796 Z-4.000 F600.000 
G1 X661.306 Y117.483 Z-4.000 F600.000 
G1 X661.385 Y117.411 Z-4.000 F600.000 
G1 X661.693 Y117.119 Z-4.000 F600.000 
G1 X661.894 Y116.925 Z-4.000 F600.000 
G1 X662.047 Y116.762 Z-4.000 F600.000 
G1 X662.364 Y116.420 Z-4.000 F600.000 
G1 X662.404 Y116.374 Z-4.000 F600.000 
G1 X662.716 Y116.007 Z-4.000 F600.000 
G1 X662.806 Y115.896 Z-4.000 F600.000 
G1 X663.038 Y115.594 Z-4.000 F600.000 
G1 X663.220 Y115.355 Z-4.000 F600.000 
G1 X663.342 Y115.176 Z-4.000 F600.000 
G1 X663.606 Y114.785 Z-4.000 F600.000 
G1 X663.633 Y114.742 Z-4.000 F600.000 
G1 X663.766 Y114.529 Z-4.000 F600.000 
G1 X663.895 Y114.314 Z-4.000 F600.000 
G1 X663.970 Y114.184 Z-4.000 F600.000 
G1 X664.150 Y113.857 Z-4.000 F600.000 
G1 X664.313 Y113.553 Z-4.000 F600.000 
G1 X664.385 Y113.403 Z-4.000 F600.000 
G1 X664.609 Y112.925 Z-4.000 F600.000 
G1 X664.632 Y112.879 Z-4.000 F600.000 
G1 X664.806 Y112.462 Z-4.000 F600.000 
G1 X664.924 Y112.164 Z-4.000 F600.000 
G1 X664.998 Y111.964 Z-4.000 F600.000 
G1 X665.159 Y111.509 Z-4.000 F600.000 
G1 X665.193 Y111.405 Z-4.000 F600.000 
G1 X665.319 Y110.992 Z-4.000 F600.000 
G1 X665.435 Y110.595 Z-4.000 F600.000 
G1 X665.448 Y110.544 Z-4.000 F600.000 
G1 X665.579 Y110.008 Z-4.000 F600.000 
G1 X665.645 Y109.734 Z-4.000 F600.000 
G1 X665.679 Y109.559 Z-4.000 F600.000 
G1 X665.784 Y109.005 Z-4.000 F600.000 
G1 X665.819 Y108.818 Z-4.000 F600.000 
G1 X665.854 Y108.573 Z-4.000 F600.000 
G1 X665.933 Y108.001 Z-4.000 F600.000 
G1 X665.952 Y107.855 Z-4.000 F600.000 
G1 X665.979 Y107.585 Z-4.000 F600.000 
G1 X666.030 Y106.994 Z-4.000 F600.000 
G1 X666.044 Y106.835 Z-4.000 F600.000 
G1 X666.055 Y106.612 Z-4.000 F600.000 
G1 X666.080 Y106.003 Z-4.000 F600.000 
G1 X666.088 Y105.800 Z-4.000 F600.000 
G1 X666.089 Y105.760 Z-4.000 F600.000 
G1 X666.100 Y104.566 Z-4.000 F600.000 
G1 X666.100 Y104.320 Z-4.000 F600.000 
G1 X666.064 Y103.259 Z-4.000 F600.000 
G1 X665.954 Y102.197 Z-4.000 F600.000 
G1 X665.771 Y101.131 Z-4.000 F600.000 
G1 X665.486 Y99.960 Z-4.000 F600.000 
G1 X658.459 Y99.960 Z-3.861 F600.000 
G1 X658.255 Y99.958 Z-3.859 F600.000 
G1 X656.114 Y99.907 Z-3.860 F600.000 
G1 X655.482 Y99.888 Z-3.856 F600.000 
G1 X655.398 Y99.885 Z-3.856 F600.000 
G1 X653.888 Y99.824 Z-3.860 F600.000 
G1 X652.838 Y99.773 Z-3.855 F600.000 
G1 X652.739 Y99.768 Z-3.855 F600.000 
G1 X651.750 Y99.709 Z-3.861 F600.000 
G1 X650.385 Y99.615 Z-3.858 F600.000 
G1 X650.267 Y99.606 Z-3.858 F600.000 
G1 X649.702 Y99.560 Z-3.865 F600.000 
G1 X648.116 Y99.414 Z-3.868 F600.000 
G1 X647.970 Y99.399 Z-3.870 F600.000 
G1 X647.741 Y99.375 Z-3.874 F600.000 
G1 X646.016 Y99.170 Z-3.889 F600.000 
G1 X645.870 Y99.151 Z-3.891 F600.000 
G1 X645.842 Y99.147 Z-3.892 F600.000 
G1 X644.092 Y98.884 Z-3.923 F600.000 
G1 X644.079 Y98.882 Z-3.923 F600.000 
G1 X643.917 Y98.854 Z-3.926 F600.000 
G1 X643.105 Y98.707 Z-3.945 F600.000 
G1 X642.986 Y98.684 Z-3.949 F600.000 
G1 X642.406 Y98.570 Z-3.971 F600.000 
G1 X642.219 Y98.531 Z-3.976 F600.000 
G1 X642.088 Y98.503 Z-3.980 F600.000 
G1 X641.365 Y98.340 Z-4.000 F600.000 
G1 X641.217 Y98.306 Z-4.000 F600.000 
G1 X640.816 Y98.208 Z-4.000 F600.000 
G1 X640.538 Y98.137 Z-4.000 F600.000 
G1 X640.364 Y98.090 Z-4.000 F600.000 
G1 X639.725 Y97.912 Z-4.000 F600.000 
G1 X639.539 Y97.858 Z-4.000 F600.000 
G1 X639.324 Y97.793 Z-4.000 F600.000 
G1 X638.942 Y97.672 Z-4.000 F600.000 
G1 X638.728 Y97.601 Z-4.000 F600.000 
G1 X638.170 Y97.408 Z-4.000 F600.000 
G1 X637.935 Y97.324 Z-4.000 F600.000 
G1 X637.931 Y97.322 Z-4.000 F600.000 
G1 X637.412 Y97.117 Z-4.000 F600.000 
G1 X637.143 Y97.007 Z-4.000 F600.000 
G1 X636.657 Y96.798 Z-4.000 F600.000 
G1 X636.655 Y96.798 Z-4.000 F600.000 
G1 X636.352 Y96.655 Z-4.000 F600.000 
G1 X635.902 Y96.433 Z-4.000 F600.000 
G1 X635.579 Y96.268 Z-4.000 F600.000 
G1 X635.487 Y96.217 Z-4.000 F600.000 
G1 X635.163 Y96.035 Z-4.000 F600.000 
G1 X634.783 Y95.811 Z-4.000 F600.000 
G1 X634.434 Y95.595 Z-4.000 F600.000 
G1 X634.395 Y95.570 Z-4.000 F600.000 
G1 X633.994 Y95.298 Z-4.000 F600.000 
G1 X633.635 Y95.041 Z-4.000 F600.000 
G1 X633.500 Y94.943 Z-4.000 F600.000 
G1 X633.204 Y94.708 Z-4.000 F600.000 
G1 X632.873 Y94.434 Z-4.000 F600.000 
G1 X632.685 Y94.276 Z-4.000 F600.000 
G1 X632.435 Y94.044 Z-4.000 F600.000 
G1 X632.131 Y93.752 Z-4.000 F600.000 
G1 X631.983 Y93.608 Z-4.000 F600.000 
G1 X631.691 Y93.292 Z-4.000 F600.000 
G1 X631.412 Y92.981 Z-4.000 F600.000 
G1 X631.388 Y92.953 Z-4.000 F600.000 
G1 X630.972 Y92.431 Z-4.000 F600.000 
G1 X630.893 Y92.327 Z-4.000 F600.000 
G1 X630.727 Y92.092 Z-4.000 F600.000 
G1 X630.488 Y91.742 Z-4.000 F600.000 
G1 X630.340 Y91.497 Z-4.000 F600.000 
G1 X630.161 Y91.194 Z-4.000 F600.000 
G1 X630.128 Y91.134 Z-4.000 F600.000 
G1 X629.898 Y90.691 Z-4.000 F600.000 
G1 X629.811 Y90.496 Z-4.000 F600.000 
G1 X629.691 Y90.221 Z-4.000 F600.000 
G1 X629.645 Y90.105 Z-4.000 F600.000 
G1 X629.524 Y89.785 Z-4.000 F600.000 
G1 X629.423 Y89.460 Z-4.000 F600.000 
G1 X629.394 Y89.362 Z-4.000 F600.000 
G1 X629.313 Y89.044 Z-4.000 F600.000 
G1 X629.289 Y88.948 Z-4.000 F600.000 
G1 X629.206 Y88.520 Z-4.000 F600.000 
G1 X629.201 Y88.483 Z-4.000 F600.000 
G1 X629.151 Y88.125 Z-4.000 F600.000 
G1 X629.145 Y88.072 Z-4.000 F600.000 
G1 X629.105 Y87.589 Z-4.000 F600.000 
G1 X629.105 Y87.582 Z-4.000 F600.000 
G1 X629.094 Y87.229 Z-4.000 F600.000 
G1 X629.091 Y87.057 Z-4.000 F600.000 
G1 X629.100 Y86.683 Z-4.000 F600.000 
G1 X629.107 Y86.480 Z-4.000 F600.000 
G1 X629.117 Y86.335 Z-4.000 F600.000 
G1 X629.161 Y85.834 Z-4.000 F600.000 
G1 X629.169 Y85.772 Z-4.000 F600.000 
G1 X629.209 Y85.471 Z-4.000 F600.000 
G1 X629.215 Y85.431 Z-4.000 F600.000 
G1 X629.268 Y85.132 Z-4.000 F600.000 
G1 X629.324 Y84.879 Z-4.000 F600.000 
G1 X629.340 Y84.803 Z-4.000 F600.000 
G1 X629.407 Y84.549 Z-4.000 F600.000 
G1 X629.424 Y84.483 Z-4.000 F600.000 
G1 X629.519 Y84.174 Z-4.000 F600.000 
G1 X629.566 Y84.042 Z-4.000 F600.000 
G1 X629.626 Y83.873 Z-4.000 F600.000 
G1 X629.685 Y83.723 Z-4.000 F600.000 
G1 X629.743 Y83.581 Z-4.000 F600.000 
G1 X629.877 Y83.284 Z-4.000 F600.000 
G1 X629.922 Y83.194 Z-4.000 F600.000 
G1 X630.025 Y82.988 Z-4.000 F600.000 
G1 X630.077 Y82.891 Z-4.000 F600.000 
G1 X630.188 Y82.692 Z-4.000 F600.000 
G1 X630.347 Y82.431 Z-4.000 F600.000 
G1 X630.374 Y82.386 Z-4.000 F600.000 
G1 X630.534 Y82.144 Z-4.000 F600.000 
G1 X630.576 Y82.083 Z-4.000 F600.000 
G1 X630.802 Y81.772 Z-4.000 F600.000 
G1 X630.856 Y81.703 Z-4.000 F600.000 
G1 X631.054 Y81.454 Z-4.000 F600.000 
G1 X631.072 Y81.432 Z-4.000 F600.000 
G1 X631.331 Y81.133 Z-4.000 F600.000 
G1 X631.402 Y81.057 Z-4.000 F600.000 
G1 X631.643 Y80.801 Z-4.000 F600.000 
G1 X631.644 Y80.800 Z-4.000 F600.000 
G1 X631.984 Y80.467 Z-4.000 F600.000 
G1 X631.998 Y80.455 Z-4.000 F600.000 
G1 X632.262 Y80.216 Z-4.000 F600.000 
G1 X632.355 Y80.134 Z-4.000 F600.000 
G1 X632.614 Y79.920 Z-4.000 F600.000 
G1 X632.762 Y79.799 Z-4.000 F600.000 
G1 X632.897 Y79.694 Z-4.000 F600.000 
G1 X633.209 Y79.462 Z-4.000 F600.000 
G1 X633.274 Y79.416 Z-4.000 F600.000 
G1 X633.578 Y79.206 Z-4.000 F600.000 
G1 X633.696 Y79.126 Z-4.000 F600.000 
G1 X633.913 Y78.989 Z-4.000 F600.000 
G1 X634.218 Y78.799 Z-4.000 F600.000 
G1 X634.233 Y78.790 Z-4.000 F600.000 
G1 X634.757 Y78.496 Z-4.000 F600.000 
G1 X634.788 Y78.479 Z-4.000 F600.000 
G1 X635.397 Y78.168 Z-4.000 F600.000 
G1 X635.449 Y78.143 Z-4.000 F600.000 
G1 X636.045 Y77.872 Z-4.000 F600.000 
G1 X636.081 Y77.857 Z-4.000 F600.000 
G1 X636.737 Y77.592 Z-4.000 F600.000 
G1 X636.835 Y77.556 Z-4.000 F600.000 
G1 X637.429 Y77.345 Z-4.000 F600.000 
G1 X637.476 Y77.330 Z-4.000 F600.000 
G1 X638.242 Y77.094 Z-4.000 F600.000 
G1 X638.258 Y77.089 Z-4.000 F600.000 
G1 X638.778 Y76.951 Z-4.000 F600.000 
G1 X639.082 Y76.877 Z-4.000 F600.000 
G1 X639.646 Y76.751 Z-4.000 F600.000 
G1 X639.946 Y76.687 Z-4.000 F600.000 
G1 X640.136 Y76.654 Z-4.000 F600.000 
G1 X640.851 Y76.535 Z-4.000 F600.000 
G1 X641.057 Y76.504 Z-4.000 F600.000 
G1 X641.503 Y76.446 Z-4.000 F600.000 
G1 X641.791 Y76.413 Z-4.000 F600.000 
G1 X642.475 Y76.348 Z-4.000 F600.000 
G1 X642.882 Y76.317 Z-4.000 F600.000 
G1 X642.954 Y76.312 Z-4.000 F600.000 
G1 X643.903 Y76.273 Z-4.000 F600.000 
G1 X644.077 Y76.267 Z-4.000 F600.000 
G1 X644.277 Y76.268 Z-4.000 F600.000 
G1 X645.173 Y76.277 Z-4.000 F600.000 
G1 X645.344 Y76.283 Z-4.000 F600.000 
G1 X645.688 Y76.299 Z-4.000 F600.000 
G1 X646.244 Y76.332 Z-4.000 F600.000 
G1 X646.800 Y76.379 Z-4.000 F600.000 
G1 X647.065 Y76.405 Z-4.000 F600.000 
G1 X647.282 Y76.428 Z-4.000 F600.000 
G1 X647.903 Y76.509 Z-4.000 F600.000 
G1 X648.127 Y76.541 Z-4.000 F600.000 
G1 X648.292 Y76.565 Z-4.000 F600.000 
G1 X648.949 Y76.681 Z-4.000 F600.000 
G1 X649.166 Y76.721 Z-4.000 F600.000 
G1 X649.275 Y76.742 Z-4.000 F600.000 
G1 X649.970 Y76.897 Z-4.000 F600.000 
G1 X650.182 Y76.946 Z-4.000 F600.000 
G1 X650.236 Y76.959 Z-4.000 F600.000 
G1 X650.965 Y77.155 Z-4.000 F600.000 
G1 X651.169 Y77.213 Z-4.000 F600.000 
G1 X651.172 Y77.213 Z-4.000 F600.000 
G1 X651.932 Y77.456 Z-4.000 F600.000 
G1 X652.085 Y77.506 Z-4.000 F600.000 
G1 X652.127 Y77.522 Z-4.000 F600.000 
G1 X652.869 Y77.796 Z-4.000 F600.000 
G1 X652.977 Y77.838 Z-4.000 F600.000 
G1 X653.069 Y77.877 Z-4.000 F600.000 
G1 X653.787 Y78.183 Z-4.000 F600.000 
G1 X653.850 Y78.210 Z-4.000 F600.000 
G1 X653.970 Y78.267 Z-4.000 F600.000 
G1 X654.665 Y78.603 Z-4.000 F600.000 
G1 X654.709 Y78.625 Z-4.000 F600.000 
G1 X654.843 Y78.696 Z-4.000 F600.000 
G1 X655.512 Y79.060 Z-4.000 F600.000 
G1 X655.552 Y79.083 Z-4.000 F600.000 
G1 X655.686 Y79.163 Z-4.000 F600.000 
G1 X656.330 Y79.556 Z-4.000 F600.000 
G1 X656.378 Y79.586 Z-4.000 F600.000 
G1 X656.490 Y79.661 Z-3.995 F600.000 
G1 X657.108 Y80.080 Z-3.863 F600.000 
G1 X657.264 Y80.189 Z-3.831 F600.000 
G1 X657.294 Y80.210 Z-3.825 F600.000 
G1 X657.876 Y80.590 Z-3.745 F600.000 
G1 X658.035 Y80.685 Z-3.735 F600.000 
G1 X658.666 Y81.026 Z-3.742 F600.000 
G1 X658.829 Y81.106 Z-3.755 F600.000 
G1 X659.487 Y81.393 Z-3.854 F600.000 
G1 X659.682 Y81.469 Z-3.896 F600.000 
G1 X660.373 Y81.706 Z-4.000 F600.000 
G1 X660.581 Y81.769 Z-4.000 F600.000 
G1 X661.310 Y81.959 Z-4.000 F600.000 
G1 X665.818 Y82.963 Z-4.000 F600.000 
G1 X666.225 Y81.928 Z-4.000 F600.000 
G1 X666.550 Y80.906 Z-4.000 F600.000 
G1 X666.795 Y79.896 Z-4.000 F600.000 
G1 X666.921 Y79.197 Z-4.000 F600.000 
G1 X667.334 Y76.506 Z-4.000 F600.000 
G0 Z3.000 
G0 X681.278 Y82.963 Z3.000 
G1 X681.278 Y82.963 Z-4.000 F600.000 
G1 X679.391 Y84.355 Z-4.000 F600.000 
G1 X677.419 Y85.920 Z-4.000 F600.000 
G1 X666.100 Y95.600 Z-4.000 F600.000 
G1 X666.064 Y96.661 Z-4.000 F600.000 
G1 X665.954 Y97.723 Z-4.000 F600.000 
G1 X665.771 Y98.789 Z-4.000 F600.000 
G1 X665.486 Y99.960 Z-4.000 F600.000 
G0 Z3.000 
G0 X662.560 Y70.000 Z3.000 
G1 X662.560 Y70.000 Z0.500 F600.000 
G1 X667.334 Y76.506 Z-4.000 F600.000 
G1 X673.840 Y70.000 Z0.500 F600.000 
G0 Z3.000 
G0 X715.360 Y70.063 Z3.000 
G1 X715.360 Y70.063 Z0.437 F600.000 
G1 X715.376 Y76.409 Z-4.000 F600.000 
G1 X715.216 Y76.417 Z-4.000 F600.000 
G1 X714.963 Y76.434 Z-4.000 F600.000 
G1 X714.017 Y76.506 Z-4.000 F600.000 
G1 X713.862 Y76.519 Z-4.000 F600.000 
G1 X713.747 Y76.532 Z-4.000 F600.000 
G1 X712.828 Y76.639 Z-4.000 F600.000 
G1 X712.537 Y76.677 Z-4.000 F600.000 
G1 X712.427 Y76.691 Z-4.000 F600.000 
G1 X711.643 Y76.816 Z-4.000 F600.000 
G1 X711.347 Y76.867 Z-4.000 F600.000 
G1 X711.051 Y76.921 Z-4.000 F600.000 
G1 X710.480 Y77.037 Z-4.000 F600.000 
G1 X710.164 Y77.106 Z-4.000 F600.000 
G1 X709.742 Y77.202 Z-4.000 F600.000 
G1 X709.321 Y77.308 Z-4.000 F600.000 
G1 X708.997 Y77.394 Z-4.000 F600.000 
G1 X708.496 Y77.533 Z-4.000 F600.000 
G1 X708.179 Y77.628 Z-4.000 F600.000 
G1 X707.842 Y77.735 Z-4.000 F600.000 
G1 X707.314 Y77.908 Z-4.000 F600.000 
G1 X707.051 Y78.002 Z-4.000 F600.000 
G1 X706.709 Y78.128 Z-4.000 F600.000 
G1 X706.198 Y78.324 Z-4.000 F600.000 
G1 X705.944 Y78.428 Z-4.000 F600.000 
G1 X705.583 Y78.583 Z-4.000 F600.000 
G1 X705.144 Y78.778 Z-4.000 F600.000 
G1 X704.845 Y78.919 Z-4.000 F600.000 
G1 X704.492 Y79.092 Z-4.000 F600.000 
G1 X704.153 Y79.263 Z-4.000 F600.000 
G1 X703.782 Y79.463 Z-4.000 F600.000 
G1 X703.418 Y79.666 Z-4.000 F600.000 
G1 X703.222 Y79.778 Z-4.000 F600.000 
G1 X702.737 Y80.073 Z-4.000 F600.000 
G1 X702.370 Y80.305 Z-4.000 F600.000 
G1 X702.346 Y80.320 Z-4.000 F600.000 
G1 X701.719 Y80.751 Z-4.000 F600.000 
G1 X701.531 Y80.883 Z-4.000 F600.000 
G1 X701.360 Y81.013 Z-4.000 F600.000 
G1 X700.769 Y81.469 Z-4.000 F600.000 
G1 X700.739 Y81.493 Z-4.000 F600.000 
G1 X700.409 Y81.771 Z-4.000 F600.000 
G1 X700.053 Y82.079 Z-4.000 F600.000 
G1 X699.822 Y82.290 Z-4.000 F600.000 
G1 X699.489 Y82.604 Z-4.000 F600.000 
G1 X699.385 Y82.704 Z-4.000 F600.000 
G1 X698.937 Y83.163 Z-4.000 F600.000 
G1 X698.755 Y83.353 Z-4.000 F600.000 
G1 X698.630 Y83.495 Z-4.000 F600.000 
G1 X698.169 Y84.023 Z-4.000 F600.000 
G1 X698.113 Y84.091 Z-4.000 F600.000 
G1 X697.827 Y84.451 Z-4.000 F600.000 
G1 X697.622 Y84.714 Z-4.000 F600.000 
G1 X697.351 Y85.084 Z-4.000 F600.000 
G1 X697.105 Y85.430 Z-4.000 F600.000 
G1 X697.095 Y85.445 Z-4.000 F600.000 
G1 X696.659 Y86.115 Z-4.000 F600.000 
G1 X696.622 Y86.174 Z-4.000 F600.000 
G1 X696.430 Y86.500 Z-4.000 F600.000 
G1 X696.172 Y86.949 Z-4.000 F600.000 
G1 X696.033 Y87.207 Z-4.000 F600.000 
G1 X695.835 Y87.588 Z-4.000 F600.000 
G1 X695.750 Y87.755 Z-4.000 F600.000 
G1 X695.481 Y88.328 Z-4.000 F600.000 
G1 X695.357 Y88.600 Z-4.000 F600.000 
G1 X695.305 Y88.724 Z-4.000 F600.000 
G1 X694.996 Y89.482 Z-4.000 F600.000 
G1 X694.990 Y89.498 Z-4.000 F600.000 
G1 X694.851 Y89.883 Z-4.000 F600.000 
G1 X694.668 Y90.405 Z-4.000 F600.000 
G1 X694.578 Y90.687 Z-4.000 F600.000 
G1 X694.461 Y91.069 Z-4.000 F600.000 
G1 X694.371 Y91.371 Z-4.000 F600.000 
G1 X694.229 Y91.906 Z-4.000 F600.000 
G1 X694.134 Y92.281 Z-4.000 F600.000 
G1 X694.109 Y92.380 Z-4.000 F600.000 
G1 X693.943 Y93.146 Z-4.000 F600.000 
G1 X693.883 Y93.438 Z-4.000 F600.000 
G1 X693.872 Y93.502 Z-4.000 F600.000 
G1 X693.721 Y94.396 Z-4.000 F600.000 
G1 X693.696 Y94.548 Z-4.000 F600.000 
G1 X693.670 Y94.753 Z-4.000 F600.000 
G1 X693.555 Y95.675 Z-4.000 F600.000 
G1 X693.552 Y95.702 Z-4.000 F600.000 
G1 X693.525 Y96.008 Z-4.000 F600.000 
G1 X693.452 Y96.904 Z-4.000 F600.000 
G1 X693.449 Y96.958 Z-4.000 F600.000 
G1 X693.434 Y97.282 Z-4.000 F600.000 
G1 X693.399 Y98.154 Z-4.000 F600.000 
G1 X693.398 Y98.259 Z-4.000 F600.000 
G1 X693.395 Y98.574 Z-4.000 F600.000 
G1 X693.397 Y99.473 Z-4.000 F600.000 
G1 X693.399 Y99.577 Z-4.000 F600.000 
G1 X693.409 Y99.854 Z-4.000 F600.000 
G1 X693.446 Y100.750 Z-4.000 F600.000 
G1 X693.449 Y100.804 Z-4.000 F600.000 
G1 X693.472 Y101.107 Z-4.000 F600.000 
G1 X693.546 Y101.995 Z-4.000 F600.000 
G1 X693.550 Y102.028 Z-4.000 F600.000 
G1 X693.585 Y102.328 Z-4.000 F600.000 
G1 X693.695 Y103.203 Z-4.000 F600.000 
G1 X693.698 Y103.220 Z-4.000 F600.000 
G1 X693.749 Y103.536 Z-4.000 F600.000 
G1 X693.894 Y104.377 Z-4.000 F600.000 
G1 X693.898 Y104.397 Z-4.000 F600.000 
G1 X693.965 Y104.723 Z-4.000 F600.000 
G1 X694.139 Y105.519 Z-4.000 F600.000 
G1 X694.148 Y105.556 Z-4.000 F600.000 
G1 X694.236 Y105.896 Z-4.000 F600.000 
G1 X694.432 Y106.626 Z-4.000 F600.000 
G1 X694.453 Y106.698 Z-4.000 F600.000 
G1 X694.561 Y107.046 Z-4.000 F600.000 
G1 X694.771 Y107.701 Z-4.000 F600.000 
G1 X694.812 Y107.818 Z-4.000 F600.000 
G1 X694.938 Y108.165 Z-4.000 F600.000 
G1 X695.153 Y108.738 Z-4.000 F600.000 
G1 X695.222 Y108.907 Z-4.000 F600.000 
G1 X695.377 Y109.273 Z-4.000 F600.000 
G1 X695.583 Y109.745 Z-4.000 F600.000 
G1 X695.694 Y109.983 Z-4.000 F600.000 
G1 X695.866 Y110.338 Z-4.000 F600.000 
G1 X696.058 Y110.722 Z-4.000 F600.000 
G1 X696.216 Y111.018 Z-4.000 F600.000 
G1 X696.415 Y111.379 Z-4.000 F600.000 
G1 X696.577 Y111.664 Z-4.000 F600.000 
G1 X696.796 Y112.026 Z-4.000 F600.000 
G1 X697.014 Y112.376 Z-4.000 F600.000 
G1 X697.141 Y112.573 Z-4.000 F600.000 
G1 X697.427 Y112.993 Z-4.000 F600.000 
G1 X697.677 Y113.348 Z-4.000 F600.000 
G1 X697.750 Y113.449 Z-4.000 F600.000 
G1 X698.120 Y113.932 Z-4.000 F600.000 
G1 X698.376 Y114.257 Z-4.000 F600.000 
G1 X698.408 Y114.296 Z-4.000 F600.000 
G1 X698.849 Y114.810 Z-4.000 F600.000 
G1 X699.111 Y115.107 Z-4.000 F600.000 
G1 X699.143 Y115.140 Z-4.000 F600.000 
G1 X699.645 Y115.662 Z-4.000 F600.000 
G1 X699.860 Y115.881 Z-4.000 F600.000 
G1 X699.942 Y115.958 Z-4.000 F600.000 
G1 X700.472 Y116.451 Z-4.000 F600.000 
G1 X700.662 Y116.624 Z-4.000 F600.000 
G1 X700.789 Y116.731 Z-4.000 F600.000 
G1 X701.346 Y117.193 Z-4.000 F600.000 
G1 X701.512 Y117.329 Z-4.000 F600.000 
G1 X701.679 Y117.454 Z-4.000 F600.000 
G1 X702.264 Y117.887 Z-4.000 F600.000 
G1 X702.411 Y117.994 Z-4.000 F600.000 
G1 X702.599 Y118.120 Z-4.000 F600.000 
G1 X703.213 Y118.524 Z-4.000 F600.000 
G1 X703.360 Y118.619 Z-4.000 F600.000 
G1 X703.553 Y118.733 Z-4.000 F600.000 
G1 X704.194 Y119.107 Z-4.000 F600.000 
G1 X704.363 Y119.204 Z-4.000 F600.000 
G1 X704.534 Y119.293 Z-4.000 F600.000 
G1 X705.203 Y119.636 Z-4.000 F600.000 
G1 X705.417 Y119.743 Z-4.000 F600.000 
G1 X705.543 Y119.800 Z-4.000 F600.000 
G1 X706.241 Y120.113 Z-4.000 F600.000 
G1 X706.521 Y120.235 Z-4.000 F600.000 
G1 X706.571 Y120.254 Z-4.000 F600.000 
G1 X707.297 Y120.536 Z-4.000 F600.000 
G1 X707.616 Y120.655 Z-4.000 F600.000 
G1 X707.679 Y120.678 Z-4.000 F600.000 
G1 X708.370 Y120.907 Z-4.000 F600.000 
G1 X708.692 Y121.010 Z-4.000 F600.000 
G1 X708.889 Y121.070 Z-4.000 F600.000 
G1 X709.474 Y121.233 Z-4.000 F600.000 
G1 X709.772 Y121.314 Z-4.000 F600.000 
G1 X710.150 Y121.409 Z-4.000 F600.000 
G1 X710.582 Y121.509 Z-4.000 F600.000 
G1 X710.876 Y121.573 Z-4.000 F600.000 
G1 X711.460 Y121.693 Z-4.000 F600.000 
G1 X711.713 Y121.740 Z-4.000 F600.000 
G1 X711.995 Y121.788 Z-4.000 F600.000 
G1 X712.820 Y121.920 Z-4.000 F600.000 
G1 X712.860 Y121.926 Z-4.000 F600.000 
G1 X713.129 Y121.961 Z-4.000 F600.000 
G1 X714.024 Y122.065 Z-4.000 F600.000 
G1 X714.232 Y122.089 Z-4.000 F600.000 
G1 X714.284 Y122.093 Z-4.000 F600.000 
G1 X715.207 Y122.162 Z-4.000 F600.000 
G1 X715.447 Y122.179 Z-4.000 F600.000 
G1 X715.694 Y122.192 Z-4.000 F600.000 
G1 X716.398 Y122.218 Z-4.000 F600.000 
G1 X716.625 Y122.225 Z-4.000 F600.000 
G1 X717.227 Y122.236 Z-4.000 F600.000 
G1 X717.605 Y122.237 Z-4.000 F600.000 
G1 X717.808 Y122.236 Z-4.000 F600.000 
G1 X718.190 Y122.230 Z-4.000 F600.000 
G1 X718.640 Y122.219 Z-4.000 F600.000 
G1 X718.803 Y122.214 Z-4.000 F600.000 
G1 X719.184 Y122.200 Z-4.000 F600.000 
G1 X719.648 Y122.177 Z-4.000 F600.000 
G1 X719.881 Y122.163 Z-4.000 F600.000 
G1 X720.174 Y122.143 Z-4.000 F600.000 
G1 X721.165 Y122.063 Z-4.000 F600.000 
G1 X721.601 Y122.023 Z-4.000 F600.000 
G1 X721.887 Y121.994 Z-4.000 F600.000 
G1 X722.154 Y121.963 Z-4.000 F600.000 
G1 X723.135 Y121.838 Z-4.000 F600.000 
G1 X723.634 Y121.768 Z-4.000 F600.000 
G1 X723.905 Y121.727 Z-4.000 F600.000 
G1 X724.108 Y121.694 Z-4.000 F600.000 
G1 X725.069 Y121.527 Z-4.000 F600.000 
G1 X725.662 Y121.415 Z-4.000 F600.000 
G1 X725.927 Y121.363 Z-4.000 F600.000 
G1 X726.019 Y121.343 Z-4.000 F600.000 
G1 X726.904 Y121.146 Z-4.000 F600.000 
G1 X727.512 Y120.159 Z-4.000 F600.000 
G1 X727.680 Y119.881 Z-4.000 F600.000 
G1 X728.982 Y117.669 Z-3.108 F600.000 
G1 X729.085 Y117.491 Z-2.960 F600.000 
G1 X730.303 Y115.322 Z-1.215 F600.000 
G1 X730.351 Y115.234 Z-1.145 F600.000 
G1 X731.480 Y113.120 Z0.500 F600.000 
G0 Z3.000 
G0 X726.904 Y121.146 Z3.000 
G1 X726.904 Y121.146 Z-4.000 F600.000 
G1 X726.967 Y121.184 Z-4.000 F600.000 
G1 X728.149 Y121.859 Z-4.000 F600.000 
G1 X729.372 Y122.536 Z-4.000 F600.000 
G1 X730.641 Y123.215 Z-2.968 F600.000 
G1 X731.965 Y123.898 Z-1.871 F600.000 
G1 X733.348 Y124.586 Z-0.718 F600.000 
G1 X734.800 Y125.280 Z0.500 F600.000 
G0 Z3.000 
G0 X753.012 Y100.106 Z3.000 
G1 X753.012 Y100.106 Z-4.000 F600.000 
G1 X760.120 Y100.373 Z-4.000 F600.000 
G1 X760.480 Y100.380 Z-4.000 F600.000 
G1 X785.200 Y100.380 Z-4.000 F600.000 
G1 X786.034 Y100.416 Z-4.000 F600.000 
G1 X786.869 Y100.526 Z-4.000 F600.000 
G1 X787.709 Y100.709 Z-4.000 F600.000 
G1 X788.557 Y100.969 Z-4.000 F600.000 
G1 X789.416 Y101.309 Z-4.000 F600.000 
G1 X790.287 Y101.734 Z-4.000 F600.000 
G1 X791.175 Y102.247 Z-4.000 F600.000 
G1 X792.397 Y103.089 Z-4.000 F600.000 
G1 X792.469 Y103.587 Z-4.000 F600.000 
G1 X792.541 Y104.415 Z-4.000 F600.000 
G1 X792.549 Y105.310 Z-4.000 F600.000 
G1 X792.546 Y105.436 Z-4.000 F600.000 
G1 X792.522 Y105.994 Z-4.000 F600.000 
G1 X792.507 Y106.284 Z-4.000 F600.000 
G1 X792.498 Y106.406 Z-4.000 F600.000 
G1 X792.451 Y106.949 Z-4.000 F600.000 
G1 X792.423 Y107.252 Z-4.000 F600.000 
G1 X792.412 Y107.341 Z-4.000 F600.000 
G1 X792.339 Y107.898 Z-4.000 F600.000 
G1 X792.295 Y108.216 Z-4.000 F600.000 
G1 X792.289 Y108.251 Z-4.000 F600.000 
G1 X792.184 Y108.840 Z-4.000 F600.000 
G1 X792.130 Y109.132 Z-4.000 F600.000 
G1 X792.124 Y109.155 Z-4.000 F600.000 
G1 X791.987 Y109.760 Z-4.000 F600.000 
G1 X791.935 Y109.981 Z-4.000 F600.000 
G1 X791.903 Y110.100 Z-4.000 F600.000 
G1 X791.740 Y110.684 Z-4.000 F600.000 
G1 X791.706 Y110.804 Z-4.000 F600.000 
G1 X791.632 Y111.033 Z-4.000 F600.000 
G1 X791.444 Y111.596 Z-4.000 F600.000 
G1 X791.444 Y111.599 Z-4.000 F600.000 
G1 X791.320 Y111.928 Z-4.000 F600.000 
G1 X791.149 Y112.364 Z-4.000 F600.000 
G1 X791.105 Y112.469 Z-4.000 F600.000 
G1 X790.955 Y112.815 Z-4.000 F600.000 
G1 X790.821 Y113.108 Z-4.000 F600.000 
G1 X790.712 Y113.334 Z-4.000 F600.000 
G1 X790.540 Y113.680 Z-4.000 F600.000 
G1 X790.465 Y113.824 Z-4.000 F600.000 
G1 X790.270 Y114.177 Z-4.000 F600.000 
G1 X790.081 Y114.510 Z-4.000 F600.000 
G1 X790.075 Y114.519 Z-4.000 F600.000 
G1 X789.785 Y114.983 Z-4.000 F600.000 
G1 X789.653 Y115.192 Z-4.000 F600.000 
G1 X789.564 Y115.320 Z-4.000 F600.000 
G1 X789.247 Y115.770 Z-4.000 F600.000 
G1 X789.199 Y115.839 Z-4.000 F600.000 
G1 X789.016 Y116.077 Z-4.000 F600.000 
G1 X788.709 Y116.464 Z-4.000 F600.000 
G1 X788.676 Y116.505 Z-4.000 F600.000 
G1 X788.414 Y116.811 Z-4.000 F600.000 
G1 X788.185 Y117.069 Z-4.000 F600.000 
G1 X788.049 Y117.215 Z-4.000 F600.000 
G1 X787.778 Y117.498 Z-4.000 F600.000 
G1 X787.625 Y117.652 Z-4.000 F600.000 
G1 X787.390 Y117.878 Z-4.000 F600.000 
G1 X787.099 Y118.150 Z-4.000 F600.000 
G1 X787.026 Y118.216 Z-4.000 F600.000 
G1 X786.688 Y118.506 Z-4.000 F600.000 
G1 X786.390 Y118.755 Z-4.000 F600.000 
G1 X786.387 Y118.757 Z-4.000 F600.000 
G1 X785.954 Y119.089 Z-4.000 F600.000 
G1 X785.711 Y119.271 Z-4.000 F600.000 
G1 X785.644 Y119.318 Z-4.000 F600.000 
G1 X785.190 Y119.627 Z-4.000 F600.000 
G1 X784.989 Y119.762 Z-4.000 F600.000 
G1 X784.890 Y119.823 Z-4.000 F600.000 
G1 X784.416 Y120.110 Z-4.000 F600.000 
G1 X784.224 Y120.226 Z-4.000 F600.000 
G1 X784.103 Y120.292 Z-4.000 F600.000 
G1 X783.611 Y120.556 Z-4.000 F600.000 
G1 X783.413 Y120.660 Z-4.000 F600.000 
G1 X783.288 Y120.720 Z-4.000 F600.000 
G1 X782.775 Y120.962 Z-4.000 F600.000 
G1 X782.557 Y121.063 Z-4.000 F600.000 
G1 X782.476 Y121.097 Z-4.000 F600.000 
G1 X781.943 Y121.315 Z-4.000 F600.000 
G1 X781.652 Y121.431 Z-4.000 F600.000 
G1 X781.641 Y121.435 Z-4.000 F600.000 
G1 X781.090 Y121.630 Z-4.000 F600.000 
G1 X780.795 Y121.732 Z-4.000 F600.000 
G1 X780.700 Y121.762 Z-4.000 F600.000 
G1 X780.225 Y121.905 Z-4.000 F600.000 
G1 X779.940 Y121.989 Z-4.000 F600.000 
G1 X779.700 Y122.054 Z-4.000 F600.000 
G1 X779.352 Y122.142 Z-4.000 F600.000 
G1 X779.070 Y122.210 Z-4.000 F600.000 
G1 X778.653 Y122.304 Z-4.000 F600.000 
G1 X778.464 Y122.343 Z-4.000 F600.000 
G1 X778.200 Y122.395 Z-4.000 F600.000 
G1 X777.575 Y122.507 Z-4.000 F600.000 
G1 X777.560 Y122.511 Z-4.000 F600.000 
G1 X777.317 Y122.546 Z-4.000 F600.000 
G1 X776.674 Y122.634 Z-4.000 F600.000 
G1 X776.427 Y122.666 Z-4.000 F600.000 
G1 X776.419 Y122.667 Z-4.000 F600.000 
G1 X775.764 Y122.729 Z-4.000 F600.000 
G1 X775.521 Y122.751 Z-4.000 F600.000 
G1 X775.229 Y122.772 Z-4.000 F600.000 
G1 X774.839 Y122.794 Z-4.000 F600.000 
G1 X774.617 Y122.804 Z-4.000 F600.000 
G1 X774.006 Y122.826 Z-4.000 F600.000 
G1 X773.918 Y122.828 Z-4.000 F600.000 
G1 X773.707 Y122.829 Z-4.000 F600.000 
G1 X772.989 Y122.827 Z-4.000 F600.000 
G1 X772.776 Y122.825 Z-4.000 F600.000 
G1 X772.618 Y122.822 Z-4.000 F600.000 
G1 X772.083 Y122.799 Z-4.000 F600.000 
G1 X771.866 Y122.788 Z-4.000 F600.000 
G1 X771.274 Y122.752 Z-4.000 F600.000 
G1 X771.193 Y122.746 Z-4.000 F600.000 
G1 X770.976 Y122.726 Z-4.000 F600.000 
G1 X770.320 Y122.659 Z-4.000 F600.000 
G1 X770.092 Y122.634 Z-4.000 F600.000 
G1 X769.969 Y122.618 Z-4.000 F600.000 
G1 X769.455 Y122.544 Z-4.000 F600.000 
G1 X769.210 Y122.506 Z-4.000 F600.000 
G1 X768.703 Y122.422 Z-4.000 F600.000 
G1 X768.590 Y122.400 Z-4.000 F600.000 
G1 X768.355 Y122.353 Z-4.000 F600.000 
G1 X767.752 Y122.226 Z-4.000 F600.000 
G1 X767.487 Y122.166 Z-4.000 F600.000 
G1 X767.482 Y122.165 Z-4.000 F600.000 
G1 X766.904 Y122.014 Z-4.000 F600.000 
G1 X766.642 Y121.943 Z-4.000 F600.000 
G1 X766.303 Y121.846 Z-4.000 F600.000 
G1 X766.075 Y121.775 Z-4.000 F600.000 
G1 X765.795 Y121.684 Z-4.000 F600.000 
G1 X765.244 Y121.497 Z-4.000 F600.000 
G1 X765.167 Y121.471 Z-4.000 F600.000 
G1 X764.985 Y121.401 Z-4.000 F600.000 
G1 X764.454 Y121.192 Z-4.000 F600.000 
G1 X764.166 Y121.074 Z-4.000 F600.000 
G1 X764.078 Y121.037 Z-4.000 F600.000 
G1 X763.650 Y120.844 Z-4.000 F600.000 
G1 X763.361 Y120.708 Z-4.000 F600.000 
G1 X763.038 Y120.551 Z-4.000 F600.000 
G1 X762.861 Y120.460 Z-4.000 F600.000 
G1 X762.589 Y120.316 Z-4.000 F600.000 
G1 X762.104 Y120.049 Z-4.000 F600.000 
G1 X762.044 Y120.016 Z-4.000 F600.000 
G1 X761.823 Y119.882 Z-4.000 F600.000 
G1 X761.356 Y119.593 Z-4.000 F600.000 
G1 X761.097 Y119.429 Z-4.000 F600.000 
G1 X761.078 Y119.416 Z-4.000 F600.000 
G1 X760.629 Y119.104 Z-4.000 F600.000 
G1 X760.347 Y118.903 Z-4.000 F600.000 
G1 X760.202 Y118.796 Z-4.000 F600.000 
G1 X759.913 Y118.572 Z-4.000 F600.000 
G1 X759.650 Y118.363 Z-4.000 F600.000 
G1 X759.357 Y118.123 Z-4.000 F600.000 
G1 X759.229 Y118.012 Z-4.000 F600.000 
G1 X758.971 Y117.783 Z-4.000 F600.000 
G1 X758.564 Y117.413 Z-4.000 F600.000 
G1 X758.559 Y117.408 Z-4.000 F600.000 
G1 X758.318 Y117.171 Z-4.000 F600.000 
G1 X757.929 Y116.777 Z-4.000 F600.000 
G1 X757.813 Y116.658 Z-4.000 F600.000 
G1 X757.694 Y116.526 Z-4.000 F600.000 
G1 X757.323 Y116.108 Z-4.000 F600.000 
G1 X757.117 Y115.872 Z-4.000 F600.000 
G1 X757.109 Y115.862 Z-4.000 F600.000 
G1 X756.756 Y115.422 Z-4.000 F600.000 
G1 X756.539 Y115.143 Z-4.000 F600.000 
G1 X756.469 Y115.052 Z-4.000 F600.000 
G1 X756.201 Y114.680 Z-4.000 F600.000 
G1 X756.020 Y114.422 Z-4.000 F600.000 
G1 X755.869 Y114.203 Z-4.000 F600.000 
G1 X755.697 Y113.938 Z-4.000 F600.000 
G1 X755.519 Y113.654 Z-4.000 F600.000 
G1 X755.317 Y113.326 Z-4.000 F600.000 
G1 X755.213 Y113.147 Z-4.000 F600.000 
G1 X755.057 Y112.871 Z-4.000 F600.000 
G1 X754.811 Y112.422 Z-4.000 F600.000 
G1 X754.768 Y112.340 Z-4.000 F600.000 
G1 X754.632 Y112.069 Z-4.000 F600.000 
G1 X754.361 Y111.515 Z-4.000 F600.000 
G1 X754.350 Y111.492 Z-4.000 F600.000 
G1 X754.235 Y111.233 Z-4.000 F600.000 
G1 X753.984 Y110.654 Z-4.000 F600.000 
G1 X753.935 Y110.540 Z-4.000 F600.000 
G1 X753.878 Y110.393 Z-4.000 F600.000 
G1 X753.650 Y109.791 Z-4.000 F600.000 
G1 X753.566 Y109.564 Z-4.000 F600.000 
G1 X753.551 Y109.519 Z-4.000 F600.000 
G1 X753.344 Y108.893 Z-4.000 F600.000 
G1 X753.260 Y108.630 Z-4.000 F600.000 
G1 X753.239 Y108.562 Z-4.000 F600.000 
G1 X753.075 Y107.981 Z-4.000 F600.000 
G1 X753.005 Y107.724 Z-4.000 F600.000 
G1 X752.957 Y107.541 Z-4.000 F600.000 
G1 X752.841 Y107.052 Z-4.000 F600.000 
G1 X752.784 Y106.803 Z-4.000 F600.000 
G1 X752.717 Y106.498 Z-4.000 F600.000 
G1 X752.642 Y106.108 Z-4.000 F600.000 
G1 X752.526 Y105.427 Z-4.000 F600.000 
G1 X752.431 Y104.328 Z-4.000 F600.000 
G1 X752.440 Y103.206 Z-4.000 F600.000 
G1 X752.558 Y102.061 Z-4.000 F600.000 
G1 X752.785 Y100.912 Z-4.000 F600.000 
