(Exported by FreeCAD)
(Post Processor: linuxcnc_post)
(Output Time:2022-01-28 11:41:24.165798)
(begin preamble)
G17 G54 G40 G49 G80 G90
G21
(begin operation: Fixture)
(machine: not set, mm/min)
G54 
(finish operation: Fixture)
(begin operation: 6.4mm Endmill003)
(machine: not set, mm/min)
(6.4mm Endmill003) 
M5
M6 T2 
G43 H2 
M3 S10000 
(finish operation: 6.4mm Endmill003)
(begin operation: Engrave)
(machine: not set, mm/min)
(Engrave) 
G0 Z6.000 
G0 Z6.000 
G0 X116.789 Y141.101 
G0 Z4.000 
G1 X116.789 Y141.101 Z-3.000 F600.000 
G1 X104.789 Y141.101 Z-3.000 F600.000 
G1 X128.752 Y141.101 Z-3.000 F600.000 
G1 X116.789 Y141.101 Z-3.000 F600.000 
G1 X116.789 Y141.101 Z-6.000 F600.000 
G1 X104.789 Y141.101 Z-6.000 F600.000 
G1 X128.752 Y141.101 Z-6.000 F600.000 
G1 X116.789 Y141.101 Z-6.000 F600.000 
G1 X116.789 Y141.101 Z-9.000 F600.000 
G1 X104.789 Y141.101 Z-9.000 F600.000 
G1 X128.752 Y141.101 Z-9.000 F600.000 
G1 X116.789 Y141.101 Z-9.000 F600.000 
G1 X116.789 Y141.101 Z-10.000 F600.000 
G1 X104.789 Y141.101 Z-10.000 F600.000 
G1 X128.752 Y141.101 Z-10.000 F600.000 
G1 X116.789 Y141.101 Z-10.000 F600.000 
G0 Z6.000 
G0 Z6.000 
G0 X161.376 Y100.000 
G0 Z4.000 
G1 X161.376 Y100.000 Z-3.000 F600.000 
G1 X161.376 Y116.055 Z-3.000 F600.000 
G1 X161.340 Y117.376 Z-3.000 F600.000 
G1 X161.237 Y118.530 Z-3.000 F600.000 
G1 X161.076 Y119.533 Z-3.000 F600.000 
G1 X160.865 Y120.401 Z-3.000 F600.000 
G1 X160.642 Y121.064 Z-3.000 F600.000 
G1 X160.302 Y121.867 Z-3.000 F600.000 
G1 X159.929 Y122.565 Z-3.000 F600.000 
G1 X159.525 Y123.169 Z-3.000 F600.000 
G1 X159.092 Y123.687 Z-3.000 F600.000 
G1 X158.734 Y124.037 Z-3.000 F600.000 
G1 X158.201 Y124.479 Z-3.000 F600.000 
G1 X157.644 Y124.847 Z-3.000 F600.000 
G1 X157.061 Y125.145 Z-3.000 F600.000 
G1 X156.448 Y125.376 Z-3.000 F600.000 
G1 X156.055 Y125.486 Z-3.000 F600.000 
G1 X155.113 Y125.681 Z-3.000 F600.000 
G1 X154.168 Y125.803 Z-3.000 F600.000 
G1 X153.608 Y125.841 Z-3.000 F600.000 
G1 X153.046 Y125.853 Z-3.000 F600.000 
G1 X152.357 Y125.817 Z-3.000 F600.000 
G1 X151.666 Y125.707 Z-3.000 F600.000 
G1 X150.970 Y125.523 Z-3.000 F600.000 
G1 X150.110 Y125.193 Z-3.000 F600.000 
G1 X149.421 Y124.852 Z-3.000 F600.000 
G1 X148.764 Y124.445 Z-3.000 F600.000 
G1 X148.136 Y123.970 Z-3.000 F600.000 
G1 X147.450 Y123.339 Z-3.000 F600.000 
G1 X146.932 Y122.754 Z-3.000 F600.000 
G1 X146.459 Y122.107 Z-3.000 F600.000 
G1 X146.028 Y121.395 Z-3.000 F600.000 
G1 X145.541 Y120.385 Z-3.000 F600.000 
G1 X145.270 Y119.647 Z-3.000 F600.000 
G1 X145.059 Y118.861 Z-3.000 F600.000 
G1 X144.910 Y118.024 Z-3.000 F600.000 
G1 X144.826 Y117.132 Z-3.000 F600.000 
G1 X144.807 Y116.440 Z-3.000 F600.000 
G1 X144.844 Y117.398 Z-3.000 F600.000 
G1 X144.950 Y118.290 Z-3.000 F600.000 
G1 X145.121 Y119.123 Z-3.000 F600.000 
G1 X145.355 Y119.902 Z-3.000 F600.000 
G1 X145.541 Y120.385 Z-3.000 F600.000 
G1 X145.925 Y121.203 Z-3.000 F600.000 
G1 X146.352 Y121.944 Z-3.000 F600.000 
G1 X146.822 Y122.614 Z-3.000 F600.000 
G1 X147.450 Y123.339 Z-3.000 F600.000 
G1 X148.056 Y123.903 Z-3.000 F600.000 
G1 X148.687 Y124.391 Z-3.000 F600.000 
G1 X149.344 Y124.808 Z-3.000 F600.000 
G1 X150.110 Y125.193 Z-3.000 F600.000 
G1 X150.831 Y125.477 Z-3.000 F600.000 
G1 X151.539 Y125.679 Z-3.000 F600.000 
G1 X152.237 Y125.803 Z-3.000 F600.000 
G1 X153.046 Y125.853 Z-3.000 F600.000 
G1 X154.001 Y125.817 Z-3.000 F600.000 
G1 X154.947 Y125.708 Z-3.000 F600.000 
G1 X155.502 Y125.610 Z-3.000 F600.000 
G1 X156.055 Y125.486 Z-3.000 F600.000 
G1 X156.692 Y125.293 Z-3.000 F600.000 
G1 X157.293 Y125.036 Z-3.000 F600.000 
G1 X157.863 Y124.712 Z-3.000 F600.000 
G1 X158.405 Y124.321 Z-3.000 F600.000 
G1 X158.734 Y124.037 Z-3.000 F600.000 
G1 X159.183 Y123.587 Z-3.000 F600.000 
G1 X159.602 Y123.064 Z-3.000 F600.000 
G1 X159.990 Y122.461 Z-3.000 F600.000 
G1 X160.348 Y121.770 Z-3.000 F600.000 
G1 X160.642 Y121.064 Z-3.000 F600.000 
G1 X160.884 Y120.335 Z-3.000 F600.000 
G1 X161.083 Y119.496 Z-3.000 F600.000 
G1 X161.237 Y118.532 Z-3.000 F600.000 
G1 X161.337 Y117.430 Z-3.000 F600.000 
G1 X161.376 Y116.055 Z-3.000 F600.000 
G1 X161.376 Y100.000 Z-3.000 F600.000 
G1 X161.376 Y100.000 Z-6.000 F600.000 
G1 X161.376 Y116.055 Z-6.000 F600.000 
G1 X161.340 Y117.376 Z-6.000 F600.000 
G1 X161.237 Y118.530 Z-6.000 F600.000 
G1 X161.076 Y119.533 Z-6.000 F600.000 
G1 X160.865 Y120.401 Z-6.000 F600.000 
G1 X160.642 Y121.064 Z-6.000 F600.000 
G1 X160.302 Y121.867 Z-6.000 F600.000 
G1 X159.929 Y122.565 Z-6.000 F600.000 
G1 X159.525 Y123.169 Z-6.000 F600.000 
G1 X159.092 Y123.687 Z-6.000 F600.000 
G1 X158.734 Y124.037 Z-6.000 F600.000 
G1 X158.201 Y124.479 Z-6.000 F600.000 
G1 X157.644 Y124.847 Z-6.000 F600.000 
G1 X157.061 Y125.145 Z-6.000 F600.000 
G1 X156.448 Y125.376 Z-6.000 F600.000 
G1 X156.055 Y125.486 Z-6.000 F600.000 
G1 X155.113 Y125.681 Z-6.000 F600.000 
G1 X154.168 Y125.803 Z-6.000 F600.000 
G1 X153.608 Y125.841 Z-6.000 F600.000 
G1 X153.046 Y125.853 Z-6.000 F600.000 
G1 X152.357 Y125.817 Z-6.000 F600.000 
G1 X151.666 Y125.707 Z-6.000 F600.000 
G1 X150.970 Y125.523 Z-6.000 F600.000 
G1 X150.110 Y125.193 Z-6.000 F600.000 
G1 X149.421 Y124.852 Z-6.000 F600.000 
G1 X148.764 Y124.445 Z-6.000 F600.000 
G1 X148.136 Y123.970 Z-6.000 F600.000 
G1 X147.450 Y123.339 Z-6.000 F600.000 
G1 X146.932 Y122.754 Z-6.000 F600.000 
G1 X146.459 Y122.107 Z-6.000 F600.000 
G1 X146.028 Y121.395 Z-6.000 F600.000 
G1 X145.541 Y120.385 Z-6.000 F600.000 
G1 X145.270 Y119.647 Z-6.000 F600.000 
G1 X145.059 Y118.861 Z-6.000 F600.000 
G1 X144.910 Y118.024 Z-6.000 F600.000 
G1 X144.826 Y117.132 Z-6.000 F600.000 
G1 X144.807 Y116.440 Z-6.000 F600.000 
G1 X144.844 Y117.398 Z-6.000 F600.000 
G1 X144.950 Y118.290 Z-6.000 F600.000 
G1 X145.121 Y119.123 Z-6.000 F600.000 
G1 X145.355 Y119.902 Z-6.000 F600.000 
G1 X145.541 Y120.385 Z-6.000 F600.000 
G1 X145.925 Y121.203 Z-6.000 F600.000 
G1 X146.352 Y121.944 Z-6.000 F600.000 
G1 X146.822 Y122.614 Z-6.000 F600.000 
G1 X147.450 Y123.339 Z-6.000 F600.000 
G1 X148.056 Y123.903 Z-6.000 F600.000 
G1 X148.687 Y124.391 Z-6.000 F600.000 
G1 X149.344 Y124.808 Z-6.000 F600.000 
G1 X150.110 Y125.193 Z-6.000 F600.000 
G1 X150.831 Y125.477 Z-6.000 F600.000 
G1 X151.539 Y125.679 Z-6.000 F600.000 
G1 X152.237 Y125.803 Z-6.000 F600.000 
G1 X153.046 Y125.853 Z-6.000 F600.000 
G1 X154.001 Y125.817 Z-6.000 F600.000 
G1 X154.947 Y125.708 Z-6.000 F600.000 
G1 X155.502 Y125.610 Z-6.000 F600.000 
G1 X156.055 Y125.486 Z-6.000 F600.000 
G1 X156.692 Y125.293 Z-6.000 F600.000 
G1 X157.293 Y125.036 Z-6.000 F600.000 
G1 X157.863 Y124.712 Z-6.000 F600.000 
G1 X158.405 Y124.321 Z-6.000 F600.000 
G1 X158.734 Y124.037 Z-6.000 F600.000 
G1 X159.183 Y123.587 Z-6.000 F600.000 
G1 X159.602 Y123.064 Z-6.000 F600.000 
G1 X159.990 Y122.461 Z-6.000 F600.000 
G1 X160.348 Y121.770 Z-6.000 F600.000 
G1 X160.642 Y121.064 Z-6.000 F600.000 
G1 X160.884 Y120.335 Z-6.000 F600.000 
G1 X161.083 Y119.496 Z-6.000 F600.000 
G1 X161.237 Y118.532 Z-6.000 F600.000 
G1 X161.337 Y117.430 Z-6.000 F600.000 
G1 X161.376 Y116.055 Z-6.000 F600.000 
G1 X161.376 Y100.000 Z-6.000 F600.000 
G1 X161.376 Y100.000 Z-9.000 F600.000 
G1 X161.376 Y116.055 Z-9.000 F600.000 
G1 X161.340 Y117.376 Z-9.000 F600.000 
G1 X161.237 Y118.530 Z-9.000 F600.000 
G1 X161.076 Y119.533 Z-9.000 F600.000 
G1 X160.865 Y120.401 Z-9.000 F600.000 
G1 X160.642 Y121.064 Z-9.000 F600.000 
G1 X160.302 Y121.867 Z-9.000 F600.000 
G1 X159.929 Y122.565 Z-9.000 F600.000 
G1 X159.525 Y123.169 Z-9.000 F600.000 
G1 X159.092 Y123.687 Z-9.000 F600.000 
G1 X158.734 Y124.037 Z-9.000 F600.000 
G1 X158.201 Y124.479 Z-9.000 F600.000 
G1 X157.644 Y124.847 Z-9.000 F600.000 
G1 X157.061 Y125.145 Z-9.000 F600.000 
G1 X156.448 Y125.376 Z-9.000 F600.000 
G1 X156.055 Y125.486 Z-9.000 F600.000 
G1 X155.113 Y125.681 Z-9.000 F600.000 
G1 X154.168 Y125.803 Z-9.000 F600.000 
G1 X153.608 Y125.841 Z-9.000 F600.000 
G1 X153.046 Y125.853 Z-9.000 F600.000 
G1 X152.357 Y125.817 Z-9.000 F600.000 
G1 X151.666 Y125.707 Z-9.000 F600.000 
G1 X150.970 Y125.523 Z-9.000 F600.000 
G1 X150.110 Y125.193 Z-9.000 F600.000 
G1 X149.421 Y124.852 Z-9.000 F600.000 
G1 X148.764 Y124.445 Z-9.000 F600.000 
G1 X148.136 Y123.970 Z-9.000 F600.000 
G1 X147.450 Y123.339 Z-9.000 F600.000 
G1 X146.932 Y122.754 Z-9.000 F600.000 
G1 X146.459 Y122.107 Z-9.000 F600.000 
G1 X146.028 Y121.395 Z-9.000 F600.000 
G1 X145.541 Y120.385 Z-9.000 F600.000 
G1 X145.270 Y119.647 Z-9.000 F600.000 
G1 X145.059 Y118.861 Z-9.000 F600.000 
G1 X144.910 Y118.024 Z-9.000 F600.000 
G1 X144.826 Y117.132 Z-9.000 F600.000 
G1 X144.807 Y116.440 Z-9.000 F600.000 
G1 X144.844 Y117.398 Z-9.000 F600.000 
G1 X144.950 Y118.290 Z-9.000 F600.000 
G1 X145.121 Y119.123 Z-9.000 F600.000 
G1 X145.355 Y119.902 Z-9.000 F600.000 
G1 X145.541 Y120.385 Z-9.000 F600.000 
G1 X145.925 Y121.203 Z-9.000 F600.000 
G1 X146.352 Y121.944 Z-9.000 F600.000 
G1 X146.822 Y122.614 Z-9.000 F600.000 
G1 X147.450 Y123.339 Z-9.000 F600.000 
G1 X148.056 Y123.903 Z-9.000 F600.000 
G1 X148.687 Y124.391 Z-9.000 F600.000 
G1 X149.344 Y124.808 Z-9.000 F600.000 
G1 X150.110 Y125.193 Z-9.000 F600.000 
G1 X150.831 Y125.477 Z-9.000 F600.000 
G1 X151.539 Y125.679 Z-9.000 F600.000 
G1 X152.237 Y125.803 Z-9.000 F600.000 
G1 X153.046 Y125.853 Z-9.000 F600.000 
G1 X154.001 Y125.817 Z-9.000 F600.000 
G1 X154.947 Y125.708 Z-9.000 F600.000 
G1 X155.502 Y125.610 Z-9.000 F600.000 
G1 X156.055 Y125.486 Z-9.000 F600.000 
G1 X156.692 Y125.293 Z-9.000 F600.000 
G1 X157.293 Y125.036 Z-9.000 F600.000 
G1 X157.863 Y124.712 Z-9.000 F600.000 
G1 X158.405 Y124.321 Z-9.000 F600.000 
G1 X158.734 Y124.037 Z-9.000 F600.000 
G1 X159.183 Y123.587 Z-9.000 F600.000 
G1 X159.602 Y123.064 Z-9.000 F600.000 
G1 X159.990 Y122.461 Z-9.000 F600.000 
G1 X160.348 Y121.770 Z-9.000 F600.000 
G1 X160.642 Y121.064 Z-9.000 F600.000 
G1 X160.884 Y120.335 Z-9.000 F600.000 
G1 X161.083 Y119.496 Z-9.000 F600.000 
G1 X161.237 Y118.532 Z-9.000 F600.000 
G1 X161.337 Y117.430 Z-9.000 F600.000 
G1 X161.376 Y116.055 Z-9.000 F600.000 
G1 X161.376 Y100.000 Z-9.000 F600.000 
G1 X161.376 Y100.000 Z-10.000 F600.000 
G1 X161.376 Y116.055 Z-10.000 F600.000 
G1 X161.340 Y117.376 Z-10.000 F600.000 
G1 X161.237 Y118.530 Z-10.000 F600.000 
G1 X161.076 Y119.533 Z-10.000 F600.000 
G1 X160.865 Y120.401 Z-10.000 F600.000 
G1 X160.642 Y121.064 Z-10.000 F600.000 
G1 X160.302 Y121.867 Z-10.000 F600.000 
G1 X159.929 Y122.565 Z-10.000 F600.000 
G1 X159.525 Y123.169 Z-10.000 F600.000 
G1 X159.092 Y123.687 Z-10.000 F600.000 
G1 X158.734 Y124.037 Z-10.000 F600.000 
G1 X158.201 Y124.479 Z-10.000 F600.000 
G1 X157.644 Y124.847 Z-10.000 F600.000 
G1 X157.061 Y125.145 Z-10.000 F600.000 
G1 X156.448 Y125.376 Z-10.000 F600.000 
G1 X156.055 Y125.486 Z-10.000 F600.000 
G1 X155.113 Y125.681 Z-10.000 F600.000 
G1 X154.168 Y125.803 Z-10.000 F600.000 
G1 X153.608 Y125.841 Z-10.000 F600.000 
G1 X153.046 Y125.853 Z-10.000 F600.000 
G1 X152.357 Y125.817 Z-10.000 F600.000 
G1 X151.666 Y125.707 Z-10.000 F600.000 
G1 X150.970 Y125.523 Z-10.000 F600.000 
G1 X150.110 Y125.193 Z-10.000 F600.000 
G1 X149.421 Y124.852 Z-10.000 F600.000 
G1 X148.764 Y124.445 Z-10.000 F600.000 
G1 X148.136 Y123.970 Z-10.000 F600.000 
G1 X147.450 Y123.339 Z-10.000 F600.000 
G1 X146.932 Y122.754 Z-10.000 F600.000 
G1 X146.459 Y122.107 Z-10.000 F600.000 
G1 X146.028 Y121.395 Z-10.000 F600.000 
G1 X145.541 Y120.385 Z-10.000 F600.000 
G1 X145.270 Y119.647 Z-10.000 F600.000 
G1 X145.059 Y118.861 Z-10.000 F600.000 
G1 X144.910 Y118.024 Z-10.000 F600.000 
G1 X144.826 Y117.132 Z-10.000 F600.000 
G1 X144.807 Y116.440 Z-10.000 F600.000 
G1 X144.844 Y117.398 Z-10.000 F600.000 
G1 X144.950 Y118.290 Z-10.000 F600.000 
G1 X145.121 Y119.123 Z-10.000 F600.000 
G1 X145.355 Y119.902 Z-10.000 F600.000 
G1 X145.541 Y120.385 Z-10.000 F600.000 
G1 X145.925 Y121.203 Z-10.000 F600.000 
G1 X146.352 Y121.944 Z-10.000 F600.000 
G1 X146.822 Y122.614 Z-10.000 F600.000 
G1 X147.450 Y123.339 Z-10.000 F600.000 
G1 X148.056 Y123.903 Z-10.000 F600.000 
G1 X148.687 Y124.391 Z-10.000 F600.000 
G1 X149.344 Y124.808 Z-10.000 F600.000 
G1 X150.110 Y125.193 Z-10.000 F600.000 
G1 X150.831 Y125.477 Z-10.000 F600.000 
G1 X151.539 Y125.679 Z-10.000 F600.000 
G1 X152.237 Y125.803 Z-10.000 F600.000 
G1 X153.046 Y125.853 Z-10.000 F600.000 
G1 X154.001 Y125.817 Z-10.000 F600.000 
G1 X154.947 Y125.708 Z-10.000 F600.000 
G1 X155.502 Y125.610 Z-10.000 F600.000 
G1 X156.055 Y125.486 Z-10.000 F600.000 
G1 X156.692 Y125.293 Z-10.000 F600.000 
G1 X157.293 Y125.036 Z-10.000 F600.000 
G1 X157.863 Y124.712 Z-10.000 F600.000 
G1 X158.405 Y124.321 Z-10.000 F600.000 
G1 X158.734 Y124.037 Z-10.000 F600.000 
G1 X159.183 Y123.587 Z-10.000 F600.000 
G1 X159.602 Y123.064 Z-10.000 F600.000 
G1 X159.990 Y122.461 Z-10.000 F600.000 
G1 X160.348 Y121.770 Z-10.000 F600.000 
G1 X160.642 Y121.064 Z-10.000 F600.000 
G1 X160.884 Y120.335 Z-10.000 F600.000 
G1 X161.083 Y119.496 Z-10.000 F600.000 
G1 X161.237 Y118.532 Z-10.000 F600.000 
G1 X161.337 Y117.430 Z-10.000 F600.000 
G1 X161.376 Y116.055 Z-10.000 F600.000 
G1 X161.376 Y100.000 Z-10.000 F600.000 
G0 Z6.000 
G0 Z6.000 
G0 X144.807 Y146.972 
G0 Z4.000 
G1 X144.807 Y146.972 Z-3.000 F600.000 
G1 X144.807 Y100.000 Z-3.000 F600.000 
G1 X144.807 Y146.972 Z-3.000 F600.000 
G1 X144.807 Y146.972 Z-6.000 F600.000 
G1 X144.807 Y100.000 Z-6.000 F600.000 
G1 X144.807 Y146.972 Z-6.000 F600.000 
G1 X144.807 Y146.972 Z-9.000 F600.000 
G1 X144.807 Y100.000 Z-9.000 F600.000 
G1 X144.807 Y146.972 Z-9.000 F600.000 
G1 X144.807 Y146.972 Z-10.000 F600.000 
G1 X144.807 Y100.000 Z-10.000 F600.000 
G1 X144.807 Y146.972 Z-10.000 F600.000 
G0 Z6.000 
G0 Z6.000 
G0 X196.734 Y106.844 
G0 Z4.000 
G1 X196.734 Y106.844 Z-3.000 F600.000 
G1 X196.205 Y105.935 Z-3.000 F600.000 
G1 X195.628 Y105.087 Z-3.000 F600.000 
G1 X195.003 Y104.297 Z-3.000 F600.000 
G1 X194.329 Y103.562 Z-3.000 F600.000 
G1 X193.604 Y102.880 Z-3.000 F600.000 
G1 X192.828 Y102.248 Z-3.000 F600.000 
G1 X192.330 Y101.890 Z-3.000 F600.000 
G1 X191.559 Y101.404 Z-3.000 F600.000 
G1 X190.772 Y100.995 Z-3.000 F600.000 
G1 X189.968 Y100.658 Z-3.000 F600.000 
G1 X189.143 Y100.391 Z-3.000 F600.000 
G1 X188.295 Y100.193 Z-3.000 F600.000 
G1 X187.421 Y100.064 Z-3.000 F600.000 
G1 X186.816 Y100.016 Z-3.000 F600.000 
G1 X186.202 Y100.000 Z-3.000 F600.000 
G1 X185.271 Y100.036 Z-3.000 F600.000 
G1 X184.374 Y100.144 Z-3.000 F600.000 
G1 X183.507 Y100.321 Z-3.000 F600.000 
G1 X182.667 Y100.566 Z-3.000 F600.000 
G1 X181.851 Y100.880 Z-3.000 F600.000 
G1 X181.649 Y100.970 Z-3.000 F600.000 
G1 X181.450 Y101.064 Z-3.000 F600.000 
G1 X180.602 Y101.525 Z-3.000 F600.000 
G1 X179.803 Y102.042 Z-3.000 F600.000 
G1 X179.048 Y102.617 Z-3.000 F600.000 
G1 X178.336 Y103.251 Z-3.000 F600.000 
G1 X177.633 Y103.982 Z-3.000 F600.000 
G1 X177.010 Y104.736 Z-3.000 F600.000 
G1 X176.437 Y105.545 Z-3.000 F600.000 
G1 X175.915 Y106.409 Z-3.000 F600.000 
G1 X175.441 Y107.332 Z-3.000 F600.000 
G1 X175.028 Y108.294 Z-3.000 F600.000 
G1 X174.699 Y109.248 Z-3.000 F600.000 
G1 X174.439 Y110.225 Z-3.000 F600.000 
G1 X174.249 Y111.227 Z-3.000 F600.000 
G1 X174.127 Y112.256 Z-3.000 F600.000 
G1 X174.073 Y113.560 Z-3.000 F600.000 
G1 X174.110 Y114.635 Z-3.000 F600.000 
G1 X174.217 Y115.673 Z-3.000 F600.000 
G1 X174.394 Y116.676 Z-3.000 F600.000 
G1 X174.639 Y117.647 Z-3.000 F600.000 
G1 X175.028 Y118.789 Z-3.000 F600.000 
G1 X175.460 Y119.783 Z-3.000 F600.000 
G1 X175.943 Y120.712 Z-3.000 F600.000 
G1 X176.475 Y121.580 Z-3.000 F600.000 
G1 X177.058 Y122.391 Z-3.000 F600.000 
G1 X177.633 Y123.083 Z-3.000 F600.000 
G1 X178.298 Y123.775 Z-3.000 F600.000 
G1 X179.001 Y124.402 Z-3.000 F600.000 
G1 X179.742 Y124.966 Z-3.000 F600.000 
G1 X180.523 Y125.470 Z-3.000 F600.000 
G1 X181.450 Y125.963 Z-3.000 F600.000 
G1 X182.264 Y126.310 Z-3.000 F600.000 
G1 X183.099 Y126.586 Z-3.000 F600.000 
G1 X183.956 Y126.793 Z-3.000 F600.000 
G1 X184.840 Y126.932 Z-3.000 F600.000 
G1 X185.754 Y127.001 Z-3.000 F600.000 
G1 X185.977 Y127.007 Z-3.000 F600.000 
G1 X186.202 Y127.009 Z-3.000 F600.000 
G1 X187.112 Y126.973 Z-3.000 F600.000 
G1 X187.996 Y126.865 Z-3.000 F600.000 
G1 X188.858 Y126.687 Z-3.000 F600.000 
G1 X189.700 Y126.438 Z-3.000 F600.000 
G1 X190.789 Y126.000 Z-3.000 F600.000 
G1 X191.643 Y125.562 Z-3.000 F600.000 
G1 X192.448 Y125.067 Z-3.000 F600.000 
G1 X193.208 Y124.515 Z-3.000 F600.000 
G1 X193.926 Y123.903 Z-3.000 F600.000 
G1 X194.587 Y123.248 Z-3.000 F600.000 
G1 X195.224 Y122.515 Z-3.000 F600.000 
G1 X195.808 Y121.731 Z-3.000 F600.000 
G1 X196.342 Y120.894 Z-3.000 F600.000 
G1 X196.825 Y120.000 Z-3.000 F600.000 
G1 X197.211 Y119.156 Z-3.000 F600.000 
G1 X197.554 Y118.249 Z-3.000 F600.000 
G1 X197.830 Y117.315 Z-3.000 F600.000 
G1 X198.038 Y116.352 Z-3.000 F600.000 
G1 X198.179 Y115.355 Z-3.000 F600.000 
G1 X198.257 Y114.092 Z-3.000 F600.000 
G1 X174.128 Y114.092 Z-3.000 F600.000 
G1 X198.257 Y114.092 Z-3.000 F600.000 
G1 X198.199 Y115.144 Z-3.000 F600.000 
G1 X198.071 Y116.157 Z-3.000 F600.000 
G1 X197.875 Y117.133 Z-3.000 F600.000 
G1 X197.611 Y118.075 Z-3.000 F600.000 
G1 X197.211 Y119.156 Z-3.000 F600.000 
G1 X196.767 Y120.114 Z-3.000 F600.000 
G1 X196.273 Y121.009 Z-3.000 F600.000 
G1 X195.729 Y121.845 Z-3.000 F600.000 
G1 X195.135 Y122.624 Z-3.000 F600.000 
G1 X194.587 Y123.248 Z-3.000 F600.000 
G1 X193.905 Y123.922 Z-3.000 F600.000 
G1 X193.184 Y124.534 Z-3.000 F600.000 
G1 X192.423 Y125.084 Z-3.000 F600.000 
G1 X191.618 Y125.576 Z-3.000 F600.000 
G1 X190.789 Y126.000 Z-3.000 F600.000 
G1 X189.964 Y126.345 Z-3.000 F600.000 
G1 X189.125 Y126.616 Z-3.000 F600.000 
G1 X188.271 Y126.816 Z-3.000 F600.000 
G1 X187.398 Y126.946 Z-3.000 F600.000 
G1 X186.202 Y127.009 Z-3.000 F600.000 
G1 X185.263 Y126.973 Z-3.000 F600.000 
G1 X184.358 Y126.865 Z-3.000 F600.000 
G1 X183.485 Y126.689 Z-3.000 F600.000 
G1 X182.638 Y126.443 Z-3.000 F600.000 
G1 X181.450 Y125.963 Z-3.000 F600.000 
G1 X180.616 Y125.524 Z-3.000 F600.000 
G1 X179.828 Y125.026 Z-3.000 F600.000 
G1 X179.084 Y124.470 Z-3.000 F600.000 
G1 X178.380 Y123.853 Z-3.000 F600.000 
G1 X177.633 Y123.083 Z-3.000 F600.000 
G1 X177.006 Y122.323 Z-3.000 F600.000 
G1 X176.430 Y121.512 Z-3.000 F600.000 
G1 X175.905 Y120.646 Z-3.000 F600.000 
G1 X175.431 Y119.722 Z-3.000 F600.000 
G1 X175.028 Y118.789 Z-3.000 F600.000 
G1 X174.701 Y117.853 Z-3.000 F600.000 
G1 X174.442 Y116.891 Z-3.000 F600.000 
G1 X174.251 Y115.902 Z-3.000 F600.000 
G1 X174.129 Y114.881 Z-3.000 F600.000 
G1 X174.073 Y113.560 Z-3.000 F600.000 
G1 X174.110 Y112.483 Z-3.000 F600.000 
G1 X174.217 Y111.440 Z-3.000 F600.000 
G1 X174.395 Y110.427 Z-3.000 F600.000 
G1 X174.641 Y109.443 Z-3.000 F600.000 
G1 X175.028 Y108.294 Z-3.000 F600.000 
G1 X175.458 Y107.296 Z-3.000 F600.000 
G1 X175.939 Y106.365 Z-3.000 F600.000 
G1 X176.469 Y105.497 Z-3.000 F600.000 
G1 X177.047 Y104.688 Z-3.000 F600.000 
G1 X177.633 Y103.982 Z-3.000 F600.000 
G1 X178.307 Y103.279 Z-3.000 F600.000 
G1 X179.021 Y102.640 Z-3.000 F600.000 
G1 X179.775 Y102.062 Z-3.000 F600.000 
G1 X180.571 Y101.544 Z-3.000 F600.000 
G1 X181.450 Y101.064 Z-3.000 F600.000 
G1 X182.258 Y100.714 Z-3.000 F600.000 
G1 X183.086 Y100.434 Z-3.000 F600.000 
G1 X183.937 Y100.224 Z-3.000 F600.000 
G1 X184.813 Y100.082 Z-3.000 F600.000 
G1 X185.717 Y100.010 Z-3.000 F600.000 
G1 X185.959 Y100.002 Z-3.000 F600.000 
G1 X186.202 Y100.000 Z-3.000 F600.000 
G1 X187.126 Y100.036 Z-3.000 F600.000 
G1 X188.017 Y100.144 Z-3.000 F600.000 
G1 X188.877 Y100.321 Z-3.000 F600.000 
G1 X189.710 Y100.566 Z-3.000 F600.000 
G1 X190.519 Y100.880 Z-3.000 F600.000 
G1 X191.307 Y101.264 Z-3.000 F600.000 
G1 X191.824 Y101.561 Z-3.000 F600.000 
G1 X192.330 Y101.890 Z-3.000 F600.000 
G1 X193.144 Y102.495 Z-3.000 F600.000 
G1 X193.902 Y103.148 Z-3.000 F600.000 
G1 X194.606 Y103.851 Z-3.000 F600.000 
G1 X195.259 Y104.606 Z-3.000 F600.000 
G1 X195.862 Y105.414 Z-3.000 F600.000 
G1 X196.415 Y106.279 Z-3.000 F600.000 
G1 X196.734 Y106.844 Z-3.000 F600.000 
G1 X196.734 Y106.844 Z-6.000 F600.000 
G1 X196.205 Y105.935 Z-6.000 F600.000 
G1 X195.628 Y105.087 Z-6.000 F600.000 
G1 X195.003 Y104.297 Z-6.000 F600.000 
G1 X194.329 Y103.562 Z-6.000 F600.000 
G1 X193.604 Y102.880 Z-6.000 F600.000 
G1 X192.828 Y102.248 Z-6.000 F600.000 
G1 X192.330 Y101.890 Z-6.000 F600.000 
G1 X191.559 Y101.404 Z-6.000 F600.000 
G1 X190.772 Y100.995 Z-6.000 F600.000 
G1 X189.968 Y100.658 Z-6.000 F600.000 
G1 X189.143 Y100.391 Z-6.000 F600.000 
G1 X188.295 Y100.193 Z-6.000 F600.000 
G1 X187.421 Y100.064 Z-6.000 F600.000 
G1 X186.816 Y100.016 Z-6.000 F600.000 
G1 X186.202 Y100.000 Z-6.000 F600.000 
G1 X185.271 Y100.036 Z-6.000 F600.000 
G1 X184.374 Y100.144 Z-6.000 F600.000 
G1 X183.507 Y100.321 Z-6.000 F600.000 
G1 X182.667 Y100.566 Z-6.000 F600.000 
G1 X181.851 Y100.880 Z-6.000 F600.000 
G1 X181.649 Y100.970 Z-6.000 F600.000 
G1 X181.450 Y101.064 Z-6.000 F600.000 
G1 X180.602 Y101.525 Z-6.000 F600.000 
G1 X179.803 Y102.042 Z-6.000 F600.000 
G1 X179.048 Y102.617 Z-6.000 F600.000 
G1 X178.336 Y103.251 Z-6.000 F600.000 
G1 X177.633 Y103.982 Z-6.000 F600.000 
G1 X177.010 Y104.736 Z-6.000 F600.000 
G1 X176.437 Y105.545 Z-6.000 F600.000 
G1 X175.915 Y106.409 Z-6.000 F600.000 
G1 X175.441 Y107.332 Z-6.000 F600.000 
G1 X175.028 Y108.294 Z-6.000 F600.000 
G1 X174.699 Y109.248 Z-6.000 F600.000 
G1 X174.439 Y110.225 Z-6.000 F600.000 
G1 X174.249 Y111.227 Z-6.000 F600.000 
G1 X174.127 Y112.256 Z-6.000 F600.000 
G1 X174.073 Y113.560 Z-6.000 F600.000 
G1 X174.110 Y114.635 Z-6.000 F600.000 
G1 X174.217 Y115.673 Z-6.000 F600.000 
G1 X174.394 Y116.676 Z-6.000 F600.000 
G1 X174.639 Y117.647 Z-6.000 F600.000 
G1 X175.028 Y118.789 Z-6.000 F600.000 
G1 X175.460 Y119.783 Z-6.000 F600.000 
G1 X175.943 Y120.712 Z-6.000 F600.000 
G1 X176.475 Y121.580 Z-6.000 F600.000 
G1 X177.058 Y122.391 Z-6.000 F600.000 
G1 X177.633 Y123.083 Z-6.000 F600.000 
G1 X178.298 Y123.775 Z-6.000 F600.000 
G1 X179.001 Y124.402 Z-6.000 F600.000 
G1 X179.742 Y124.966 Z-6.000 F600.000 
G1 X180.523 Y125.470 Z-6.000 F600.000 
G1 X181.450 Y125.963 Z-6.000 F600.000 
G1 X182.264 Y126.310 Z-6.000 F600.000 
G1 X183.099 Y126.586 Z-6.000 F600.000 
G1 X183.956 Y126.793 Z-6.000 F600.000 
G1 X184.840 Y126.932 Z-6.000 F600.000 
G1 X185.754 Y127.001 Z-6.000 F600.000 
G1 X185.977 Y127.007 Z-6.000 F600.000 
G1 X186.202 Y127.009 Z-6.000 F600.000 
G1 X187.112 Y126.973 Z-6.000 F600.000 
G1 X187.996 Y126.865 Z-6.000 F600.000 
G1 X188.858 Y126.687 Z-6.000 F600.000 
G1 X189.700 Y126.438 Z-6.000 F600.000 
G1 X190.789 Y126.000 Z-6.000 F600.000 
G1 X191.643 Y125.562 Z-6.000 F600.000 
G1 X192.448 Y125.067 Z-6.000 F600.000 
G1 X193.208 Y124.515 Z-6.000 F600.000 
G1 X193.926 Y123.903 Z-6.000 F600.000 
G1 X194.587 Y123.248 Z-6.000 F600.000 
G1 X195.224 Y122.515 Z-6.000 F600.000 
G1 X195.808 Y121.731 Z-6.000 F600.000 
G1 X196.342 Y120.894 Z-6.000 F600.000 
G1 X196.825 Y120.000 Z-6.000 F600.000 
G1 X197.211 Y119.156 Z-6.000 F600.000 
G1 X197.554 Y118.249 Z-6.000 F600.000 
G1 X197.830 Y117.315 Z-6.000 F600.000 
G1 X198.038 Y116.352 Z-6.000 F600.000 
G1 X198.179 Y115.355 Z-6.000 F600.000 
G1 X198.257 Y114.092 Z-6.000 F600.000 
G1 X174.128 Y114.092 Z-6.000 F600.000 
G1 X198.257 Y114.092 Z-6.000 F600.000 
G1 X198.199 Y115.144 Z-6.000 F600.000 
G1 X198.071 Y116.157 Z-6.000 F600.000 
G1 X197.875 Y117.133 Z-6.000 F600.000 
G1 X197.611 Y118.075 Z-6.000 F600.000 
G1 X197.211 Y119.156 Z-6.000 F600.000 
G1 X196.767 Y120.114 Z-6.000 F600.000 
G1 X196.273 Y121.009 Z-6.000 F600.000 
G1 X195.729 Y121.845 Z-6.000 F600.000 
G1 X195.135 Y122.624 Z-6.000 F600.000 
G1 X194.587 Y123.248 Z-6.000 F600.000 
G1 X193.905 Y123.922 Z-6.000 F600.000 
G1 X193.184 Y124.534 Z-6.000 F600.000 
G1 X192.423 Y125.084 Z-6.000 F600.000 
G1 X191.618 Y125.576 Z-6.000 F600.000 
G1 X190.789 Y126.000 Z-6.000 F600.000 
G1 X189.964 Y126.345 Z-6.000 F600.000 
G1 X189.125 Y126.616 Z-6.000 F600.000 
G1 X188.271 Y126.816 Z-6.000 F600.000 
G1 X187.398 Y126.946 Z-6.000 F600.000 
G1 X186.202 Y127.009 Z-6.000 F600.000 
G1 X185.263 Y126.973 Z-6.000 F600.000 
G1 X184.358 Y126.865 Z-6.000 F600.000 
G1 X183.485 Y126.689 Z-6.000 F600.000 
G1 X182.638 Y126.443 Z-6.000 F600.000 
G1 X181.450 Y125.963 Z-6.000 F600.000 
G1 X180.616 Y125.524 Z-6.000 F600.000 
G1 X179.828 Y125.026 Z-6.000 F600.000 
G1 X179.084 Y124.470 Z-6.000 F600.000 
G1 X178.380 Y123.853 Z-6.000 F600.000 
G1 X177.633 Y123.083 Z-6.000 F600.000 
G1 X177.006 Y122.323 Z-6.000 F600.000 
G1 X176.430 Y121.512 Z-6.000 F600.000 
G1 X175.905 Y120.646 Z-6.000 F600.000 
G1 X175.431 Y119.722 Z-6.000 F600.000 
G1 X175.028 Y118.789 Z-6.000 F600.000 
G1 X174.701 Y117.853 Z-6.000 F600.000 
G1 X174.442 Y116.891 Z-6.000 F600.000 
G1 X174.251 Y115.902 Z-6.000 F600.000 
G1 X174.129 Y114.881 Z-6.000 F600.000 
G1 X174.073 Y113.560 Z-6.000 F600.000 
G1 X174.110 Y112.483 Z-6.000 F600.000 
G1 X174.217 Y111.440 Z-6.000 F600.000 
G1 X174.395 Y110.427 Z-6.000 F600.000 
G1 X174.641 Y109.443 Z-6.000 F600.000 
G1 X175.028 Y108.294 Z-6.000 F600.000 
G1 X175.458 Y107.296 Z-6.000 F600.000 
G1 X175.939 Y106.365 Z-6.000 F600.000 
G1 X176.469 Y105.497 Z-6.000 F600.000 
G1 X177.047 Y104.688 Z-6.000 F600.000 
G1 X177.633 Y103.982 Z-6.000 F600.000 
G1 X178.307 Y103.279 Z-6.000 F600.000 
G1 X179.021 Y102.640 Z-6.000 F600.000 
G1 X179.775 Y102.062 Z-6.000 F600.000 
G1 X180.571 Y101.544 Z-6.000 F600.000 
G1 X181.450 Y101.064 Z-6.000 F600.000 
G1 X182.258 Y100.714 Z-6.000 F600.000 
G1 X183.086 Y100.434 Z-6.000 F600.000 
G1 X183.937 Y100.224 Z-6.000 F600.000 
G1 X184.813 Y100.082 Z-6.000 F600.000 
G1 X185.717 Y100.010 Z-6.000 F600.000 
G1 X185.959 Y100.002 Z-6.000 F600.000 
G1 X186.202 Y100.000 Z-6.000 F600.000 
G1 X187.126 Y100.036 Z-6.000 F600.000 
G1 X188.017 Y100.144 Z-6.000 F600.000 
G1 X188.877 Y100.321 Z-6.000 F600.000 
G1 X189.710 Y100.566 Z-6.000 F600.000 
G1 X190.519 Y100.880 Z-6.000 F600.000 
G1 X191.307 Y101.264 Z-6.000 F600.000 
G1 X191.824 Y101.561 Z-6.000 F600.000 
G1 X192.330 Y101.890 Z-6.000 F600.000 
G1 X193.144 Y102.495 Z-6.000 F600.000 
G1 X193.902 Y103.148 Z-6.000 F600.000 
G1 X194.606 Y103.851 Z-6.000 F600.000 
G1 X195.259 Y104.606 Z-6.000 F600.000 
G1 X195.862 Y105.414 Z-6.000 F600.000 
G1 X196.415 Y106.279 Z-6.000 F600.000 
G1 X196.734 Y106.844 Z-6.000 F600.000 
G1 X196.734 Y106.844 Z-9.000 F600.000 
G1 X196.205 Y105.935 Z-9.000 F600.000 
G1 X195.628 Y105.087 Z-9.000 F600.000 
G1 X195.003 Y104.297 Z-9.000 F600.000 
G1 X194.329 Y103.562 Z-9.000 F600.000 
G1 X193.604 Y102.880 Z-9.000 F600.000 
G1 X192.828 Y102.248 Z-9.000 F600.000 
G1 X192.330 Y101.890 Z-9.000 F600.000 
G1 X191.559 Y101.404 Z-9.000 F600.000 
G1 X190.772 Y100.995 Z-9.000 F600.000 
G1 X189.968 Y100.658 Z-9.000 F600.000 
G1 X189.143 Y100.391 Z-9.000 F600.000 
G1 X188.295 Y100.193 Z-9.000 F600.000 
G1 X187.421 Y100.064 Z-9.000 F600.000 
G1 X186.816 Y100.016 Z-9.000 F600.000 
G1 X186.202 Y100.000 Z-9.000 F600.000 
G1 X185.271 Y100.036 Z-9.000 F600.000 
G1 X184.374 Y100.144 Z-9.000 F600.000 
G1 X183.507 Y100.321 Z-9.000 F600.000 
G1 X182.667 Y100.566 Z-9.000 F600.000 
G1 X181.851 Y100.880 Z-9.000 F600.000 
G1 X181.649 Y100.970 Z-9.000 F600.000 
G1 X181.450 Y101.064 Z-9.000 F600.000 
G1 X180.602 Y101.525 Z-9.000 F600.000 
G1 X179.803 Y102.042 Z-9.000 F600.000 
G1 X179.048 Y102.617 Z-9.000 F600.000 
G1 X178.336 Y103.251 Z-9.000 F600.000 
G1 X177.633 Y103.982 Z-9.000 F600.000 
G1 X177.010 Y104.736 Z-9.000 F600.000 
G1 X176.437 Y105.545 Z-9.000 F600.000 
G1 X175.915 Y106.409 Z-9.000 F600.000 
G1 X175.441 Y107.332 Z-9.000 F600.000 
G1 X175.028 Y108.294 Z-9.000 F600.000 
G1 X174.699 Y109.248 Z-9.000 F600.000 
G1 X174.439 Y110.225 Z-9.000 F600.000 
G1 X174.249 Y111.227 Z-9.000 F600.000 
G1 X174.127 Y112.256 Z-9.000 F600.000 
G1 X174.073 Y113.560 Z-9.000 F600.000 
G1 X174.110 Y114.635 Z-9.000 F600.000 
G1 X174.217 Y115.673 Z-9.000 F600.000 
G1 X174.394 Y116.676 Z-9.000 F600.000 
G1 X174.639 Y117.647 Z-9.000 F600.000 
G1 X175.028 Y118.789 Z-9.000 F600.000 
G1 X175.460 Y119.783 Z-9.000 F600.000 
G1 X175.943 Y120.712 Z-9.000 F600.000 
G1 X176.475 Y121.580 Z-9.000 F600.000 
G1 X177.058 Y122.391 Z-9.000 F600.000 
G1 X177.633 Y123.083 Z-9.000 F600.000 
G1 X178.298 Y123.775 Z-9.000 F600.000 
G1 X179.001 Y124.402 Z-9.000 F600.000 
G1 X179.742 Y124.966 Z-9.000 F600.000 
G1 X180.523 Y125.470 Z-9.000 F600.000 
G1 X181.450 Y125.963 Z-9.000 F600.000 
G1 X182.264 Y126.310 Z-9.000 F600.000 
G1 X183.099 Y126.586 Z-9.000 F600.000 
G1 X183.956 Y126.793 Z-9.000 F600.000 
G1 X184.840 Y126.932 Z-9.000 F600.000 
G1 X185.754 Y127.001 Z-9.000 F600.000 
G1 X185.977 Y127.007 Z-9.000 F600.000 
G1 X186.202 Y127.009 Z-9.000 F600.000 
G1 X187.112 Y126.973 Z-9.000 F600.000 
G1 X187.996 Y126.865 Z-9.000 F600.000 
G1 X188.858 Y126.687 Z-9.000 F600.000 
G1 X189.700 Y126.438 Z-9.000 F600.000 
G1 X190.789 Y126.000 Z-9.000 F600.000 
G1 X191.643 Y125.562 Z-9.000 F600.000 
G1 X192.448 Y125.067 Z-9.000 F600.000 
G1 X193.208 Y124.515 Z-9.000 F600.000 
G1 X193.926 Y123.903 Z-9.000 F600.000 
G1 X194.587 Y123.248 Z-9.000 F600.000 
G1 X195.224 Y122.515 Z-9.000 F600.000 
G1 X195.808 Y121.731 Z-9.000 F600.000 
G1 X196.342 Y120.894 Z-9.000 F600.000 
G1 X196.825 Y120.000 Z-9.000 F600.000 
G1 X197.211 Y119.156 Z-9.000 F600.000 
G1 X197.554 Y118.249 Z-9.000 F600.000 
G1 X197.830 Y117.315 Z-9.000 F600.000 
G1 X198.038 Y116.352 Z-9.000 F600.000 
G1 X198.179 Y115.355 Z-9.000 F600.000 
G1 X198.257 Y114.092 Z-9.000 F600.000 
G1 X174.128 Y114.092 Z-9.000 F600.000 
G1 X198.257 Y114.092 Z-9.000 F600.000 
G1 X198.199 Y115.144 Z-9.000 F600.000 
G1 X198.071 Y116.157 Z-9.000 F600.000 
G1 X197.875 Y117.133 Z-9.000 F600.000 
G1 X197.611 Y118.075 Z-9.000 F600.000 
G1 X197.211 Y119.156 Z-9.000 F600.000 
G1 X196.767 Y120.114 Z-9.000 F600.000 
G1 X196.273 Y121.009 Z-9.000 F600.000 
G1 X195.729 Y121.845 Z-9.000 F600.000 
G1 X195.135 Y122.624 Z-9.000 F600.000 
G1 X194.587 Y123.248 Z-9.000 F600.000 
G1 X193.905 Y123.922 Z-9.000 F600.000 
G1 X193.184 Y124.534 Z-9.000 F600.000 
G1 X192.423 Y125.084 Z-9.000 F600.000 
G1 X191.618 Y125.576 Z-9.000 F600.000 
G1 X190.789 Y126.000 Z-9.000 F600.000 
G1 X189.964 Y126.345 Z-9.000 F600.000 
G1 X189.125 Y126.616 Z-9.000 F600.000 
G1 X188.271 Y126.816 Z-9.000 F600.000 
G1 X187.398 Y126.946 Z-9.000 F600.000 
G1 X186.202 Y127.009 Z-9.000 F600.000 
G1 X185.263 Y126.973 Z-9.000 F600.000 
G1 X184.358 Y126.865 Z-9.000 F600.000 
G1 X183.485 Y126.689 Z-9.000 F600.000 
G1 X182.638 Y126.443 Z-9.000 F600.000 
G1 X181.450 Y125.963 Z-9.000 F600.000 
G1 X180.616 Y125.524 Z-9.000 F600.000 
G1 X179.828 Y125.026 Z-9.000 F600.000 
G1 X179.084 Y124.470 Z-9.000 F600.000 
G1 X178.380 Y123.853 Z-9.000 F600.000 
G1 X177.633 Y123.083 Z-9.000 F600.000 
G1 X177.006 Y122.323 Z-9.000 F600.000 
G1 X176.430 Y121.512 Z-9.000 F600.000 
G1 X175.905 Y120.646 Z-9.000 F600.000 
G1 X175.431 Y119.722 Z-9.000 F600.000 
G1 X175.028 Y118.789 Z-9.000 F600.000 
G1 X174.701 Y117.853 Z-9.000 F600.000 
G1 X174.442 Y116.891 Z-9.000 F600.000 
G1 X174.251 Y115.902 Z-9.000 F600.000 
G1 X174.129 Y114.881 Z-9.000 F600.000 
G1 X174.073 Y113.560 Z-9.000 F600.000 
G1 X174.110 Y112.483 Z-9.000 F600.000 
G1 X174.217 Y111.440 Z-9.000 F600.000 
G1 X174.395 Y110.427 Z-9.000 F600.000 
G1 X174.641 Y109.443 Z-9.000 F600.000 
G1 X175.028 Y108.294 Z-9.000 F600.000 
G1 X175.458 Y107.296 Z-9.000 F600.000 
G1 X175.939 Y106.365 Z-9.000 F600.000 
G1 X176.469 Y105.497 Z-9.000 F600.000 
G1 X177.047 Y104.688 Z-9.000 F600.000 
G1 X177.633 Y103.982 Z-9.000 F600.000 
G1 X178.307 Y103.279 Z-9.000 F600.000 
G1 X179.021 Y102.640 Z-9.000 F600.000 
G1 X179.775 Y102.062 Z-9.000 F600.000 
G1 X180.571 Y101.544 Z-9.000 F600.000 
G1 X181.450 Y101.064 Z-9.000 F600.000 
G1 X182.258 Y100.714 Z-9.000 F600.000 
G1 X183.086 Y100.434 Z-9.000 F600.000 
G1 X183.937 Y100.224 Z-9.000 F600.000 
G1 X184.813 Y100.082 Z-9.000 F600.000 
G1 X185.717 Y100.010 Z-9.000 F600.000 
G1 X185.959 Y100.002 Z-9.000 F600.000 
G1 X186.202 Y100.000 Z-9.000 F600.000 
G1 X187.126 Y100.036 Z-9.000 F600.000 
G1 X188.017 Y100.144 Z-9.000 F600.000 
G1 X188.877 Y100.321 Z-9.000 F600.000 
G1 X189.710 Y100.566 Z-9.000 F600.000 
G1 X190.519 Y100.880 Z-9.000 F600.000 
G1 X191.307 Y101.264 Z-9.000 F600.000 
G1 X191.824 Y101.561 Z-9.000 F600.000 
G1 X192.330 Y101.890 Z-9.000 F600.000 
G1 X193.144 Y102.495 Z-9.000 F600.000 
G1 X193.902 Y103.148 Z-9.000 F600.000 
G1 X194.606 Y103.851 Z-9.000 F600.000 
G1 X195.259 Y104.606 Z-9.000 F600.000 
G1 X195.862 Y105.414 Z-9.000 F600.000 
G1 X196.415 Y106.279 Z-9.000 F600.000 
G1 X196.734 Y106.844 Z-9.000 F600.000 
G1 X196.734 Y106.844 Z-10.000 F600.000 
G1 X196.205 Y105.935 Z-10.000 F600.000 
G1 X195.628 Y105.087 Z-10.000 F600.000 
G1 X195.003 Y104.297 Z-10.000 F600.000 
G1 X194.329 Y103.562 Z-10.000 F600.000 
G1 X193.604 Y102.880 Z-10.000 F600.000 
G1 X192.828 Y102.248 Z-10.000 F600.000 
G1 X192.330 Y101.890 Z-10.000 F600.000 
G1 X191.559 Y101.404 Z-10.000 F600.000 
G1 X190.772 Y100.995 Z-10.000 F600.000 
G1 X189.968 Y100.658 Z-10.000 F600.000 
G1 X189.143 Y100.391 Z-10.000 F600.000 
G1 X188.295 Y100.193 Z-10.000 F600.000 
G1 X187.421 Y100.064 Z-10.000 F600.000 
G1 X186.816 Y100.016 Z-10.000 F600.000 
G1 X186.202 Y100.000 Z-10.000 F600.000 
G1 X185.271 Y100.036 Z-10.000 F600.000 
G1 X184.374 Y100.144 Z-10.000 F600.000 
G1 X183.507 Y100.321 Z-10.000 F600.000 
G1 X182.667 Y100.566 Z-10.000 F600.000 
G1 X181.851 Y100.880 Z-10.000 F600.000 
G1 X181.649 Y100.970 Z-10.000 F600.000 
G1 X181.450 Y101.064 Z-10.000 F600.000 
G1 X180.602 Y101.525 Z-10.000 F600.000 
G1 X179.803 Y102.042 Z-10.000 F600.000 
G1 X179.048 Y102.617 Z-10.000 F600.000 
G1 X178.336 Y103.251 Z-10.000 F600.000 
G1 X177.633 Y103.982 Z-10.000 F600.000 
G1 X177.010 Y104.736 Z-10.000 F600.000 
G1 X176.437 Y105.545 Z-10.000 F600.000 
G1 X175.915 Y106.409 Z-10.000 F600.000 
G1 X175.441 Y107.332 Z-10.000 F600.000 
G1 X175.028 Y108.294 Z-10.000 F600.000 
G1 X174.699 Y109.248 Z-10.000 F600.000 
G1 X174.439 Y110.225 Z-10.000 F600.000 
G1 X174.249 Y111.227 Z-10.000 F600.000 
G1 X174.127 Y112.256 Z-10.000 F600.000 
G1 X174.073 Y113.560 Z-10.000 F600.000 
G1 X174.110 Y114.635 Z-10.000 F600.000 
G1 X174.217 Y115.673 Z-10.000 F600.000 
G1 X174.394 Y116.676 Z-10.000 F600.000 
G1 X174.639 Y117.647 Z-10.000 F600.000 
G1 X175.028 Y118.789 Z-10.000 F600.000 
G1 X175.460 Y119.783 Z-10.000 F600.000 
G1 X175.943 Y120.712 Z-10.000 F600.000 
G1 X176.475 Y121.580 Z-10.000 F600.000 
G1 X177.058 Y122.391 Z-10.000 F600.000 
G1 X177.633 Y123.083 Z-10.000 F600.000 
G1 X178.298 Y123.775 Z-10.000 F600.000 
G1 X179.001 Y124.402 Z-10.000 F600.000 
G1 X179.742 Y124.966 Z-10.000 F600.000 
G1 X180.523 Y125.470 Z-10.000 F600.000 
G1 X181.450 Y125.963 Z-10.000 F600.000 
G1 X182.264 Y126.310 Z-10.000 F600.000 
G1 X183.099 Y126.586 Z-10.000 F600.000 
G1 X183.956 Y126.793 Z-10.000 F600.000 
G1 X184.840 Y126.932 Z-10.000 F600.000 
G1 X185.754 Y127.001 Z-10.000 F600.000 
G1 X185.977 Y127.007 Z-10.000 F600.000 
G1 X186.202 Y127.009 Z-10.000 F600.000 
G1 X187.112 Y126.973 Z-10.000 F600.000 
G1 X187.996 Y126.865 Z-10.000 F600.000 
G1 X188.858 Y126.687 Z-10.000 F600.000 
G1 X189.700 Y126.438 Z-10.000 F600.000 
G1 X190.789 Y126.000 Z-10.000 F600.000 
G1 X191.643 Y125.562 Z-10.000 F600.000 
G1 X192.448 Y125.067 Z-10.000 F600.000 
G1 X193.208 Y124.515 Z-10.000 F600.000 
G1 X193.926 Y123.903 Z-10.000 F600.000 
G1 X194.587 Y123.248 Z-10.000 F600.000 
G1 X195.224 Y122.515 Z-10.000 F600.000 
G1 X195.808 Y121.731 Z-10.000 F600.000 
G1 X196.342 Y120.894 Z-10.000 F600.000 
G1 X196.825 Y120.000 Z-10.000 F600.000 
G1 X197.211 Y119.156 Z-10.000 F600.000 
G1 X197.554 Y118.249 Z-10.000 F600.000 
G1 X197.830 Y117.315 Z-10.000 F600.000 
G1 X198.038 Y116.352 Z-10.000 F600.000 
G1 X198.179 Y115.355 Z-10.000 F600.000 
G1 X198.257 Y114.092 Z-10.000 F600.000 
G1 X174.128 Y114.092 Z-10.000 F600.000 
G1 X198.257 Y114.092 Z-10.000 F600.000 
G1 X198.199 Y115.144 Z-10.000 F600.000 
G1 X198.071 Y116.157 Z-10.000 F600.000 
G1 X197.875 Y117.133 Z-10.000 F600.000 
G1 X197.611 Y118.075 Z-10.000 F600.000 
G1 X197.211 Y119.156 Z-10.000 F600.000 
G1 X196.767 Y120.114 Z-10.000 F600.000 
G1 X196.273 Y121.009 Z-10.000 F600.000 
G1 X195.729 Y121.845 Z-10.000 F600.000 
G1 X195.135 Y122.624 Z-10.000 F600.000 
G1 X194.587 Y123.248 Z-10.000 F600.000 
G1 X193.905 Y123.922 Z-10.000 F600.000 
G1 X193.184 Y124.534 Z-10.000 F600.000 
G1 X192.423 Y125.084 Z-10.000 F600.000 
G1 X191.618 Y125.576 Z-10.000 F600.000 
G1 X190.789 Y126.000 Z-10.000 F600.000 
G1 X189.964 Y126.345 Z-10.000 F600.000 
G1 X189.125 Y126.616 Z-10.000 F600.000 
G1 X188.271 Y126.816 Z-10.000 F600.000 
G1 X187.398 Y126.946 Z-10.000 F600.000 
G1 X186.202 Y127.009 Z-10.000 F600.000 
G1 X185.263 Y126.973 Z-10.000 F600.000 
G1 X184.358 Y126.865 Z-10.000 F600.000 
G1 X183.485 Y126.689 Z-10.000 F600.000 
G1 X182.638 Y126.443 Z-10.000 F600.000 
G1 X181.450 Y125.963 Z-10.000 F600.000 
G1 X180.616 Y125.524 Z-10.000 F600.000 
G1 X179.828 Y125.026 Z-10.000 F600.000 
G1 X179.084 Y124.470 Z-10.000 F600.000 
G1 X178.380 Y123.853 Z-10.000 F600.000 
G1 X177.633 Y123.083 Z-10.000 F600.000 
G1 X177.006 Y122.323 Z-10.000 F600.000 
G1 X176.430 Y121.512 Z-10.000 F600.000 
G1 X175.905 Y120.646 Z-10.000 F600.000 
G1 X175.431 Y119.722 Z-10.000 F600.000 
G1 X175.028 Y118.789 Z-10.000 F600.000 
G1 X174.701 Y117.853 Z-10.000 F600.000 
G1 X174.442 Y116.891 Z-10.000 F600.000 
G1 X174.251 Y115.902 Z-10.000 F600.000 
G1 X174.129 Y114.881 Z-10.000 F600.000 
G1 X174.073 Y113.560 Z-10.000 F600.000 
G1 X174.110 Y112.483 Z-10.000 F600.000 
G1 X174.217 Y111.440 Z-10.000 F600.000 
G1 X174.395 Y110.427 Z-10.000 F600.000 
G1 X174.641 Y109.443 Z-10.000 F600.000 
G1 X175.028 Y108.294 Z-10.000 F600.000 
G1 X175.458 Y107.296 Z-10.000 F600.000 
G1 X175.939 Y106.365 Z-10.000 F600.000 
G1 X176.469 Y105.497 Z-10.000 F600.000 
G1 X177.047 Y104.688 Z-10.000 F600.000 
G1 X177.633 Y103.982 Z-10.000 F600.000 
G1 X178.307 Y103.279 Z-10.000 F600.000 
G1 X179.021 Y102.640 Z-10.000 F600.000 
G1 X179.775 Y102.062 Z-10.000 F600.000 
G1 X180.571 Y101.544 Z-10.000 F600.000 
G1 X181.450 Y101.064 Z-10.000 F600.000 
G1 X182.258 Y100.714 Z-10.000 F600.000 
G1 X183.086 Y100.434 Z-10.000 F600.000 
G1 X183.937 Y100.224 Z-10.000 F600.000 
G1 X184.813 Y100.082 Z-10.000 F600.000 
G1 X185.717 Y100.010 Z-10.000 F600.000 
G1 X185.959 Y100.002 Z-10.000 F600.000 
G1 X186.202 Y100.000 Z-10.000 F600.000 
G1 X187.126 Y100.036 Z-10.000 F600.000 
G1 X188.017 Y100.144 Z-10.000 F600.000 
G1 X188.877 Y100.321 Z-10.000 F600.000 
G1 X189.710 Y100.566 Z-10.000 F600.000 
G1 X190.519 Y100.880 Z-10.000 F600.000 
G1 X191.307 Y101.264 Z-10.000 F600.000 
G1 X191.824 Y101.561 Z-10.000 F600.000 
G1 X192.330 Y101.890 Z-10.000 F600.000 
G1 X193.144 Y102.495 Z-10.000 F600.000 
G1 X193.902 Y103.148 Z-10.000 F600.000 
G1 X194.606 Y103.851 Z-10.000 F600.000 
G1 X195.259 Y104.606 Z-10.000 F600.000 
G1 X195.862 Y105.414 Z-10.000 F600.000 
G1 X196.415 Y106.279 Z-10.000 F600.000 
G1 X196.734 Y106.844 Z-10.000 F600.000 
G0 Z6.000 
G0 Z6.000 
G0 X243.413 Y141.101 
G0 Z4.000 
G1 X243.413 Y141.101 Z-3.000 F600.000 
G1 X239.908 Y100.000 Z-3.000 F600.000 
G1 X243.413 Y141.101 Z-3.000 F600.000 
G1 X243.413 Y141.101 Z-6.000 F600.000 
G1 X239.908 Y100.000 Z-6.000 F600.000 
G1 X243.413 Y141.101 Z-6.000 F600.000 
G1 X243.413 Y141.101 Z-9.000 F600.000 
G1 X239.908 Y100.000 Z-9.000 F600.000 
G1 X243.413 Y141.101 Z-9.000 F600.000 
G1 X243.413 Y141.101 Z-10.000 F600.000 
G1 X239.908 Y100.000 Z-10.000 F600.000 
G1 X243.413 Y141.101 Z-10.000 F600.000 
G0 Z6.000 
G0 Z6.000 
G0 X321.211 Y106.844 
G0 Z4.000 
G1 X321.211 Y106.844 Z-3.000 F600.000 
G1 X320.682 Y105.935 Z-3.000 F600.000 
G1 X320.105 Y105.087 Z-3.000 F600.000 
G1 X319.480 Y104.297 Z-3.000 F600.000 
G1 X318.806 Y103.562 Z-3.000 F600.000 
G1 X318.082 Y102.880 Z-3.000 F600.000 
G1 X317.305 Y102.248 Z-3.000 F600.000 
G1 X316.807 Y101.890 Z-3.000 F600.000 
G1 X316.036 Y101.404 Z-3.000 F600.000 
G1 X315.249 Y100.995 Z-3.000 F600.000 
G1 X314.445 Y100.658 Z-3.000 F600.000 
G1 X313.620 Y100.391 Z-3.000 F600.000 
G1 X312.772 Y100.193 Z-3.000 F600.000 
G1 X311.898 Y100.064 Z-3.000 F600.000 
G1 X311.294 Y100.016 Z-3.000 F600.000 
G1 X310.679 Y100.000 Z-3.000 F600.000 
G1 X309.748 Y100.036 Z-3.000 F600.000 
G1 X308.851 Y100.144 Z-3.000 F600.000 
G1 X307.984 Y100.321 Z-3.000 F600.000 
G1 X307.144 Y100.566 Z-3.000 F600.000 
G1 X306.328 Y100.880 Z-3.000 F600.000 
G1 X306.126 Y100.970 Z-3.000 F600.000 
G1 X305.927 Y101.064 Z-3.000 F600.000 
G1 X305.079 Y101.525 Z-3.000 F600.000 
G1 X304.280 Y102.042 Z-3.000 F600.000 
G1 X303.525 Y102.617 Z-3.000 F600.000 
G1 X302.813 Y103.251 Z-3.000 F600.000 
G1 X302.110 Y103.982 Z-3.000 F600.000 
G1 X301.487 Y104.736 Z-3.000 F600.000 
G1 X300.914 Y105.545 Z-3.000 F600.000 
G1 X300.392 Y106.409 Z-3.000 F600.000 
G1 X299.918 Y107.332 Z-3.000 F600.000 
G1 X299.505 Y108.294 Z-3.000 F600.000 
G1 X299.176 Y109.248 Z-3.000 F600.000 
G1 X298.916 Y110.225 Z-3.000 F600.000 
G1 X298.726 Y111.227 Z-3.000 F600.000 
G1 X298.604 Y112.256 Z-3.000 F600.000 
G1 X298.550 Y113.560 Z-3.000 F600.000 
G1 X298.587 Y114.635 Z-3.000 F600.000 
G1 X298.694 Y115.673 Z-3.000 F600.000 
G1 X298.871 Y116.676 Z-3.000 F600.000 
G1 X299.116 Y117.647 Z-3.000 F600.000 
G1 X299.505 Y118.789 Z-3.000 F600.000 
G1 X299.937 Y119.783 Z-3.000 F600.000 
G1 X300.420 Y120.712 Z-3.000 F600.000 
G1 X300.953 Y121.580 Z-3.000 F600.000 
G1 X301.535 Y122.391 Z-3.000 F600.000 
G1 X302.110 Y123.083 Z-3.000 F600.000 
G1 X302.775 Y123.775 Z-3.000 F600.000 
G1 X303.478 Y124.402 Z-3.000 F600.000 
G1 X304.219 Y124.966 Z-3.000 F600.000 
G1 X305.000 Y125.470 Z-3.000 F600.000 
G1 X305.927 Y125.963 Z-3.000 F600.000 
G1 X306.741 Y126.310 Z-3.000 F600.000 
G1 X307.576 Y126.586 Z-3.000 F600.000 
G1 X308.433 Y126.793 Z-3.000 F600.000 
G1 X309.317 Y126.932 Z-3.000 F600.000 
G1 X310.231 Y127.001 Z-3.000 F600.000 
G1 X310.454 Y127.007 Z-3.000 F600.000 
G1 X310.679 Y127.009 Z-3.000 F600.000 
G1 X311.589 Y126.973 Z-3.000 F600.000 
G1 X312.473 Y126.865 Z-3.000 F600.000 
G1 X313.335 Y126.687 Z-3.000 F600.000 
G1 X314.177 Y126.438 Z-3.000 F600.000 
G1 X315.266 Y126.000 Z-3.000 F600.000 
G1 X316.120 Y125.562 Z-3.000 F600.000 
G1 X316.925 Y125.067 Z-3.000 F600.000 
G1 X317.685 Y124.515 Z-3.000 F600.000 
G1 X318.403 Y123.903 Z-3.000 F600.000 
G1 X319.064 Y123.248 Z-3.000 F600.000 
G1 X319.701 Y122.515 Z-3.000 F600.000 
G1 X320.285 Y121.731 Z-3.000 F600.000 
G1 X320.819 Y120.894 Z-3.000 F600.000 
G1 X321.302 Y120.000 Z-3.000 F600.000 
G1 X321.688 Y119.156 Z-3.000 F600.000 
G1 X322.031 Y118.249 Z-3.000 F600.000 
G1 X322.307 Y117.315 Z-3.000 F600.000 
G1 X322.515 Y116.352 Z-3.000 F600.000 
G1 X322.656 Y115.355 Z-3.000 F600.000 
G1 X322.734 Y114.092 Z-3.000 F600.000 
G1 X298.606 Y114.092 Z-3.000 F600.000 
G1 X322.734 Y114.092 Z-3.000 F600.000 
G1 X322.676 Y115.144 Z-3.000 F600.000 
G1 X322.548 Y116.157 Z-3.000 F600.000 
G1 X322.352 Y117.133 Z-3.000 F600.000 
G1 X322.088 Y118.075 Z-3.000 F600.000 
G1 X321.688 Y119.156 Z-3.000 F600.000 
G1 X321.244 Y120.114 Z-3.000 F600.000 
G1 X320.750 Y121.009 Z-3.000 F600.000 
G1 X320.206 Y121.845 Z-3.000 F600.000 
G1 X319.612 Y122.624 Z-3.000 F600.000 
G1 X319.064 Y123.248 Z-3.000 F600.000 
G1 X318.382 Y123.922 Z-3.000 F600.000 
G1 X317.661 Y124.534 Z-3.000 F600.000 
G1 X316.900 Y125.084 Z-3.000 F600.000 
G1 X316.095 Y125.576 Z-3.000 F600.000 
G1 X315.266 Y126.000 Z-3.000 F600.000 
G1 X314.441 Y126.345 Z-3.000 F600.000 
G1 X313.602 Y126.616 Z-3.000 F600.000 
G1 X312.748 Y126.816 Z-3.000 F600.000 
G1 X311.875 Y126.946 Z-3.000 F600.000 
G1 X310.679 Y127.009 Z-3.000 F600.000 
G1 X309.740 Y126.973 Z-3.000 F600.000 
G1 X308.835 Y126.865 Z-3.000 F600.000 
G1 X307.962 Y126.689 Z-3.000 F600.000 
G1 X307.115 Y126.443 Z-3.000 F600.000 
G1 X305.927 Y125.963 Z-3.000 F600.000 
G1 X305.093 Y125.524 Z-3.000 F600.000 
G1 X304.305 Y125.026 Z-3.000 F600.000 
G1 X303.561 Y124.470 Z-3.000 F600.000 
G1 X302.857 Y123.853 Z-3.000 F600.000 
G1 X302.110 Y123.083 Z-3.000 F600.000 
G1 X301.483 Y122.323 Z-3.000 F600.000 
G1 X300.907 Y121.512 Z-3.000 F600.000 
G1 X300.383 Y120.646 Z-3.000 F600.000 
G1 X299.908 Y119.722 Z-3.000 F600.000 
G1 X299.505 Y118.789 Z-3.000 F600.000 
G1 X299.178 Y117.853 Z-3.000 F600.000 
G1 X298.919 Y116.891 Z-3.000 F600.000 
G1 X298.728 Y115.902 Z-3.000 F600.000 
G1 X298.606 Y114.881 Z-3.000 F600.000 
G1 X298.550 Y113.560 Z-3.000 F600.000 
G1 X298.587 Y112.483 Z-3.000 F600.000 
G1 X298.694 Y111.440 Z-3.000 F600.000 
G1 X298.872 Y110.427 Z-3.000 F600.000 
G1 X299.118 Y109.443 Z-3.000 F600.000 
G1 X299.505 Y108.294 Z-3.000 F600.000 
G1 X299.935 Y107.296 Z-3.000 F600.000 
G1 X300.416 Y106.365 Z-3.000 F600.000 
G1 X300.946 Y105.497 Z-3.000 F600.000 
G1 X301.524 Y104.688 Z-3.000 F600.000 
G1 X302.110 Y103.982 Z-3.000 F600.000 
G1 X302.784 Y103.279 Z-3.000 F600.000 
G1 X303.498 Y102.640 Z-3.000 F600.000 
G1 X304.252 Y102.062 Z-3.000 F600.000 
G1 X305.048 Y101.544 Z-3.000 F600.000 
G1 X305.927 Y101.064 Z-3.000 F600.000 
G1 X306.735 Y100.714 Z-3.000 F600.000 
G1 X307.563 Y100.434 Z-3.000 F600.000 
G1 X308.414 Y100.224 Z-3.000 F600.000 
G1 X309.290 Y100.082 Z-3.000 F600.000 
G1 X310.194 Y100.010 Z-3.000 F600.000 
G1 X310.436 Y100.002 Z-3.000 F600.000 
G1 X310.679 Y100.000 Z-3.000 F600.000 
G1 X311.604 Y100.036 Z-3.000 F600.000 
G1 X312.494 Y100.144 Z-3.000 F600.000 
G1 X313.354 Y100.321 Z-3.000 F600.000 
G1 X314.187 Y100.566 Z-3.000 F600.000 
G1 X314.996 Y100.880 Z-3.000 F600.000 
G1 X315.784 Y101.264 Z-3.000 F600.000 
G1 X316.301 Y101.561 Z-3.000 F600.000 
G1 X316.807 Y101.890 Z-3.000 F600.000 
G1 X317.621 Y102.495 Z-3.000 F600.000 
G1 X318.379 Y103.148 Z-3.000 F600.000 
G1 X319.083 Y103.851 Z-3.000 F600.000 
G1 X319.736 Y104.606 Z-3.000 F600.000 
G1 X320.339 Y105.414 Z-3.000 F600.000 
G1 X320.892 Y106.279 Z-3.000 F600.000 
G1 X321.211 Y106.844 Z-3.000 F600.000 
G1 X321.211 Y106.844 Z-6.000 F600.000 
G1 X320.682 Y105.935 Z-6.000 F600.000 
G1 X320.105 Y105.087 Z-6.000 F600.000 
G1 X319.480 Y104.297 Z-6.000 F600.000 
G1 X318.806 Y103.562 Z-6.000 F600.000 
G1 X318.082 Y102.880 Z-6.000 F600.000 
G1 X317.305 Y102.248 Z-6.000 F600.000 
G1 X316.807 Y101.890 Z-6.000 F600.000 
G1 X316.036 Y101.404 Z-6.000 F600.000 
G1 X315.249 Y100.995 Z-6.000 F600.000 
G1 X314.445 Y100.658 Z-6.000 F600.000 
G1 X313.620 Y100.391 Z-6.000 F600.000 
G1 X312.772 Y100.193 Z-6.000 F600.000 
G1 X311.898 Y100.064 Z-6.000 F600.000 
G1 X311.294 Y100.016 Z-6.000 F600.000 
G1 X310.679 Y100.000 Z-6.000 F600.000 
G1 X309.748 Y100.036 Z-6.000 F600.000 
G1 X308.851 Y100.144 Z-6.000 F600.000 
G1 X307.984 Y100.321 Z-6.000 F600.000 
G1 X307.144 Y100.566 Z-6.000 F600.000 
G1 X306.328 Y100.880 Z-6.000 F600.000 
G1 X306.126 Y100.970 Z-6.000 F600.000 
G1 X305.927 Y101.064 Z-6.000 F600.000 
G1 X305.079 Y101.525 Z-6.000 F600.000 
G1 X304.280 Y102.042 Z-6.000 F600.000 
G1 X303.525 Y102.617 Z-6.000 F600.000 
G1 X302.813 Y103.251 Z-6.000 F600.000 
G1 X302.110 Y103.982 Z-6.000 F600.000 
G1 X301.487 Y104.736 Z-6.000 F600.000 
G1 X300.914 Y105.545 Z-6.000 F600.000 
G1 X300.392 Y106.409 Z-6.000 F600.000 
G1 X299.918 Y107.332 Z-6.000 F600.000 
G1 X299.505 Y108.294 Z-6.000 F600.000 
G1 X299.176 Y109.248 Z-6.000 F600.000 
G1 X298.916 Y110.225 Z-6.000 F600.000 
G1 X298.726 Y111.227 Z-6.000 F600.000 
G1 X298.604 Y112.256 Z-6.000 F600.000 
G1 X298.550 Y113.560 Z-6.000 F600.000 
G1 X298.587 Y114.635 Z-6.000 F600.000 
G1 X298.694 Y115.673 Z-6.000 F600.000 
G1 X298.871 Y116.676 Z-6.000 F600.000 
G1 X299.116 Y117.647 Z-6.000 F600.000 
G1 X299.505 Y118.789 Z-6.000 F600.000 
G1 X299.937 Y119.783 Z-6.000 F600.000 
G1 X300.420 Y120.712 Z-6.000 F600.000 
G1 X300.953 Y121.580 Z-6.000 F600.000 
G1 X301.535 Y122.391 Z-6.000 F600.000 
G1 X302.110 Y123.083 Z-6.000 F600.000 
G1 X302.775 Y123.775 Z-6.000 F600.000 
G1 X303.478 Y124.402 Z-6.000 F600.000 
G1 X304.219 Y124.966 Z-6.000 F600.000 
G1 X305.000 Y125.470 Z-6.000 F600.000 
G1 X305.927 Y125.963 Z-6.000 F600.000 
G1 X306.741 Y126.310 Z-6.000 F600.000 
G1 X307.576 Y126.586 Z-6.000 F600.000 
G1 X308.433 Y126.793 Z-6.000 F600.000 
G1 X309.317 Y126.932 Z-6.000 F600.000 
G1 X310.231 Y127.001 Z-6.000 F600.000 
G1 X310.454 Y127.007 Z-6.000 F600.000 
G1 X310.679 Y127.009 Z-6.000 F600.000 
G1 X311.589 Y126.973 Z-6.000 F600.000 
G1 X312.473 Y126.865 Z-6.000 F600.000 
G1 X313.335 Y126.687 Z-6.000 F600.000 
G1 X314.177 Y126.438 Z-6.000 F600.000 
G1 X315.266 Y126.000 Z-6.000 F600.000 
G1 X316.120 Y125.562 Z-6.000 F600.000 
G1 X316.925 Y125.067 Z-6.000 F600.000 
G1 X317.685 Y124.515 Z-6.000 F600.000 
G1 X318.403 Y123.903 Z-6.000 F600.000 
G1 X319.064 Y123.248 Z-6.000 F600.000 
G1 X319.701 Y122.515 Z-6.000 F600.000 
G1 X320.285 Y121.731 Z-6.000 F600.000 
G1 X320.819 Y120.894 Z-6.000 F600.000 
G1 X321.302 Y120.000 Z-6.000 F600.000 
G1 X321.688 Y119.156 Z-6.000 F600.000 
G1 X322.031 Y118.249 Z-6.000 F600.000 
G1 X322.307 Y117.315 Z-6.000 F600.000 
G1 X322.515 Y116.352 Z-6.000 F600.000 
G1 X322.656 Y115.355 Z-6.000 F600.000 
G1 X322.734 Y114.092 Z-6.000 F600.000 
G1 X298.606 Y114.092 Z-6.000 F600.000 
G1 X322.734 Y114.092 Z-6.000 F600.000 
G1 X322.676 Y115.144 Z-6.000 F600.000 
G1 X322.548 Y116.157 Z-6.000 F600.000 
G1 X322.352 Y117.133 Z-6.000 F600.000 
G1 X322.088 Y118.075 Z-6.000 F600.000 
G1 X321.688 Y119.156 Z-6.000 F600.000 
G1 X321.244 Y120.114 Z-6.000 F600.000 
G1 X320.750 Y121.009 Z-6.000 F600.000 
G1 X320.206 Y121.845 Z-6.000 F600.000 
G1 X319.612 Y122.624 Z-6.000 F600.000 
G1 X319.064 Y123.248 Z-6.000 F600.000 
G1 X318.382 Y123.922 Z-6.000 F600.000 
G1 X317.661 Y124.534 Z-6.000 F600.000 
G1 X316.900 Y125.084 Z-6.000 F600.000 
G1 X316.095 Y125.576 Z-6.000 F600.000 
G1 X315.266 Y126.000 Z-6.000 F600.000 
G1 X314.441 Y126.345 Z-6.000 F600.000 
G1 X313.602 Y126.616 Z-6.000 F600.000 
G1 X312.748 Y126.816 Z-6.000 F600.000 
G1 X311.875 Y126.946 Z-6.000 F600.000 
G1 X310.679 Y127.009 Z-6.000 F600.000 
G1 X309.740 Y126.973 Z-6.000 F600.000 
G1 X308.835 Y126.865 Z-6.000 F600.000 
G1 X307.962 Y126.689 Z-6.000 F600.000 
G1 X307.115 Y126.443 Z-6.000 F600.000 
G1 X305.927 Y125.963 Z-6.000 F600.000 
G1 X305.093 Y125.524 Z-6.000 F600.000 
G1 X304.305 Y125.026 Z-6.000 F600.000 
G1 X303.561 Y124.470 Z-6.000 F600.000 
G1 X302.857 Y123.853 Z-6.000 F600.000 
G1 X302.110 Y123.083 Z-6.000 F600.000 
G1 X301.483 Y122.323 Z-6.000 F600.000 
G1 X300.907 Y121.512 Z-6.000 F600.000 
G1 X300.383 Y120.646 Z-6.000 F600.000 
G1 X299.908 Y119.722 Z-6.000 F600.000 
G1 X299.505 Y118.789 Z-6.000 F600.000 
G1 X299.178 Y117.853 Z-6.000 F600.000 
G1 X298.919 Y116.891 Z-6.000 F600.000 
G1 X298.728 Y115.902 Z-6.000 F600.000 
G1 X298.606 Y114.881 Z-6.000 F600.000 
G1 X298.550 Y113.560 Z-6.000 F600.000 
G1 X298.587 Y112.483 Z-6.000 F600.000 
G1 X298.694 Y111.440 Z-6.000 F600.000 
G1 X298.872 Y110.427 Z-6.000 F600.000 
G1 X299.118 Y109.443 Z-6.000 F600.000 
G1 X299.505 Y108.294 Z-6.000 F600.000 
G1 X299.935 Y107.296 Z-6.000 F600.000 
G1 X300.416 Y106.365 Z-6.000 F600.000 
G1 X300.946 Y105.497 Z-6.000 F600.000 
G1 X301.524 Y104.688 Z-6.000 F600.000 
G1 X302.110 Y103.982 Z-6.000 F600.000 
G1 X302.784 Y103.279 Z-6.000 F600.000 
G1 X303.498 Y102.640 Z-6.000 F600.000 
G1 X304.252 Y102.062 Z-6.000 F600.000 
G1 X305.048 Y101.544 Z-6.000 F600.000 
G1 X305.927 Y101.064 Z-6.000 F600.000 
G1 X306.735 Y100.714 Z-6.000 F600.000 
G1 X307.563 Y100.434 Z-6.000 F600.000 
G1 X308.414 Y100.224 Z-6.000 F600.000 
G1 X309.290 Y100.082 Z-6.000 F600.000 
G1 X310.194 Y100.010 Z-6.000 F600.000 
G1 X310.436 Y100.002 Z-6.000 F600.000 
G1 X310.679 Y100.000 Z-6.000 F600.000 
G1 X311.604 Y100.036 Z-6.000 F600.000 
G1 X312.494 Y100.144 Z-6.000 F600.000 
G1 X313.354 Y100.321 Z-6.000 F600.000 
G1 X314.187 Y100.566 Z-6.000 F600.000 
G1 X314.996 Y100.880 Z-6.000 F600.000 
G1 X315.784 Y101.264 Z-6.000 F600.000 
G1 X316.301 Y101.561 Z-6.000 F600.000 
G1 X316.807 Y101.890 Z-6.000 F600.000 
G1 X317.621 Y102.495 Z-6.000 F600.000 
G1 X318.379 Y103.148 Z-6.000 F600.000 
G1 X319.083 Y103.851 Z-6.000 F600.000 
G1 X319.736 Y104.606 Z-6.000 F600.000 
G1 X320.339 Y105.414 Z-6.000 F600.000 
G1 X320.892 Y106.279 Z-6.000 F600.000 
G1 X321.211 Y106.844 Z-6.000 F600.000 
G1 X321.211 Y106.844 Z-9.000 F600.000 
G1 X320.682 Y105.935 Z-9.000 F600.000 
G1 X320.105 Y105.087 Z-9.000 F600.000 
G1 X319.480 Y104.297 Z-9.000 F600.000 
G1 X318.806 Y103.562 Z-9.000 F600.000 
G1 X318.082 Y102.880 Z-9.000 F600.000 
G1 X317.305 Y102.248 Z-9.000 F600.000 
G1 X316.807 Y101.890 Z-9.000 F600.000 
G1 X316.036 Y101.404 Z-9.000 F600.000 
G1 X315.249 Y100.995 Z-9.000 F600.000 
G1 X314.445 Y100.658 Z-9.000 F600.000 
G1 X313.620 Y100.391 Z-9.000 F600.000 
G1 X312.772 Y100.193 Z-9.000 F600.000 
G1 X311.898 Y100.064 Z-9.000 F600.000 
G1 X311.294 Y100.016 Z-9.000 F600.000 
G1 X310.679 Y100.000 Z-9.000 F600.000 
G1 X309.748 Y100.036 Z-9.000 F600.000 
G1 X308.851 Y100.144 Z-9.000 F600.000 
G1 X307.984 Y100.321 Z-9.000 F600.000 
G1 X307.144 Y100.566 Z-9.000 F600.000 
G1 X306.328 Y100.880 Z-9.000 F600.000 
G1 X306.126 Y100.970 Z-9.000 F600.000 
G1 X305.927 Y101.064 Z-9.000 F600.000 
G1 X305.079 Y101.525 Z-9.000 F600.000 
G1 X304.280 Y102.042 Z-9.000 F600.000 
G1 X303.525 Y102.617 Z-9.000 F600.000 
G1 X302.813 Y103.251 Z-9.000 F600.000 
G1 X302.110 Y103.982 Z-9.000 F600.000 
G1 X301.487 Y104.736 Z-9.000 F600.000 
G1 X300.914 Y105.545 Z-9.000 F600.000 
G1 X300.392 Y106.409 Z-9.000 F600.000 
G1 X299.918 Y107.332 Z-9.000 F600.000 
G1 X299.505 Y108.294 Z-9.000 F600.000 
G1 X299.176 Y109.248 Z-9.000 F600.000 
G1 X298.916 Y110.225 Z-9.000 F600.000 
G1 X298.726 Y111.227 Z-9.000 F600.000 
G1 X298.604 Y112.256 Z-9.000 F600.000 
G1 X298.550 Y113.560 Z-9.000 F600.000 
G1 X298.587 Y114.635 Z-9.000 F600.000 
G1 X298.694 Y115.673 Z-9.000 F600.000 
G1 X298.871 Y116.676 Z-9.000 F600.000 
G1 X299.116 Y117.647 Z-9.000 F600.000 
G1 X299.505 Y118.789 Z-9.000 F600.000 
G1 X299.937 Y119.783 Z-9.000 F600.000 
G1 X300.420 Y120.712 Z-9.000 F600.000 
G1 X300.953 Y121.580 Z-9.000 F600.000 
G1 X301.535 Y122.391 Z-9.000 F600.000 
G1 X302.110 Y123.083 Z-9.000 F600.000 
G1 X302.775 Y123.775 Z-9.000 F600.000 
G1 X303.478 Y124.402 Z-9.000 F600.000 
G1 X304.219 Y124.966 Z-9.000 F600.000 
G1 X305.000 Y125.470 Z-9.000 F600.000 
G1 X305.927 Y125.963 Z-9.000 F600.000 
G1 X306.741 Y126.310 Z-9.000 F600.000 
G1 X307.576 Y126.586 Z-9.000 F600.000 
G1 X308.433 Y126.793 Z-9.000 F600.000 
G1 X309.317 Y126.932 Z-9.000 F600.000 
G1 X310.231 Y127.001 Z-9.000 F600.000 
G1 X310.454 Y127.007 Z-9.000 F600.000 
G1 X310.679 Y127.009 Z-9.000 F600.000 
G1 X311.589 Y126.973 Z-9.000 F600.000 
G1 X312.473 Y126.865 Z-9.000 F600.000 
G1 X313.335 Y126.687 Z-9.000 F600.000 
G1 X314.177 Y126.438 Z-9.000 F600.000 
G1 X315.266 Y126.000 Z-9.000 F600.000 
G1 X316.120 Y125.562 Z-9.000 F600.000 
G1 X316.925 Y125.067 Z-9.000 F600.000 
G1 X317.685 Y124.515 Z-9.000 F600.000 
G1 X318.403 Y123.903 Z-9.000 F600.000 
G1 X319.064 Y123.248 Z-9.000 F600.000 
G1 X319.701 Y122.515 Z-9.000 F600.000 
G1 X320.285 Y121.731 Z-9.000 F600.000 
G1 X320.819 Y120.894 Z-9.000 F600.000 
G1 X321.302 Y120.000 Z-9.000 F600.000 
G1 X321.688 Y119.156 Z-9.000 F600.000 
G1 X322.031 Y118.249 Z-9.000 F600.000 
G1 X322.307 Y117.315 Z-9.000 F600.000 
G1 X322.515 Y116.352 Z-9.000 F600.000 
G1 X322.656 Y115.355 Z-9.000 F600.000 
G1 X322.734 Y114.092 Z-9.000 F600.000 
G1 X298.606 Y114.092 Z-9.000 F600.000 
G1 X322.734 Y114.092 Z-9.000 F600.000 
G1 X322.676 Y115.144 Z-9.000 F600.000 
G1 X322.548 Y116.157 Z-9.000 F600.000 
G1 X322.352 Y117.133 Z-9.000 F600.000 
G1 X322.088 Y118.075 Z-9.000 F600.000 
G1 X321.688 Y119.156 Z-9.000 F600.000 
G1 X321.244 Y120.114 Z-9.000 F600.000 
G1 X320.750 Y121.009 Z-9.000 F600.000 
G1 X320.206 Y121.845 Z-9.000 F600.000 
G1 X319.612 Y122.624 Z-9.000 F600.000 
G1 X319.064 Y123.248 Z-9.000 F600.000 
G1 X318.382 Y123.922 Z-9.000 F600.000 
G1 X317.661 Y124.534 Z-9.000 F600.000 
G1 X316.900 Y125.084 Z-9.000 F600.000 
G1 X316.095 Y125.576 Z-9.000 F600.000 
G1 X315.266 Y126.000 Z-9.000 F600.000 
G1 X314.441 Y126.345 Z-9.000 F600.000 
G1 X313.602 Y126.616 Z-9.000 F600.000 
G1 X312.748 Y126.816 Z-9.000 F600.000 
G1 X311.875 Y126.946 Z-9.000 F600.000 
G1 X310.679 Y127.009 Z-9.000 F600.000 
G1 X309.740 Y126.973 Z-9.000 F600.000 
G1 X308.835 Y126.865 Z-9.000 F600.000 
G1 X307.962 Y126.689 Z-9.000 F600.000 
G1 X307.115 Y126.443 Z-9.000 F600.000 
G1 X305.927 Y125.963 Z-9.000 F600.000 
G1 X305.093 Y125.524 Z-9.000 F600.000 
G1 X304.305 Y125.026 Z-9.000 F600.000 
G1 X303.561 Y124.470 Z-9.000 F600.000 
G1 X302.857 Y123.853 Z-9.000 F600.000 
G1 X302.110 Y123.083 Z-9.000 F600.000 
G1 X301.483 Y122.323 Z-9.000 F600.000 
G1 X300.907 Y121.512 Z-9.000 F600.000 
G1 X300.383 Y120.646 Z-9.000 F600.000 
G1 X299.908 Y119.722 Z-9.000 F600.000 
G1 X299.505 Y118.789 Z-9.000 F600.000 
G1 X299.178 Y117.853 Z-9.000 F600.000 
G1 X298.919 Y116.891 Z-9.000 F600.000 
G1 X298.728 Y115.902 Z-9.000 F600.000 
G1 X298.606 Y114.881 Z-9.000 F600.000 
G1 X298.550 Y113.560 Z-9.000 F600.000 
G1 X298.587 Y112.483 Z-9.000 F600.000 
G1 X298.694 Y111.440 Z-9.000 F600.000 
G1 X298.872 Y110.427 Z-9.000 F600.000 
G1 X299.118 Y109.443 Z-9.000 F600.000 
G1 X299.505 Y108.294 Z-9.000 F600.000 
G1 X299.935 Y107.296 Z-9.000 F600.000 
G1 X300.416 Y106.365 Z-9.000 F600.000 
G1 X300.946 Y105.497 Z-9.000 F600.000 
G1 X301.524 Y104.688 Z-9.000 F600.000 
G1 X302.110 Y103.982 Z-9.000 F600.000 
G1 X302.784 Y103.279 Z-9.000 F600.000 
G1 X303.498 Y102.640 Z-9.000 F600.000 
G1 X304.252 Y102.062 Z-9.000 F600.000 
G1 X305.048 Y101.544 Z-9.000 F600.000 
G1 X305.927 Y101.064 Z-9.000 F600.000 
G1 X306.735 Y100.714 Z-9.000 F600.000 
G1 X307.563 Y100.434 Z-9.000 F600.000 
G1 X308.414 Y100.224 Z-9.000 F600.000 
G1 X309.290 Y100.082 Z-9.000 F600.000 
G1 X310.194 Y100.010 Z-9.000 F600.000 
G1 X310.436 Y100.002 Z-9.000 F600.000 
G1 X310.679 Y100.000 Z-9.000 F600.000 
G1 X311.604 Y100.036 Z-9.000 F600.000 
G1 X312.494 Y100.144 Z-9.000 F600.000 
G1 X313.354 Y100.321 Z-9.000 F600.000 
G1 X314.187 Y100.566 Z-9.000 F600.000 
G1 X314.996 Y100.880 Z-9.000 F600.000 
G1 X315.784 Y101.264 Z-9.000 F600.000 
G1 X316.301 Y101.561 Z-9.000 F600.000 
G1 X316.807 Y101.890 Z-9.000 F600.000 
G1 X317.621 Y102.495 Z-9.000 F600.000 
G1 X318.379 Y103.148 Z-9.000 F600.000 
G1 X319.083 Y103.851 Z-9.000 F600.000 
G1 X319.736 Y104.606 Z-9.000 F600.000 
G1 X320.339 Y105.414 Z-9.000 F600.000 
G1 X320.892 Y106.279 Z-9.000 F600.000 
G1 X321.211 Y106.844 Z-9.000 F600.000 
G1 X321.211 Y106.844 Z-10.000 F600.000 
G1 X320.682 Y105.935 Z-10.000 F600.000 
G1 X320.105 Y105.087 Z-10.000 F600.000 
G1 X319.480 Y104.297 Z-10.000 F600.000 
G1 X318.806 Y103.562 Z-10.000 F600.000 
G1 X318.082 Y102.880 Z-10.000 F600.000 
G1 X317.305 Y102.248 Z-10.000 F600.000 
G1 X316.807 Y101.890 Z-10.000 F600.000 
G1 X316.036 Y101.404 Z-10.000 F600.000 
G1 X315.249 Y100.995 Z-10.000 F600.000 
G1 X314.445 Y100.658 Z-10.000 F600.000 
G1 X313.620 Y100.391 Z-10.000 F600.000 
G1 X312.772 Y100.193 Z-10.000 F600.000 
G1 X311.898 Y100.064 Z-10.000 F600.000 
G1 X311.294 Y100.016 Z-10.000 F600.000 
G1 X310.679 Y100.000 Z-10.000 F600.000 
G1 X309.748 Y100.036 Z-10.000 F600.000 
G1 X308.851 Y100.144 Z-10.000 F600.000 
G1 X307.984 Y100.321 Z-10.000 F600.000 
G1 X307.144 Y100.566 Z-10.000 F600.000 
G1 X306.328 Y100.880 Z-10.000 F600.000 
G1 X306.126 Y100.970 Z-10.000 F600.000 
G1 X305.927 Y101.064 Z-10.000 F600.000 
G1 X305.079 Y101.525 Z-10.000 F600.000 
G1 X304.280 Y102.042 Z-10.000 F600.000 
G1 X303.525 Y102.617 Z-10.000 F600.000 
G1 X302.813 Y103.251 Z-10.000 F600.000 
G1 X302.110 Y103.982 Z-10.000 F600.000 
G1 X301.487 Y104.736 Z-10.000 F600.000 
G1 X300.914 Y105.545 Z-10.000 F600.000 
G1 X300.392 Y106.409 Z-10.000 F600.000 
G1 X299.918 Y107.332 Z-10.000 F600.000 
G1 X299.505 Y108.294 Z-10.000 F600.000 
G1 X299.176 Y109.248 Z-10.000 F600.000 
G1 X298.916 Y110.225 Z-10.000 F600.000 
G1 X298.726 Y111.227 Z-10.000 F600.000 
G1 X298.604 Y112.256 Z-10.000 F600.000 
G1 X298.550 Y113.560 Z-10.000 F600.000 
G1 X298.587 Y114.635 Z-10.000 F600.000 
G1 X298.694 Y115.673 Z-10.000 F600.000 
G1 X298.871 Y116.676 Z-10.000 F600.000 
G1 X299.116 Y117.647 Z-10.000 F600.000 
G1 X299.505 Y118.789 Z-10.000 F600.000 
G1 X299.937 Y119.783 Z-10.000 F600.000 
G1 X300.420 Y120.712 Z-10.000 F600.000 
G1 X300.953 Y121.580 Z-10.000 F600.000 
G1 X301.535 Y122.391 Z-10.000 F600.000 
G1 X302.110 Y123.083 Z-10.000 F600.000 
G1 X302.775 Y123.775 Z-10.000 F600.000 
G1 X303.478 Y124.402 Z-10.000 F600.000 
G1 X304.219 Y124.966 Z-10.000 F600.000 
G1 X305.000 Y125.470 Z-10.000 F600.000 
G1 X305.927 Y125.963 Z-10.000 F600.000 
G1 X306.741 Y126.310 Z-10.000 F600.000 
G1 X307.576 Y126.586 Z-10.000 F600.000 
G1 X308.433 Y126.793 Z-10.000 F600.000 
G1 X309.317 Y126.932 Z-10.000 F600.000 
G1 X310.231 Y127.001 Z-10.000 F600.000 
G1 X310.454 Y127.007 Z-10.000 F600.000 
G1 X310.679 Y127.009 Z-10.000 F600.000 
G1 X311.589 Y126.973 Z-10.000 F600.000 
G1 X312.473 Y126.865 Z-10.000 F600.000 
G1 X313.335 Y126.687 Z-10.000 F600.000 
G1 X314.177 Y126.438 Z-10.000 F600.000 
G1 X315.266 Y126.000 Z-10.000 F600.000 
G1 X316.120 Y125.562 Z-10.000 F600.000 
G1 X316.925 Y125.067 Z-10.000 F600.000 
G1 X317.685 Y124.515 Z-10.000 F600.000 
G1 X318.403 Y123.903 Z-10.000 F600.000 
G1 X319.064 Y123.248 Z-10.000 F600.000 
G1 X319.701 Y122.515 Z-10.000 F600.000 
G1 X320.285 Y121.731 Z-10.000 F600.000 
G1 X320.819 Y120.894 Z-10.000 F600.000 
G1 X321.302 Y120.000 Z-10.000 F600.000 
G1 X321.688 Y119.156 Z-10.000 F600.000 
G1 X322.031 Y118.249 Z-10.000 F600.000 
G1 X322.307 Y117.315 Z-10.000 F600.000 
G1 X322.515 Y116.352 Z-10.000 F600.000 
G1 X322.656 Y115.355 Z-10.000 F600.000 
G1 X322.734 Y114.092 Z-10.000 F600.000 
G1 X298.606 Y114.092 Z-10.000 F600.000 
G1 X322.734 Y114.092 Z-10.000 F600.000 
G1 X322.676 Y115.144 Z-10.000 F600.000 
G1 X322.548 Y116.157 Z-10.000 F600.000 
G1 X322.352 Y117.133 Z-10.000 F600.000 
G1 X322.088 Y118.075 Z-10.000 F600.000 
G1 X321.688 Y119.156 Z-10.000 F600.000 
G1 X321.244 Y120.114 Z-10.000 F600.000 
G1 X320.750 Y121.009 Z-10.000 F600.000 
G1 X320.206 Y121.845 Z-10.000 F600.000 
G1 X319.612 Y122.624 Z-10.000 F600.000 
G1 X319.064 Y123.248 Z-10.000 F600.000 
G1 X318.382 Y123.922 Z-10.000 F600.000 
G1 X317.661 Y124.534 Z-10.000 F600.000 
G1 X316.900 Y125.084 Z-10.000 F600.000 
G1 X316.095 Y125.576 Z-10.000 F600.000 
G1 X315.266 Y126.000 Z-10.000 F600.000 
G1 X314.441 Y126.345 Z-10.000 F600.000 
G1 X313.602 Y126.616 Z-10.000 F600.000 
G1 X312.748 Y126.816 Z-10.000 F600.000 
G1 X311.875 Y126.946 Z-10.000 F600.000 
G1 X310.679 Y127.009 Z-10.000 F600.000 
G1 X309.740 Y126.973 Z-10.000 F600.000 
G1 X308.835 Y126.865 Z-10.000 F600.000 
G1 X307.962 Y126.689 Z-10.000 F600.000 
G1 X307.115 Y126.443 Z-10.000 F600.000 
G1 X305.927 Y125.963 Z-10.000 F600.000 
G1 X305.093 Y125.524 Z-10.000 F600.000 
G1 X304.305 Y125.026 Z-10.000 F600.000 
G1 X303.561 Y124.470 Z-10.000 F600.000 
G1 X302.857 Y123.853 Z-10.000 F600.000 
G1 X302.110 Y123.083 Z-10.000 F600.000 
G1 X301.483 Y122.323 Z-10.000 F600.000 
G1 X300.907 Y121.512 Z-10.000 F600.000 
G1 X300.383 Y120.646 Z-10.000 F600.000 
G1 X299.908 Y119.722 Z-10.000 F600.000 
G1 X299.505 Y118.789 Z-10.000 F600.000 
G1 X299.178 Y117.853 Z-10.000 F600.000 
G1 X298.919 Y116.891 Z-10.000 F600.000 
G1 X298.728 Y115.902 Z-10.000 F600.000 
G1 X298.606 Y114.881 Z-10.000 F600.000 
G1 X298.550 Y113.560 Z-10.000 F600.000 
G1 X298.587 Y112.483 Z-10.000 F600.000 
G1 X298.694 Y111.440 Z-10.000 F600.000 
G1 X298.872 Y110.427 Z-10.000 F600.000 
G1 X299.118 Y109.443 Z-10.000 F600.000 
G1 X299.505 Y108.294 Z-10.000 F600.000 
G1 X299.935 Y107.296 Z-10.000 F600.000 
G1 X300.416 Y106.365 Z-10.000 F600.000 
G1 X300.946 Y105.497 Z-10.000 F600.000 
G1 X301.524 Y104.688 Z-10.000 F600.000 
G1 X302.110 Y103.982 Z-10.000 F600.000 
G1 X302.784 Y103.279 Z-10.000 F600.000 
G1 X303.498 Y102.640 Z-10.000 F600.000 
G1 X304.252 Y102.062 Z-10.000 F600.000 
G1 X305.048 Y101.544 Z-10.000 F600.000 
G1 X305.927 Y101.064 Z-10.000 F600.000 
G1 X306.735 Y100.714 Z-10.000 F600.000 
G1 X307.563 Y100.434 Z-10.000 F600.000 
G1 X308.414 Y100.224 Z-10.000 F600.000 
G1 X309.290 Y100.082 Z-10.000 F600.000 
G1 X310.194 Y100.010 Z-10.000 F600.000 
G1 X310.436 Y100.002 Z-10.000 F600.000 
G1 X310.679 Y100.000 Z-10.000 F600.000 
G1 X311.604 Y100.036 Z-10.000 F600.000 
G1 X312.494 Y100.144 Z-10.000 F600.000 
G1 X313.354 Y100.321 Z-10.000 F600.000 
G1 X314.187 Y100.566 Z-10.000 F600.000 
G1 X314.996 Y100.880 Z-10.000 F600.000 
G1 X315.784 Y101.264 Z-10.000 F600.000 
G1 X316.301 Y101.561 Z-10.000 F600.000 
G1 X316.807 Y101.890 Z-10.000 F600.000 
G1 X317.621 Y102.495 Z-10.000 F600.000 
G1 X318.379 Y103.148 Z-10.000 F600.000 
G1 X319.083 Y103.851 Z-10.000 F600.000 
G1 X319.736 Y104.606 Z-10.000 F600.000 
G1 X320.339 Y105.414 Z-10.000 F600.000 
G1 X320.892 Y106.279 Z-10.000 F600.000 
G1 X321.211 Y106.844 Z-10.000 F600.000 
G0 Z6.000 
G0 Z6.000 
G0 X338.569 Y125.835 
G0 Z4.000 
G1 X338.569 Y125.835 Z-3.000 F600.000 
G1 X338.569 Y100.000 Z-3.000 F600.000 
G1 X338.569 Y125.835 Z-3.000 F600.000 
G1 X338.569 Y125.835 Z-6.000 F600.000 
G1 X338.569 Y100.000 Z-6.000 F600.000 
G1 X338.569 Y125.835 Z-6.000 F600.000 
G1 X338.569 Y125.835 Z-9.000 F600.000 
G1 X338.569 Y100.000 Z-9.000 F600.000 
G1 X338.569 Y125.835 Z-9.000 F600.000 
G1 X338.569 Y125.835 Z-10.000 F600.000 
G1 X338.569 Y100.000 Z-10.000 F600.000 
G1 X338.569 Y125.835 Z-10.000 F600.000 
G0 Z6.000 
G0 Z6.000 
G0 X338.569 Y116.844 
G0 Z4.000 
G1 X338.569 Y116.844 Z-3.000 F600.000 
G1 X338.633 Y117.583 Z-3.000 F600.000 
G1 X338.772 Y118.342 Z-3.000 F600.000 
G1 X338.991 Y119.126 Z-3.000 F600.000 
G1 X339.266 Y119.872 Z-3.000 F600.000 
G1 X339.636 Y120.662 Z-3.000 F600.000 
G1 X340.070 Y121.417 Z-3.000 F600.000 
G1 X340.570 Y122.140 Z-3.000 F600.000 
G1 X341.083 Y122.771 Z-3.000 F600.000 
G1 X341.667 Y123.384 Z-3.000 F600.000 
G1 X342.300 Y123.942 Z-3.000 F600.000 
G1 X342.982 Y124.446 Z-3.000 F600.000 
G1 X343.817 Y124.954 Z-3.000 F600.000 
G1 X344.461 Y125.272 Z-3.000 F600.000 
G1 X345.122 Y125.517 Z-3.000 F600.000 
G1 X345.803 Y125.693 Z-3.000 F600.000 
G1 X346.508 Y125.799 Z-3.000 F600.000 
G1 X347.248 Y125.835 Z-3.000 F600.000 
G1 X348.200 Y125.798 Z-3.000 F600.000 
G1 X349.067 Y125.694 Z-3.000 F600.000 
G1 X349.856 Y125.526 Z-3.000 F600.000 
G1 X350.575 Y125.300 Z-3.000 F600.000 
G1 X351.230 Y125.018 Z-3.000 F600.000 
G1 X351.828 Y124.682 Z-3.000 F600.000 
G1 X352.373 Y124.293 Z-3.000 F600.000 
G1 X352.972 Y123.743 Z-3.000 F600.000 
G1 X353.420 Y123.227 Z-3.000 F600.000 
G1 X353.810 Y122.666 Z-3.000 F600.000 
G1 X354.145 Y122.056 Z-3.000 F600.000 
G1 X354.426 Y121.393 Z-3.000 F600.000 
G1 X354.651 Y120.672 Z-3.000 F600.000 
G1 X354.820 Y119.888 Z-3.000 F600.000 
G1 X354.928 Y119.033 Z-3.000 F600.000 
G1 X354.972 Y117.963 Z-3.000 F600.000 
G1 X354.972 Y100.000 Z-3.000 F600.000 
G1 X354.972 Y117.963 Z-3.000 F600.000 
G1 X354.936 Y118.933 Z-3.000 F600.000 
G1 X354.831 Y119.818 Z-3.000 F600.000 
G1 X354.663 Y120.626 Z-3.000 F600.000 
G1 X354.436 Y121.364 Z-3.000 F600.000 
G1 X354.153 Y122.039 Z-3.000 F600.000 
G1 X353.816 Y122.656 Z-3.000 F600.000 
G1 X353.425 Y123.220 Z-3.000 F600.000 
G1 X352.972 Y123.743 Z-3.000 F600.000 
G1 X352.484 Y124.201 Z-3.000 F600.000 
G1 X351.951 Y124.601 Z-3.000 F600.000 
G1 X351.371 Y124.946 Z-3.000 F600.000 
G1 X350.738 Y125.237 Z-3.000 F600.000 
G1 X350.049 Y125.473 Z-3.000 F600.000 
G1 X349.297 Y125.653 Z-3.000 F600.000 
G1 X348.475 Y125.773 Z-3.000 F600.000 
G1 X347.248 Y125.835 Z-3.000 F600.000 
G1 X346.506 Y125.798 Z-3.000 F600.000 
G1 X345.796 Y125.691 Z-3.000 F600.000 
G1 X345.113 Y125.515 Z-3.000 F600.000 
G1 X344.454 Y125.269 Z-3.000 F600.000 
G1 X343.817 Y124.954 Z-3.000 F600.000 
G1 X343.068 Y124.504 Z-3.000 F600.000 
G1 X342.376 Y124.003 Z-3.000 F600.000 
G1 X341.737 Y123.450 Z-3.000 F600.000 
G1 X341.083 Y122.771 Z-3.000 F600.000 
G1 X340.517 Y122.069 Z-3.000 F600.000 
G1 X340.022 Y121.339 Z-3.000 F600.000 
G1 X339.594 Y120.579 Z-3.000 F600.000 
G1 X339.266 Y119.872 Z-3.000 F600.000 
G1 X338.964 Y119.044 Z-3.000 F600.000 
G1 X338.751 Y118.247 Z-3.000 F600.000 
G1 X338.620 Y117.479 Z-3.000 F600.000 
G1 X338.569 Y116.844 Z-3.000 F600.000 
G1 X338.569 Y116.844 Z-6.000 F600.000 
G1 X338.633 Y117.583 Z-6.000 F600.000 
G1 X338.772 Y118.342 Z-6.000 F600.000 
G1 X338.991 Y119.126 Z-6.000 F600.000 
G1 X339.266 Y119.872 Z-6.000 F600.000 
G1 X339.636 Y120.662 Z-6.000 F600.000 
G1 X340.070 Y121.417 Z-6.000 F600.000 
G1 X340.570 Y122.140 Z-6.000 F600.000 
G1 X341.083 Y122.771 Z-6.000 F600.000 
G1 X341.667 Y123.384 Z-6.000 F600.000 
G1 X342.300 Y123.942 Z-6.000 F600.000 
G1 X342.982 Y124.446 Z-6.000 F600.000 
G1 X343.817 Y124.954 Z-6.000 F600.000 
G1 X344.461 Y125.272 Z-6.000 F600.000 
G1 X345.122 Y125.517 Z-6.000 F600.000 
G1 X345.803 Y125.693 Z-6.000 F600.000 
G1 X346.508 Y125.799 Z-6.000 F600.000 
G1 X347.248 Y125.835 Z-6.000 F600.000 
G1 X348.200 Y125.798 Z-6.000 F600.000 
G1 X349.067 Y125.694 Z-6.000 F600.000 
G1 X349.856 Y125.526 Z-6.000 F600.000 
G1 X350.575 Y125.300 Z-6.000 F600.000 
G1 X351.230 Y125.018 Z-6.000 F600.000 
G1 X351.828 Y124.682 Z-6.000 F600.000 
G1 X352.373 Y124.293 Z-6.000 F600.000 
G1 X352.972 Y123.743 Z-6.000 F600.000 
G1 X353.420 Y123.227 Z-6.000 F600.000 
G1 X353.810 Y122.666 Z-6.000 F600.000 
G1 X354.145 Y122.056 Z-6.000 F600.000 
G1 X354.426 Y121.393 Z-6.000 F600.000 
G1 X354.651 Y120.672 Z-6.000 F600.000 
G1 X354.820 Y119.888 Z-6.000 F600.000 
G1 X354.928 Y119.033 Z-6.000 F600.000 
G1 X354.972 Y117.963 Z-6.000 F600.000 
G1 X354.972 Y100.000 Z-6.000 F600.000 
G1 X354.972 Y117.963 Z-6.000 F600.000 
G1 X354.936 Y118.933 Z-6.000 F600.000 
G1 X354.831 Y119.818 Z-6.000 F600.000 
G1 X354.663 Y120.626 Z-6.000 F600.000 
G1 X354.436 Y121.364 Z-6.000 F600.000 
G1 X354.153 Y122.039 Z-6.000 F600.000 
G1 X353.816 Y122.656 Z-6.000 F600.000 
G1 X353.425 Y123.220 Z-6.000 F600.000 
G1 X352.972 Y123.743 Z-6.000 F600.000 
G1 X352.484 Y124.201 Z-6.000 F600.000 
G1 X351.951 Y124.601 Z-6.000 F600.000 
G1 X351.371 Y124.946 Z-6.000 F600.000 
G1 X350.738 Y125.237 Z-6.000 F600.000 
G1 X350.049 Y125.473 Z-6.000 F600.000 
G1 X349.297 Y125.653 Z-6.000 F600.000 
G1 X348.475 Y125.773 Z-6.000 F600.000 
G1 X347.248 Y125.835 Z-6.000 F600.000 
G1 X346.506 Y125.798 Z-6.000 F600.000 
G1 X345.796 Y125.691 Z-6.000 F600.000 
G1 X345.113 Y125.515 Z-6.000 F600.000 
G1 X344.454 Y125.269 Z-6.000 F600.000 
G1 X343.817 Y124.954 Z-6.000 F600.000 
G1 X343.068 Y124.504 Z-6.000 F600.000 
G1 X342.376 Y124.003 Z-6.000 F600.000 
G1 X341.737 Y123.450 Z-6.000 F600.000 
G1 X341.083 Y122.771 Z-6.000 F600.000 
G1 X340.517 Y122.069 Z-6.000 F600.000 
G1 X340.022 Y121.339 Z-6.000 F600.000 
G1 X339.594 Y120.579 Z-6.000 F600.000 
G1 X339.266 Y119.872 Z-6.000 F600.000 
G1 X338.964 Y119.044 Z-6.000 F600.000 
G1 X338.751 Y118.247 Z-6.000 F600.000 
G1 X338.620 Y117.479 Z-6.000 F600.000 
G1 X338.569 Y116.844 Z-6.000 F600.000 
G1 X338.569 Y116.844 Z-9.000 F600.000 
G1 X338.633 Y117.583 Z-9.000 F600.000 
G1 X338.772 Y118.342 Z-9.000 F600.000 
G1 X338.991 Y119.126 Z-9.000 F600.000 
G1 X339.266 Y119.872 Z-9.000 F600.000 
G1 X339.636 Y120.662 Z-9.000 F600.000 
G1 X340.070 Y121.417 Z-9.000 F600.000 
G1 X340.570 Y122.140 Z-9.000 F600.000 
G1 X341.083 Y122.771 Z-9.000 F600.000 
G1 X341.667 Y123.384 Z-9.000 F600.000 
G1 X342.300 Y123.942 Z-9.000 F600.000 
G1 X342.982 Y124.446 Z-9.000 F600.000 
G1 X343.817 Y124.954 Z-9.000 F600.000 
G1 X344.461 Y125.272 Z-9.000 F600.000 
G1 X345.122 Y125.517 Z-9.000 F600.000 
G1 X345.803 Y125.693 Z-9.000 F600.000 
G1 X346.508 Y125.799 Z-9.000 F600.000 
G1 X347.248 Y125.835 Z-9.000 F600.000 
G1 X348.200 Y125.798 Z-9.000 F600.000 
G1 X349.067 Y125.694 Z-9.000 F600.000 
G1 X349.856 Y125.526 Z-9.000 F600.000 
G1 X350.575 Y125.300 Z-9.000 F600.000 
G1 X351.230 Y125.018 Z-9.000 F600.000 
G1 X351.828 Y124.682 Z-9.000 F600.000 
G1 X352.373 Y124.293 Z-9.000 F600.000 
G1 X352.972 Y123.743 Z-9.000 F600.000 
G1 X353.420 Y123.227 Z-9.000 F600.000 
G1 X353.810 Y122.666 Z-9.000 F600.000 
G1 X354.145 Y122.056 Z-9.000 F600.000 
G1 X354.426 Y121.393 Z-9.000 F600.000 
G1 X354.651 Y120.672 Z-9.000 F600.000 
G1 X354.820 Y119.888 Z-9.000 F600.000 
G1 X354.928 Y119.033 Z-9.000 F600.000 
G1 X354.972 Y117.963 Z-9.000 F600.000 
G1 X354.972 Y100.000 Z-9.000 F600.000 
G1 X354.972 Y117.963 Z-9.000 F600.000 
G1 X354.936 Y118.933 Z-9.000 F600.000 
G1 X354.831 Y119.818 Z-9.000 F600.000 
G1 X354.663 Y120.626 Z-9.000 F600.000 
G1 X354.436 Y121.364 Z-9.000 F600.000 
G1 X354.153 Y122.039 Z-9.000 F600.000 
G1 X353.816 Y122.656 Z-9.000 F600.000 
G1 X353.425 Y123.220 Z-9.000 F600.000 
G1 X352.972 Y123.743 Z-9.000 F600.000 
G1 X352.484 Y124.201 Z-9.000 F600.000 
G1 X351.951 Y124.601 Z-9.000 F600.000 
G1 X351.371 Y124.946 Z-9.000 F600.000 
G1 X350.738 Y125.237 Z-9.000 F600.000 
G1 X350.049 Y125.473 Z-9.000 F600.000 
G1 X349.297 Y125.653 Z-9.000 F600.000 
G1 X348.475 Y125.773 Z-9.000 F600.000 
G1 X347.248 Y125.835 Z-9.000 F600.000 
G1 X346.506 Y125.798 Z-9.000 F600.000 
G1 X345.796 Y125.691 Z-9.000 F600.000 
G1 X345.113 Y125.515 Z-9.000 F600.000 
G1 X344.454 Y125.269 Z-9.000 F600.000 
G1 X343.817 Y124.954 Z-9.000 F600.000 
G1 X343.068 Y124.504 Z-9.000 F600.000 
G1 X342.376 Y124.003 Z-9.000 F600.000 
G1 X341.737 Y123.450 Z-9.000 F600.000 
G1 X341.083 Y122.771 Z-9.000 F600.000 
G1 X340.517 Y122.069 Z-9.000 F600.000 
G1 X340.022 Y121.339 Z-9.000 F600.000 
G1 X339.594 Y120.579 Z-9.000 F600.000 
G1 X339.266 Y119.872 Z-9.000 F600.000 
G1 X338.964 Y119.044 Z-9.000 F600.000 
G1 X338.751 Y118.247 Z-9.000 F600.000 
G1 X338.620 Y117.479 Z-9.000 F600.000 
G1 X338.569 Y116.844 Z-9.000 F600.000 
G1 X338.569 Y116.844 Z-10.000 F600.000 
G1 X338.633 Y117.583 Z-10.000 F600.000 
G1 X338.772 Y118.342 Z-10.000 F600.000 
G1 X338.991 Y119.126 Z-10.000 F600.000 
G1 X339.266 Y119.872 Z-10.000 F600.000 
G1 X339.636 Y120.662 Z-10.000 F600.000 
G1 X340.070 Y121.417 Z-10.000 F600.000 
G1 X340.570 Y122.140 Z-10.000 F600.000 
G1 X341.083 Y122.771 Z-10.000 F600.000 
G1 X341.667 Y123.384 Z-10.000 F600.000 
G1 X342.300 Y123.942 Z-10.000 F600.000 
G1 X342.982 Y124.446 Z-10.000 F600.000 
G1 X343.817 Y124.954 Z-10.000 F600.000 
G1 X344.461 Y125.272 Z-10.000 F600.000 
G1 X345.122 Y125.517 Z-10.000 F600.000 
G1 X345.803 Y125.693 Z-10.000 F600.000 
G1 X346.508 Y125.799 Z-10.000 F600.000 
G1 X347.248 Y125.835 Z-10.000 F600.000 
G1 X348.200 Y125.798 Z-10.000 F600.000 
G1 X349.067 Y125.694 Z-10.000 F600.000 
G1 X349.856 Y125.526 Z-10.000 F600.000 
G1 X350.575 Y125.300 Z-10.000 F600.000 
G1 X351.230 Y125.018 Z-10.000 F600.000 
G1 X351.828 Y124.682 Z-10.000 F600.000 
G1 X352.373 Y124.293 Z-10.000 F600.000 
G1 X352.972 Y123.743 Z-10.000 F600.000 
G1 X353.420 Y123.227 Z-10.000 F600.000 
G1 X353.810 Y122.666 Z-10.000 F600.000 
G1 X354.145 Y122.056 Z-10.000 F600.000 
G1 X354.426 Y121.393 Z-10.000 F600.000 
G1 X354.651 Y120.672 Z-10.000 F600.000 
G1 X354.820 Y119.888 Z-10.000 F600.000 
G1 X354.928 Y119.033 Z-10.000 F600.000 
G1 X354.972 Y117.963 Z-10.000 F600.000 
G1 X354.972 Y100.000 Z-10.000 F600.000 
G1 X354.972 Y117.963 Z-10.000 F600.000 
G1 X354.936 Y118.933 Z-10.000 F600.000 
G1 X354.831 Y119.818 Z-10.000 F600.000 
G1 X354.663 Y120.626 Z-10.000 F600.000 
G1 X354.436 Y121.364 Z-10.000 F600.000 
G1 X354.153 Y122.039 Z-10.000 F600.000 
G1 X353.816 Y122.656 Z-10.000 F600.000 
G1 X353.425 Y123.220 Z-10.000 F600.000 
G1 X352.972 Y123.743 Z-10.000 F600.000 
G1 X352.484 Y124.201 Z-10.000 F600.000 
G1 X351.951 Y124.601 Z-10.000 F600.000 
G1 X351.371 Y124.946 Z-10.000 F600.000 
G1 X350.738 Y125.237 Z-10.000 F600.000 
G1 X350.049 Y125.473 Z-10.000 F600.000 
G1 X349.297 Y125.653 Z-10.000 F600.000 
G1 X348.475 Y125.773 Z-10.000 F600.000 
G1 X347.248 Y125.835 Z-10.000 F600.000 
G1 X346.506 Y125.798 Z-10.000 F600.000 
G1 X345.796 Y125.691 Z-10.000 F600.000 
G1 X345.113 Y125.515 Z-10.000 F600.000 
G1 X344.454 Y125.269 Z-10.000 F600.000 
G1 X343.817 Y124.954 Z-10.000 F600.000 
G1 X343.068 Y124.504 Z-10.000 F600.000 
G1 X342.376 Y124.003 Z-10.000 F600.000 
G1 X341.737 Y123.450 Z-10.000 F600.000 
G1 X341.083 Y122.771 Z-10.000 F600.000 
G1 X340.517 Y122.069 Z-10.000 F600.000 
G1 X340.022 Y121.339 Z-10.000 F600.000 
G1 X339.594 Y120.579 Z-10.000 F600.000 
G1 X339.266 Y119.872 Z-10.000 F600.000 
G1 X338.964 Y119.044 Z-10.000 F600.000 
G1 X338.751 Y118.247 Z-10.000 F600.000 
G1 X338.620 Y117.479 Z-10.000 F600.000 
G1 X338.569 Y116.844 Z-10.000 F600.000 
G0 Z6.000 
G0 Z6.000 
G0 X373.193 Y148.147 
G0 Z4.000 
G1 X373.193 Y148.147 Z-3.000 F600.000 
G1 X373.193 Y135.229 Z-3.000 F600.000 
G1 X373.193 Y148.147 Z-3.000 F600.000 
G1 X373.193 Y148.147 Z-6.000 F600.000 
G1 X373.193 Y135.229 Z-6.000 F600.000 
G1 X373.193 Y148.147 Z-6.000 F600.000 
G1 X373.193 Y148.147 Z-9.000 F600.000 
G1 X373.193 Y135.229 Z-9.000 F600.000 
G1 X373.193 Y148.147 Z-9.000 F600.000 
G1 X373.193 Y148.147 Z-10.000 F600.000 
G1 X373.193 Y135.229 Z-10.000 F600.000 
G1 X373.193 Y148.147 Z-10.000 F600.000 
G0 Z6.000 
G0 Z6.000 
G0 X390.220 Y105.853 
G0 Z4.000 
G1 X390.220 Y105.853 Z-3.000 F600.000 
G1 X390.700 Y104.885 Z-3.000 F600.000 
G1 X391.321 Y103.817 Z-3.000 F600.000 
G1 X391.768 Y103.170 Z-3.000 F600.000 
G1 X392.278 Y102.560 Z-3.000 F600.000 
G1 X392.580 Y102.247 Z-3.000 F600.000 
G1 X392.899 Y101.945 Z-3.000 F600.000 
G1 X393.485 Y101.477 Z-3.000 F600.000 
G1 X394.137 Y101.049 Z-3.000 F600.000 
G1 X394.606 Y100.789 Z-3.000 F600.000 
G1 X395.101 Y100.550 Z-3.000 F600.000 
G1 X395.712 Y100.324 Z-3.000 F600.000 
G1 X396.381 Y100.155 Z-3.000 F600.000 
G1 X397.113 Y100.046 Z-3.000 F600.000 
G1 X398.055 Y100.000 Z-3.000 F600.000 
G1 X398.875 Y100.036 Z-3.000 F600.000 
G1 X399.636 Y100.142 Z-3.000 F600.000 
G1 X400.346 Y100.314 Z-3.000 F600.000 
G1 X401.101 Y100.587 Z-3.000 F600.000 
G1 X401.790 Y100.925 Z-3.000 F600.000 
G1 X402.416 Y101.312 Z-3.000 F600.000 
G1 X402.985 Y101.749 Z-3.000 F600.000 
G1 X403.431 Y102.165 Z-3.000 F600.000 
G1 X403.916 Y102.711 Z-3.000 F600.000 
G1 X404.332 Y103.288 Z-3.000 F600.000 
G1 X404.683 Y103.899 Z-3.000 F600.000 
G1 X404.936 Y104.459 Z-3.000 F600.000 
G1 X405.168 Y105.137 Z-3.000 F600.000 
G1 X405.331 Y105.838 Z-3.000 F600.000 
G1 X405.425 Y106.564 Z-3.000 F600.000 
G1 X405.450 Y107.193 Z-3.000 F600.000 
G1 X405.413 Y108.023 Z-3.000 F600.000 
G1 X405.312 Y108.723 Z-3.000 F600.000 
G1 X405.211 Y109.131 Z-3.000 F600.000 
G1 X405.083 Y109.505 Z-3.000 F600.000 
G1 X404.797 Y110.133 Z-3.000 F600.000 
G1 X404.485 Y110.648 Z-3.000 F600.000 
G1 X404.338 Y110.845 Z-3.000 F600.000 
G1 X404.183 Y111.028 Z-3.000 F600.000 
G1 X403.746 Y111.456 Z-3.000 F600.000 
G1 X403.300 Y111.793 Z-3.000 F600.000 
G1 X403.174 Y111.872 Z-3.000 F600.000 
G1 X403.046 Y111.945 Z-3.000 F600.000 
G1 X402.477 Y112.248 Z-3.000 F600.000 
G1 X401.945 Y112.495 Z-3.000 F600.000 
G1 X396.477 Y115.064 Z-3.000 F600.000 
G1 X395.174 Y115.761 Z-3.000 F600.000 
G1 X394.557 Y116.146 Z-3.000 F600.000 
G1 X393.890 Y116.661 Z-3.000 F600.000 
G1 X393.511 Y117.032 Z-3.000 F600.000 
G1 X393.170 Y117.468 Z-3.000 F600.000 
G1 X393.000 Y117.734 Z-3.000 F600.000 
G1 X392.844 Y118.018 Z-3.000 F600.000 
G1 X392.655 Y118.478 Z-3.000 F600.000 
G1 X392.519 Y119.003 Z-3.000 F600.000 
G1 X392.440 Y119.602 Z-3.000 F600.000 
G1 X392.422 Y120.092 Z-3.000 F600.000 
G1 X392.458 Y120.856 Z-3.000 F600.000 
G1 X392.564 Y121.558 Z-3.000 F600.000 
G1 X392.734 Y122.205 Z-3.000 F600.000 
G1 X392.965 Y122.802 Z-3.000 F600.000 
G1 X393.257 Y123.355 Z-3.000 F600.000 
G1 X393.611 Y123.869 Z-3.000 F600.000 
G1 X393.908 Y124.220 Z-3.000 F600.000 
G1 X394.350 Y124.641 Z-3.000 F600.000 
G1 X394.826 Y124.994 Z-3.000 F600.000 
G1 X395.339 Y125.285 Z-3.000 F600.000 
G1 X395.894 Y125.515 Z-3.000 F600.000 
G1 X396.493 Y125.684 Z-3.000 F600.000 
G1 X397.145 Y125.792 Z-3.000 F600.000 
G1 X397.945 Y125.835 Z-3.000 F600.000 
G1 X398.812 Y125.798 Z-3.000 F600.000 
G1 X399.607 Y125.693 Z-3.000 F600.000 
G1 X400.335 Y125.524 Z-3.000 F600.000 
G1 X401.005 Y125.295 Z-3.000 F600.000 
G1 X401.620 Y125.008 Z-3.000 F600.000 
G1 X401.869 Y124.867 Z-3.000 F600.000 
G1 X402.110 Y124.716 Z-3.000 F600.000 
G1 X402.761 Y124.245 Z-3.000 F600.000 
G1 X403.260 Y123.798 Z-3.000 F600.000 
G1 X403.628 Y123.373 Z-3.000 F600.000 
G1 X403.886 Y122.966 Z-3.000 F600.000 
G1 X404.092 Y122.422 Z-3.000 F600.000 
G1 X403.966 Y122.798 Z-3.000 F600.000 
G1 X403.760 Y123.182 Z-3.000 F600.000 
G1 X403.464 Y123.577 Z-3.000 F600.000 
G1 X403.062 Y123.988 Z-3.000 F600.000 
G1 X402.536 Y124.419 Z-3.000 F600.000 
G1 X402.329 Y124.567 Z-3.000 F600.000 
G1 X402.110 Y124.716 Z-3.000 F600.000 
G1 X401.539 Y125.051 Z-3.000 F600.000 
G1 X400.923 Y125.327 Z-3.000 F600.000 
G1 X400.257 Y125.546 Z-3.000 F600.000 
G1 X399.537 Y125.706 Z-3.000 F600.000 
G1 X398.757 Y125.803 Z-3.000 F600.000 
G1 X398.356 Y125.827 Z-3.000 F600.000 
G1 X397.945 Y125.835 Z-3.000 F600.000 
G1 X397.208 Y125.798 Z-3.000 F600.000 
G1 X396.537 Y125.694 Z-3.000 F600.000 
G1 X395.923 Y125.525 Z-3.000 F600.000 
G1 X395.361 Y125.295 Z-3.000 F600.000 
G1 X394.844 Y125.006 Z-3.000 F600.000 
G1 X394.369 Y124.657 Z-3.000 F600.000 
G1 X393.908 Y124.220 Z-3.000 F600.000 
G1 X393.506 Y123.729 Z-3.000 F600.000 
G1 X393.169 Y123.204 Z-3.000 F600.000 
G1 X392.895 Y122.642 Z-3.000 F600.000 
G1 X392.683 Y122.039 Z-3.000 F600.000 
G1 X392.532 Y121.390 Z-3.000 F600.000 
G1 X392.444 Y120.690 Z-3.000 F600.000 
G1 X392.422 Y120.092 Z-3.000 F600.000 
G1 X392.458 Y119.403 Z-3.000 F600.000 
G1 X392.561 Y118.807 Z-3.000 F600.000 
G1 X392.722 Y118.292 Z-3.000 F600.000 
G1 X392.844 Y118.018 Z-3.000 F600.000 
G1 X393.155 Y117.490 Z-3.000 F600.000 
G1 X393.502 Y117.041 Z-3.000 F600.000 
G1 X393.691 Y116.843 Z-3.000 F600.000 
G1 X393.890 Y116.661 Z-3.000 F600.000 
G1 X394.514 Y116.176 Z-3.000 F600.000 
G1 X395.174 Y115.761 Z-3.000 F600.000 
G1 X396.477 Y115.064 Z-3.000 F600.000 
G1 X401.945 Y112.495 Z-3.000 F600.000 
G1 X402.477 Y112.248 Z-3.000 F600.000 
G1 X403.046 Y111.945 Z-3.000 F600.000 
G1 X403.488 Y111.662 Z-3.000 F600.000 
G1 X403.918 Y111.300 Z-3.000 F600.000 
G1 X404.052 Y111.168 Z-3.000 F600.000 
G1 X404.183 Y111.028 Z-3.000 F600.000 
G1 X404.507 Y110.617 Z-3.000 F600.000 
G1 X404.805 Y110.118 Z-3.000 F600.000 
G1 X404.949 Y109.822 Z-3.000 F600.000 
G1 X405.083 Y109.505 Z-3.000 F600.000 
G1 X405.251 Y108.985 Z-3.000 F600.000 
G1 X405.372 Y108.371 Z-3.000 F600.000 
G1 X405.439 Y107.647 Z-3.000 F600.000 
G1 X405.450 Y107.193 Z-3.000 F600.000 
G1 X405.413 Y106.433 Z-3.000 F600.000 
G1 X405.306 Y105.706 Z-3.000 F600.000 
G1 X405.130 Y105.008 Z-3.000 F600.000 
G1 X404.936 Y104.459 Z-3.000 F600.000 
G1 X404.639 Y103.814 Z-3.000 F600.000 
G1 X404.280 Y103.208 Z-3.000 F600.000 
G1 X403.857 Y102.638 Z-3.000 F600.000 
G1 X403.431 Y102.165 Z-3.000 F600.000 
G1 X402.909 Y101.685 Z-3.000 F600.000 
G1 X402.337 Y101.258 Z-3.000 F600.000 
G1 X401.710 Y100.881 Z-3.000 F600.000 
G1 X401.101 Y100.587 Z-3.000 F600.000 
G1 X400.450 Y100.345 Z-3.000 F600.000 
G1 X399.758 Y100.166 Z-3.000 F600.000 
G1 X399.019 Y100.051 Z-3.000 F600.000 
G1 X398.055 Y100.000 Z-3.000 F600.000 
G1 X397.215 Y100.036 Z-3.000 F600.000 
G1 X396.454 Y100.141 Z-3.000 F600.000 
G1 X395.765 Y100.308 Z-3.000 F600.000 
G1 X395.101 Y100.550 Z-3.000 F600.000 
G1 X394.339 Y100.933 Z-3.000 F600.000 
G1 X393.656 Y101.356 Z-3.000 F600.000 
G1 X393.266 Y101.641 Z-3.000 F600.000 
G1 X392.899 Y101.945 Z-3.000 F600.000 
G1 X392.313 Y102.523 Z-3.000 F600.000 
G1 X391.795 Y103.134 Z-3.000 F600.000 
G1 X391.550 Y103.470 Z-3.000 F600.000 
G1 X391.321 Y103.817 Z-3.000 F600.000 
G1 X390.726 Y104.838 Z-3.000 F600.000 
G1 X390.220 Y105.853 Z-3.000 F600.000 
G1 X390.220 Y105.853 Z-6.000 F600.000 
G1 X390.700 Y104.885 Z-6.000 F600.000 
G1 X391.321 Y103.817 Z-6.000 F600.000 
G1 X391.768 Y103.170 Z-6.000 F600.000 
G1 X392.278 Y102.560 Z-6.000 F600.000 
G1 X392.580 Y102.247 Z-6.000 F600.000 
G1 X392.899 Y101.945 Z-6.000 F600.000 
G1 X393.485 Y101.477 Z-6.000 F600.000 
G1 X394.137 Y101.049 Z-6.000 F600.000 
G1 X394.606 Y100.789 Z-6.000 F600.000 
G1 X395.101 Y100.550 Z-6.000 F600.000 
G1 X395.712 Y100.324 Z-6.000 F600.000 
G1 X396.381 Y100.155 Z-6.000 F600.000 
G1 X397.113 Y100.046 Z-6.000 F600.000 
G1 X398.055 Y100.000 Z-6.000 F600.000 
G1 X398.875 Y100.036 Z-6.000 F600.000 
G1 X399.636 Y100.142 Z-6.000 F600.000 
G1 X400.346 Y100.314 Z-6.000 F600.000 
G1 X401.101 Y100.587 Z-6.000 F600.000 
G1 X401.790 Y100.925 Z-6.000 F600.000 
G1 X402.416 Y101.312 Z-6.000 F600.000 
G1 X402.985 Y101.749 Z-6.000 F600.000 
G1 X403.431 Y102.165 Z-6.000 F600.000 
G1 X403.916 Y102.711 Z-6.000 F600.000 
G1 X404.332 Y103.288 Z-6.000 F600.000 
G1 X404.683 Y103.899 Z-6.000 F600.000 
G1 X404.936 Y104.459 Z-6.000 F600.000 
G1 X405.168 Y105.137 Z-6.000 F600.000 
G1 X405.331 Y105.838 Z-6.000 F600.000 
G1 X405.425 Y106.564 Z-6.000 F600.000 
G1 X405.450 Y107.193 Z-6.000 F600.000 
G1 X405.413 Y108.023 Z-6.000 F600.000 
G1 X405.312 Y108.723 Z-6.000 F600.000 
G1 X405.211 Y109.131 Z-6.000 F600.000 
G1 X405.083 Y109.505 Z-6.000 F600.000 
G1 X404.797 Y110.133 Z-6.000 F600.000 
G1 X404.485 Y110.648 Z-6.000 F600.000 
G1 X404.338 Y110.845 Z-6.000 F600.000 
G1 X404.183 Y111.028 Z-6.000 F600.000 
G1 X403.746 Y111.456 Z-6.000 F600.000 
G1 X403.300 Y111.793 Z-6.000 F600.000 
G1 X403.174 Y111.872 Z-6.000 F600.000 
G1 X403.046 Y111.945 Z-6.000 F600.000 
G1 X402.477 Y112.248 Z-6.000 F600.000 
G1 X401.945 Y112.495 Z-6.000 F600.000 
G1 X396.477 Y115.064 Z-6.000 F600.000 
G1 X395.174 Y115.761 Z-6.000 F600.000 
G1 X394.557 Y116.146 Z-6.000 F600.000 
G1 X393.890 Y116.661 Z-6.000 F600.000 
G1 X393.511 Y117.032 Z-6.000 F600.000 
G1 X393.170 Y117.468 Z-6.000 F600.000 
G1 X393.000 Y117.734 Z-6.000 F600.000 
G1 X392.844 Y118.018 Z-6.000 F600.000 
G1 X392.655 Y118.478 Z-6.000 F600.000 
G1 X392.519 Y119.003 Z-6.000 F600.000 
G1 X392.440 Y119.602 Z-6.000 F600.000 
G1 X392.422 Y120.092 Z-6.000 F600.000 
G1 X392.458 Y120.856 Z-6.000 F600.000 
G1 X392.564 Y121.558 Z-6.000 F600.000 
G1 X392.734 Y122.205 Z-6.000 F600.000 
G1 X392.965 Y122.802 Z-6.000 F600.000 
G1 X393.257 Y123.355 Z-6.000 F600.000 
G1 X393.611 Y123.869 Z-6.000 F600.000 
G1 X393.908 Y124.220 Z-6.000 F600.000 
G1 X394.350 Y124.641 Z-6.000 F600.000 
G1 X394.826 Y124.994 Z-6.000 F600.000 
G1 X395.339 Y125.285 Z-6.000 F600.000 
G1 X395.894 Y125.515 Z-6.000 F600.000 
G1 X396.493 Y125.684 Z-6.000 F600.000 
G1 X397.145 Y125.792 Z-6.000 F600.000 
G1 X397.945 Y125.835 Z-6.000 F600.000 
G1 X398.812 Y125.798 Z-6.000 F600.000 
G1 X399.607 Y125.693 Z-6.000 F600.000 
G1 X400.335 Y125.524 Z-6.000 F600.000 
G1 X401.005 Y125.295 Z-6.000 F600.000 
G1 X401.620 Y125.008 Z-6.000 F600.000 
G1 X401.869 Y124.867 Z-6.000 F600.000 
G1 X402.110 Y124.716 Z-6.000 F600.000 
G1 X402.761 Y124.245 Z-6.000 F600.000 
G1 X403.260 Y123.798 Z-6.000 F600.000 
G1 X403.628 Y123.373 Z-6.000 F600.000 
G1 X403.886 Y122.966 Z-6.000 F600.000 
G1 X404.092 Y122.422 Z-6.000 F600.000 
G1 X403.966 Y122.798 Z-6.000 F600.000 
G1 X403.760 Y123.182 Z-6.000 F600.000 
G1 X403.464 Y123.577 Z-6.000 F600.000 
G1 X403.062 Y123.988 Z-6.000 F600.000 
G1 X402.536 Y124.419 Z-6.000 F600.000 
G1 X402.329 Y124.567 Z-6.000 F600.000 
G1 X402.110 Y124.716 Z-6.000 F600.000 
G1 X401.539 Y125.051 Z-6.000 F600.000 
G1 X400.923 Y125.327 Z-6.000 F600.000 
G1 X400.257 Y125.546 Z-6.000 F600.000 
G1 X399.537 Y125.706 Z-6.000 F600.000 
G1 X398.757 Y125.803 Z-6.000 F600.000 
G1 X398.356 Y125.827 Z-6.000 F600.000 
G1 X397.945 Y125.835 Z-6.000 F600.000 
G1 X397.208 Y125.798 Z-6.000 F600.000 
G1 X396.537 Y125.694 Z-6.000 F600.000 
G1 X395.923 Y125.525 Z-6.000 F600.000 
G1 X395.361 Y125.295 Z-6.000 F600.000 
G1 X394.844 Y125.006 Z-6.000 F600.000 
G1 X394.369 Y124.657 Z-6.000 F600.000 
G1 X393.908 Y124.220 Z-6.000 F600.000 
G1 X393.506 Y123.729 Z-6.000 F600.000 
G1 X393.169 Y123.204 Z-6.000 F600.000 
G1 X392.895 Y122.642 Z-6.000 F600.000 
G1 X392.683 Y122.039 Z-6.000 F600.000 
G1 X392.532 Y121.390 Z-6.000 F600.000 
G1 X392.444 Y120.690 Z-6.000 F600.000 
G1 X392.422 Y120.092 Z-6.000 F600.000 
G1 X392.458 Y119.403 Z-6.000 F600.000 
G1 X392.561 Y118.807 Z-6.000 F600.000 
G1 X392.722 Y118.292 Z-6.000 F600.000 
G1 X392.844 Y118.018 Z-6.000 F600.000 
G1 X393.155 Y117.490 Z-6.000 F600.000 
G1 X393.502 Y117.041 Z-6.000 F600.000 
G1 X393.691 Y116.843 Z-6.000 F600.000 
G1 X393.890 Y116.661 Z-6.000 F600.000 
G1 X394.514 Y116.176 Z-6.000 F600.000 
G1 X395.174 Y115.761 Z-6.000 F600.000 
G1 X396.477 Y115.064 Z-6.000 F600.000 
G1 X401.945 Y112.495 Z-6.000 F600.000 
G1 X402.477 Y112.248 Z-6.000 F600.000 
G1 X403.046 Y111.945 Z-6.000 F600.000 
G1 X403.488 Y111.662 Z-6.000 F600.000 
G1 X403.918 Y111.300 Z-6.000 F600.000 
G1 X404.052 Y111.168 Z-6.000 F600.000 
G1 X404.183 Y111.028 Z-6.000 F600.000 
G1 X404.507 Y110.617 Z-6.000 F600.000 
G1 X404.805 Y110.118 Z-6.000 F600.000 
G1 X404.949 Y109.822 Z-6.000 F600.000 
G1 X405.083 Y109.505 Z-6.000 F600.000 
G1 X405.251 Y108.985 Z-6.000 F600.000 
G1 X405.372 Y108.371 Z-6.000 F600.000 
G1 X405.439 Y107.647 Z-6.000 F600.000 
G1 X405.450 Y107.193 Z-6.000 F600.000 
G1 X405.413 Y106.433 Z-6.000 F600.000 
G1 X405.306 Y105.706 Z-6.000 F600.000 
G1 X405.130 Y105.008 Z-6.000 F600.000 
G1 X404.936 Y104.459 Z-6.000 F600.000 
G1 X404.639 Y103.814 Z-6.000 F600.000 
G1 X404.280 Y103.208 Z-6.000 F600.000 
G1 X403.857 Y102.638 Z-6.000 F600.000 
G1 X403.431 Y102.165 Z-6.000 F600.000 
G1 X402.909 Y101.685 Z-6.000 F600.000 
G1 X402.337 Y101.258 Z-6.000 F600.000 
G1 X401.710 Y100.881 Z-6.000 F600.000 
G1 X401.101 Y100.587 Z-6.000 F600.000 
G1 X400.450 Y100.345 Z-6.000 F600.000 
G1 X399.758 Y100.166 Z-6.000 F600.000 
G1 X399.019 Y100.051 Z-6.000 F600.000 
G1 X398.055 Y100.000 Z-6.000 F600.000 
G1 X397.215 Y100.036 Z-6.000 F600.000 
G1 X396.454 Y100.141 Z-6.000 F600.000 
G1 X395.765 Y100.308 Z-6.000 F600.000 
G1 X395.101 Y100.550 Z-6.000 F600.000 
G1 X394.339 Y100.933 Z-6.000 F600.000 
G1 X393.656 Y101.356 Z-6.000 F600.000 
G1 X393.266 Y101.641 Z-6.000 F600.000 
G1 X392.899 Y101.945 Z-6.000 F600.000 
G1 X392.313 Y102.523 Z-6.000 F600.000 
G1 X391.795 Y103.134 Z-6.000 F600.000 
G1 X391.550 Y103.470 Z-6.000 F600.000 
G1 X391.321 Y103.817 Z-6.000 F600.000 
G1 X390.726 Y104.838 Z-6.000 F600.000 
G1 X390.220 Y105.853 Z-6.000 F600.000 
G1 X390.220 Y105.853 Z-9.000 F600.000 
G1 X390.700 Y104.885 Z-9.000 F600.000 
G1 X391.321 Y103.817 Z-9.000 F600.000 
G1 X391.768 Y103.170 Z-9.000 F600.000 
G1 X392.278 Y102.560 Z-9.000 F600.000 
G1 X392.580 Y102.247 Z-9.000 F600.000 
G1 X392.899 Y101.945 Z-9.000 F600.000 
G1 X393.485 Y101.477 Z-9.000 F600.000 
G1 X394.137 Y101.049 Z-9.000 F600.000 
G1 X394.606 Y100.789 Z-9.000 F600.000 
G1 X395.101 Y100.550 Z-9.000 F600.000 
G1 X395.712 Y100.324 Z-9.000 F600.000 
G1 X396.381 Y100.155 Z-9.000 F600.000 
G1 X397.113 Y100.046 Z-9.000 F600.000 
G1 X398.055 Y100.000 Z-9.000 F600.000 
G1 X398.875 Y100.036 Z-9.000 F600.000 
G1 X399.636 Y100.142 Z-9.000 F600.000 
G1 X400.346 Y100.314 Z-9.000 F600.000 
G1 X401.101 Y100.587 Z-9.000 F600.000 
G1 X401.790 Y100.925 Z-9.000 F600.000 
G1 X402.416 Y101.312 Z-9.000 F600.000 
G1 X402.985 Y101.749 Z-9.000 F600.000 
G1 X403.431 Y102.165 Z-9.000 F600.000 
G1 X403.916 Y102.711 Z-9.000 F600.000 
G1 X404.332 Y103.288 Z-9.000 F600.000 
G1 X404.683 Y103.899 Z-9.000 F600.000 
G1 X404.936 Y104.459 Z-9.000 F600.000 
G1 X405.168 Y105.137 Z-9.000 F600.000 
G1 X405.331 Y105.838 Z-9.000 F600.000 
G1 X405.425 Y106.564 Z-9.000 F600.000 
G1 X405.450 Y107.193 Z-9.000 F600.000 
G1 X405.413 Y108.023 Z-9.000 F600.000 
G1 X405.312 Y108.723 Z-9.000 F600.000 
G1 X405.211 Y109.131 Z-9.000 F600.000 
G1 X405.083 Y109.505 Z-9.000 F600.000 
G1 X404.797 Y110.133 Z-9.000 F600.000 
G1 X404.485 Y110.648 Z-9.000 F600.000 
G1 X404.338 Y110.845 Z-9.000 F600.000 
G1 X404.183 Y111.028 Z-9.000 F600.000 
G1 X403.746 Y111.456 Z-9.000 F600.000 
G1 X403.300 Y111.793 Z-9.000 F600.000 
G1 X403.174 Y111.872 Z-9.000 F600.000 
G1 X403.046 Y111.945 Z-9.000 F600.000 
G1 X402.477 Y112.248 Z-9.000 F600.000 
G1 X401.945 Y112.495 Z-9.000 F600.000 
G1 X396.477 Y115.064 Z-9.000 F600.000 
G1 X395.174 Y115.761 Z-9.000 F600.000 
G1 X394.557 Y116.146 Z-9.000 F600.000 
G1 X393.890 Y116.661 Z-9.000 F600.000 
G1 X393.511 Y117.032 Z-9.000 F600.000 
G1 X393.170 Y117.468 Z-9.000 F600.000 
G1 X393.000 Y117.734 Z-9.000 F600.000 
G1 X392.844 Y118.018 Z-9.000 F600.000 
G1 X392.655 Y118.478 Z-9.000 F600.000 
G1 X392.519 Y119.003 Z-9.000 F600.000 
G1 X392.440 Y119.602 Z-9.000 F600.000 
G1 X392.422 Y120.092 Z-9.000 F600.000 
G1 X392.458 Y120.856 Z-9.000 F600.000 
G1 X392.564 Y121.558 Z-9.000 F600.000 
G1 X392.734 Y122.205 Z-9.000 F600.000 
G1 X392.965 Y122.802 Z-9.000 F600.000 
G1 X393.257 Y123.355 Z-9.000 F600.000 
G1 X393.611 Y123.869 Z-9.000 F600.000 
G1 X393.908 Y124.220 Z-9.000 F600.000 
G1 X394.350 Y124.641 Z-9.000 F600.000 
G1 X394.826 Y124.994 Z-9.000 F600.000 
G1 X395.339 Y125.285 Z-9.000 F600.000 
G1 X395.894 Y125.515 Z-9.000 F600.000 
G1 X396.493 Y125.684 Z-9.000 F600.000 
G1 X397.145 Y125.792 Z-9.000 F600.000 
G1 X397.945 Y125.835 Z-9.000 F600.000 
G1 X398.812 Y125.798 Z-9.000 F600.000 
G1 X399.607 Y125.693 Z-9.000 F600.000 
G1 X400.335 Y125.524 Z-9.000 F600.000 
G1 X401.005 Y125.295 Z-9.000 F600.000 
G1 X401.620 Y125.008 Z-9.000 F600.000 
G1 X401.869 Y124.867 Z-9.000 F600.000 
G1 X402.110 Y124.716 Z-9.000 F600.000 
G1 X402.761 Y124.245 Z-9.000 F600.000 
G1 X403.260 Y123.798 Z-9.000 F600.000 
G1 X403.628 Y123.373 Z-9.000 F600.000 
G1 X403.886 Y122.966 Z-9.000 F600.000 
G1 X404.092 Y122.422 Z-9.000 F600.000 
G1 X403.966 Y122.798 Z-9.000 F600.000 
G1 X403.760 Y123.182 Z-9.000 F600.000 
G1 X403.464 Y123.577 Z-9.000 F600.000 
G1 X403.062 Y123.988 Z-9.000 F600.000 
G1 X402.536 Y124.419 Z-9.000 F600.000 
G1 X402.329 Y124.567 Z-9.000 F600.000 
G1 X402.110 Y124.716 Z-9.000 F600.000 
G1 X401.539 Y125.051 Z-9.000 F600.000 
G1 X400.923 Y125.327 Z-9.000 F600.000 
G1 X400.257 Y125.546 Z-9.000 F600.000 
G1 X399.537 Y125.706 Z-9.000 F600.000 
G1 X398.757 Y125.803 Z-9.000 F600.000 
G1 X398.356 Y125.827 Z-9.000 F600.000 
G1 X397.945 Y125.835 Z-9.000 F600.000 
G1 X397.208 Y125.798 Z-9.000 F600.000 
G1 X396.537 Y125.694 Z-9.000 F600.000 
G1 X395.923 Y125.525 Z-9.000 F600.000 
G1 X395.361 Y125.295 Z-9.000 F600.000 
G1 X394.844 Y125.006 Z-9.000 F600.000 
G1 X394.369 Y124.657 Z-9.000 F600.000 
G1 X393.908 Y124.220 Z-9.000 F600.000 
G1 X393.506 Y123.729 Z-9.000 F600.000 
G1 X393.169 Y123.204 Z-9.000 F600.000 
G1 X392.895 Y122.642 Z-9.000 F600.000 
G1 X392.683 Y122.039 Z-9.000 F600.000 
G1 X392.532 Y121.390 Z-9.000 F600.000 
G1 X392.444 Y120.690 Z-9.000 F600.000 
G1 X392.422 Y120.092 Z-9.000 F600.000 
G1 X392.458 Y119.403 Z-9.000 F600.000 
G1 X392.561 Y118.807 Z-9.000 F600.000 
G1 X392.722 Y118.292 Z-9.000 F600.000 
G1 X392.844 Y118.018 Z-9.000 F600.000 
G1 X393.155 Y117.490 Z-9.000 F600.000 
G1 X393.502 Y117.041 Z-9.000 F600.000 
G1 X393.691 Y116.843 Z-9.000 F600.000 
G1 X393.890 Y116.661 Z-9.000 F600.000 
G1 X394.514 Y116.176 Z-9.000 F600.000 
G1 X395.174 Y115.761 Z-9.000 F600.000 
G1 X396.477 Y115.064 Z-9.000 F600.000 
G1 X401.945 Y112.495 Z-9.000 F600.000 
G1 X402.477 Y112.248 Z-9.000 F600.000 
G1 X403.046 Y111.945 Z-9.000 F600.000 
G1 X403.488 Y111.662 Z-9.000 F600.000 
G1 X403.918 Y111.300 Z-9.000 F600.000 
G1 X404.052 Y111.168 Z-9.000 F600.000 
G1 X404.183 Y111.028 Z-9.000 F600.000 
G1 X404.507 Y110.617 Z-9.000 F600.000 
G1 X404.805 Y110.118 Z-9.000 F600.000 
G1 X404.949 Y109.822 Z-9.000 F600.000 
G1 X405.083 Y109.505 Z-9.000 F600.000 
G1 X405.251 Y108.985 Z-9.000 F600.000 
G1 X405.372 Y108.371 Z-9.000 F600.000 
G1 X405.439 Y107.647 Z-9.000 F600.000 
G1 X405.450 Y107.193 Z-9.000 F600.000 
G1 X405.413 Y106.433 Z-9.000 F600.000 
G1 X405.306 Y105.706 Z-9.000 F600.000 
G1 X405.130 Y105.008 Z-9.000 F600.000 
G1 X404.936 Y104.459 Z-9.000 F600.000 
G1 X404.639 Y103.814 Z-9.000 F600.000 
G1 X404.280 Y103.208 Z-9.000 F600.000 
G1 X403.857 Y102.638 Z-9.000 F600.000 
G1 X403.431 Y102.165 Z-9.000 F600.000 
G1 X402.909 Y101.685 Z-9.000 F600.000 
G1 X402.337 Y101.258 Z-9.000 F600.000 
G1 X401.710 Y100.881 Z-9.000 F600.000 
G1 X401.101 Y100.587 Z-9.000 F600.000 
G1 X400.450 Y100.345 Z-9.000 F600.000 
G1 X399.758 Y100.166 Z-9.000 F600.000 
G1 X399.019 Y100.051 Z-9.000 F600.000 
G1 X398.055 Y100.000 Z-9.000 F600.000 
G1 X397.215 Y100.036 Z-9.000 F600.000 
G1 X396.454 Y100.141 Z-9.000 F600.000 
G1 X395.765 Y100.308 Z-9.000 F600.000 
G1 X395.101 Y100.550 Z-9.000 F600.000 
G1 X394.339 Y100.933 Z-9.000 F600.000 
G1 X393.656 Y101.356 Z-9.000 F600.000 
G1 X393.266 Y101.641 Z-9.000 F600.000 
G1 X392.899 Y101.945 Z-9.000 F600.000 
G1 X392.313 Y102.523 Z-9.000 F600.000 
G1 X391.795 Y103.134 Z-9.000 F600.000 
G1 X391.550 Y103.470 Z-9.000 F600.000 
G1 X391.321 Y103.817 Z-9.000 F600.000 
G1 X390.726 Y104.838 Z-9.000 F600.000 
G1 X390.220 Y105.853 Z-9.000 F600.000 
G1 X390.220 Y105.853 Z-10.000 F600.000 
G1 X390.700 Y104.885 Z-10.000 F600.000 
G1 X391.321 Y103.817 Z-10.000 F600.000 
G1 X391.768 Y103.170 Z-10.000 F600.000 
G1 X392.278 Y102.560 Z-10.000 F600.000 
G1 X392.580 Y102.247 Z-10.000 F600.000 
G1 X392.899 Y101.945 Z-10.000 F600.000 
G1 X393.485 Y101.477 Z-10.000 F600.000 
G1 X394.137 Y101.049 Z-10.000 F600.000 
G1 X394.606 Y100.789 Z-10.000 F600.000 
G1 X395.101 Y100.550 Z-10.000 F600.000 
G1 X395.712 Y100.324 Z-10.000 F600.000 
G1 X396.381 Y100.155 Z-10.000 F600.000 
G1 X397.113 Y100.046 Z-10.000 F600.000 
G1 X398.055 Y100.000 Z-10.000 F600.000 
G1 X398.875 Y100.036 Z-10.000 F600.000 
G1 X399.636 Y100.142 Z-10.000 F600.000 
G1 X400.346 Y100.314 Z-10.000 F600.000 
G1 X401.101 Y100.587 Z-10.000 F600.000 
G1 X401.790 Y100.925 Z-10.000 F600.000 
G1 X402.416 Y101.312 Z-10.000 F600.000 
G1 X402.985 Y101.749 Z-10.000 F600.000 
G1 X403.431 Y102.165 Z-10.000 F600.000 
G1 X403.916 Y102.711 Z-10.000 F600.000 
G1 X404.332 Y103.288 Z-10.000 F600.000 
G1 X404.683 Y103.899 Z-10.000 F600.000 
G1 X404.936 Y104.459 Z-10.000 F600.000 
G1 X405.168 Y105.137 Z-10.000 F600.000 
G1 X405.331 Y105.838 Z-10.000 F600.000 
G1 X405.425 Y106.564 Z-10.000 F600.000 
G1 X405.450 Y107.193 Z-10.000 F600.000 
G1 X405.413 Y108.023 Z-10.000 F600.000 
G1 X405.312 Y108.723 Z-10.000 F600.000 
G1 X405.211 Y109.131 Z-10.000 F600.000 
G1 X405.083 Y109.505 Z-10.000 F600.000 
G1 X404.797 Y110.133 Z-10.000 F600.000 
G1 X404.485 Y110.648 Z-10.000 F600.000 
G1 X404.338 Y110.845 Z-10.000 F600.000 
G1 X404.183 Y111.028 Z-10.000 F600.000 
G1 X403.746 Y111.456 Z-10.000 F600.000 
G1 X403.300 Y111.793 Z-10.000 F600.000 
G1 X403.174 Y111.872 Z-10.000 F600.000 
G1 X403.046 Y111.945 Z-10.000 F600.000 
G1 X402.477 Y112.248 Z-10.000 F600.000 
G1 X401.945 Y112.495 Z-10.000 F600.000 
G1 X396.477 Y115.064 Z-10.000 F600.000 
G1 X395.174 Y115.761 Z-10.000 F600.000 
G1 X394.557 Y116.146 Z-10.000 F600.000 
G1 X393.890 Y116.661 Z-10.000 F600.000 
G1 X393.511 Y117.032 Z-10.000 F600.000 
G1 X393.170 Y117.468 Z-10.000 F600.000 
G1 X393.000 Y117.734 Z-10.000 F600.000 
G1 X392.844 Y118.018 Z-10.000 F600.000 
G1 X392.655 Y118.478 Z-10.000 F600.000 
G1 X392.519 Y119.003 Z-10.000 F600.000 
G1 X392.440 Y119.602 Z-10.000 F600.000 
G1 X392.422 Y120.092 Z-10.000 F600.000 
G1 X392.458 Y120.856 Z-10.000 F600.000 
G1 X392.564 Y121.558 Z-10.000 F600.000 
G1 X392.734 Y122.205 Z-10.000 F600.000 
G1 X392.965 Y122.802 Z-10.000 F600.000 
G1 X393.257 Y123.355 Z-10.000 F600.000 
G1 X393.611 Y123.869 Z-10.000 F600.000 
G1 X393.908 Y124.220 Z-10.000 F600.000 
G1 X394.350 Y124.641 Z-10.000 F600.000 
G1 X394.826 Y124.994 Z-10.000 F600.000 
G1 X395.339 Y125.285 Z-10.000 F600.000 
G1 X395.894 Y125.515 Z-10.000 F600.000 
G1 X396.493 Y125.684 Z-10.000 F600.000 
G1 X397.145 Y125.792 Z-10.000 F600.000 
G1 X397.945 Y125.835 Z-10.000 F600.000 
G1 X398.812 Y125.798 Z-10.000 F600.000 
G1 X399.607 Y125.693 Z-10.000 F600.000 
G1 X400.335 Y125.524 Z-10.000 F600.000 
G1 X401.005 Y125.295 Z-10.000 F600.000 
G1 X401.620 Y125.008 Z-10.000 F600.000 
G1 X401.869 Y124.867 Z-10.000 F600.000 
G1 X402.110 Y124.716 Z-10.000 F600.000 
G1 X402.761 Y124.245 Z-10.000 F600.000 
G1 X403.260 Y123.798 Z-10.000 F600.000 
G1 X403.628 Y123.373 Z-10.000 F600.000 
G1 X403.886 Y122.966 Z-10.000 F600.000 
G1 X404.092 Y122.422 Z-10.000 F600.000 
G1 X403.966 Y122.798 Z-10.000 F600.000 
G1 X403.760 Y123.182 Z-10.000 F600.000 
G1 X403.464 Y123.577 Z-10.000 F600.000 
G1 X403.062 Y123.988 Z-10.000 F600.000 
G1 X402.536 Y124.419 Z-10.000 F600.000 
G1 X402.329 Y124.567 Z-10.000 F600.000 
G1 X402.110 Y124.716 Z-10.000 F600.000 
G1 X401.539 Y125.051 Z-10.000 F600.000 
G1 X400.923 Y125.327 Z-10.000 F600.000 
G1 X400.257 Y125.546 Z-10.000 F600.000 
G1 X399.537 Y125.706 Z-10.000 F600.000 
G1 X398.757 Y125.803 Z-10.000 F600.000 
G1 X398.356 Y125.827 Z-10.000 F600.000 
G1 X397.945 Y125.835 Z-10.000 F600.000 
G1 X397.208 Y125.798 Z-10.000 F600.000 
G1 X396.537 Y125.694 Z-10.000 F600.000 
G1 X395.923 Y125.525 Z-10.000 F600.000 
G1 X395.361 Y125.295 Z-10.000 F600.000 
G1 X394.844 Y125.006 Z-10.000 F600.000 
G1 X394.369 Y124.657 Z-10.000 F600.000 
G1 X393.908 Y124.220 Z-10.000 F600.000 
G1 X393.506 Y123.729 Z-10.000 F600.000 
G1 X393.169 Y123.204 Z-10.000 F600.000 
G1 X392.895 Y122.642 Z-10.000 F600.000 
G1 X392.683 Y122.039 Z-10.000 F600.000 
G1 X392.532 Y121.390 Z-10.000 F600.000 
G1 X392.444 Y120.690 Z-10.000 F600.000 
