%
(Header)
(Generated by gcodetools from Inkscape.)
(Using default header. To add your own header create file "header" in the output dir.)
M3 S10000
(Header end.)
G21 (All units in mm)

(Start cutting path id: path62)
(Change tool to Default tool)

G00 Z5.000000
G00 X253.902032 Y13.954422

G01 Z-1.000000 F800.0(Penetrate)
G01 X257.488218 Y13.954422 Z-1.000000 F800.000000
G03 X258.706593 Y14.103712 Z-1.000000 I0.000000 J5.046313
G03 X259.337752 Y14.414914 Z-1.000000 I-0.399582 J1.606046
G03 X259.742351 Y14.958046 Z-1.000000 I-0.826023 J1.037601
G03 X259.917779 Y15.865171 Z-1.000000 I-2.257628 J0.907125
G03 X259.742274 Y16.809838 Z-1.000000 I-2.630119 J-0.000000
G03 X259.347908 Y17.349374 Z-1.000000 I-1.195948 J-0.460265
G03 X258.725883 Y17.654505 Z-1.000000 I-0.993029 J-1.237759
G03 X257.471385 Y17.803214 Z-1.000000 I-1.254498 J-5.217078
G01 X253.902032 Y17.803214 Z-1.000000
G01 X253.902032 Y13.954422 Z-1.000000
G00 Z5.000000

(End cutting path id: path62)


(Start cutting path id: path62)
(Change tool to Default tool)

G00 Z5.000000
G00 X251.001797 Y11.296202

G01 Z-1.000000 F800.0(Penetrate)
G01 X251.001797 Y26.019888 Z-1.000000 F800.000000
G01 X257.938834 Y26.019888 Z-1.000000
G02 X260.094999 Y25.726692 Z-1.000000 I0.000000 J-8.074817
G02 X261.385148 Y25.064374 Z-1.000000 I-0.955837 J-3.449626
G02 X262.229250 Y23.950213 Z-1.000000 I-1.810752 J-2.248679
G02 X262.569042 Y22.290377 Z-1.000000 I-3.884136 J-1.659836
G02 X262.443378 Y21.207521 Z-1.000000 I-4.728324 J0.000000
G02 X262.128837 Y20.420252 Z-1.000000 I-2.778836 J0.653770
G02 X261.595310 Y19.776321 Z-1.000000 I-2.267966 J1.336125
G02 X260.808296 Y19.263626 Z-1.000000 I-2.186854 J2.496537
G02 X261.839274 Y18.668795 Z-1.000000 I-1.596235 J-3.957517
G02 X262.511002 Y17.936408 Z-1.000000 I-1.858594 J-2.378895
G02 X262.917279 Y17.026499 Z-1.000000 I-2.550937 J-1.684660
G02 X263.077419 Y15.783365 Z-1.000000 I-4.745025 J-1.243133
G02 X262.679742 Y13.819234 Z-1.000000 I-5.049266 J0.000000
G02 X261.678500 Y12.466462 Z-1.000000 I-3.293320 J1.390603
G02 X260.149505 Y11.648267 Z-1.000000 I-2.735137 J3.273523
G02 X257.710174 Y11.296227 Z-1.000000 I-2.439330 J8.275194
G01 X251.001810 Y11.296227 Z-1.000000
G01 X251.001797 Y11.296202 Z-1.000000
G00 Z5.000000

(End cutting path id: path62)


(Start cutting path id: path62)
(Change tool to Default tool)

G00 Z5.000000
G00 X253.902032 Y20.321283

G01 Z-1.000000 F800.0(Penetrate)
G01 X257.358807 Y20.321283 Z-1.000000 F800.000000
G03 X258.437535 Y20.446980 Z-1.000000 I-0.000000 J4.691662
G03 X258.999994 Y20.706926 Z-1.000000 I-0.356930 J1.510790
G03 X259.364257 Y21.168679 Z-1.000000 I-0.672495 J0.905066
G03 X259.518527 Y21.921846 Z-1.000000 I-1.761402 J0.753167
G03 X259.368360 Y22.653852 Z-1.000000 I-1.859204 J-0.000000
G03 X259.013628 Y23.095585 Z-1.000000 I-0.969492 J-0.415248
G03 X258.468598 Y23.338412 Z-1.000000 I-0.862078 J-1.201868
G03 X257.341694 Y23.460612 Z-1.000000 I-1.126904 J-5.134972
G01 X253.902057 Y23.460612 Z-1.000000
G01 X253.902057 Y20.321283 Z-1.000000
G01 X253.902032 Y20.321283 Z-1.000000
G00 Z5.000000

(End cutting path id: path62)


(Start cutting path id: path62)
(Change tool to Default tool)

G00 Z5.000000
G00 X265.418193 Y11.296202

G01 Z-1.000000 F800.0(Penetrate)
G01 X265.418193 Y26.019888 Z-1.000000 F800.000000
G01 X269.898374 Y26.019888 Z-1.000000
G01 X272.825877 Y14.814192 Z-1.000000
G01 X275.716235 Y26.019888 Z-1.000000
G01 X280.213249 Y26.019888 Z-1.000000
G01 X280.213249 Y11.296202 Z-1.000000
G01 X277.374534 Y11.296202 Z-1.000000
G01 X277.374534 Y23.170433 Z-1.000000
G01 X274.385233 Y11.296202 Z-1.000000
G01 X271.287112 Y11.296202 Z-1.000000
G01 X268.257187 Y23.170433 Z-1.000000
G01 X268.257187 Y11.296202 Z-1.000000
G01 X265.418193 Y11.296202 Z-1.000000
G00 Z5.000000

(End cutting path id: path62)


(Start cutting path id: path62)
(Change tool to Default tool)

G00 Z5.000000
G00 X286.130053 Y11.296202

G01 Z-1.000000 F800.0(Penetrate)
G01 X281.912756 Y26.019888 Z-1.000000 F800.000000
G01 X285.051780 Y26.019888 Z-1.000000
G01 X287.570154 Y15.633059 Z-1.000000
G01 X289.702580 Y26.019888 Z-1.000000
G01 X292.930696 Y26.019888 Z-1.000000
G01 X295.059669 Y15.633059 Z-1.000000
G01 X297.578018 Y26.019888 Z-1.000000
G01 X300.686574 Y26.019888 Z-1.000000
G01 X296.479154 Y11.296202 Z-1.000000
G01 X293.589075 Y11.296202 Z-1.000000
G01 X291.313300 Y22.570070 Z-1.000000
G01 X289.020106 Y11.296202 Z-1.000000
G01 X286.130028 Y11.296202 Z-1.000000
G01 X286.130053 Y11.296202 Z-1.000000
G00 Z5.000000

(End cutting path id: path62)


(Start cutting path id: path62)
(Change tool to Default tool)

G00 Z5.000000
G00 X308.210340 Y11.296202

G01 Z-1.000000 F800.0(Penetrate)
G01 X308.210340 Y26.019888 Z-1.000000 F800.000000
G01 X315.351941 Y26.019888 Z-1.000000
G02 X317.636855 Y25.696080 Z-1.000000 I0.000000 J-8.223521
G02 X318.917815 Y24.989221 Z-1.000000 I-0.920342 J-3.181929
G02 X319.728531 Y23.802260 Z-1.000000 I-1.949388 J-2.201814
G02 X320.077894 Y21.839736 Z-1.000000 I-5.337491 J-1.962524
G02 X319.917209 Y20.539648 Z-1.000000 I-5.339821 J0.000000
G02 X319.511501 Y19.591229 Z-1.000000 I-3.173907 J0.796728
G02 X318.828523 Y18.845060 Z-1.000000 I-2.362930 J1.477168
G02 X317.887148 Y18.362954 Z-1.000000 I-1.843889 J2.440301
G02 X318.745233 Y17.898444 Z-1.000000 I-1.069314 J-3.000158
G02 X319.255574 Y17.322105 Z-1.000000 I-1.195367 J-1.572601
G02 X319.537838 Y16.585646 Z-1.000000 I-2.183732 J-1.259284
G02 X319.719544 Y15.141794 Z-1.000000 I-8.511079 J-1.804465
G01 X319.781063 Y13.404863 Z-1.000000
G01 X319.781063 Y13.343623 Z-1.000000
G03 X320.000411 Y12.145219 Z-1.000000 I3.784395 J0.073392
G03 X320.350959 Y11.746538 Z-1.000000 I0.676426 J0.241308
G01 X320.350959 Y11.296202 Z-1.000000
G01 X317.027378 Y11.296202 Z-1.000000
G02 X316.896844 Y11.616137 Z-1.000000 I1.844743 J0.939257
G02 X316.785085 Y12.060506 Z-1.000000 I3.808086 J1.193973
G02 X316.721452 Y12.518164 Z-1.000000 I5.751934 J1.033002
G02 X316.682663 Y13.145736 Z-1.000000 I8.484734 J0.839410
G01 X316.641735 Y14.694657 Z-1.000000
G03 X316.439331 Y15.997926 Z-1.000000 I-5.653286 J-0.210630
G03 X316.126680 Y16.540688 Z-1.000000 I-1.211622 J-0.336510
G03 X315.592103 Y16.861323 Z-1.000000 I-0.868068 J-0.841329
G03 X314.451268 Y17.021796 Z-1.000000 I-1.140835 J-3.974959
G01 X311.240264 Y17.021796 Z-1.000000
G01 X311.240264 Y11.296202 Z-1.000000
G01 X308.210340 Y11.296202 Z-1.000000
G00 Z5.000000

(End cutting path id: path62)


(Start cutting path id: path62)
(Change tool to Default tool)

G00 Z5.000000
G00 X311.240264 Y19.581073

G01 Z-1.000000 F800.0(Penetrate)
G01 X314.802661 Y19.581073 Z-1.000000 F800.000000
G03 X315.903126 Y19.730546 Z-1.000000 I0.000000 J4.125725
G03 X316.505367 Y20.051721 Z-1.000000 I-0.417243 J1.507603
G03 X316.881596 Y20.597144 Z-1.000000 I-0.871620 J1.003709
G03 X317.047969 Y21.532750 Z-1.000000 I-2.547523 J0.935606
G03 X316.890638 Y22.422436 Z-1.000000 I-2.594185 J0.000000
G03 X316.519001 Y22.986181 Z-1.000000 I-1.374787 J-0.501930
G03 X315.929684 Y23.330742 Z-1.000000 I-1.041997 J-1.105923
G03 X314.942532 Y23.481203 Z-1.000000 I-0.987152 J-3.163048
G01 X311.240290 Y23.481203 Z-1.000000
G01 X311.240290 Y19.581073 Z-1.000000
G01 X311.240264 Y19.581073 Z-1.000000
G00 Z5.000000

(End cutting path id: path62)


(Start cutting path id: path62)
(Change tool to Default tool)

G00 Z5.000000
G00 X327.693925 Y15.653650

G01 Z-1.000000 F800.0(Penetrate)
G01 X330.444132 Y15.653650 Z-1.000000 F800.000000
G03 X330.626478 Y14.522626 Z-1.000000 I3.793334 J0.031359
G03 X331.024184 Y13.848522 Z-1.000000 I1.694938 J0.545603
G03 X331.670340 Y13.425434 Z-1.000000 I1.200830 J1.128991
G03 X332.713231 Y13.244680 Z-1.000000 I1.042891 J2.918195
G03 X333.723299 Y13.411556 Z-1.000000 I-0.000000 J3.140316
G03 X334.378233 Y13.811097 Z-1.000000 I-0.564591 J1.662044
G03 X334.789943 Y14.447719 Z-1.000000 I-1.156425 J1.199311
G03 X334.961738 Y15.435146 Z-1.000000 I-2.751818 J0.987428
G03 X334.764285 Y16.399949 Z-1.000000 I-2.455859 J0.000000
G03 X334.276091 Y17.038909 Z-1.000000 I-1.502139 J-0.641721
G03 X333.534384 Y17.414999 Z-1.000000 I-1.261481 J-1.568406
G03 X332.242303 Y17.584710 Z-1.000000 I-1.292081 J-4.833721
G03 X332.170538 Y17.583038 Z-1.000000 I0.000000 J-1.540356
G03 X332.027278 Y17.574554 Z-1.000000 I0.266621 J-5.716442
G02 X331.884015 Y17.566134 Z-1.000000 I-0.479136 J6.929042
G02 X331.812279 Y17.564399 Z-1.000000 I-0.071736 J1.481719
G01 X331.812279 Y19.543344 Z-1.000000
G01 X332.122744 Y19.543344 Z-1.000000
G03 X333.305708 Y19.696509 Z-1.000000 I0.000000 J4.644884
G03 X333.958644 Y20.027931 Z-1.000000 I-0.442764 J1.681178
G03 X334.376182 Y20.597504 Z-1.000000 I-0.897045 J1.095427
G03 X334.552330 Y21.512134 Z-1.000000 I-2.286483 J0.914629
G03 X334.410246 Y22.279521 Z-1.000000 I-2.143350 J0.000000
G03 X334.047431 Y22.825997 Z-1.000000 I-1.403656 J-0.538234
G03 X333.485332 Y23.171783 Z-1.000000 I-1.079263 J-1.124662
G03 X332.672328 Y23.310584 Z-1.000000 I-0.813004 J-2.311608
G03 X331.794147 Y23.148841 Z-1.000000 I-0.000000 J-2.464900
G03 X331.201480 Y22.750844 Z-1.000000 I0.564856 J-1.481417
G03 X330.837435 Y22.131392 Z-1.000000 I1.231906 J-1.140676
G03 X330.682947 Y21.160741 Z-1.000000 I2.972066 J-0.970651
G01 X330.682947 Y21.041486 Z-1.000000
G01 X327.983799 Y21.041486 Z-1.000000
G02 X328.386351 Y23.083830 Z-1.000000 I6.104724 J-0.142415
G02 X329.277072 Y24.416126 Z-1.000000 I3.377174 J-1.293948
G02 X330.661488 Y25.242622 Z-1.000000 I2.579506 J-2.748053
G02 X332.795061 Y25.589838 Z-1.000000 I2.133573 J-6.381586
G02 X334.833743 Y25.282281 Z-1.000000 I-0.000000 J-6.910613
G02 X336.203952 Y24.538859 Z-1.000000 I-1.170986 J-3.792690
G02 X337.119276 Y23.328748 Z-1.000000 I-2.146750 J-2.575025
G02 X337.462974 Y21.713499 Z-1.000000 I-3.623681 J-1.615249
G02 X337.346570 Y20.805200 Z-1.000000 I-3.601941 J-0.000000
G02 X337.032949 Y20.062156 Z-1.000000 I-2.710511 J0.706334
G02 X336.520437 Y19.441172 Z-1.000000 I-2.409778 J1.466861
G02 X335.743155 Y18.895095 Z-1.000000 I-2.558434 J2.815428
G02 X336.741102 Y18.292036 Z-1.000000 I-1.780423 J-4.073485
G02 X337.404959 Y17.567877 Z-1.000000 I-2.004965 J-2.504377
G02 X337.816568 Y16.677352 Z-1.000000 I-2.571969 J-1.729178
G02 X337.971351 Y15.554706 Z-1.000000 I-3.993908 J-1.122646
G02 X337.578859 Y13.580096 Z-1.000000 I-5.163333 J0.000000
G02 X336.562022 Y12.145816 Z-1.000000 I-3.652075 J1.511563
G02 X335.009985 Y11.252829 Z-1.000000 I-2.912679 J3.267084
G02 X332.713231 Y10.886768 Z-1.000000 I-2.296755 J7.022173
G02 X330.446211 Y11.251241 Z-1.000000 I0.000000 J7.232666
G02 X328.997354 Y12.111565 Z-1.000000 I1.226401 J3.715521
G02 X328.072448 Y13.499469 Z-1.000000 I2.502280 J2.669665
G02 X327.693925 Y15.592131 Z-1.000000 I5.595381 J2.092662
G01 X327.693925 Y15.653650 Z-1.000000
G00 Z5.000000

(End cutting path id: path62)


(Start cutting path id: path62)
(Change tool to Default tool)

G00 Z5.000000
G00 X339.199651 Y11.296202

G01 Z-1.000000 F800.0(Penetrate)
G02 X339.439826 Y13.153687 Z-1.000000 I7.962692 J-0.085315 F800.000000
G02 X340.018493 Y14.551307 Z-1.000000 I5.038771 J-1.267634
G02 X340.969663 Y15.738505 Z-1.000000 I4.837896 J-2.901436
G02 X342.857487 Y17.253934 Z-1.000000 I9.977797 J-10.496123
G02 X343.167667 Y17.460249 Z-1.000000 I8.256771 J-12.077158
G02 X343.754707 Y17.833986 Z-1.000000 I25.942724 J-40.101059
G03 X345.979243 Y19.823082 Z-1.000000 I-5.077123 J7.916548
G03 X346.453855 Y21.160766 Z-1.000000 I-1.647810 J1.337685
G03 X346.291459 Y22.042567 Z-1.000000 I-2.475255 J0.000000
G03 X345.883959 Y22.662082 Z-1.000000 I-1.604914 J-0.611889
G03 X345.250826 Y23.053118 Z-1.000000 I-1.215312 J-1.259654
G03 X344.324603 Y23.211666 Z-1.000000 I-0.926223 J-2.626183
G03 X343.334609 Y23.018010 Z-1.000000 I0.000000 J-2.627316
G03 X342.659626 Y22.535870 Z-1.000000 I0.674250 J-1.657480
G03 X342.251532 Y21.794973 Z-1.000000 I1.541342 J-1.331827
G03 X342.076096 Y20.611461 Z-1.000000 I3.904319 J-1.183512
G01 X342.076096 Y20.491927 Z-1.000000
G01 X339.438466 Y20.491927 Z-1.000000
G02 X339.827331 Y22.791218 Z-1.000000 I6.992099 J0.000000
G02 X340.759007 Y24.279478 Z-1.000000 I3.728273 J-1.298210
G02 X342.239727 Y25.219499 Z-1.000000 I2.787626 J-2.754842
G02 X344.515812 Y25.610175 Z-1.000000 I2.276086 J-6.434908
G02 X346.594105 Y25.264981 Z-1.000000 I-0.000000 J-6.428930
G02 X348.043958 Y24.405690 Z-1.000000 I-1.332886 J-3.901725
G02 X349.000124 Y23.042038 Z-1.000000 I-2.562497 J-2.813820
G02 X349.364499 Y21.201669 Z-1.000000 I-4.465439 J-1.840369
G02 X349.177611 Y19.830071 Z-1.000000 I-5.126624 J0.000000
G02 X348.675069 Y18.724528 Z-1.000000 I-3.770441 J1.046924
G02 X347.868399 Y17.788660 Z-1.000000 I-4.003133 J2.634905
G02 X346.003494 Y16.336149 Z-1.000000 I-11.530303 J12.880518
G02 X345.580356 Y16.050117 Z-1.000000 I-10.660440 J15.314391
G02 X344.846589 Y15.575043 Z-1.000000 I-38.938566 J59.337711
G03 X343.092329 Y14.261860 Z-1.000000 I8.184239 J-12.761519
G03 X342.724319 Y13.735969 Z-1.000000 I0.866361 J-0.997977
G01 X349.224653 Y13.735969 Z-1.000000
G01 X349.224653 Y11.296227 Z-1.000000
G01 X339.199651 Y11.296227 Z-1.000000
G01 X339.199651 Y11.296202 Z-1.000000
G00 Z5.000000

(End cutting path id: path62)


(Start cutting path id: path60)
(Change tool to Default tool)

G00 Z5.000000
G00 X347.012707 Y80.838275

G01 Z-1.000000 F800.0(Penetrate)
G01 X346.954082 Y78.883728 Z-1.000000 F800.000000
G01 X338.359914 Y77.198414 Z-1.000000
G01 X338.376163 Y81.624338 Z-1.000000
G01 X338.676498 Y87.915741 Z-1.000000
G01 X339.113200 Y87.855974 Z-1.000000
G01 X347.344092 Y86.705467 Z-1.000000
G01 X347.012707 Y80.838275 Z-1.000000
G00 Z5.000000

(End cutting path id: path60)


(Start cutting path id: path60)
(Change tool to Default tool)

G00 Z5.000000
G00 X346.953980 Y87.894871

G01 Z-1.000000 F800.0(Penetrate)
G01 X345.420446 Y87.995566 Z-1.000000 F800.000000
G02 X346.166707 Y88.451835 Z-1.000000 I0.613957 J-0.165755
G03 X347.737708 Y88.286608 Z-1.000000 I1.571001 J7.386020
G03 X349.037807 Y88.440885 Z-1.000000 I0.000000 J5.555109
G02 X350.155387 Y88.286608 Z-1.000000 I0.361900 J-1.503395
G01 X348.532201 Y87.824668 Z-1.000000
G01 X346.953980 Y87.894871 Z-1.000000
G00 Z5.000000

(End cutting path id: path60)


(Start cutting path id: path60)
(Change tool to Default tool)

G00 Z5.000000
G00 X352.394728 Y88.699799

G01 Z-1.000000 F800.0(Penetrate)
G01 X350.458717 Y88.533522 Z-1.000000 F800.000000
G01 X352.394728 Y88.699799 Z-1.000000
G00 Z5.000000

(End cutting path id: path60)


(Start cutting path id: path60)
(Change tool to Default tool)

G00 Z5.000000
G00 X343.038262 Y94.163651

G01 Z-1.000000 F800.0(Penetrate)
G02 X345.678254 Y96.434577 Z-1.000000 I5.953628 J-4.251218 F800.000000
G03 X352.057833 Y101.990341 Z-1.000000 I-7.854524 J15.459859
G03 X355.373579 Y107.505537 Z-1.000000 I-39.727011 J27.638261
G03 X357.134316 Y113.368382 Z-1.000000 I-14.957660 J7.687920
G02 X357.717165 Y116.851742 Z-1.000000 I30.757079 J-3.355950
G03 X358.475194 Y120.646655 Z-1.000000 I-73.319484 J16.618638
G03 X358.939933 Y124.322326 Z-1.000000 I-39.948016 J6.918107
G02 X359.395315 Y127.953951 Z-1.000000 I40.840366 J-3.276745
G03 X360.209981 Y136.213930 Z-1.000000 I-57.608042 J9.851934
G02 X362.284809 Y141.618229 Z-1.000000 I8.692657 J-0.236865
G01 X368.292432 Y137.085517 Z-1.000000
G02 X366.763527 Y121.958451 Z-1.000000 I-151.832374 J7.705025
G02 X362.497778 Y108.396733 Z-1.000000 I-45.818281 J6.960100
G02 X354.196270 Y99.003479 Z-1.000000 I-21.452716 J10.594387
G02 X343.038287 Y94.163727 Z-1.000000 I-19.451538 J29.563092
G01 X343.038262 Y94.163651 Z-1.000000
G00 Z5.000000

(End cutting path id: path60)


(Start cutting path id: path60)
(Change tool to Default tool)

G00 Z5.000000
G00 X324.590853 Y93.203872

G01 Z-1.000000 F800.0(Penetrate)
G03 X324.795846 Y92.922501 Z-1.000000 I1.645603 J0.983547 F800.000000
G03 X325.809836 Y92.525765 Z-1.000000 I0.890555 J0.781946
G01 X327.433021 Y92.987704 Z-1.000000
G02 X327.202639 Y93.153565 Z-1.000000 I2.389375 J3.561802
G03 X326.180677 Y93.444718 Z-1.000000 I-0.875946 J-1.135472
G01 X324.590853 Y93.203872 Z-1.000000
G00 Z5.000000

(End cutting path id: path60)


(Start cutting path id: path60)
(Change tool to Default tool)

G00 Z5.000000
G00 X318.758876 Y93.452157

G01 Z-1.000000 F800.0(Penetrate)
G03 X322.698805 Y100.736784 Z-1.000000 I-6.076209 J7.994130 F800.000000
G02 X324.215467 Y107.107142 Z-1.000000 I20.124495 J-1.425538
G02 X329.441399 Y112.564504 Z-1.000000 I9.711941 J-4.069249
G02 X336.767831 Y114.143706 Z-1.000000 I7.069391 J-15.012752
G01 X354.731236 Y113.668132 Z-1.000000
G01 X354.364762 Y112.241082 Z-1.000000
G01 X355.775538 Y113.125226 Z-1.000000
G02 X354.908665 Y108.102069 Z-1.000000 I-8.078005 J-1.192314
G02 X350.638415 Y102.043189 Z-1.000000 I-26.126254 J13.879314
G02 X344.836378 Y96.772824 Z-1.000000 I-30.901480 J28.189951
G02 X340.340942 Y94.116071 Z-1.000000 I-14.295630 J19.057646
G02 X326.475335 Y91.431424 Z-1.000000 I-12.596819 J27.911063
G03 X310.512419 Y91.818232 Z-1.000000 I-19.212486 J-463.292689
G02 X293.850802 Y92.100405 Z-1.000000 I5.873561 J838.872373
G03 X277.786684 Y91.659521 Z-1.000000 I-3.976688 J-147.982475
G02 X261.778758 Y90.783734 Z-1.000000 I-24.176573 J295.170562
G02 X247.114472 Y91.944469 Z-1.000000 I-1.907133 J69.117907
G01 X246.824304 Y93.058414 Z-1.000000
G01 X254.462686 Y91.937512 Z-1.000000
G01 X303.883131 Y92.204459 Z-1.000000
G01 X321.527922 Y92.647838 Z-1.000000
G01 X321.534523 Y93.255438 Z-1.000000
G01 X318.758774 Y93.452183 Z-1.000000
G01 X318.758876 Y93.452157 Z-1.000000
G00 Z5.000000

(End cutting path id: path60)


(Start cutting path id: path60)
(Change tool to Default tool)

G00 Z5.000000
G00 X317.964485 Y88.511179

G01 Z-1.000000 F800.0(Penetrate)
G01 X332.066632 Y88.678319 Z-1.000000 F800.000000
G01 X337.543256 Y88.205919 Z-1.000000
G01 X337.551381 Y77.316806 Z-1.000000
G01 X330.497984 Y77.249194 Z-1.000000
G01 X288.775172 Y77.316806 Z-1.000000
G01 X248.619151 Y76.806982 Z-1.000000
G01 X248.243674 Y83.194155 Z-1.000000
G01 X248.226257 Y85.152204 Z-1.000000
G02 X248.409052 Y86.576600 Z-1.000000 I5.641045 J0.000000
G03 X248.619723 Y87.748626 Z-1.000000 I-7.448892 J1.943877
G01 X317.964459 Y88.511204 Z-1.000000
G01 X317.964485 Y88.511179 Z-1.000000
G00 Z5.000000

(End cutting path id: path60)


(Start cutting path id: path60)
(Change tool to Default tool)

G00 Z5.000000
G00 X322.269757 Y101.351766

G01 Z-1.000000 F800.0(Penetrate)
G02 X313.723218 Y93.201804 Z-1.000000 I-8.318864 J0.167473 F800.000000
G03 X300.723364 Y93.379695 Z-1.000000 I-12.999854 J-474.910692
G01 X272.123701 Y93.379695 Z-1.000000
G01 X268.211943 Y93.379695 Z-1.000000
G01 X257.627506 Y93.285982 Z-1.000000
G03 X257.411058 Y97.272773 Z-1.000000 I-36.824947 J0.000000
G03 X256.093971 Y100.784789 Z-1.000000 I-7.526605 J-0.819673
G01 X322.269808 Y101.351766 Z-1.000000
G01 X322.269757 Y101.351766 Z-1.000000
G00 Z5.000000

(End cutting path id: path60)


(Start cutting path id: path60)
(Change tool to Default tool)

G00 Z5.000000
G00 X324.841297 Y120.808261

G01 Z-1.000000 F800.0(Penetrate)
G01 X324.266780 Y119.712291 Z-1.000000 F800.000000
G01 X324.841297 Y120.808261 Z-1.000000
G00 Z5.000000

(End cutting path id: path60)


(Start cutting path id: path60)
(Change tool to Default tool)

G00 Z5.000000
G00 X322.092867 Y122.785175

G01 Z-1.000000 F800.0(Penetrate)
G01 X320.986183 Y121.398164 Z-1.000000 F800.000000
G01 X322.092867 Y122.785175 Z-1.000000
G00 Z5.000000

(End cutting path id: path60)


(Start cutting path id: path60)
(Change tool to Default tool)

G00 Z5.000000
G00 X323.716941 Y124.713938

G01 Z-1.000000 F800.0(Penetrate)
G01 X322.663042 Y123.686152 Z-1.000000 F800.000000
G01 X323.716941 Y124.713938 Z-1.000000
G00 Z5.000000

(End cutting path id: path60)


(Start cutting path id: path60)
(Change tool to Default tool)

G00 Z5.000000
G00 X324.891847 Y126.280852

G01 Z-1.000000 F800.0(Penetrate)
G01 X323.837949 Y125.253369 Z-1.000000 F800.000000
G01 X324.891847 Y126.280852 Z-1.000000
G00 Z5.000000

(End cutting path id: path60)


(Start cutting path id: path60)
(Change tool to Default tool)

G00 Z5.000000
G00 X325.209421 Y126.875407

G01 Z-1.000000 F800.0(Penetrate)
G02 X325.297255 Y126.852287 Z-1.000000 I0.036584 J-0.039417 F800.000000
G02 X325.015013 Y126.680993 Z-1.000000 I-0.161862 J-0.051473
G01 X325.209421 Y126.875407 Z-1.000000
G00 Z5.000000

(End cutting path id: path60)


(Start cutting path id: path60)
(Change tool to Default tool)

G00 Z5.000000
G00 X322.858797 Y128.050882

G01 Z-1.000000 F800.0(Penetrate)
G02 X322.946404 Y128.027827 Z-1.000000 I0.036491 J-0.039317 F800.000000
G02 X322.664388 Y127.856181 Z-1.000000 I-0.161895 J-0.051506
G01 X322.858797 Y128.050882 Z-1.000000
G00 Z5.000000

(End cutting path id: path60)


(Start cutting path id: path60)
(Change tool to Default tool)

G00 Z5.000000
G00 X321.807056 Y130.616013

G01 Z-1.000000 F800.0(Penetrate)
G01 X321.046814 Y130.353992 Z-1.000000 F800.000000
G01 X321.807056 Y130.616013 Z-1.000000
G00 Z5.000000

(End cutting path id: path60)


(Start cutting path id: path60)
(Change tool to Default tool)

G00 Z5.000000
G00 X322.982292 Y131.007709

G01 Z-1.000000 F800.0(Penetrate)
G01 X322.222354 Y130.745688 Z-1.000000 F800.000000
G01 X322.982292 Y131.007709 Z-1.000000
G00 Z5.000000

(End cutting path id: path60)


(Start cutting path id: path60)
(Change tool to Default tool)

G00 Z5.000000
G00 X323.442606 Y132.246140

G01 Z-1.000000 F800.0(Penetrate)
G01 X315.638564 Y129.349105 Z-1.000000 F800.000000
G01 X315.619522 Y131.684663 Z-1.000000
G01 X323.442733 Y132.246138 Z-1.000000
G01 X323.442606 Y132.246140 Z-1.000000
G00 Z5.000000

(End cutting path id: path60)


(Start cutting path id: path60)
(Change tool to Default tool)

G00 Z5.000000
G00 X320.508629 Y130.009853

G01 Z-1.000000 F800.0(Penetrate)
G02 X320.596235 Y129.986799 Z-1.000000 I0.036490 J-0.039316 F800.000000
G02 X320.314221 Y129.815150 Z-1.000000 I-0.161895 J-0.051507
G01 X320.508629 Y130.009853 Z-1.000000
G00 Z5.000000

(End cutting path id: path60)


(Start cutting path id: path60)
(Change tool to Default tool)

G00 Z5.000000
G00 X319.463591 Y129.822124

G01 Z-1.000000 F800.0(Penetrate)
G01 X317.572291 Y129.238889 Z-1.000000 F800.000000
G01 X319.463591 Y129.822124 Z-1.000000
G00 Z5.000000

(End cutting path id: path60)


(Start cutting path id: path60)
(Change tool to Default tool)

G00 Z5.000000
G00 X317.057516 Y129.136398

G01 Z-1.000000 F800.0(Penetrate)
G01 X315.596240 Y128.509347 Z-1.000000 F800.000000
G01 X317.057516 Y129.136398 Z-1.000000
G00 Z5.000000

(End cutting path id: path60)


(Start cutting path id: path60)
(Change tool to Default tool)

G00 Z5.000000
G00 X319.726323 Y125.700216

G01 Z-1.000000 F800.0(Penetrate)
G02 X319.812862 Y125.678507 Z-1.000000 I0.036448 J-0.038044 F800.000000
G02 X319.531610 Y125.505513 Z-1.000000 I-0.161446 J-0.052647
G01 X319.726323 Y125.700216 Z-1.000000
G00 Z5.000000

(End cutting path id: path60)


(Start cutting path id: path60)
(Change tool to Default tool)

G00 Z5.000000
G00 X318.159223 Y124.524752

G01 Z-1.000000 F800.0(Penetrate)
G02 X318.246899 Y124.502601 Z-1.000000 I0.036965 J-0.038280 F800.000000
G02 X317.964510 Y124.330338 Z-1.000000 I-0.162254 J-0.051610
G01 X318.159223 Y124.524752 Z-1.000000
G00 Z5.000000

(End cutting path id: path60)


(Start cutting path id: path60)
(Change tool to Default tool)

G00 Z5.000000
G00 X311.830168 Y127.722121

G01 Z-1.000000 F800.0(Penetrate)
G03 X311.718882 Y135.247509 Z-1.000000 I-11.464772 J3.593975 F800.000000
G02 X310.520366 Y142.352069 Z-1.000000 I20.573460 J7.124047
G01 X314.396122 Y142.319860 Z-1.000000
G01 X313.067431 Y141.426725 Z-1.000000
G01 X313.153045 Y140.883821 Z-1.000000
G01 X316.338785 Y140.195254 Z-1.000000
G01 X314.617215 Y137.806885 Z-1.000000
G01 X314.550186 Y127.997492 Z-1.000000
G01 X317.142825 Y123.782226 Z-1.000000
G01 X320.556362 Y120.259006 Z-1.000000
G01 X323.660272 Y118.881872 Z-1.000000
G01 X328.649693 Y117.957968 Z-1.000000
G01 X332.677228 Y118.446922 Z-1.000000
G01 X336.662667 Y119.989140 Z-1.000000
G01 X339.784578 Y122.549280 Z-1.000000
G01 X342.982811 Y127.103177 Z-1.000000
G01 X343.479280 Y131.384609 Z-1.000000
G03 X343.586961 Y134.248673 Z-1.000000 I-2.379398 J1.523516
G02 X343.356267 Y137.578515 Z-1.000000 I3.561474 J1.919654
G01 X340.981243 Y140.609024 Z-1.000000
G01 X343.826331 Y140.558826 Z-1.000000
G01 X344.453075 Y142.018657 Z-1.000000
G01 X349.306408 Y141.960332 Z-1.000000
G01 X353.080325 Y135.070876 Z-1.000000
G01 X354.305122 Y135.648018 Z-1.000000
G01 X354.756347 Y134.178610 Z-1.000000
G01 X359.492456 Y134.116225 Z-1.000000
G01 X358.630934 Y131.845085 Z-1.000000
G02 X356.280284 Y131.731377 Z-1.000000 I-2.969713 J37.037868
G03 X354.858185 Y130.665845 Z-1.000000 I0.025252 J-1.515462
G01 X356.358078 Y130.587208 Z-1.000000
G03 X357.621298 Y130.722479 Z-1.000000 I0.056526 J5.438044
G02 X358.641699 Y130.923223 Z-1.000000 I3.911740 J-17.190004
G01 X356.600930 Y114.893488 Z-1.000000
G01 X342.251563 Y114.630883 Z-1.000000
G02 X340.573424 Y114.728277 Z-1.000000 I-0.517908 J5.582427
G02 X339.257895 Y115.065274 Z-1.000000 I3.321210 J15.701137
G03 X337.509906 Y115.132011 Z-1.000000 I-1.001995 J-3.319239
G02 X335.607600 Y114.914383 Z-1.000000 I-2.004400 J9.097725
G03 X331.868993 Y114.567762 Z-1.000000 I0.256505 J-23.101940
G03 X328.546967 Y113.355611 Z-1.000000 I1.745494 J-9.941967
G03 X323.982096 Y108.708569 Z-1.000000 I6.164956 J-10.621541
G03 X322.273540 Y102.390761 Z-1.000000 I11.837292 J-6.591149
G01 X304.251814 Y102.390761 Z-1.000000
G01 X313.914379 Y119.315349 Z-1.000000
G03 X311.669735 Y117.945789 Z-1.000000 I0.361732 J-3.117072
G03 X307.989094 Y111.827142 Z-1.000000 I60.442485 J-40.525226
G03 X304.586281 Y105.224037 Z-1.000000 I196.765383 J-105.578503
G02 X302.684892 Y102.390761 Z-1.000000 I-11.632394 J5.751767
G01 X302.684892 Y116.886651 Z-1.000000
G01 X304.553875 Y118.537994 Z-1.000000
G01 X304.660664 Y120.020166 Z-1.000000
G01 X304.643907 Y121.587926 Z-1.000000
G01 X304.620040 Y123.088962 Z-1.000000
G01 X302.766723 Y123.662057 Z-1.000000
G01 X302.673289 Y125.113472 Z-1.000000
G01 X302.684968 Y125.505488 Z-1.000000
G01 X302.830933 Y127.220086 Z-1.000000
G01 X311.830193 Y127.722075 Z-1.000000
G01 X311.830168 Y127.722121 Z-1.000000
G00 Z5.000000

(End cutting path id: path60)


(Start cutting path id: path60)
(Change tool to Default tool)

G00 Z5.000000
G00 X303.324330 Y121.263243

G01 Z-1.000000 F800.0(Penetrate)
G01 X302.823799 Y119.956032 Z-1.000000 F800.000000
G01 X302.836494 Y121.265554 Z-1.000000
G01 X303.324254 Y121.263015 Z-1.000000
G01 X303.324330 Y121.263243 Z-1.000000
G00 Z5.000000

(End cutting path id: path60)


(Start cutting path id: path60)
(Change tool to Default tool)

G00 Z5.000000
G00 X301.135133 Y122.729673

G01 Z-1.000000 F800.0(Penetrate)
G02 X301.725786 Y121.909699 Z-1.000000 I-0.968541 J-1.320390 F800.000000
G02 X301.898854 Y120.804122 Z-1.000000 I-3.444747 J-1.105577
G01 X301.898854 Y120.020674 Z-1.000000
G01 X301.123530 Y118.487418 Z-1.000000
G01 X301.135209 Y122.729673 Z-1.000000
G01 X301.135133 Y122.729673 Z-1.000000
G00 Z5.000000

(End cutting path id: path60)


(Start cutting path id: path60)
(Change tool to Default tool)

G00 Z5.000000
G00 X299.940220 Y119.236920

G01 Z-1.000000 F800.0(Penetrate)
G03 X298.626727 Y119.018476 Z-1.000000 I0.775574 J-8.721660 F800.000000
G02 X297.197554 Y118.845488 Z-1.000000 I-1.429173 J5.817220
G02 X296.073963 Y119.005906 Z-1.000000 I-0.000000 J4.015112
G03 X294.846904 Y119.236920 Z-1.000000 I-1.793986 J-6.154616
G01 X294.846904 Y121.979587 Z-1.000000
G01 X299.940220 Y121.979587 Z-1.000000
G01 X299.940220 Y119.236920 Z-1.000000
G00 Z5.000000

(End cutting path id: path60)


(Start cutting path id: path60)
(Change tool to Default tool)

G00 Z5.000000
G00 X294.846498 Y118.061583

G01 Z-1.000000 F800.0(Penetrate)
G01 X298.372612 Y118.061583 Z-1.000000 F800.000000
G02 X299.914948 Y117.870775 Z-1.000000 I-0.000000 J-6.328910
G03 X301.439682 Y117.602843 Z-1.000000 I2.613920 J10.402733
G01 X301.571708 Y114.141726 Z-1.000000
G01 X301.571708 Y110.617922 Z-1.000000
G01 X301.506431 Y102.390507 Z-1.000000
G01 X294.454482 Y102.390507 Z-1.000000
G01 X294.454482 Y105.524605 Z-1.000000
G01 X294.846193 Y108.658983 Z-1.000000
G01 X294.846193 Y118.061557 Z-1.000000
G01 X294.846498 Y118.061583 Z-1.000000
G00 Z5.000000

(End cutting path id: path60)


(Start cutting path id: path60)
(Change tool to Default tool)

G00 Z5.000000
G00 X290.145934 Y119.629013

G01 Z-1.000000 F800.0(Penetrate)
G01 X290.122068 Y118.127977 Z-1.000000 F800.000000
G01 X288.970977 Y118.047619 Z-1.000000
G01 X287.698600 Y118.129424 Z-1.000000
G01 X287.708756 Y122.304650 Z-1.000000
G01 X288.970114 Y122.385618 Z-1.000000
G01 X290.080277 Y122.342379 Z-1.000000
G01 X290.157182 Y120.804503 Z-1.000000
G01 X290.145756 Y119.629038 Z-1.000000
G01 X290.145934 Y119.629013 Z-1.000000
G00 Z5.000000

(End cutting path id: path60)


(Start cutting path id: path60)
(Change tool to Default tool)

G00 Z5.000000
G00 X286.316566 Y121.555072

G01 Z-1.000000 F800.0(Penetrate)
G01 X286.641274 Y120.413832 Z-1.000000 F800.000000
G01 X286.306131 Y119.271450 Z-1.000000
G01 X286.316540 Y121.555072 Z-1.000000
G01 X286.316566 Y121.555072 Z-1.000000
G00 Z5.000000

(End cutting path id: path60)


(Start cutting path id: path60)
(Change tool to Default tool)

G00 Z5.000000
G00 X285.052770 Y121.263243

G01 Z-1.000000 F800.0(Penetrate)
G01 X285.343812 Y119.662680 Z-1.000000 F800.000000
G02 X284.881033 Y120.591982 Z-1.000000 I0.678475 J0.917750
G02 X285.052770 Y121.263243 Z-1.000000 I1.455306 J-0.014731
G01 X285.052770 Y121.263243 Z-1.000000
G00 Z5.000000

(End cutting path id: path60)


(Start cutting path id: path60)
(Change tool to Default tool)

G00 Z5.000000
G00 X285.246290 Y118.648008

G01 Z-1.000000 F800.0(Penetrate)
G02 X285.334144 Y118.625131 Z-1.000000 I0.036709 J-0.039157 F800.000000
G02 X285.051882 Y118.453320 Z-1.000000 I-0.162027 J-0.051576
G01 X285.246290 Y118.648008 Z-1.000000
G00 Z5.000000

(End cutting path id: path60)


(Start cutting path id: path60)
(Change tool to Default tool)

G00 Z5.000000
G00 X287.804069 Y129.815099

G01 Z-1.000000 F800.0(Penetrate)
G01 X289.900239 Y129.685683 Z-1.000000 F800.000000
G01 X290.063037 Y125.110620 Z-1.000000
G01 X290.146899 Y123.546915 Z-1.000000
G01 X288.579698 Y123.546915 Z-1.000000
G01 X287.796249 Y123.546915 Z-1.000000
G01 X286.442905 Y122.901002 Z-1.000000
G01 X285.102610 Y123.712024 Z-1.000000
G01 X282.870936 Y121.387195 Z-1.000000
G01 X283.094949 Y119.237047 Z-1.000000
G01 X284.350493 Y117.366338 Z-1.000000
G01 X286.259210 Y117.582531 Z-1.000000
G01 X287.703678 Y116.742768 Z-1.000000
G01 X288.579698 Y116.886702 Z-1.000000
G01 X290.146874 Y116.886702 Z-1.000000
G01 X290.146874 Y113.752325 Z-1.000000
G01 X290.081597 Y110.226489 Z-1.000000
G01 X290.146874 Y104.741462 Z-1.000000
G02 X289.973717 Y103.312298 Z-1.000000 I-5.984450 J-0.000000
G03 X289.755162 Y101.999100 Z-1.000000 I8.487973 J-2.087436
G01 X286.088897 Y102.090198 Z-1.000000
G01 X285.784500 Y103.951920 Z-1.000000
G01 X285.837311 Y104.349750 Z-1.000000
G01 X286.256621 Y108.656114 Z-1.000000
G01 X286.229048 Y110.226489 Z-1.000000
G03 X283.330584 Y114.004869 Z-1.000000 I-3.911942 J-0.000000
G03 X279.177098 Y114.535773 Z-1.000000 I-4.032118 J-15.032259
G01 X275.258967 Y114.580763 Z-1.000000
G01 X273.692349 Y114.535773 Z-1.000000
G01 X270.666767 Y114.746152 Z-1.000000
G01 X270.326977 Y115.833692 Z-1.000000
G01 X268.503568 Y113.455189 Z-1.000000
G01 X266.640400 Y113.348401 Z-1.000000
G01 X265.856647 Y113.360588 Z-1.000000
G01 X263.940109 Y113.370744 Z-1.000000
G01 X263.144169 Y115.652638 Z-1.000000
G01 X261.976550 Y114.890060 Z-1.000000
G01 X260.371924 Y114.934746 Z-1.000000
G01 X254.495159 Y114.927891 Z-1.000000
G02 X250.647375 Y119.205390 Z-1.000000 I0.000000 J3.869369
G03 X250.969314 Y124.330465 Z-1.000000 I-59.479934 J6.308970
G01 X253.621171 Y125.363174 Z-1.000000
G01 X254.583058 Y124.418389 Z-1.000000
G01 X262.722244 Y124.235584 Z-1.000000
G01 X266.234724 Y123.848798 Z-1.000000
G01 X267.423848 Y123.938754 Z-1.000000
G01 X272.908596 Y124.053946 Z-1.000000
G01 X277.215265 Y123.938754 Z-1.000000
G01 X282.703212 Y124.053946 Z-1.000000
G01 X286.528772 Y124.414906 Z-1.000000
G01 X287.779086 Y125.598498 Z-1.000000
G01 X287.803968 Y129.815211 Z-1.000000
G01 X287.804069 Y129.815099 Z-1.000000
G00 Z5.000000

(End cutting path id: path60)


(Start cutting path id: path60)
(Change tool to Default tool)

G00 Z5.000000
G00 X296.796296 Y127.539298

G01 Z-1.000000 F800.0(Penetrate)
G01 X299.943165 Y127.464434 Z-1.000000 F800.000000
G01 X301.657474 Y127.318771 Z-1.000000
G01 X301.943006 Y123.940353 Z-1.000000
G03 X300.455502 Y123.474346 Z-1.000000 I2.553751 J-10.758695
G02 X298.767701 Y123.154874 Z-1.000000 I-1.687802 J4.298669
G01 X294.849849 Y123.154874 Z-1.000000
G01 X294.849849 Y125.505513 Z-1.000000
G01 X295.109839 Y127.259864 Z-1.000000
G01 X296.796271 Y127.539295 Z-1.000000
G01 X296.796296 Y127.539298 Z-1.000000
G00 Z5.000000

(End cutting path id: path60)


(Start cutting path id: path60)
(Change tool to Default tool)

G00 Z5.000000
G00 X308.755202 Y143.721980

G01 Z-1.000000 F800.0(Penetrate)
G02 X308.842317 Y143.699046 Z-1.000000 I0.036284 J-0.039094 F800.000000
G02 X308.560489 Y143.527566 Z-1.000000 I-0.161787 J-0.051434
G01 X308.755202 Y143.721980 Z-1.000000
G00 Z5.000000

(End cutting path id: path60)


(Start cutting path id: path60)
(Change tool to Default tool)

G00 Z5.000000
G00 X308.953622 Y147.444928

G01 Z-1.000000 F800.0(Penetrate)
G02 X299.436957 Y148.740797 Z-1.000000 I0.000000 J35.592400 F800.000000
G02 X290.857911 Y152.855970 Z-1.000000 I7.241181 J26.096051
G02 X283.753504 Y158.099216 Z-1.000000 I214.436610 J297.988539
G02 X280.354721 Y165.449820 Z-1.000000 I5.193189 J6.862304
G02 X282.504683 Y168.122299 Z-1.000000 I2.943905 J-0.167277
G02 X286.950799 Y166.578862 Z-1.000000 I1.111214 J-3.974564
G03 X289.407254 Y163.322497 Z-1.000000 I101.925305 J74.333155
G03 X292.262898 Y160.529448 Z-1.000000 I11.784939 J9.192705
G03 X300.073595 Y155.974338 Z-1.000000 I24.094013 J32.340166
G03 X308.953622 Y154.105131 Z-1.000000 I8.864787 J20.086128
G01 X308.953622 Y147.836655 Z-1.000000
G01 X308.953622 Y147.444928 Z-1.000000
G00 Z5.000000

(End cutting path id: path60)


(Start cutting path id: path60)
(Change tool to Default tool)

G00 Z5.000000
G00 X309.734938 Y148.228856

G01 Z-1.000000 F800.0(Penetrate)
G02 X309.983896 Y150.433151 Z-1.000000 I9.882980 J-0.000000 F800.000000
G02 X310.518386 Y151.754691 Z-1.000000 I4.377411 J-1.001565
G01 X310.443233 Y147.837424 Z-1.000000
G01 X310.518386 Y147.053392 Z-1.000000
G02 X310.397687 Y145.976704 Z-1.000000 I-4.862604 J-0.000000
G02 X310.059341 Y145.094471 Z-1.000000 I-3.234183 J0.734347
G02 X310.875857 Y144.433081 Z-1.000000 I-2.217766 J-3.572640
G02 X311.301834 Y143.527566 Z-1.000000 I-1.130720 J-1.084872
G01 X308.561199 Y144.413739 Z-1.000000
G01 X309.731459 Y145.337051 Z-1.000000
G01 X308.583847 Y145.935376 Z-1.000000
G01 X309.897127 Y146.777731 Z-1.000000
G01 X309.734938 Y147.836843 Z-1.000000
G01 X309.734938 Y148.228859 Z-1.000000
G01 X309.734938 Y148.228856 Z-1.000000
G00 Z5.000000

(End cutting path id: path60)


(Start cutting path id: path60)
(Change tool to Default tool)

G00 Z5.000000
G00 X311.521226 Y147.449178

G01 Z-1.000000 F800.0(Penetrate)
G01 X310.946684 Y146.353216 Z-1.000000 F800.000000
G01 X311.521226 Y147.449178 Z-1.000000
G00 Z5.000000

(End cutting path id: path60)


(Start cutting path id: path60)
(Change tool to Default tool)

G00 Z5.000000
G00 X313.130778 Y148.157476

G01 Z-1.000000 F800.0(Penetrate)
G01 X314.362531 Y147.744566 Z-1.000000 F800.000000
G01 X314.424914 Y145.945237 Z-1.000000
G01 X312.333111 Y146.001239 Z-1.000000
G01 X312.059182 Y147.079792 Z-1.000000
G01 X313.130778 Y148.157473 Z-1.000000
G01 X313.130778 Y148.157476 Z-1.000000
G00 Z5.000000

(End cutting path id: path60)


(Start cutting path id: path60)
(Change tool to Default tool)

G00 Z5.000000
G00 X314.239798 Y148.814981

G01 Z-1.000000 F800.0(Penetrate)
G02 X314.327573 Y148.791877 Z-1.000000 I0.036560 J-0.039391 F800.000000
G02 X314.045364 Y148.620570 Z-1.000000 I-0.161855 J-0.051469
G01 X314.239798 Y148.814981 Z-1.000000
G00 Z5.000000

(End cutting path id: path60)


(Start cutting path id: path60)
(Change tool to Default tool)

G00 Z5.000000
G00 X311.669781 Y149.496874

G01 Z-1.000000 F800.0(Penetrate)
G01 X312.871346 Y148.782191 Z-1.000000 F800.000000
G01 X310.908955 Y148.758096 Z-1.000000
G01 X311.669781 Y149.496861 Z-1.000000
G01 X311.669781 Y149.496874 Z-1.000000
G00 Z5.000000

(End cutting path id: path60)


(Start cutting path id: path60)
(Change tool to Default tool)

G00 Z5.000000
G00 X312.692502 Y152.889817

G01 Z-1.000000 F800.0(Penetrate)
G01 X314.518221 Y151.875102 Z-1.000000 F800.000000
G01 X313.811093 Y149.719158 Z-1.000000
G01 X311.908469 Y150.845008 Z-1.000000
G01 X311.415174 Y150.596334 Z-1.000000
G01 X311.330728 Y152.112749 Z-1.000000
G01 X312.017264 Y151.782828 Z-1.000000
G01 X312.692502 Y152.889817 Z-1.000000
G00 Z5.000000

(End cutting path id: path60)


(Start cutting path id: path60)
(Change tool to Default tool)

G00 Z5.000000
G00 X311.498376 Y153.516304

G01 Z-1.000000 F800.0(Penetrate)
G02 X311.585492 Y153.493369 Z-1.000000 I0.036285 J-0.039095 F800.000000
G02 X311.303662 Y153.321893 Z-1.000000 I-0.161787 J-0.051434
G01 X311.498376 Y153.516304 Z-1.000000
G00 Z5.000000

(End cutting path id: path60)


(Start cutting path id: path60)
(Change tool to Default tool)

G00 Z5.000000
G00 X311.498503 Y155.475232

G01 Z-1.000000 F800.0(Penetrate)
G02 X311.585619 Y155.452297 Z-1.000000 I0.036285 J-0.039095 F800.000000
G02 X311.303789 Y155.280821 Z-1.000000 I-0.161787 J-0.051434
G01 X311.498503 Y155.475232 Z-1.000000
G00 Z5.000000

(End cutting path id: path60)


(Start cutting path id: path60)
(Change tool to Default tool)

G00 Z5.000000
G00 X309.292853 Y155.426819

G01 Z-1.000000 F800.0(Penetrate)
G01 X310.052791 Y155.688840 Z-1.000000 F800.000000
G01 X309.292853 Y155.426819 Z-1.000000
G00 Z5.000000

(End cutting path id: path60)


(Start cutting path id: path60)
(Change tool to Default tool)

G00 Z5.000000
G00 X311.160490 Y158.137230

G01 Z-1.000000 F800.0(Penetrate)
G01 X311.337202 Y156.422340 Z-1.000000 F800.000000
G01 X310.368917 Y155.423585 Z-1.000000
G01 X310.520950 Y154.497081 Z-1.000000
G01 X310.520950 Y152.146433 Z-1.000000
G01 X310.129239 Y152.146433 Z-1.000000
G01 X310.098187 Y154.397843 Z-1.000000
G01 X308.648794 Y155.014448 Z-1.000000
G01 X308.550714 Y156.455709 Z-1.000000
G01 X308.591337 Y157.565600 Z-1.000000
G01 X309.558175 Y157.458238 Z-1.000000
G01 X311.160490 Y158.137230 Z-1.000000
G00 Z5.000000

(End cutting path id: path60)


(Start cutting path id: path60)
(Change tool to Default tool)

G00 Z5.000000
G00 X316.199802 Y155.475232

G01 Z-1.000000 F800.0(Penetrate)
G02 X316.287638 Y155.452112 Z-1.000000 I0.036585 J-0.039418 F800.000000
G02 X316.005394 Y155.280821 Z-1.000000 I-0.161861 J-0.051472
G01 X316.199802 Y155.475232 Z-1.000000
G00 Z5.000000

(End cutting path id: path60)


(Start cutting path id: path60)
(Change tool to Default tool)

G00 Z5.000000
G00 X314.632474 Y152.732856

G01 Z-1.000000 F800.0(Penetrate)
G02 X314.720070 Y152.709802 Z-1.000000 I0.036486 J-0.039311 F800.000000
G02 X314.438040 Y152.538153 Z-1.000000 I-0.161905 J-0.051501
G01 X314.632474 Y152.732856 Z-1.000000
G00 Z5.000000

(End cutting path id: path60)


(Start cutting path id: path60)
(Change tool to Default tool)

G00 Z5.000000
G00 X321.879721 Y153.775400

G01 Z-1.000000 F800.0(Penetrate)
G01 X322.589463 Y152.822781 Z-1.000000 F800.000000
G01 X323.328531 Y153.773951 Z-1.000000
G01 X325.888087 Y152.387531 Z-1.000000
G01 X324.577981 Y152.409290 Z-1.000000
G01 X325.926400 Y150.617796 Z-1.000000
G01 X326.899610 Y151.031866 Z-1.000000
G01 X326.964328 Y149.054665 Z-1.000000
G01 X323.371185 Y148.900006 Z-1.000000
G01 X323.367885 Y148.354202 Z-1.000000
G01 X326.587571 Y148.157758 Z-1.000000
G01 X324.115051 Y145.393916 Z-1.000000
G01 X322.551633 Y148.253527 Z-1.000000
G01 X322.144814 Y148.206231 Z-1.000000
G01 X321.758308 Y145.489107 Z-1.000000
G01 X318.922208 Y147.907652 Z-1.000000
G01 X319.195832 Y148.215519 Z-1.000000
G01 X322.277704 Y148.252948 Z-1.000000
G01 X322.329067 Y148.659472 Z-1.000000
G01 X318.738818 Y149.209338 Z-1.000000
G01 X322.215321 Y149.413908 Z-1.000000
G03 X320.445017 Y150.419272 Z-1.000000 I-1.322091 J-0.266705
G02 X318.412384 Y150.696738 Z-1.000000 I-0.746175 J2.117709
G01 X321.594646 Y152.446737 Z-1.000000
G01 X320.328058 Y152.870671 Z-1.000000
G01 X321.879594 Y153.775413 Z-1.000000
G01 X321.879721 Y153.775400 Z-1.000000
G00 Z5.000000

(End cutting path id: path60)


(Start cutting path id: path60)
(Change tool to Default tool)

G00 Z5.000000
G00 X322.663652 Y154.497055

G01 Z-1.000000 F800.0(Penetrate)
G03 X317.766499 Y149.594659 Z-1.000000 I0.000000 J-4.897156 F800.000000
G03 X322.663652 Y144.702744 Z-1.000000 I4.897153 J0.005241
G01 X323.055363 Y144.702744 Z-1.000000
G03 X326.189644 Y146.331386 Z-1.000000 I0.000000 J3.830244
G02 X328.148375 Y147.836843 Z-1.000000 I3.385840 J-2.378305
G03 X327.010345 Y152.187174 Z-1.000000 I-8.821182 J0.016430
G03 X323.055363 Y154.497055 Z-1.000000 I-3.954981 J-2.230920
G01 X322.663652 Y154.497055 Z-1.000000
G00 Z5.000000

(End cutting path id: path60)


(Start cutting path id: path60)
(Change tool to Default tool)

G00 Z5.000000
G00 X323.340895 Y155.856491

G01 Z-1.000000 F800.0(Penetrate)
G03 X325.278822 Y154.475980 Z-1.000000 I3.610057 J3.017245 F800.000000
G02 X326.563197 Y153.695324 Z-1.000000 I-1.469251 J-3.864176
G02 X327.599204 Y152.448721 Z-1.000000 I-3.645095 J-4.083102
G03 X328.881044 Y150.835434 Z-1.000000 I6.976954 J4.227663
G01 X328.478872 Y147.017110 Z-1.000000
G01 X327.261921 Y145.137115 Z-1.000000
G01 X326.455825 Y145.950744 Z-1.000000
G01 X325.945442 Y144.570129 Z-1.000000
G01 X320.269763 Y143.994726 Z-1.000000
G01 X316.758451 Y148.197805 Z-1.000000
G01 X316.781302 Y150.613158 Z-1.000000
G01 X317.889179 Y151.400671 Z-1.000000
G01 X317.640792 Y152.410163 Z-1.000000
G01 X320.969020 Y155.240754 Z-1.000000
G01 X322.290449 Y154.871081 Z-1.000000
G01 X323.340845 Y155.856488 Z-1.000000
G01 X323.340895 Y155.856491 Z-1.000000
G00 Z5.000000

(End cutting path id: path60)


(Start cutting path id: path60)
(Change tool to Default tool)

G00 Z5.000000
G00 X323.229435 Y157.467233

G01 Z-1.000000 F800.0(Penetrate)
G01 X323.686448 Y156.379396 Z-1.000000 F800.000000
G01 X325.662779 Y156.891251 Z-1.000000
G01 X326.242247 Y155.354525 Z-1.000000
G03 X324.647710 Y155.864346 Z-1.000000 I-5.094513 J-13.185327
G03 X323.057953 Y156.064275 Z-1.000000 I-1.589757 J-6.220600
G03 X318.493666 Y154.427482 Z-1.000000 I0.000000 J-7.182280
G03 X316.006003 Y150.971263 Z-1.000000 I5.297508 J-6.436332
G01 X316.006003 Y150.187812 Z-1.000000
G01 X316.006003 Y149.012345 Z-1.000000
G03 X316.983983 Y146.489582 Z-1.000000 I3.742809 J-0.000000
G02 X317.964637 Y144.702782 Z-1.000000 I-3.197083 J-2.917172
G02 X315.805194 Y147.336406 Z-1.000000 I3.184653 J4.813392
G03 X314.763231 Y149.404082 Z-1.000000 I-13.497419 J-5.505372
G01 X315.826118 Y152.802233 Z-1.000000
G01 X319.772101 Y156.620836 Z-1.000000
G01 X321.612927 Y156.288595 Z-1.000000
G01 X323.229435 Y157.467256 Z-1.000000
G01 X323.229435 Y157.467233 Z-1.000000
G00 Z5.000000

(End cutting path id: path60)


(Start cutting path id: path60)
(Change tool to Default tool)

G00 Z5.000000
G00 X326.180677 Y157.496253

G01 Z-1.000000 F800.0(Penetrate)
G02 X327.044957 Y156.940544 Z-1.000000 I-0.163297 J-1.203922 F800.000000
G02 X327.367161 Y155.672550 Z-1.000000 I-1.791646 J-1.130200
G01 X327.313792 Y154.527551 Z-1.000000
G02 X326.951854 Y155.251318 Z-1.000000 I0.542080 J0.723462
G02 X327.036080 Y156.513456 Z-1.000000 I9.547092 J-0.003224
G01 X326.180677 Y157.496253 Z-1.000000
G00 Z5.000000

(End cutting path id: path60)


(Start cutting path id: path60)
(Change tool to Default tool)

G00 Z5.000000
G00 X326.539864 Y159.562250

G01 Z-1.000000 F800.0(Penetrate)
G03 X327.521695 Y159.284718 Z-1.000000 I1.779671 J4.420491 F800.000000
G03 X328.542321 Y159.198670 Z-1.000000 I1.020626 J6.009876
G01 X330.109497 Y159.198670 Z-1.000000
G01 X331.610533 Y159.174880 Z-1.000000
G01 X332.027228 Y158.120412 Z-1.000000
G01 X330.908331 Y158.892258 Z-1.000000
G01 X329.776105 Y157.579250 Z-1.000000
G01 X328.508654 Y157.614650 Z-1.000000
G01 X327.420530 Y158.472386 Z-1.000000
G01 X326.143786 Y158.096909 Z-1.000000
G01 X326.539864 Y159.562255 Z-1.000000
G01 X326.539864 Y159.562250 Z-1.000000
G00 Z5.000000

(End cutting path id: path60)


(Start cutting path id: path60)
(Change tool to Default tool)

G00 Z5.000000
G00 X328.333414 Y156.751659

G01 Z-1.000000 F800.0(Penetrate)
G01 X330.070067 Y156.335850 Z-1.000000 F800.000000
G01 X329.375964 Y152.158897 Z-1.000000
G01 X327.981133 Y154.028446 Z-1.000000
G01 X327.624231 Y153.923407 Z-1.000000
G01 X328.333414 Y156.751661 Z-1.000000
G01 X328.333414 Y156.751659 Z-1.000000
G00 Z5.000000

(End cutting path id: path60)


(Start cutting path id: path60)
(Change tool to Default tool)

G00 Z5.000000
G00 X326.386079 Y151.557368

G01 Z-1.000000 F800.0(Penetrate)
G02 X326.473196 Y151.534433 Z-1.000000 I0.036285 J-0.039095 F800.000000
G02 X326.191366 Y151.362957 Z-1.000000 I-0.161787 J-0.051434
G01 X326.386079 Y151.557368 Z-1.000000
G00 Z5.000000

(End cutting path id: path60)


(Start cutting path id: path60)
(Change tool to Default tool)

G00 Z5.000000
G00 X323.415389 Y150.011448

G01 Z-1.000000 F800.0(Penetrate)
G03 X323.620463 Y149.730267 Z-1.000000 I1.651792 J0.989329 F800.000000
G03 X324.634371 Y149.333618 Z-1.000000 I0.890469 J0.782012
G01 X326.257861 Y149.795276 Z-1.000000
G02 X326.027377 Y149.961310 Z-1.000000 I2.423075 J3.606631
G03 X325.005212 Y150.252579 Z-1.000000 I-0.876374 J-1.136304
G01 X323.415389 Y150.011451 Z-1.000000
G01 X323.415389 Y150.011448 Z-1.000000
G00 Z5.000000

(End cutting path id: path60)


(Start cutting path id: path60)
(Change tool to Default tool)

G00 Z5.000000
G00 X321.904349 Y150.646812

G01 Z-1.000000 F800.0(Penetrate)
G01 X323.381011 Y150.592841 Z-1.000000 F800.000000
G01 X323.773890 Y153.282392 Z-1.000000
G01 X321.911001 Y152.045989 Z-1.000000
G01 X321.904400 Y150.646801 Z-1.000000
G01 X321.904349 Y150.646812 Z-1.000000
G00 Z5.000000

(End cutting path id: path60)


(Start cutting path id: path60)
(Change tool to Default tool)

G00 Z5.000000
G00 X321.490015 Y143.135548

G01 Z-1.000000 F800.0(Penetrate)
G02 X321.986393 Y143.373290 Z-1.000000 I1.235602 J-1.942733 F800.000000
G02 X323.057217 Y143.527564 Z-1.000000 I0.950416 J-2.803420
G01 X324.593062 Y143.483168 Z-1.000000
G01 X321.490015 Y143.135548 Z-1.000000
G00 Z5.000000

(End cutting path id: path60)


(Start cutting path id: path60)
(Change tool to Default tool)

G00 Z5.000000
G00 X319.725866 Y139.804101

G01 Z-1.000000 F800.0(Penetrate)
G02 X319.812594 Y139.782342 Z-1.000000 I0.036528 J-0.038127 F800.000000
G02 X319.531178 Y139.609687 Z-1.000000 I-0.161387 J-0.052621
G01 X319.725866 Y139.804101 Z-1.000000
G00 Z5.000000

(End cutting path id: path60)


(Start cutting path id: path60)
(Change tool to Default tool)

G00 Z5.000000
G00 X317.741614 Y140.003440

G01 Z-1.000000 F800.0(Penetrate)
G01 X323.518547 Y135.936450 Z-1.000000 F800.000000
G01 X316.589356 Y138.530536 Z-1.000000
G01 X317.741614 Y140.003425 Z-1.000000
G01 X317.741614 Y140.003440 Z-1.000000
G00 Z5.000000

(End cutting path id: path60)


(Start cutting path id: path60)
(Change tool to Default tool)

G00 Z5.000000
G00 X317.106467 Y137.276160

G01 Z-1.000000 F800.0(Penetrate)
G01 X316.346529 Y137.014139 Z-1.000000 F800.000000
G01 X317.106467 Y137.276160 Z-1.000000
G00 Z5.000000

(End cutting path id: path60)


(Start cutting path id: path60)
(Change tool to Default tool)

G00 Z5.000000
G00 X319.334307 Y136.278273

G01 Z-1.000000 F800.0(Penetrate)
G02 X319.421255 Y136.255389 Z-1.000000 I0.036216 J-0.039020 F800.000000
G02 X319.139619 Y136.083570 Z-1.000000 I-0.161828 J-0.051470
G01 X319.334307 Y136.278273 Z-1.000000
G00 Z5.000000

(End cutting path id: path60)


(Start cutting path id: path60)
(Change tool to Default tool)

G00 Z5.000000
G00 X320.117832 Y135.886282

G01 Z-1.000000 F800.0(Penetrate)
G02 X320.205837 Y135.863995 Z-1.000000 I0.037071 J-0.038515 F800.000000
G02 X319.923144 Y135.691869 Z-1.000000 I-0.162270 J-0.051699
G01 X320.117832 Y135.886282 Z-1.000000
G00 Z5.000000

(End cutting path id: path60)


(Start cutting path id: path60)
(Change tool to Default tool)

G00 Z5.000000
G00 X323.251930 Y137.061727

G01 Z-1.000000 F800.0(Penetrate)
G02 X323.339536 Y137.038673 Z-1.000000 I0.036490 J-0.039316 F800.000000
G02 X323.057521 Y136.867024 Z-1.000000 I-0.161895 J-0.051507
G01 X323.251930 Y137.061727 Z-1.000000
G00 Z5.000000

(End cutting path id: path60)


(Start cutting path id: path60)
(Change tool to Default tool)

G00 Z5.000000
G00 X328.082438 Y139.250162

G01 Z-1.000000 F800.0(Penetrate)
G01 X326.699794 Y142.464923 Z-1.000000 F800.000000
G01 X326.144395 Y142.284438 Z-1.000000
G01 X327.491367 Y137.893045 Z-1.000000
G01 X328.981663 Y139.574274 Z-1.000000
G01 X328.934362 Y140.393125 Z-1.000000
G01 X328.934362 Y142.352046 Z-1.000000
G01 X328.257119 Y143.996714 Z-1.000000
G01 X328.082438 Y139.250144 Z-1.000000
G01 X328.082438 Y139.250162 Z-1.000000
G00 Z5.000000

(End cutting path id: path60)


(Start cutting path id: path60)
(Change tool to Default tool)

G00 Z5.000000
G00 X329.391300 Y140.426107

G01 Z-1.000000 F800.0(Penetrate)
G01 X329.391300 Y141.142239 Z-1.000000 F800.000000
G01 X329.391300 Y140.426107 Z-1.000000
G00 Z5.000000

(End cutting path id: path60)


(Start cutting path id: path60)
(Change tool to Default tool)

G00 Z5.000000
G00 X329.391274 Y141.993308

G01 Z-1.000000 F800.0(Penetrate)
G01 X329.391274 Y142.709730 Z-1.000000 F800.000000
G01 X329.391274 Y141.993308 Z-1.000000
G00 Z5.000000

(End cutting path id: path60)


(Start cutting path id: path60)
(Change tool to Default tool)

G00 Z5.000000
G00 X329.480468 Y143.542612

G01 Z-1.000000 F800.0(Penetrate)
G01 X329.332193 Y144.656565 Z-1.000000 F800.000000
G01 X329.480468 Y143.542612 Z-1.000000
G00 Z5.000000

(End cutting path id: path60)


(Start cutting path id: path60)
(Change tool to Default tool)

G00 Z5.000000
G00 X329.098608 Y145.327403

G01 Z-1.000000 F800.0(Penetrate)
G01 X331.419958 Y143.203087 Z-1.000000 F800.000000
G01 X332.413201 Y143.658069 Z-1.000000
G01 X330.862249 Y144.907821 Z-1.000000
G01 X336.262272 Y143.157822 Z-1.000000
G01 X336.378353 Y143.135479 Z-1.000000
G01 X332.805522 Y143.449729 Z-1.000000
G01 X332.772135 Y142.808169 Z-1.000000
G01 X331.780643 Y143.172330 Z-1.000000
G01 X330.291210 Y137.808589 Z-1.000000
G01 X330.824545 Y137.673660 Z-1.000000
G01 X331.831423 Y140.733773 Z-1.000000
G01 X332.742556 Y140.350463 Z-1.000000
G01 X333.596206 Y142.325052 Z-1.000000
G01 X335.952950 Y142.331425 Z-1.000000
G01 X335.139339 Y140.810658 Z-1.000000
G01 X335.052582 Y142.015725 Z-1.000000
G01 X333.959812 Y140.785416 Z-1.000000
G01 X334.950440 Y140.076537 Z-1.000000
G03 X336.732195 Y141.770728 Z-1.000000 I-4.767656 J6.798091
G02 X339.120715 Y142.352031 Z-1.000000 I1.561067 J-1.216526
G01 X334.749633 Y138.245001 Z-1.000000
G01 X335.000610 Y137.933942 Z-1.000000
G01 X336.672569 Y139.179922 Z-1.000000
G01 X334.262710 Y136.375457 Z-1.000000
G01 X339.813040 Y140.197259 Z-1.000000
G01 X340.255556 Y140.152284 Z-1.000000
G01 X342.580385 Y133.853036 Z-1.000000
G01 X333.276754 Y133.716655 Z-1.000000
G01 X334.796071 Y132.696136 Z-1.000000
G01 X332.526947 Y133.013581 Z-1.000000
G03 X329.683544 Y136.130922 Z-1.000000 I-3.893893 J-0.696275
G03 X326.259334 Y135.042721 Z-1.000000 I-0.875246 J-3.177422
G03 X327.431246 Y134.940598 Z-1.000000 I0.673984 J0.959108
G02 X329.326404 Y135.300099 Z-1.000000 I1.647922 J-3.512208
G01 X330.404093 Y135.250772 Z-1.000000
G01 X331.966927 Y131.881337 Z-1.000000
G01 X329.812158 Y129.721911 Z-1.000000
G01 X329.533304 Y129.406498 Z-1.000000
G01 X325.491551 Y131.758596 Z-1.000000
G03 X328.577439 Y129.042449 Z-1.000000 I5.531180 J3.173071
G03 X330.042284 Y129.195911 Z-1.000000 I0.591276 J1.424023
G03 X331.836648 Y131.033727 Z-1.000000 I-3.754244 J5.460358
G02 X333.243950 Y132.165701 Z-1.000000 I2.440541 J-1.593365
G01 X334.027678 Y132.165701 Z-1.000000
G01 X335.594600 Y132.165701 Z-1.000000
G01 X338.716512 Y131.702304 Z-1.000000
G01 X342.255093 Y131.773974 Z-1.000000
G01 X342.138148 Y129.279695 Z-1.000000
G01 X336.205095 Y131.340174 Z-1.000000
G01 X335.982834 Y130.819613 Z-1.000000
G01 X337.556992 Y129.985961 Z-1.000000
G01 X334.242398 Y130.863138 Z-1.000000
G03 X336.765365 Y128.487082 Z-1.000000 I3.887675 J1.600540
G03 X340.228846 Y128.572558 Z-1.000000 I1.616546 J4.710423
G01 X339.805195 Y127.455413 Z-1.000000
G01 X341.154477 Y126.825168 Z-1.000000
G01 X339.316850 Y123.572990 Z-1.000000
G01 X335.972678 Y126.925864 Z-1.000000
G01 X339.239081 Y124.173049 Z-1.000000
G01 X339.666796 Y124.634989 Z-1.000000
G01 X333.449099 Y130.427028 Z-1.000000
G01 X333.037329 Y130.025145 Z-1.000000
G01 X335.095211 Y127.686395 Z-1.000000
G01 X334.355560 Y126.947920 Z-1.000000
G01 X338.503213 Y123.264557 Z-1.000000
G01 X336.766866 Y121.917027 Z-1.000000
G01 X332.354881 Y128.590851 Z-1.000000
G01 X331.741746 Y128.111205 Z-1.000000
G01 X332.852798 Y126.400087 Z-1.000000
G01 X331.798924 Y127.065441 Z-1.000000
G01 X335.072005 Y120.558172 Z-1.000000
G02 X332.383224 Y122.668683 Z-1.000000 I0.032442 J2.809333
G02 X331.609720 Y126.221920 Z-1.000000 I47.573087 J12.216993
G01 X330.042519 Y126.546326 Z-1.000000
G01 X331.765816 Y120.004221 Z-1.000000
G01 X329.030995 Y119.298516 Z-1.000000
G01 X329.834197 Y120.721783 Z-1.000000
G01 X329.718115 Y121.587951 Z-1.000000
G03 X329.311052 Y122.601701 Z-1.000000 I-1.465851 J0.000000
G02 X328.609959 Y123.412223 Z-1.000000 I7.661449 J7.335553
G01 X329.787759 Y124.240078 Z-1.000000
G01 X329.734949 Y125.539142 Z-1.000000
G01 X328.580964 Y126.015307 Z-1.000000
G01 X328.407425 Y127.094730 Z-1.000000
G01 X327.688111 Y119.304609 Z-1.000000
G01 X325.723968 Y119.858535 Z-1.000000
G01 X327.955058 Y126.945569 Z-1.000000
G01 X327.497181 Y127.113577 Z-1.000000
G01 X326.788886 Y125.578882 Z-1.000000
G01 X326.391639 Y126.679777 Z-1.000000
G01 X323.919703 Y120.445849 Z-1.000000
G01 X322.163323 Y121.062157 Z-1.000000
G01 X326.104076 Y126.772635 Z-1.000000
G01 X325.993530 Y128.631157 Z-1.000000
G01 X320.720328 Y122.353678 Z-1.000000
G01 X318.738488 Y123.713116 Z-1.000000
G01 X325.518261 Y128.974702 Z-1.000000
G01 X324.322764 Y129.161278 Z-1.000000
G01 X325.010468 Y130.083719 Z-1.000000
G01 X324.776299 Y130.400871 Z-1.000000
G01 X317.616418 Y125.376615 Z-1.000000
G01 X316.345488 Y127.472785 Z-1.000000
G01 X324.629776 Y130.530282 Z-1.000000
G01 X323.482163 Y131.086823 Z-1.000000
G01 X324.343380 Y131.706331 Z-1.000000
G01 X323.553254 Y132.717855 Z-1.000000
G01 X324.230777 Y133.606058 Z-1.000000
G01 X322.666775 Y133.751434 Z-1.000000
G01 X315.614266 Y133.732849 Z-1.000000
G01 X315.730932 Y136.227128 Z-1.000000
G01 X323.427626 Y133.925229 Z-1.000000
G01 X324.053507 Y135.625320 Z-1.000000
G01 X325.381614 Y136.249471 Z-1.000000
G01 X319.115728 Y141.546184 Z-1.000000
G01 X319.565759 Y142.725713 Z-1.000000
G02 X321.441725 Y141.410882 Z-1.000000 I-3.415676 J-6.869101
G02 X322.822312 Y139.765128 Z-1.000000 I-6.652084 J-6.982232
G03 X324.479802 Y138.358172 Z-1.000000 I3.269213 J2.171561
G02 X325.900985 Y137.292320 Z-1.000000 I-1.669146 J-3.706013
G01 X326.985351 Y138.046467 Z-1.000000
G01 X325.600955 Y142.098071 Z-1.000000
G01 X324.986957 Y141.879575 Z-1.000000
G01 X326.172298 Y138.496227 Z-1.000000
G01 X323.773205 Y141.164603 Z-1.000000
G01 X323.255840 Y140.425837 Z-1.000000
G01 X321.742312 Y142.657225 Z-1.000000
G01 X324.760634 Y142.178157 Z-1.000000
G01 X329.098633 Y145.327337 Z-1.000000
G01 X329.098608 Y145.327403 Z-1.000000
G00 Z5.000000

(End cutting path id: path60)


(Start cutting path id: path60)
(Change tool to Default tool)

G00 Z5.000000
G00 X330.844375 Y146.027360

G01 Z-1.000000 F800.0(Penetrate)
G01 X330.253888 Y145.498966 Z-1.000000 F800.000000
G01 X329.180845 Y147.683636 Z-1.000000
G01 X330.844375 Y146.027360 Z-1.000000
G00 Z5.000000

(End cutting path id: path60)


(Start cutting path id: path60)
(Change tool to Default tool)

G00 Z5.000000
G00 X333.927338 Y148.156902

G01 Z-1.000000 F800.0(Penetrate)
G01 X334.944092 Y146.953867 Z-1.000000 F800.000000
G01 X334.778095 Y148.954861 Z-1.000000
G01 X333.242833 Y149.023628 Z-1.000000
G01 X332.459080 Y149.012305 Z-1.000000
G01 X330.874766 Y148.358557 Z-1.000000
G01 X333.927338 Y148.156892 Z-1.000000
G01 X333.927338 Y148.156902 Z-1.000000
G00 Z5.000000

(End cutting path id: path60)


(Start cutting path id: path60)
(Change tool to Default tool)

G00 Z5.000000
G00 X335.559817 Y148.653960

G01 Z-1.000000 F800.0(Penetrate)
G03 X336.608390 Y148.075403 Z-1.000000 I0.893582 J0.380030 F800.000000
G02 X338.660248 Y148.161546 Z-1.000000 I1.388182 J-8.585571
G01 X336.827826 Y145.392474 Z-1.000000
G01 X335.737671 Y146.423149 Z-1.000000
G01 X335.593179 Y144.702747 Z-1.000000
G01 X338.096725 Y145.285404 Z-1.000000
G01 X339.692642 Y148.839675 Z-1.000000
G01 X337.944108 Y149.023641 Z-1.000000
G01 X337.160355 Y149.012317 Z-1.000000
G01 X335.559791 Y148.653960 Z-1.000000
G01 X335.559817 Y148.653960 Z-1.000000
G00 Z5.000000

(End cutting path id: path60)


(Start cutting path id: path60)
(Change tool to Default tool)

G00 Z5.000000
G00 X334.493172 Y150.149192

G01 Z-1.000000 F800.0(Penetrate)
G01 X334.849186 Y151.788059 Z-1.000000 F800.000000
G01 X334.063427 Y152.354466 Z-1.000000
G01 X334.798990 Y153.206109 Z-1.000000
G01 X331.886290 Y151.880914 Z-1.000000
G01 X332.207215 Y151.296807 Z-1.000000
G01 X333.860894 Y152.046599 Z-1.000000
G01 X334.493172 Y150.149195 Z-1.000000
G01 X334.493172 Y150.149192 Z-1.000000
G00 Z5.000000

(End cutting path id: path60)


(Start cutting path id: path60)
(Change tool to Default tool)

G00 Z5.000000
G00 X330.695794 Y150.382173

G01 Z-1.000000 F800.0(Penetrate)
G02 X330.782515 Y150.360413 Z-1.000000 I0.036524 J-0.038123 F800.000000
G02 X330.501081 Y150.187762 Z-1.000000 I-0.161397 J-0.052616
G01 X330.695794 Y150.382173 Z-1.000000
G00 Z5.000000

(End cutting path id: path60)


(Start cutting path id: path60)
(Change tool to Default tool)

G00 Z5.000000
G00 X329.843819 Y150.638705

G01 Z-1.000000 F800.0(Penetrate)
G02 X331.041595 Y153.816923 Z-1.000000 I1.709520 J1.170545 F800.000000
G03 X333.992336 Y155.323171 Z-1.000000 I-1.854893 J7.277110
G01 X337.180692 Y154.792746 Z-1.000000
G01 X340.469439 Y152.349246 Z-1.000000
G01 X339.937271 Y150.554271 Z-1.000000
G01 X341.155086 Y149.946080 Z-1.000000
G02 X339.389142 Y146.016138 Z-1.000000 I-5.873022 J0.277339
G02 X335.201442 Y144.311025 Z-1.000000 I-4.187700 J4.289870
G02 X332.879285 Y144.893656 Z-1.000000 I0.000000 J4.918951
G02 X331.283895 Y146.168098 Z-1.000000 I2.657542 J4.962608
G01 X334.253468 Y144.863214 Z-1.000000
G01 X334.498656 Y145.325161 Z-1.000000
G01 X331.238625 Y147.439901 Z-1.000000
G01 X330.394242 Y149.300454 Z-1.000000
G01 X334.497209 Y149.511404 Z-1.000000
G01 X334.505334 Y150.048504 Z-1.000000
G01 X331.682868 Y150.265840 Z-1.000000
G01 X332.131757 Y151.263435 Z-1.000000
G01 X330.580246 Y151.507467 Z-1.000000
G01 X329.843794 Y150.638707 Z-1.000000
G01 X329.843819 Y150.638705 Z-1.000000
G00 Z5.000000

(End cutting path id: path60)


(Start cutting path id: path60)
(Change tool to Default tool)

G00 Z5.000000
G00 X334.571804 Y145.416851

G01 Z-1.000000 F800.0(Penetrate)
G01 X335.059869 Y145.419136 Z-1.000000 F800.000000
G01 X334.559033 Y146.726340 Z-1.000000
G01 X334.571728 Y145.416815 Z-1.000000
G01 X334.571804 Y145.416851 Z-1.000000
G00 Z5.000000

(End cutting path id: path60)


(Start cutting path id: path60)
(Change tool to Default tool)

G00 Z5.000000
G00 X337.477725 Y143.936411

G01 Z-1.000000 F800.0(Penetrate)
G01 X336.717762 Y143.674390 Z-1.000000 F800.000000
G01 X337.477725 Y143.936411 Z-1.000000
G00 Z5.000000

(End cutting path id: path60)


(Start cutting path id: path60)
(Change tool to Default tool)

G00 Z5.000000
G00 X338.138389 Y144.113707

G01 Z-1.000000 F800.0(Penetrate)
G02 X338.225504 Y144.090772 Z-1.000000 I0.036284 J-0.039094 F800.000000
G02 X337.943676 Y143.919293 Z-1.000000 I-0.161787 J-0.051434
G01 X338.138389 Y144.113707 Z-1.000000
G00 Z5.000000

(End cutting path id: path60)


(Start cutting path id: path60)
(Change tool to Default tool)

G00 Z5.000000
G00 X339.611598 Y142.777483

G01 Z-1.000000 F800.0(Penetrate)
G02 X340.030440 Y143.573974 Z-1.000000 I0.907349 J0.031234 F800.000000
G02 X340.652726 Y143.818313 Z-1.000000 I0.932983 J-1.461539
G01 X339.611598 Y142.777483 Z-1.000000
G00 Z5.000000

(End cutting path id: path60)


(Start cutting path id: path60)
(Change tool to Default tool)

G00 Z5.000000
G00 X339.771477 Y141.566300

G01 Z-1.000000 F800.0(Penetrate)
G01 X339.122391 Y140.916906 Z-1.000000 F800.000000
G01 X339.771477 Y141.566300 Z-1.000000
G00 Z5.000000

(End cutting path id: path60)


(Start cutting path id: path60)
(Change tool to Default tool)

G00 Z5.000000
G00 X337.261837 Y139.251332

G01 Z-1.000000 F800.0(Penetrate)
G02 X337.730790 Y140.001832 Z-1.000000 I1.381627 J-0.341552 F800.000000
G02 X338.661035 Y140.717839 Z-1.000000 I9.372447 J-11.214515
G01 X337.261837 Y139.251332 Z-1.000000
G00 Z5.000000

(End cutting path id: path60)


(Start cutting path id: path60)
(Change tool to Default tool)

G00 Z5.000000
G00 X338.652860 Y136.100703

G01 Z-1.000000 F800.0(Penetrate)
G01 X337.892922 Y135.838682 Z-1.000000 F800.000000
G01 X338.652860 Y136.100703 Z-1.000000
G00 Z5.000000

(End cutting path id: path60)


(Start cutting path id: path60)
(Change tool to Default tool)

G00 Z5.000000
G00 X339.313295 Y136.277996

G01 Z-1.000000 F800.0(Penetrate)
G02 X339.400952 Y136.254927 Z-1.000000 I0.036511 J-0.039338 F800.000000
G02 X339.118887 Y136.083293 Z-1.000000 I-0.161912 J-0.051504
G01 X339.313295 Y136.277996 Z-1.000000
G00 Z5.000000

(End cutting path id: path60)


(Start cutting path id: path60)
(Change tool to Default tool)

G00 Z5.000000
G00 X336.717458 Y135.544451

G01 Z-1.000000 F800.0(Penetrate)
G01 X337.477395 Y135.282430 Z-1.000000 F800.000000
G01 X336.717458 Y135.544451 Z-1.000000
G00 Z5.000000

(End cutting path id: path60)


(Start cutting path id: path60)
(Change tool to Default tool)

G00 Z5.000000
G00 X335.911133 Y132.966627

G01 Z-1.000000 F800.0(Penetrate)
G01 X335.150891 Y132.704606 Z-1.000000 F800.000000
G01 X335.911133 Y132.966627 Z-1.000000
G00 Z5.000000

(End cutting path id: path60)


(Start cutting path id: path60)
(Change tool to Default tool)

G00 Z5.000000
G00 X335.661045 Y131.169576

G01 Z-1.000000 F800.0(Penetrate)
G03 X335.797590 Y131.396067 Z-1.000000 I0.045779 J0.126806 F800.000000
G03 X335.202863 Y131.382268 Z-1.000000 I-0.290130 J-0.318640
G03 X335.340839 Y131.187568 Z-1.000000 I0.085590 J-0.085584
G02 X335.594600 Y131.192498 Z-1.000000 I0.132281 J-0.275535
G03 X335.641445 Y131.175247 Z-1.000000 I0.100944 J0.201888
G02 X335.661045 Y131.169571 Z-1.000000 I-0.061369 J-0.248584
G01 X335.661045 Y131.169576 Z-1.000000
G00 Z5.000000

(End cutting path id: path60)


(Start cutting path id: path60)
(Change tool to Default tool)

G00 Z5.000000
G00 X337.946088 Y129.589410

G01 Z-1.000000 F800.0(Penetrate)
G01 X339.417825 Y128.987023 Z-1.000000 F800.000000
G01 X337.946088 Y129.589410 Z-1.000000
G00 Z5.000000

(End cutting path id: path60)


(Start cutting path id: path60)
(Change tool to Default tool)

G00 Z5.000000
G00 X340.880522 Y128.050882

G01 Z-1.000000 F800.0(Penetrate)
G02 X340.968130 Y128.027827 Z-1.000000 I0.036491 J-0.039317 F800.000000
G02 X340.686114 Y127.856181 Z-1.000000 I-0.161895 J-0.051506
G01 X340.880522 Y128.050882 Z-1.000000
G00 Z5.000000

(End cutting path id: path60)


(Start cutting path id: path60)
(Change tool to Default tool)

G00 Z5.000000
G00 X341.664275 Y127.659155

G01 Z-1.000000 F800.0(Penetrate)
G02 X341.750815 Y127.637445 Z-1.000000 I0.036449 J-0.038044 F800.000000
G02 X341.469562 Y127.464454 Z-1.000000 I-0.161446 J-0.052647
G01 X341.664275 Y127.659155 Z-1.000000
G00 Z5.000000

(End cutting path id: path60)


(Start cutting path id: path60)
(Change tool to Default tool)

G00 Z5.000000
G00 X339.902970 Y132.557780

G01 Z-1.000000 F800.0(Penetrate)
G02 X340.108332 Y132.693046 Z-1.000000 I288.452642 J-437.711113 F800.000000
G02 X341.078435 Y132.949507 Z-1.000000 I0.867188 J-1.317255
G01 X342.223152 Y132.896405 Z-1.000000
G01 X339.902970 Y132.557780 Z-1.000000
G00 Z5.000000

(End cutting path id: path60)


(Start cutting path id: path60)
(Change tool to Default tool)

G00 Z5.000000
G00 X333.242122 Y134.124373

G01 Z-1.000000 F800.0(Penetrate)
G01 X336.430199 Y135.403722 Z-1.000000 F800.000000
G01 X337.139078 Y134.500721 Z-1.000000
G01 X339.595044 Y135.585656 Z-1.000000
G01 X340.686088 Y137.650487 Z-1.000000
G03 X336.156885 Y136.804125 Z-1.000000 I2.994193 J-28.564993
G03 X333.242122 Y134.124373 Z-1.000000 I1.126488 J-4.150346
G01 X333.242122 Y134.124373 Z-1.000000
G00 Z5.000000

(End cutting path id: path60)


(Start cutting path id: path60)
(Change tool to Default tool)

G00 Z5.000000
G00 X332.414064 Y138.160591

G01 Z-1.000000 F800.0(Penetrate)
G01 X333.738668 Y140.467713 Z-1.000000 F800.000000
G01 X332.414064 Y138.160591 Z-1.000000
G00 Z5.000000

(End cutting path id: path60)


(Start cutting path id: path60)
(Change tool to Default tool)

G00 Z5.000000
G00 X332.135134 Y141.210286

G01 Z-1.000000 F800.0(Penetrate)
G01 X332.135134 Y141.926708 Z-1.000000 F800.000000
G01 X332.135134 Y141.210286 Z-1.000000
G00 Z5.000000

(End cutting path id: path60)


(Start cutting path id: path60)
(Change tool to Default tool)

G00 Z5.000000
G00 X328.522263 Y132.221858

G01 Z-1.000000 F800.0(Penetrate)
G03 X328.907627 Y133.071500 Z-1.000000 I-0.538415 J0.756418 F800.000000
G03 X328.755543 Y133.441721 Z-1.000000 I-0.698174 J-0.070457
G01 X328.522263 Y132.221858 Z-1.000000
G00 Z5.000000

(End cutting path id: path60)


(Start cutting path id: path60)
(Change tool to Default tool)

G00 Z5.000000
G00 X329.574689 Y127.454179

G01 Z-1.000000 F800.0(Penetrate)
G01 X328.907297 Y128.082101 Z-1.000000 F800.000000
G01 X329.574689 Y127.454179 Z-1.000000
G00 Z5.000000

(End cutting path id: path60)


(Start cutting path id: path60)
(Change tool to Default tool)

G00 Z5.000000
G00 X329.326404 Y126.680965

G01 Z-1.000000 F800.0(Penetrate)
G01 X329.326404 Y126.680965 Z-1.000000 F800.000000
G01 X329.326404 Y126.680965 Z-1.000000
G00 Z5.000000

(End cutting path id: path60)


(Start cutting path id: path60)
(Change tool to Default tool)

G00 Z5.000000
G00 X331.087785 Y125.308502

G01 Z-1.000000 F800.0(Penetrate)
G02 X331.174724 Y125.285618 Z-1.000000 I0.036211 J-0.039016 F800.000000
G02 X330.893072 Y125.113799 Z-1.000000 I-0.161839 J-0.051465
G01 X331.087785 Y125.308502 Z-1.000000
G00 Z5.000000

(End cutting path id: path60)


(Start cutting path id: path60)
(Change tool to Default tool)

G00 Z5.000000
G00 X333.046749 Y125.700216

G01 Z-1.000000 F800.0(Penetrate)
G02 X333.133688 Y125.677332 Z-1.000000 I0.036211 J-0.039016 F800.000000
G02 X332.852036 Y125.505513 Z-1.000000 I-0.161839 J-0.051465
G01 X333.046749 Y125.700216 Z-1.000000
G00 Z5.000000

(End cutting path id: path60)


(Start cutting path id: path60)
(Change tool to Default tool)

G00 Z5.000000
G00 X333.830299 Y124.524752

G01 Z-1.000000 F800.0(Penetrate)
G02 X333.918702 Y124.502422 Z-1.000000 I0.037272 J-0.038599 F800.000000
G02 X333.635890 Y124.330338 Z-1.000000 I-0.162332 J-0.051651
G01 X333.830299 Y124.524752 Z-1.000000
G00 Z5.000000

(End cutting path id: path60)


(Start cutting path id: path60)
(Change tool to Default tool)

G00 Z5.000000
G00 X335.004520 Y122.565808

G01 Z-1.000000 F800.0(Penetrate)
G02 X335.092279 Y122.543716 Z-1.000000 I0.037036 J-0.038231 F800.000000
G02 X334.809832 Y122.371400 Z-1.000000 I-0.162285 J-0.051636
G01 X335.004520 Y122.565808 Z-1.000000
G00 Z5.000000

(End cutting path id: path60)


(Start cutting path id: path60)
(Change tool to Default tool)

G00 Z5.000000
G00 X331.870142 Y122.565808

G01 Z-1.000000 F800.0(Penetrate)
G02 X331.958569 Y122.543552 Z-1.000000 I0.037319 J-0.038523 F800.000000
G02 X331.675733 Y122.371400 Z-1.000000 I-0.162357 J-0.051674
G01 X331.870142 Y122.565808 Z-1.000000
G00 Z5.000000

(End cutting path id: path60)


(Start cutting path id: path60)
(Change tool to Default tool)

G00 Z5.000000
G00 X316.802426 Y144.076854

G01 Z-1.000000 F800.0(Penetrate)
G01 X318.736660 Y143.083900 Z-1.000000 F800.000000
G01 X317.751846 Y141.738393 Z-1.000000
G01 X317.946534 Y141.288055 Z-1.000000
G02 X316.881350 Y141.607925 Z-1.000000 I-0.059316 J1.735968
G02 X316.071483 Y142.486446 Z-1.000000 I1.671966 J2.353855
G01 X316.435647 Y143.421075 Z-1.000000
G01 X314.829269 Y143.538883 Z-1.000000
G01 X312.086603 Y143.527559 Z-1.000000
G01 X312.089904 Y143.851386 Z-1.000000
G01 X316.802502 Y144.076846 Z-1.000000
G01 X316.802426 Y144.076854 Z-1.000000
G00 Z5.000000

(End cutting path id: path60)


(Start cutting path id: path60)
(Change tool to Default tool)

G00 Z5.000000
G00 X314.035487 Y145.160052

G01 Z-1.000000 F800.0(Penetrate)
G01 X314.437355 Y145.094473 Z-1.000000 F800.000000
G01 X315.973225 Y145.050369 Z-1.000000
G01 X312.445664 Y144.918632 Z-1.000000
G01 X314.035487 Y145.160052 Z-1.000000
G00 Z5.000000

(End cutting path id: path60)


(Start cutting path id: path60)
(Change tool to Default tool)

G00 Z5.000000
G00 X315.291589 Y164.288767

G01 Z-1.000000 F800.0(Penetrate)
G01 X325.016257 Y164.291661 Z-1.000000 F800.000000
G01 X325.016257 Y163.507918 Z-1.000000
G01 X326.191417 Y163.507918 Z-1.000000
G01 X325.290465 Y157.656112 Z-1.000000
G02 X324.408703 Y159.657549 Z-1.000000 I0.638653 J1.476323
G03 X323.023677 Y162.366400 Z-1.000000 I-1.994350 J0.688800
G01 X322.156367 Y157.703997 Z-1.000000
G01 X320.456555 Y157.188079 Z-1.000000
G02 X319.249951 Y159.514564 Z-1.000000 I6.370967 J4.780367
G03 X317.639599 Y160.698528 Z-1.000000 I-1.628032 J-0.527214
G01 X318.303513 Y156.404047 Z-1.000000
G01 X317.430667 Y155.752040 Z-1.000000
G02 X315.757527 Y157.169848 Z-1.000000 I6.816954 J9.740749
G03 X313.721747 Y157.955862 Z-1.000000 I-1.881941 J-1.844890
G01 X315.524285 Y154.616895 Z-1.000000
G01 X314.900995 Y153.602758 Z-1.000000
G01 X312.158329 Y154.916345 Z-1.000000
G01 X312.549177 Y157.647104 Z-1.000000
G01 X313.767017 Y158.297949 Z-1.000000
G01 X312.909862 Y159.018434 Z-1.000000
G01 X313.988415 Y163.939101 Z-1.000000
G01 X314.394065 Y163.868591 Z-1.000000
G01 X314.456752 Y162.333606 Z-1.000000
G01 X314.438218 Y161.941009 Z-1.000000
G01 X315.064403 Y158.858553 Z-1.000000
G01 X315.291615 Y164.288739 Z-1.000000
G01 X315.291589 Y164.288767 Z-1.000000
G00 Z5.000000

(End cutting path id: path60)


(Start cutting path id: path60)
(Change tool to Default tool)

G00 Z5.000000
G00 X313.655201 Y170.952105

G01 Z-1.000000 F800.0(Penetrate)
G02 X313.060063 Y174.846714 Z-1.000000 I22.612991 J5.448286 F800.000000
G02 X315.222098 Y178.004055 Z-1.000000 I3.084850 J0.206516
G01 X316.005851 Y178.004055 Z-1.000000
G01 X319.139949 Y178.004055 Z-1.000000
G01 X319.139949 Y170.952105 Z-1.000000
G01 X313.655201 Y170.952105 Z-1.000000
G00 Z5.000000

(End cutting path id: path60)


(Start cutting path id: path60)
(Change tool to Default tool)

G00 Z5.000000
G00 X312.257983 Y175.337840

G01 Z-1.000000 F800.0(Penetrate)
G01 X312.506370 Y170.659771 Z-1.000000 F800.000000
G01 X312.529475 Y170.228873 Z-1.000000
G01 X317.942827 Y169.593117 Z-1.000000
G02 X319.785436 Y168.718254 Z-1.000000 I-1.569656 J-5.683816
G03 X323.841071 Y167.425567 Z-1.000000 I4.055635 J5.715665
G03 X324.958216 Y167.581068 Z-1.000000 I0.000000 J4.090615
G02 X326.124693 Y167.750265 Z-1.000000 I1.217643 J-4.289116
G01 X325.038016 Y165.494503 Z-1.000000
G01 X314.046760 Y165.462586 Z-1.000000
G03 X312.533419 Y162.697823 Z-1.000000 I1.797531 J-2.780468
G02 X312.428805 Y159.249231 Z-1.000000 I-67.438849 J0.319893
G01 X307.639301 Y158.682245 Z-1.000000
G01 X307.654027 Y155.670296 Z-1.000000
G01 X304.261970 Y166.543743 Z-1.000000
G01 X312.257831 Y175.337855 Z-1.000000
G01 X312.257983 Y175.337840 Z-1.000000
G00 Z5.000000

(End cutting path id: path60)


(Start cutting path id: path60)
(Change tool to Default tool)

G00 Z5.000000
G00 X319.923804 Y179.571041

G01 Z-1.000000 F800.0(Penetrate)
G01 X320.707557 Y179.571041 Z-1.000000 F800.000000
G01 X320.707557 Y169.384713 Z-1.000000
G01 X319.923804 Y169.384713 Z-1.000000
G01 X319.923804 Y179.571041 Z-1.000000
G00 Z5.000000

(End cutting path id: path60)


(Start cutting path id: path60)
(Change tool to Default tool)

G00 Z5.000000
G00 X321.496820 Y181.070916

G01 Z-1.000000 F800.0(Penetrate)
G01 X323.436589 Y180.364069 Z-1.000000 F800.000000
G01 X326.099455 Y180.833269 Z-1.000000
G01 X326.459836 Y172.513310 Z-1.000000
G01 X326.584322 Y170.951920 Z-1.000000
G01 X326.412256 Y168.713858 Z-1.000000
G01 X325.017704 Y168.582702 Z-1.000000
G01 X323.058207 Y168.601262 Z-1.000000
G01 X321.491285 Y168.668291 Z-1.000000
G01 X321.496870 Y181.070906 Z-1.000000
G01 X321.496820 Y181.070916 Z-1.000000
G00 Z5.000000

(End cutting path id: path60)


(Start cutting path id: path60)
(Change tool to Default tool)

G00 Z5.000000
G00 X320.058420 Y183.746440

G01 Z-1.000000 F800.0(Penetrate)
G01 X321.882412 Y183.488481 Z-1.000000 F800.000000
G01 X320.488165 Y180.910340 Z-1.000000
G01 X319.382040 Y180.561849 Z-1.000000
G01 X319.060251 Y179.248841 Z-1.000000
G01 X317.965170 Y179.164692 Z-1.000000
G01 X315.740148 Y179.445865 Z-1.000000
G01 X320.058420 Y183.746440 Z-1.000000
G00 Z5.000000

(End cutting path id: path60)


(Start cutting path id: path60)
(Change tool to Default tool)

G00 Z5.000000
G00 X323.575546 Y185.572174

G01 Z-1.000000 F800.0(Penetrate)
G01 X324.775106 Y185.242834 Z-1.000000 F800.000000
G01 X325.069626 Y183.494577 Z-1.000000
G01 X325.016815 Y183.096757 Z-1.000000
G01 X324.992949 Y181.595720 Z-1.000000
G01 X322.461525 Y182.738399 Z-1.000000
G01 X323.575470 Y185.572164 Z-1.000000
G01 X323.575546 Y185.572174 Z-1.000000
G00 Z5.000000

(End cutting path id: path60)


(Start cutting path id: path60)
(Change tool to Default tool)

G00 Z5.000000
G00 X322.923058 Y187.016342

G01 Z-1.000000 F800.0(Penetrate)
G02 X322.058994 Y185.465376 Z-1.000000 I-6.082039 J2.372213 F800.000000
G02 X320.677750 Y184.829059 Z-1.000000 I-1.280834 J0.963006
G01 X322.923058 Y187.016342 Z-1.000000
G00 Z5.000000

(End cutting path id: path60)


(Start cutting path id: path60)
(Change tool to Default tool)

G00 Z5.000000
G00 X324.888014 Y189.475523

G01 Z-1.000000 F800.0(Penetrate)
G01 X326.485962 Y189.318833 Z-1.000000 F800.000000
G01 X327.892980 Y187.097020 Z-1.000000
G01 X327.758923 Y186.231160 Z-1.000000
G01 X327.758923 Y178.395761 Z-1.000000
G02 X327.566359 Y177.232493 Z-1.000000 I-3.609899 J-0.000000
G02 X326.975195 Y176.436841 Z-1.000000 I-1.533672 J0.522065
G01 X327.344564 Y187.799496 Z-1.000000
G01 X325.857746 Y189.034738 Z-1.000000
G03 X324.637001 Y188.083406 Z-1.000000 I0.655126 J-2.099546
G03 X324.132113 Y186.656525 Z-1.000000 I3.108407 J-1.902646
G01 X323.495214 Y187.741752 Z-1.000000
G01 X324.888014 Y189.475502 Z-1.000000
G01 X324.888014 Y189.475523 Z-1.000000
G00 Z5.000000

(End cutting path id: path60)


(Start cutting path id: path60)
(Change tool to Default tool)

G00 Z5.000000
G00 X326.020316 Y187.885684

G01 Z-1.000000 F800.0(Penetrate)
G01 X326.203426 Y186.231439 Z-1.000000 F800.000000
G01 X326.138708 Y185.086147 Z-1.000000
G01 X324.919421 Y187.141983 Z-1.000000
G01 X326.020316 Y187.885681 Z-1.000000
G01 X326.020316 Y187.885684 Z-1.000000
G00 Z5.000000

(End cutting path id: path60)


(Start cutting path id: path60)
(Change tool to Default tool)

G00 Z5.000000
G00 X328.927913 Y184.712663

G01 Z-1.000000 F800.0(Penetrate)
G01 X329.101705 Y185.871881 Z-1.000000 F800.000000
G01 X328.927913 Y184.712663 Z-1.000000
G00 Z5.000000

(End cutting path id: path60)


(Start cutting path id: path60)
(Change tool to Default tool)

G00 Z5.000000
G00 X325.969740 Y183.521850

G01 Z-1.000000 F800.0(Penetrate)
G01 X325.795617 Y182.362633 Z-1.000000 F800.000000
G01 X325.969740 Y183.521850 Z-1.000000
G00 Z5.000000

(End cutting path id: path60)


(Start cutting path id: path60)
(Change tool to Default tool)

G00 Z5.000000
G00 X328.551740 Y181.071041

G01 Z-1.000000 F800.0(Penetrate)
G01 X330.432605 Y181.127043 Z-1.000000 F800.000000
G01 X330.512684 Y179.571165 Z-1.000000
G01 X330.501513 Y178.787422 Z-1.000000
G01 X330.477647 Y177.286386 Z-1.000000
G01 X328.554127 Y176.470436 Z-1.000000
G01 X328.551588 Y181.071041 Z-1.000000
G01 X328.551740 Y181.071041 Z-1.000000
G00 Z5.000000

(End cutting path id: path60)


(Start cutting path id: path60)
(Change tool to Default tool)

G00 Z5.000000
G00 X332.443516 Y181.041155

G01 Z-1.000000 F800.0(Penetrate)
G01 X333.634951 Y181.152580 Z-1.000000 F800.000000
G01 X334.780532 Y181.084970 Z-1.000000
G01 X334.609609 Y178.496393 Z-1.000000
G01 X331.543403 Y178.483622 Z-1.000000
G01 X331.427930 Y180.287884 Z-1.000000
G01 X332.791710 Y180.054008 Z-1.000000
G01 X332.443516 Y181.041157 Z-1.000000
G01 X332.443516 Y181.041155 Z-1.000000
G00 Z5.000000

(End cutting path id: path60)


(Start cutting path id: path60)
(Change tool to Default tool)

G00 Z5.000000
G00 X331.860291 Y178.720396

G01 Z-1.000000 F800.0(Penetrate)
G01 X332.290315 Y178.720396 Z-1.000000 F800.000000
G01 X331.860291 Y179.638196 Z-1.000000
G01 X331.860291 Y178.720396 Z-1.000000
G00 Z5.000000

(End cutting path id: path60)


(Start cutting path id: path60)
(Change tool to Default tool)

G00 Z5.000000
G00 X330.792199 Y176.468441

G01 Z-1.000000 F800.0(Penetrate)
G01 X330.876340 Y175.328664 Z-1.000000 F800.000000
G01 X329.845952 Y175.569213 Z-1.000000
G01 X328.823409 Y174.940710 Z-1.000000
G01 X330.106831 Y174.271005 Z-1.000000
G01 X328.513808 Y173.713014 Z-1.000000
G01 X327.360686 Y174.730631 Z-1.000000
G01 X328.797309 Y174.010436 Z-1.000000
G01 X328.178665 Y175.569505 Z-1.000000
G01 X330.792199 Y176.468443 Z-1.000000
G01 X330.792199 Y176.468441 Z-1.000000
G00 Z5.000000

(End cutting path id: path60)


(Start cutting path id: path60)
(Change tool to Default tool)

G00 Z5.000000
G00 X330.303956 Y173.105384

G01 Z-1.000000 F800.0(Penetrate)
G02 X330.391791 Y173.082263 Z-1.000000 I0.036585 J-0.039418 F800.000000
G02 X330.109547 Y172.910972 Z-1.000000 I-0.161861 J-0.051472
G01 X330.303956 Y173.105384 Z-1.000000
G00 Z5.000000

(End cutting path id: path60)


(Start cutting path id: path60)
(Change tool to Default tool)

G00 Z5.000000
G00 X328.538868 Y173.043578

G01 Z-1.000000 F800.0(Penetrate)
G01 X329.681833 Y173.028496 Z-1.000000 F800.000000
G01 X328.538868 Y173.043578 Z-1.000000
G00 Z5.000000

(End cutting path id: path60)


(Start cutting path id: path60)
(Change tool to Default tool)

G00 Z5.000000
G00 X327.360610 Y172.875155

G01 Z-1.000000 F800.0(Penetrate)
G01 X328.207329 Y171.728993 Z-1.000000 F800.000000
G01 X327.439546 Y168.630592 Z-1.000000
G01 X327.360610 Y172.875158 Z-1.000000
G01 X327.360610 Y172.875155 Z-1.000000
G00 Z5.000000

(End cutting path id: path60)


(Start cutting path id: path60)
(Change tool to Default tool)

G00 Z5.000000
G00 X328.931214 Y171.868275

G01 Z-1.000000 F800.0(Penetrate)
G01 X330.074180 Y171.852889 Z-1.000000 F800.000000
G01 X328.931214 Y171.868275 Z-1.000000
G00 Z5.000000

(End cutting path id: path60)


(Start cutting path id: path60)
(Change tool to Default tool)

G00 Z5.000000
G00 X330.419860 Y170.989100

G01 Z-1.000000 F800.0(Penetrate)
G03 X330.740842 Y169.704223 Z-1.000000 I9.472858 J1.683931 F800.000000
G02 X330.893123 Y168.601024 Z-1.000000 I-3.016299 J-0.978468
G01 X330.864102 Y167.491133 Z-1.000000
G01 X329.326226 Y167.414240 Z-1.000000
G01 X328.216343 Y167.454864 Z-1.000000
G01 X328.904021 Y170.781644 Z-1.000000
G01 X330.419860 Y170.989113 Z-1.000000
G01 X330.419860 Y170.989100 Z-1.000000
G00 Z5.000000

(End cutting path id: path60)


(Start cutting path id: path60)
(Change tool to Default tool)

G00 Z5.000000
G00 X331.479624 Y166.444810

G01 Z-1.000000 F800.0(Penetrate)
G02 X331.567408 Y166.421705 Z-1.000000 I0.036564 J-0.039396 F800.000000
G02 X331.285215 Y166.250399 Z-1.000000 I-0.161845 J-0.051475
G01 X331.479624 Y166.444810 Z-1.000000
G00 Z5.000000

(End cutting path id: path60)


(Start cutting path id: path60)
(Change tool to Default tool)

G00 Z5.000000
G00 X332.032940 Y165.214791

G01 Z-1.000000 F800.0(Penetrate)
G01 X332.235778 Y165.556899 Z-1.000000 F800.000000
G01 X333.116139 Y164.614435 Z-1.000000
G01 X332.032940 Y165.214791 Z-1.000000
G00 Z5.000000

(End cutting path id: path60)


(Start cutting path id: path60)
(Change tool to Default tool)

G00 Z5.000000
G00 X329.718572 Y164.687267

G01 Z-1.000000 F800.0(Penetrate)
G01 X328.669904 Y164.376498 Z-1.000000 F800.000000
G01 X325.847158 Y164.892997 Z-1.000000
G01 X326.848247 Y165.384541 Z-1.000000
G01 X327.733838 Y165.003841 Z-1.000000
G01 X328.956603 Y165.481456 Z-1.000000
G01 X331.334801 Y164.897928 Z-1.000000
G01 X331.229764 Y164.396810 Z-1.000000
G01 X329.718572 Y164.687267 Z-1.000000
G00 Z5.000000

(End cutting path id: path60)


(Start cutting path id: path60)
(Change tool to Default tool)

G00 Z5.000000
G00 X327.367059 Y163.507735

G01 Z-1.000000 F800.0(Penetrate)
G01 X329.717709 Y163.507735 Z-1.000000 F800.000000
G01 X331.432018 Y163.362070 Z-1.000000
G01 X331.055667 Y160.409609 Z-1.000000
G01 X329.326556 Y160.356799 Z-1.000000
G01 X327.367059 Y160.373632 Z-1.000000
G01 X327.367059 Y163.507730 Z-1.000000
G01 X327.367059 Y163.507735 Z-1.000000
G00 Z5.000000

(End cutting path id: path60)


(Start cutting path id: path60)
(Change tool to Default tool)

G00 Z5.000000
G00 X326.583915 Y166.250399

G01 Z-1.000000 F800.0(Penetrate)
G02 X327.053528 Y166.483038 Z-1.000000 I1.320044 J-2.074379 F800.000000
G02 X328.150838 Y166.642126 Z-1.000000 I0.923329 J-2.504771
G01 X329.295835 Y166.588734 Z-1.000000
G01 X326.583941 Y166.250399 Z-1.000000
G01 X326.583915 Y166.250399 Z-1.000000
G00 Z5.000000

(End cutting path id: path60)


(Start cutting path id: path60)
(Change tool to Default tool)

G00 Z5.000000
G00 X327.042605 Y167.459203

G01 Z-1.000000 F800.0(Penetrate)
G01 X327.042605 Y168.175625 Z-1.000000 F800.000000
G01 X327.042605 Y167.459203 Z-1.000000
G00 Z5.000000

(End cutting path id: path60)


(Start cutting path id: path60)
(Change tool to Default tool)

G00 Z5.000000
G00 X327.170035 Y175.456077

G01 Z-1.000000 F800.0(Penetrate)
G02 X327.256976 Y175.433192 Z-1.000000 I0.036212 J-0.039016 F800.000000
G02 X326.975322 Y175.261376 Z-1.000000 I-0.161838 J-0.051464
G01 X327.170035 Y175.456077 Z-1.000000
G00 Z5.000000

(End cutting path id: path60)


(Start cutting path id: path60)
(Change tool to Default tool)

G00 Z5.000000
G00 X335.689786 Y181.128853

G01 Z-1.000000 F800.0(Penetrate)
G01 X335.998804 Y179.179509 Z-1.000000 F800.000000
G01 X335.986363 Y174.869946 Z-1.000000
G01 X335.537753 Y165.518431 Z-1.000000
G01 X331.605125 Y167.727185 Z-1.000000
G01 X331.386647 Y171.799685 Z-1.000000
G01 X332.125993 Y172.839356 Z-1.000000
G01 X331.235172 Y174.103326 Z-1.000000
G01 X332.557744 Y175.123556 Z-1.000000
G01 X331.376491 Y176.733405 Z-1.000000
G01 X335.548239 Y177.271084 Z-1.000000
G01 X335.689837 Y181.128863 Z-1.000000
G01 X335.689786 Y181.128853 Z-1.000000
G00 Z5.000000

(End cutting path id: path60)


(Start cutting path id: path60)
(Change tool to Default tool)

G00 Z5.000000
G00 X337.553183 Y182.705126

G01 Z-1.000000 F800.0(Penetrate)
G01 X337.553183 Y187.014689 Z-1.000000 F800.000000
G01 X337.512281 Y188.483516 Z-1.000000
G01 X336.378023 Y189.757061 Z-1.000000
G01 X336.378023 Y190.932239 Z-1.000000
G01 X337.944920 Y190.932239 Z-1.000000
G01 X337.944920 Y182.705129 Z-1.000000
G01 X337.553183 Y182.705129 Z-1.000000
G01 X337.553183 Y182.705126 Z-1.000000
G00 Z5.000000

(End cutting path id: path60)


(Start cutting path id: path60)
(Change tool to Default tool)

G00 Z5.000000
G00 X336.458102 Y187.373539

G01 Z-1.000000 F800.0(Penetrate)
G01 X336.788625 Y185.840004 Z-1.000000 F800.000000
G01 X336.448251 Y184.698196 Z-1.000000
G01 X336.458153 Y187.373529 Z-1.000000
G01 X336.458102 Y187.373539 Z-1.000000
G00 Z5.000000

(End cutting path id: path60)


(Start cutting path id: path60)
(Change tool to Default tool)

G00 Z5.000000
G00 X333.841369 Y185.848418

G01 Z-1.000000 F800.0(Penetrate)
G01 X333.173113 Y184.807587 Z-1.000000 F800.000000
G01 X333.841369 Y185.848418 Z-1.000000
G00 Z5.000000

(End cutting path id: path60)


(Start cutting path id: path60)
(Change tool to Default tool)

G00 Z5.000000
G00 X330.014057 Y190.904688

G01 Z-1.000000 F800.0(Penetrate)
G01 X330.818401 Y190.772662 Z-1.000000 F800.000000
G01 X330.281892 Y188.154761 Z-1.000000
G01 X330.153624 Y186.654306 Z-1.000000
G01 X332.428257 Y187.862564 Z-1.000000
G01 X333.243620 Y187.798145 Z-1.000000
G01 X335.594270 Y187.798145 Z-1.000000
G01 X335.594270 Y184.664047 Z-1.000000
G01 X335.177880 Y184.549722 Z-1.000000
G01 X334.570280 Y186.761669 Z-1.000000
G01 X332.534462 Y187.042260 Z-1.000000
G01 X332.303492 Y184.574096 Z-1.000000
G01 X331.435598 Y186.338895 Z-1.000000
G01 X330.782729 Y184.699450 Z-1.000000
G01 X330.330641 Y186.223990 Z-1.000000
G01 X329.880584 Y182.798850 Z-1.000000
G02 X333.436857 Y184.081033 Z-1.000000 I3.334959 J-3.676923
G02 X336.803402 Y183.130512 Z-1.000000 I-0.341204 J-7.645532
G01 X336.598253 Y182.181373 Z-1.000000
G01 X331.675860 Y182.288733 Z-1.000000
G01 X328.542346 Y182.313387 Z-1.000000
G01 X328.542346 Y186.230934 Z-1.000000
G01 X328.586448 Y187.767081 Z-1.000000
G01 X329.588983 Y187.088670 Z-1.000000
G01 X330.014082 Y190.904658 Z-1.000000
G01 X330.014057 Y190.904688 Z-1.000000
G00 Z5.000000

(End cutting path id: path60)


(Start cutting path id: path60)
(Change tool to Default tool)

G00 Z5.000000
G00 X330.791488 Y195.993069

G01 Z-1.000000 F800.0(Penetrate)
G01 X330.911632 Y194.459244 Z-1.000000 F800.000000
G01 X330.893097 Y193.674922 Z-1.000000
G01 X330.869739 Y192.173886 Z-1.000000
G01 X328.384143 Y191.219817 Z-1.000000
G01 X328.735256 Y188.672727 Z-1.000000
G01 X325.915406 Y190.753518 Z-1.000000
G01 X330.791666 Y195.993079 Z-1.000000
G01 X330.791488 Y195.993069 Z-1.000000
G00 Z5.000000

(End cutting path id: path60)


(Start cutting path id: path60)
(Change tool to Default tool)

G00 Z5.000000
G00 X334.226022 Y199.763142

G01 Z-1.000000 F800.0(Penetrate)
G01 X335.986185 Y199.551611 Z-1.000000 F800.000000
G01 X335.986185 Y198.376144 Z-1.000000
G01 X335.522494 Y195.254232 Z-1.000000
G01 X335.594169 Y188.973569 Z-1.000000
G01 X331.676622 Y188.973569 Z-1.000000
G01 X331.676622 Y194.066581 Z-1.000000
G01 X331.555615 Y197.330395 Z-1.000000
G01 X334.226022 Y199.763157 Z-1.000000
G01 X334.226022 Y199.763142 Z-1.000000
G00 Z5.000000

(End cutting path id: path60)


(Start cutting path id: path60)
(Change tool to Default tool)

G00 Z5.000000
G00 X336.779205 Y199.058907

G01 Z-1.000000 F800.0(Penetrate)
G01 X340.824437 Y198.979402 Z-1.000000 F800.000000
G01 X340.648309 Y196.030724 Z-1.000000
G01 X340.687485 Y165.466918 Z-1.000000
G01 X336.769633 Y165.466918 Z-1.000000
G01 X336.769633 Y179.179080 Z-1.000000
G01 X336.915598 Y180.893679 Z-1.000000
G01 X339.267975 Y181.303686 Z-1.000000
G01 X339.564805 Y183.090828 Z-1.000000
G01 X339.511995 Y183.880665 Z-1.000000
G01 X338.619168 Y185.779810 Z-1.000000
G01 X338.728546 Y186.623036 Z-1.000000
G01 X338.728546 Y188.189941 Z-1.000000
G01 X339.113606 Y191.823707 Z-1.000000
G01 X336.770801 Y192.175100 Z-1.000000
G01 X336.779180 Y199.059021 Z-1.000000
G01 X336.779205 Y199.058907 Z-1.000000
G00 Z5.000000

(End cutting path id: path60)


(Start cutting path id: path60)
(Change tool to Default tool)

G00 Z5.000000
G00 X341.866149 Y198.275684

G01 Z-1.000000 F800.0(Penetrate)
G01 X347.294024 Y196.441826 Z-1.000000 F800.000000
G01 X347.364836 Y194.851128 Z-1.000000
G01 X347.348079 Y176.045091 Z-1.000000
G01 X347.469365 Y167.909384 Z-1.000000
G03 X346.232073 Y167.643198 Z-1.000000 I1.861395 J-11.660891
G02 X344.605412 Y167.425965 Z-1.000000 I-1.626660 J5.981667
G01 X341.861578 Y167.425965 Z-1.000000
G01 X341.866149 Y198.275659 Z-1.000000
G01 X341.866149 Y198.275684 Z-1.000000
G00 Z5.000000

(End cutting path id: path60)


(Start cutting path id: path60)
(Change tool to Default tool)

G00 Z5.000000
G00 X346.567626 Y204.644724

G01 Z-1.000000 F800.0(Penetrate)
G01 X351.256739 Y204.175523 Z-1.000000 F800.000000
G01 X357.534228 Y204.252997 Z-1.000000
G01 X365.367875 Y204.679543 Z-1.000000
G01 X366.966991 Y204.658368 Z-1.000000
G01 X368.526652 Y202.394482 Z-1.000000
G01 X352.833538 Y201.882916 Z-1.000000
G01 X351.265752 Y201.902060 Z-1.000000
G01 X336.206923 Y202.527080 Z-1.000000
G01 X338.210826 Y204.761079 Z-1.000000
G01 X340.295976 Y204.639499 Z-1.000000
G01 X346.567652 Y204.644729 Z-1.000000
G01 X346.567626 Y204.644724 Z-1.000000
G00 Z5.000000

(End cutting path id: path60)


(Start cutting path id: path60)
(Change tool to Default tool)

G00 Z5.000000
G00 X353.382995 Y221.379148

G01 Z-1.000000 F800.0(Penetrate)
G02 X355.426523 Y219.882543 Z-1.000000 I-3.306504 J-6.658301 F800.000000
G02 X360.448211 Y214.256298 Z-1.000000 I-69.953726 J-67.491161
G02 X365.001303 Y208.277030 Z-1.000000 I-74.198225 J-61.223629
G02 X366.151526 Y205.820092 Z-1.000000 I-6.418269 J-4.502441
G01 X351.652157 Y205.616104 Z-1.000000
G01 X348.932697 Y205.630322 Z-1.000000
G01 X347.756344 Y206.300898 Z-1.000000
G01 X339.252106 Y206.058897 Z-1.000000
G01 X353.382970 Y221.379164 Z-1.000000
G01 X353.382995 Y221.379148 Z-1.000000
G00 Z5.000000

(End cutting path id: path60)


(Start cutting path id: path60)
(Change tool to Default tool)

G00 Z5.000000
G00 X345.377207 Y232.135953

G01 Z-1.000000 F800.0(Penetrate)
G01 X344.229900 Y232.682920 Z-1.000000 F800.000000
G01 X345.234466 Y233.322158 Z-1.000000
G01 X345.377207 Y232.135953 Z-1.000000
G00 Z5.000000

(End cutting path id: path60)


(Start cutting path id: path60)
(Change tool to Default tool)

G00 Z5.000000
G00 X343.535848 Y233.277835

G01 Z-1.000000 F800.0(Penetrate)
G02 X344.151158 Y234.089283 Z-1.000000 I1.015147 J-0.130758 F800.000000
G02 X345.360424 Y234.318955 Z-1.000000 I1.133952 J-2.672126
G01 X343.535848 Y233.277835 Z-1.000000
G00 Z5.000000

(End cutting path id: path60)


(Start cutting path id: path60)
(Change tool to Default tool)

G00 Z5.000000
G00 X342.984740 Y232.723554

G01 Z-1.000000 F800.0(Penetrate)
G01 X343.617019 Y231.658930 Z-1.000000 F800.000000
G01 X342.984740 Y232.723554 Z-1.000000
G00 Z5.000000

(End cutting path id: path60)


(Start cutting path id: path60)
(Change tool to Default tool)

G00 Z5.000000
G00 X342.576246 Y233.868035

G01 Z-1.000000 F800.0(Penetrate)
G01 X342.410579 Y231.820903 Z-1.000000 F800.000000
G02 X333.625138 Y228.103694 Z-1.000000 I-24.420150 J45.475244
G03 X325.216987 Y224.821764 Z-1.000000 I21.237869 J-66.822021
G02 X316.669473 Y221.231149 Z-1.000000 I-50.465462 J108.164750
G03 X307.939559 Y217.808990 Z-1.000000 I111.652476 J-297.671141
G02 X299.316411 Y214.351904 Z-1.000000 I-250.060510 J611.252762
G03 X290.667336 Y210.790707 Z-1.000000 I104.680635 J-266.521374
G02 X288.099302 Y209.806926 Z-1.000000 I-13.278758 J30.818838
G03 X281.387279 Y207.358358 Z-1.000000 I45.712585 J-135.731250
G03 X275.087773 Y204.542747 Z-1.000000 I27.719299 J-70.472679
G03 X274.090662 Y203.077484 Z-1.000000 I0.819297 J-1.629429
G01 X329.251200 Y204.412546 Z-1.000000
G01 X327.342761 Y201.967304 Z-1.000000
G01 X317.183423 Y202.038395 Z-1.000000
G01 X311.701290 Y201.902017 Z-1.000000
G01 X295.247045 Y201.838180 Z-1.000000
G01 X262.241770 Y201.749679 Z-1.000000
G01 X342.576399 Y233.868094 Z-1.000000
G01 X342.576246 Y233.868035 Z-1.000000
G00 Z5.000000

(End cutting path id: path60)


(Start cutting path id: path60)
(Change tool to Default tool)

G00 Z5.000000
G00 X343.518710 Y230.722654

G01 Z-1.000000 F800.0(Penetrate)
G01 X349.249814 Y225.858276 Z-1.000000 F800.000000
G02 X346.565453 Y222.122433 Z-1.000000 I-14.067370 J7.275663
G02 X338.053715 Y213.554020 Z-1.000000 I-327.101831 J316.426350
G03 X333.543493 Y208.504934 Z-1.000000 I35.732150 J-36.457611
G02 X331.767679 Y206.778716 Z-1.000000 I-7.156285 J5.585366
G02 X329.622129 Y205.906666 Z-1.000000 I-2.792188 J3.794336
G02 X322.672513 Y205.428165 Z-1.000000 I-6.939115 J50.075310
G03 X311.017447 Y205.221808 Z-1.000000 I-0.074347 J-325.044863
G02 X299.560391 Y205.032667 Z-1.000000 I-10.671891 J299.345914
G03 X287.886019 Y204.391705 Z-1.000000 I-0.259328 J-101.914506
G02 X278.691546 Y204.709130 Z-1.000000 I-3.523503 J31.260293
G01 X343.518685 Y230.722603 Z-1.000000
G01 X343.518710 Y230.722654 Z-1.000000
G00 Z5.000000

(End cutting path id: path60)


(Start cutting path id: path60)
(Change tool to Default tool)

G00 Z5.000000
G00 X359.493979 Y236.781449

G01 Z-1.000000 F800.0(Penetrate)
G01 X353.067935 Y229.482280 Z-1.000000 F800.000000
G01 X348.960321 Y232.916992 Z-1.000000
G01 X359.493979 Y236.781449 Z-1.000000
G00 Z5.000000

(End cutting path id: path60)


(Start cutting path id: path60)
(Change tool to Default tool)

G00 Z5.000000
G00 X362.385606 Y238.371931

G01 Z-1.000000 F800.0(Penetrate)
G01 X364.695049 Y236.023896 Z-1.000000 F800.000000
G01 X356.289780 Y226.244082 Z-1.000000
G01 X355.882378 Y226.494495 Z-1.000000
G01 X353.690159 Y228.799004 Z-1.000000
G01 X362.385606 Y238.371918 Z-1.000000
G01 X362.385606 Y238.371931 Z-1.000000
G00 Z5.000000

(End cutting path id: path60)


(Start cutting path id: path60)
(Change tool to Default tool)

G00 Z5.000000
G00 X361.119425 Y241.000955

G01 Z-1.000000 F800.0(Penetrate)
G01 X361.943776 Y239.281423 Z-1.000000 F800.000000
G01 X347.746468 Y233.849486 Z-1.000000
G01 X345.388582 Y235.164235 Z-1.000000
G01 X361.119425 Y241.000960 Z-1.000000
G01 X361.119425 Y241.000955 Z-1.000000
G00 Z5.000000

(End cutting path id: path60)


(Start cutting path id: path60)
(Change tool to Default tool)

G00 Z5.000000
G00 X362.631962 Y241.471316

G01 Z-1.000000 F800.0(Penetrate)
G02 X364.675644 Y245.175798 Z-1.000000 I4.379307 J-0.000000 F800.000000
G02 X368.441698 Y246.105587 Z-1.000000 I3.283601 J-5.208043
G01 X368.661928 Y243.088129 Z-1.000000
G01 X370.501027 Y243.000207 Z-1.000000
G01 X371.516892 Y243.818480 Z-1.000000
G02 X371.214655 Y239.474250 Z-1.000000 I-7.584287 J-1.654974
G02 X367.333262 Y236.770034 Z-1.000000 I-3.881393 J1.433396
G01 X366.941830 Y236.770034 Z-1.000000
G02 X363.894196 Y238.032373 Z-1.000000 I0.000000 J4.310083
G02 X362.631962 Y241.079597 Z-1.000000 I3.047114 J3.047224
G01 X362.631962 Y241.471324 Z-1.000000
G01 X362.631962 Y241.471316 Z-1.000000
G00 Z5.000000

(End cutting path id: path60)


(Start cutting path id: path60)
(Change tool to Default tool)

G00 Z5.000000
G00 X369.279404 Y244.848546

G01 Z-1.000000 F800.0(Penetrate)
G01 X370.824821 Y244.916735 Z-1.000000 F800.000000
G01 X370.034416 Y244.104555 Z-1.000000
G01 X369.279404 Y244.848546 Z-1.000000
G00 Z5.000000

(End cutting path id: path60)


(Start cutting path id: path60)
(Change tool to Default tool)

G00 Z5.000000
G00 X375.945761 Y235.986390

G01 Z-1.000000 F800.0(Penetrate)
G03 X368.769871 Y228.953043 Z-1.000000 I5.157657 J-12.439520 F800.000000
G03 X368.560712 Y223.022149 Z-1.000000 I7.366398 J-3.228918
G03 X372.707910 Y217.878750 Z-1.000000 I9.437840 J3.366195
G03 X380.351957 Y216.692872 Z-1.000000 I5.215392 J8.388560
G03 X387.066671 Y222.592791 Z-1.000000 I-2.414469 J9.518890
G03 X387.280869 Y229.273116 Z-1.000000 I-9.176783 J3.637841
G03 X383.027975 Y235.142943 Z-1.000000 I-11.173481 J-3.619978
G03 X375.945761 Y235.986390 Z-1.000000 I-4.292290 J-5.885772
G01 X375.945761 Y235.986390 Z-1.000000
G00 Z5.000000

(End cutting path id: path60)


(Start cutting path id: path60)
(Change tool to Default tool)

G00 Z5.000000
G00 X378.408126 Y232.805854

G01 Z-1.000000 F800.0(Penetrate)
G01 X373.157267 Y230.371060 Z-1.000000 F800.000000
G01 X373.621542 Y231.153643 Z-1.000000
G01 X371.685835 Y232.731864 Z-1.000000
G02 X374.432688 Y234.548645 Z-1.000000 I5.594111 J-5.473005
G02 X377.904700 Y235.202640 Z-1.000000 I3.472012 J-8.889332
G01 X378.296437 Y235.202640 Z-1.000000
G02 X384.484444 Y232.469473 Z-1.000000 I-0.000000 J-8.371540
G02 X386.915562 Y226.191777 Z-1.000000 I-6.889652 J-6.277696
G02 X384.188155 Y220.009262 Z-1.000000 I-8.370998 J0.000000
G02 X377.904700 Y217.572651 Z-1.000000 I-6.283456 J6.883483
G02 X371.962635 Y219.833866 Z-1.000000 I0.000000 J8.937944
G02 X369.285574 Y225.800065 Z-1.000000 I5.309718 J5.966199
G01 X369.285574 Y226.583516 Z-1.000000
G02 X369.891362 Y229.827870 Z-1.000000 I8.990605 J-0.000000
G02 X371.177458 Y232.001236 Z-1.000000 I7.163369 J-2.771737
G01 X370.937196 Y231.021340 Z-1.000000
G01 X373.050199 Y229.435576 Z-1.000000
G03 X372.372949 Y228.245794 Z-1.000000 I5.122661 J-3.703573
G03 X372.028214 Y226.583531 Z-1.000000 I3.835234 J-1.662262
G01 X372.028214 Y225.800081 Z-1.000000
G03 X373.634672 Y221.921766 Z-1.000000 I5.484748 J-0.000000
G03 X377.512963 Y220.315332 Z-1.000000 I3.878291 J3.878314
G01 X378.296437 Y220.315332 Z-1.000000
G03 X382.174365 Y221.921206 Z-1.000000 I0.000000 J5.485225
G03 X383.781464 Y225.800081 Z-1.000000 I-3.877452 J3.878875
G01 X383.781464 Y226.583531 Z-1.000000
G03 X382.974086 Y229.124079 Z-1.000000 I-4.400812 J-0.000000
G02 X381.873305 Y230.842315 Z-1.000000 I18.262213 J12.911333
G01 X383.388280 Y230.815039 Z-1.000000
G01 X382.930682 Y229.801195 Z-1.000000
G01 X385.451087 Y229.829339 Z-1.000000
G01 X385.459466 Y230.283451 Z-1.000000
G01 X384.232917 Y230.587837 Z-1.000000
G01 X383.180212 Y233.016537 Z-1.000000
G01 X381.949322 Y231.213728 Z-1.000000
G01 X378.743853 Y232.270808 Z-1.000000
G01 X379.553707 Y232.735365 Z-1.000000
G01 X379.456210 Y234.752029 Z-1.000000
G01 X377.937757 Y234.021097 Z-1.000000
G01 X375.808809 Y233.863826 Z-1.000000
G01 X378.408126 Y232.805874 Z-1.000000
G01 X378.408126 Y232.805854 Z-1.000000
G00 Z5.000000

(End cutting path id: path60)


(Start cutting path id: path60)
(Change tool to Default tool)

G00 Z5.000000
G00 X378.291765 Y231.284796

G01 Z-1.000000 F800.0(Penetrate)
G02 X381.503778 Y229.789191 Z-1.000000 I-0.446585 J-5.156019 F800.000000
G02 X382.997711 Y226.583496 Z-1.000000 I-3.650247 J-3.652058
G01 X378.306288 Y226.650525 Z-1.000000
G01 X378.291816 Y231.284796 Z-1.000000
G01 X378.291765 Y231.284796 Z-1.000000
G00 Z5.000000

(End cutting path id: path60)


(Start cutting path id: path60)
(Change tool to Default tool)

G00 Z5.000000
G00 X377.485694 Y231.339929

G01 Z-1.000000 F800.0(Penetrate)
G01 X377.503467 Y226.650537 Z-1.000000 F800.000000
G01 X375.946142 Y226.572190 Z-1.000000
G02 X374.749056 Y226.736120 Z-1.000000 I-0.056344 J4.041327
G03 X373.203476 Y226.975522 Z-1.000000 I-1.671201 J-5.680435
G01 X373.822704 Y229.520860 Z-1.000000
G01 X377.485770 Y231.339919 Z-1.000000
G01 X377.485694 Y231.339929 Z-1.000000
G00 Z5.000000

(End cutting path id: path60)


(Start cutting path id: path60)
(Change tool to Default tool)

G00 Z5.000000
G00 X375.945761 Y225.800048

G01 Z-1.000000 F800.0(Penetrate)
G01 X377.446797 Y225.776537 Z-1.000000 F800.000000
G01 X377.512963 Y221.490485 Z-1.000000
G02 X374.517037 Y222.833560 Z-1.000000 I0.432418 J4.977533
G02 X373.203400 Y225.800048 Z-1.000000 I2.873992 J3.046778
G01 X375.945761 Y225.800048 Z-1.000000
G00 Z5.000000

(End cutting path id: path60)


(Start cutting path id: path60)
(Change tool to Default tool)

G00 Z5.000000
G00 X378.296411 Y225.408321

G01 Z-1.000000 F800.0(Penetrate)
G01 X382.606279 Y225.408321 Z-1.000000 F800.000000
G02 X381.258029 Y222.599014 Z-1.000000 I-3.751980 J0.072478
G02 X378.296411 Y221.490469 Z-1.000000 I-3.062604 J3.671696
G01 X378.296411 Y225.408321 Z-1.000000
G00 Z5.000000

(End cutting path id: path60)


(Start cutting path id: path60)
(Change tool to Default tool)

G00 Z5.000000
G00 X371.831191 Y204.447578

G01 Z-1.000000 F800.0(Penetrate)
G02 X371.918974 Y204.424474 Z-1.000000 I0.036563 J-0.039395 F800.000000
G02 X371.636782 Y204.253165 Z-1.000000 I-0.161845 J-0.051475
G01 X371.831191 Y204.447578 Z-1.000000
G00 Z5.000000

(End cutting path id: path60)


(Start cutting path id: path60)
(Change tool to Default tool)

G00 Z5.000000
G00 X371.190864 Y204.268835

G01 Z-1.000000 F800.0(Penetrate)
G02 X370.317869 Y203.911855 Z-1.000000 I-0.720616 J0.516324 F800.000000
G02 X370.033680 Y204.063687 Z-1.000000 I0.088584 J0.507687
G01 X371.190864 Y204.268835 Z-1.000000
G00 Z5.000000

(End cutting path id: path60)


(Start cutting path id: path60)
(Change tool to Default tool)

G00 Z5.000000
G00 X371.903881 Y203.465773

G01 Z-1.000000 F800.0(Penetrate)
G02 X371.647292 Y202.921529 Z-1.000000 I-1.310359 J0.285175 F800.000000
G02 X370.888295 Y202.260417 Z-1.000000 I-2.122770 J1.670826
G01 X369.560798 Y202.213408 Z-1.000000
G01 X368.911102 Y203.388297 Z-1.000000
