
;Exported by FreeCAD
;Post Processor: centroid_post
;CAM file: /home/dbond/MensShed/CNCRouter/Shapes/BMWR32b.FCStd
;Output Time: 2022-03-07 19:37:57.776120
G90 G80 G40 G49
;T2=_0_Deg__V_Bit
;begin preamble
G53 G00 G17
G21
;begin operation
G54
;end operation: Fixture
;begin operation
;60 Deg. V-Bit001
M6 T2
M3 S10000
;end operation: 60 Deg. V-Bit001
;begin operation
;Engrave
G0 Z6.0000
G0 Z6.0000
G0 X259.9731 Y-295.3197
G0 Z4.0000
G1 X259.9731 Y-295.3197 Z-1.0000 F20.0
G1 X264.3789 Y-298.7383 Z-1.0000 F20.0
G1 X259.9731 Y-295.3197 Z-1.0000 F20.0
G0 Z6.0000
G0 Z6.0000
G0 X437.6054 Y-166.1114
G0 Z4.0000
G1 X437.6054 Y-166.1114 Z-1.0000 F20.0
G1 X438.7277 Y-165.7113 Z-1.0000 F20.0
G1 X437.6054 Y-166.1114 Z-1.0000 F20.0
G0 Z6.0000
G0 Z6.0000
G0 X740.2204 Y-14.1511
G0 Z4.0000
G1 X740.2204 Y-14.1511 Z-1.0000 F20.0
G1 X741.3427 Y-13.7509 Z-1.0000 F20.0
G1 X740.2204 Y-14.1511 Z-1.0000 F20.0
G0 Z6.0000
G0 Z6.0000
G0 X467.2887 Y-189.0184
G0 Z4.0000
G1 X467.2887 Y-189.0184 Z-1.0000 F20.0
G1 X467.2887 Y-187.9249 Z-1.0000 F20.0
G1 X467.2887 Y-189.0184 Z-1.0000 F20.0
G0 Z6.0000
G0 Z6.0000
G0 X467.5595 Y-208.8274
G0 Z4.0000
G1 X467.5595 Y-208.8274 Z-1.0000 F20.0
G1 X466.5739 Y-207.8685 Z-1.0000 F20.0
G1 X467.5595 Y-208.8274 Z-1.0000 F20.0
G0 Z6.0000
G0 Z6.0000
G0 X466.6043 Y-121.3900
G0 Z4.0000
G1 X466.6043 Y-121.3900 Z-1.0000 F20.0
G1 X466.8610 Y-119.6198 Z-1.0000 F20.0
G1 X466.6043 Y-121.3900 Z-1.0000 F20.0
G0 Z6.0000
G0 Z6.0000
G0 X594.0048 Y32.3406
G0 Z4.0000
G1 X594.0048 Y32.3406 Z-1.0000 F20.0
G1 X594.0048 Y33.4346 Z-1.0000 F20.0
G1 X594.0048 Y32.3406 Z-1.0000 F20.0
G0 Z6.0000
G0 Z6.0000
G0 X467.2887 Y-186.6252
G0 Z4.0000
G1 X467.2887 Y-186.6252 Z-1.0000 F20.0
G1 X467.2887 Y-185.5312 Z-1.0000 F20.0
G1 X467.2887 Y-186.6252 Z-1.0000 F20.0
G0 Z6.0000
G0 Z6.0000
G0 X90.4387 Y-53.6366
G0 Z4.0000
G1 X90.4387 Y-53.6366 Z-1.0000 F20.0
G1 X91.5611 Y-53.2365 Z-1.0000 F20.0
G1 X90.4387 Y-53.6366 Z-1.0000 F20.0
G0 Z6.0000
G0 Z6.0000
G0 X748.6840 Y-18.8605
G0 Z4.0000
G1 X748.6840 Y-18.8605 Z-1.0000 F20.0
G1 X748.6462 Y-18.7843 Z-1.0000 F20.0
G1 X748.5284 Y-18.6116 Z-1.0000 F20.0
G1 X748.4438 Y-18.5491 Z-1.0000 F20.0
G1 X748.3968 Y-18.5631 Z-1.0000 F20.0
G1 X748.6840 Y-18.8605 Z-1.0000 F20.0
G0 Z6.0000
G0 Z6.0000
G0 X725.5236 Y-200.5392
G0 Z4.0000
G1 X725.5236 Y-200.5392 Z-1.0000 F20.0
G1 X726.1582 Y-199.1372 Z-1.0000 F20.0
G1 X725.5236 Y-199.1372 Z-1.0000 F20.0
G1 X725.5236 Y-200.5392 Z-1.0000 F20.0
G0 Z6.0000
G0 Z6.0000
G0 X711.0580 Y-201.1374
G0 Z4.0000
G1 X711.0580 Y-201.1374 Z-1.0000 F20.0
G1 X711.6926 Y-199.7359 Z-1.0000 F20.0
G1 X711.0580 Y-199.7359 Z-1.0000 F20.0
G1 X711.0580 Y-201.1374 Z-1.0000 F20.0
G0 Z6.0000
G0 Z6.0000
G0 X466.0052 Y-201.5468
G0 Z4.0000
G1 X466.0052 Y-201.5468 Z-1.0000 F20.0
G1 X466.8560 Y-200.8886 Z-1.0000 F20.0
G1 X467.1625 Y-200.5897 Z-1.0000 F20.0
G1 X467.2479 Y-200.4349 Z-1.0000 F20.0
G1 X467.2343 Y-200.3357 Z-1.0000 F20.0
G1 X467.1500 Y-200.2519 Z-1.0000 F20.0
G1 X466.9351 Y-200.1330 Z-1.0000 F20.0
G1 X466.6481 Y-199.9646 Z-1.0000 F20.0
G1 X466.3497 Y-199.6840 Z-1.0000 F20.0
G1 X466.0052 Y-201.5468 Z-1.0000 F20.0
G0 Z6.0000
G0 Z6.0000
G0 X728.1454 Y-204.6247
G0 Z4.0000
G1 X728.1454 Y-204.6247 Z-1.0000 F20.0
G1 X730.8894 Y-205.7696 Z-1.0000 F20.0
G1 X730.7485 Y-205.0133 Z-1.0000 F20.0
G1 X730.5923 Y-204.5283 Z-1.0000 F20.0
G1 X730.4229 Y-204.2192 Z-1.0000 F20.0
G1 X730.2400 Y-204.0289 Z-1.0000 F20.0
G1 X730.0417 Y-203.9251 Z-1.0000 F20.0
G1 X729.8153 Y-203.8889 Z-1.0000 F20.0
G1 X729.5406 Y-203.9207 Z-1.0000 F20.0
G1 X729.1893 Y-204.0369 Z-1.0000 F20.0
G1 X728.7193 Y-204.2711 Z-1.0000 F20.0
G1 X728.1454 Y-204.6247 Z-1.0000 F20.0
G0 Z6.0000
G0 Z6.0000
G0 X722.2327 Y-191.6443
G0 Z4.0000
G1 X722.2327 Y-191.6443 Z-1.0000 F20.0
G1 X722.5581 Y-191.0172 Z-1.0000 F20.0
G1 X722.7317 Y-190.5348 Z-1.0000 F20.0
G1 X722.7944 Y-190.1570 Z-1.0000 F20.0
G1 X722.7735 Y-189.8567 Z-1.0000 F20.0
G1 X722.6854 Y-189.6100 Z-1.0000 F20.0
G1 X722.5332 Y-189.3994 Z-1.0000 F20.0
G1 X722.3079 Y-189.2132 Z-1.0000 F20.0
G1 X721.9886 Y-189.0459 Z-1.0000 F20.0
G1 X721.5430 Y-188.8964 Z-1.0000 F20.0
G1 X720.9226 Y-188.7663 Z-1.0000 F20.0
G1 X720.5091 Y-188.7074 Z-1.0000 F20.0
G1 X722.2327 Y-191.6443 Z-1.0000 F20.0
G0 Z6.0000
G0 Z6.0000
G0 X458.4629 Y-174.3810
G0 Z4.0000
G1 X458.4629 Y-174.3810 Z-1.0000 F20.0
G1 X458.5393 Y-174.5737 Z-1.0000 F20.0
G1 X458.5842 Y-174.8377 Z-1.0000 F20.0
G1 X458.6235 Y-175.0379 Z-1.0000 F20.0
G1 X458.7106 Y-175.2120 Z-1.0000 F20.0
G1 X458.8606 Y-175.3350 Z-1.0000 F20.0
G1 X459.0941 Y-175.4169 Z-1.0000 F20.0
G1 X459.4642 Y-175.4573 Z-1.0000 F20.0
G1 X460.2632 Y-175.4161 Z-1.0000 F20.0
G1 X462.6609 Y-174.7111 Z-1.0000 F20.0
G1 X462.5474 Y-174.5943 Z-1.0000 F20.0
G1 X462.4705 Y-174.4312 Z-1.0000 F20.0
G1 X462.4048 Y-174.2778 Z-1.0000 F20.0
G1 X462.2874 Y-174.1370 Z-1.0000 F20.0
G1 X462.0957 Y-174.0392 Z-1.0000 F20.0
G1 X461.7884 Y-173.9814 Z-1.0000 F20.0
G1 X461.2895 Y-173.9753 Z-1.0000 F20.0
G1 X460.8109 Y-174.0128 Z-1.0000 F20.0
G1 X458.4629 Y-174.3810 Z-1.0000 F20.0
G1 X458.4629 Y-174.3810 Z-1.0000 F20.0
G0 Z6.0000
G0 Z6.0000
G0 X460.1989 Y-261.1298
G0 Z4.0000
G1 X460.1989 Y-261.1298 Z-1.0000 F20.0
G1 X460.2752 Y-261.3227 Z-1.0000 F20.0
G1 X460.3201 Y-261.5871 Z-1.0000 F20.0
G1 X460.3595 Y-261.7877 Z-1.0000 F20.0
G1 X460.4469 Y-261.9617 Z-1.0000 F20.0
G1 X460.5970 Y-262.0845 Z-1.0000 F20.0
G1 X460.8309 Y-262.1663 Z-1.0000 F20.0
G1 X461.2014 Y-262.2066 Z-1.0000 F20.0
G1 X461.9993 Y-262.1653 Z-1.0000 F20.0
G1 X464.3965 Y-261.4599 Z-1.0000 F20.0
G1 X464.2830 Y-261.3433 Z-1.0000 F20.0
G1 X464.2063 Y-261.1803 Z-1.0000 F20.0
G1 X464.1406 Y-261.0269 Z-1.0000 F20.0
G1 X464.0234 Y-260.8861 Z-1.0000 F20.0
G1 X463.8320 Y-260.7883 Z-1.0000 F20.0
G1 X463.5249 Y-260.7305 Z-1.0000 F20.0
G1 X463.0266 Y-260.7244 Z-1.0000 F20.0
G1 X462.5469 Y-260.7620 Z-1.0000 F20.0
G1 X460.1989 Y-261.1298 Z-1.0000 F20.0
G0 Z6.0000
G0 Z6.0000
G0 X483.8710 Y-2.3071
G0 Z4.0000
G1 X483.8710 Y-2.3071 Z-1.0000 F20.0
G1 X483.8842 Y-1.4234 Z-1.0000 F20.0
G1 X483.8233 Y-0.7149 Z-1.0000 F20.0
G1 X483.7013 Y-0.1413 Z-1.0000 F20.0
G1 X483.5283 Y0.3222 Z-1.0000 F20.0
G1 X483.3103 Y0.6976 Z-1.0000 F20.0
G1 X483.0490 Y1.0015 Z-1.0000 F20.0
G1 X482.7419 Y1.2452 Z-1.0000 F20.0
G1 X482.3826 Y1.4352 Z-1.0000 F20.0
G1 X481.9612 Y1.5732 Z-1.0000 F20.0
G1 X481.4648 Y1.6562 Z-1.0000 F20.0
G1 X481.1763 Y1.6755 Z-1.0000 F20.0
G1 X481.4110 Y0.7323 Z-1.0000 F20.0
G1 X481.6812 Y-0.0530 Z-1.0000 F20.0
G1 X481.9791 Y-0.6944 Z-1.0000 F20.0
G1 X482.2987 Y-1.2084 Z-1.0000 F20.0
G1 X482.6366 Y-1.6113 Z-1.0000 F20.0
G1 X482.9891 Y-1.9159 Z-1.0000 F20.0
G1 X483.3564 Y-2.1344 Z-1.0000 F20.0
G1 X483.8710 Y-2.3071 Z-1.0000 F20.0
G0 Z6.0000
G0 Z6.0000
G0 X143.6704 Y-202.4555
G0 Z4.0000
G1 X143.6704 Y-202.4555 Z-1.0000 F20.0
G1 X144.7927 Y-202.8557 Z-1.0000 F20.0
G1 X143.6704 Y-202.4555 Z-1.0000 F20.0
G0 Z6.0000
G0 Z6.0000
G0 X142.4970 Y-202.8379
G0 Z4.0000
G1 X142.4970 Y-202.8379 Z-1.0000 F20.0
G1 X144.9770 Y-204.8035 Z-1.0000 F20.0
G1 X146.8686 Y-202.6567 Z-1.0000 F20.0
G1 X144.2828 Y-200.9920 Z-1.0000 F20.0
G1 X142.4970 Y-202.8379 Z-1.0000 F20.0
G1 X142.4970 Y-202.8379 Z-1.0000 F20.0
G0 Z6.0000
G0 Z6.0000
G0 X716.6720 Y-191.9580
G0 Z4.0000
G1 X716.6720 Y-191.9580 Z-1.0000 F20.0
G1 X717.3522 Y-191.8134 Z-1.0000 F20.0
G1 X717.9889 Y-191.6657 Z-1.0000 F20.0
G1 X718.4304 Y-191.6112 Z-1.0000 F20.0
G1 X718.7794 Y-191.6382 Z-1.0000 F20.0
G1 X719.0953 Y-191.7399 Z-1.0000 F20.0
G1 X719.4097 Y-191.9237 Z-1.0000 F20.0
G1 X719.7535 Y-192.2158 Z-1.0000 F20.0
G1 X720.1758 Y-192.6855 Z-1.0000 F20.0
G1 X719.2707 Y-193.8567 Z-1.0000 F20.0
G1 X717.2505 Y-193.3599 Z-1.0000 F20.0
G1 X717.4126 Y-194.0139 Z-1.0000 F20.0
G1 X717.5960 Y-194.4719 Z-1.0000 F20.0
G1 X717.7937 Y-194.7829 Z-1.0000 F20.0
G1 X718.0029 Y-194.9842 Z-1.0000 F20.0
G1 X718.2262 Y-195.1024 Z-1.0000 F20.0
G1 X718.4720 Y-195.1520 Z-1.0000 F20.0
G1 X718.7542 Y-195.1352 Z-1.0000 F20.0
G1 X719.0915 Y-195.0422 Z-1.0000 F20.0
G1 X719.5091 Y-194.8521 Z-1.0000 F20.0
G1 X720.0473 Y-194.5292 Z-1.0000 F20.0
G1 X721.3646 Y-193.5744 Z-1.0000 F20.0
G1 X719.8955 Y-190.4195 Z-1.0000 F20.0
G1 X718.6977 Y-190.2702 Z-1.0000 F20.0
G1 X718.0903 Y-190.2420 Z-1.0000 F20.0
G1 X717.6701 Y-190.2865 Z-1.0000 F20.0
G1 X717.3611 Y-190.3894 Z-1.0000 F20.0
G1 X717.1254 Y-190.5459 Z-1.0000 F20.0
G1 X716.9458 Y-190.7562 Z-1.0000 F20.0
G1 X716.8099 Y-191.0338 Z-1.0000 F20.0
G1 X716.7166 Y-191.4010 Z-1.0000 F20.0
G1 X716.6849 Y-191.6625 Z-1.0000 F20.0
G1 X716.6720 Y-191.9580 Z-1.0000 F20.0
G0 Z6.0000
G0 Z6.0000
G0 X369.9828 Y-226.7602
G0 Z4.0000
G1 X369.9828 Y-226.7602 Z-1.0000 F20.0
G1 X374.0329 Y-226.0593 Z-1.0000 F20.0
G1 X374.7899 Y-226.5214 Z-1.0000 F20.0
G1 X375.0913 Y-226.7092 Z-1.0000 F20.0
G1 X375.3034 Y-226.7896 Z-1.0000 F20.0
G1 X375.5578 Y-226.8006 Z-1.0000 F20.0
G1 X376.9261 Y-226.7602 Z-1.0000 F20.0
G1 X378.6621 Y-226.7602 Z-1.0000 F20.0
G1 X378.3850 Y-226.0644 Z-1.0000 F20.0
G1 X378.1538 Y-225.6536 Z-1.0000 F20.0
G1 X377.9246 Y-225.3881 Z-1.0000 F20.0
G1 X377.6774 Y-225.2126 Z-1.0000 F20.0
G1 X377.3820 Y-225.0933 Z-1.0000 F20.0
G1 X376.9910 Y-225.0153 Z-1.0000 F20.0
G1 X376.4091 Y-224.9738 Z-1.0000 F20.0
G1 X375.1904 Y-224.9652 Z-1.0000 F20.0
G1 X372.8759 Y-224.9652 Z-1.0000 F20.0
G1 X371.9508 Y-224.9439 Z-1.0000 F20.0
G1 X371.4775 Y-224.9337 Z-1.0000 F20.0
G1 X371.0394 Y-224.9640 Z-1.0000 F20.0
G1 X370.7575 Y-225.0471 Z-1.0000 F20.0
G1 X370.5508 Y-225.1846 Z-1.0000 F20.0
G1 X370.3864 Y-225.3862 Z-1.0000 F20.0
G1 X370.2413 Y-225.6875 Z-1.0000 F20.0
G1 X370.1027 Y-226.1547 Z-1.0000 F20.0
G1 X370.0415 Y-226.4376 Z-1.0000 F20.0
G1 X369.9827 Y-226.7602 Z-1.0000 F20.0
G1 X369.9828 Y-226.7602 Z-1.0000 F20.0
G0 Z6.0000
G0 Z6.0000
G0 X159.8469 Y-154.8657
G0 Z4.0000
G1 X159.8469 Y-154.8657 Z-1.0000 F20.0
G1 X158.9994 Y-154.8799 Z-1.0000 F20.0
G1 X158.5814 Y-154.8938 Z-1.0000 F20.0
G1 X158.2916 Y-154.8728 Z-1.0000 F20.0
G1 X158.1373 Y-154.8036 Z-1.0000 F20.0
G1 X158.0404 Y-154.6794 Z-1.0000 F20.0
G1 X157.9606 Y-154.4481 Z-1.0000 F20.0
G1 X157.7307 Y-153.2758 Z-1.0000 F20.0
G1 X159.8469 Y-153.1938 Z-1.0000 F20.0
G1 X159.8469 Y-154.8657 Z-1.0000 F20.0
G0 Z6.0000
G0 Z6.0000
G0 X156.6007 Y-152.7020
G0 Z4.0000
G1 X156.6007 Y-152.7020 Z-1.0000 F20.0
G1 X156.8321 Y-155.9078 Z-1.0000 F20.0
G1 X158.7888 Y-156.1644 Z-1.0000 F20.0
G1 X159.4310 Y-156.2459 Z-1.0000 F20.0
G1 X159.7821 Y-156.2290 Z-1.0000 F20.0
G1 X160.0243 Y-156.1535 Z-1.0000 F20.0
G1 X160.3858 Y-155.9784 Z-1.0000 F20.0
G1 X160.9269 Y-155.7855 Z-1.0000 F20.0
G1 X160.9860 Y-152.6927 Z-1.0000 F20.0
G1 X159.4171 Y-151.3443 Z-1.0000 F20.0
G1 X158.1370 Y-151.2996 Z-1.0000 F20.0
G1 X156.6007 Y-152.7020 Z-1.0000 F20.0
G0 Z6.0000
G0 Z6.0000
G0 X423.7952 Y-149.9853
G0 Z4.0000
G1 X423.7952 Y-149.9853 Z-1.0000 F20.0
G1 X422.0630 Y-149.9822 Z-1.0000 F20.0
G1 X422.9689 Y-149.0384 Z-1.0000 F20.0
G1 X423.7952 Y-149.9853 Z-1.0000 F20.0
G0 Z6.0000
G0 Z6.0000
G0 X420.1924 Y-149.4474
G0 Z4.0000
G1 X420.1924 Y-149.4474 Z-1.0000 F20.0
G1 X421.6284 Y-151.9425 Z-1.0000 F20.0
G1 X424.2589 Y-151.8556 Z-1.0000 F20.0
G1 X425.5963 Y-150.2317 Z-1.0000 F20.0
G1 X425.4566 Y-148.3817 Z-1.0000 F20.0
G1 X422.5335 Y-147.0821 Z-1.0000 F20.0
G1 X420.1924 Y-149.4474 Z-1.0000 F20.0
G0 Z6.0000
G0 Z6.0000
G0 X482.2341 Y-10.1871
G0 Z4.0000
G1 X482.2341 Y-10.1871 Z-1.0000 F20.0
G1 X482.2860 Y-10.1793 Z-1.0000 F20.0
G1 X482.3591 Y-10.2443 Z-1.0000 F20.0
G1 X482.4603 Y-10.4024 Z-1.0000 F20.0
G1 X482.4771 Y-10.4383 Z-1.0000 F20.0
G1 X482.3896 Y-10.3863 Z-1.0000 F20.0
G1 X482.2609 Y-10.2892 Z-1.0000 F20.0
G1 X482.2237 Y-10.2350 Z-1.0000 F20.0
G1 X482.2341 Y-10.1871 Z-1.0000 F20.0
G0 Z6.0000
G0 Z6.0000
G0 X478.7882 Y-6.0193
G0 Z4.0000
G1 X478.7882 Y-6.0193 Z-1.0000 F20.0
G1 X481.5909 Y-6.7411 Z-1.0000 F20.0
G1 X480.7046 Y-9.0917 Z-1.0000 F20.0
G1 X483.4902 Y-7.8794 Z-1.0000 F20.0
G1 X483.7494 Y-10.1827 Z-1.0000 F20.0
G1 X482.6322 Y-8.7997 Z-1.0000 F20.0
G1 X481.7653 Y-11.4256 Z-1.0000 F20.0
G1 X484.9507 Y-11.0042 Z-1.0000 F20.0
G1 X484.9918 Y-7.9339 Z-1.0000 F20.0
G1 X483.8266 Y-6.6874 Z-1.0000 F20.0
G1 X481.7439 Y-6.4841 Z-1.0000 F20.0
G1 X483.5887 Y-4.6204 Z-1.0000 F20.0
G1 X483.2249 Y-4.1369 Z-1.0000 F20.0
G1 X478.7882 Y-6.0192 Z-1.0000 F20.0
G1 X478.7882 Y-6.0193 Z-1.0000 F20.0
G0 Z6.0000
G0 Z6.0000
G0 X700.8840 Y-196.6163
G0 Z4.0000
G1 X700.8840 Y-196.6163 Z-1.0000 F20.0
G1 X700.9500 Y-201.0344 Z-1.0000 F20.0
G1 X701.8680 Y-200.6288 Z-1.0000 F20.0
G1 X702.0869 Y-200.4815 Z-1.0000 F20.0
G1 X702.1815 Y-200.3386 Z-1.0000 F20.0
G1 X702.2109 Y-200.1570 Z-1.0000 F20.0
G1 X702.1897 Y-199.8169 Z-1.0000 F20.0
G1 X702.1288 Y-199.0879 Z-1.0000 F20.0
G1 X702.1185 Y-198.1312 Z-1.0000 F20.0
G1 X702.1589 Y-197.3713 Z-1.0000 F20.0
G1 X706.8125 Y-195.5630 Z-1.0000 F20.0
G1 X710.6377 Y-198.5903 Z-1.0000 F20.0
G1 X710.6133 Y-197.9922 Z-1.0000 F20.0
G1 X710.5224 Y-197.4749 Z-1.0000 F20.0
G1 X710.3710 Y-197.0178 Z-1.0000 F20.0
G1 X710.1596 Y-196.6034 Z-1.0000 F20.0
G1 X709.8827 Y-196.2157 Z-1.0000 F20.0
G1 X709.5266 Y-195.8385 Z-1.0000 F20.0
G1 X709.0650 Y-195.4514 Z-1.0000 F20.0
G1 X708.4423 Y-195.0181 Z-1.0000 F20.0
G1 X707.4906 Y-194.4303 Z-1.0000 F20.0
G1 X706.0509 Y-193.5252 Z-1.0000 F20.0
G1 X700.8840 Y-196.6163 Z-1.0000 F20.0
G1 X700.8840 Y-196.6163 Z-1.0000 F20.0
G0 Z6.0000
G0 Z6.0000
G0 X317.7044 Y-84.7563
G0 Z4.0000
G1 X317.7044 Y-84.7563 Z-1.0000 F20.0
G1 X317.8878 Y-87.2611 Z-1.0000 F20.0
G1 X314.7886 Y-85.7816 Z-1.0000 F20.0
G1 X317.7044 Y-84.7563 Z-1.0000 F20.0
G0 Z6.0000
G0 Z6.0000
G0 X313.7682 Y-84.8604
G0 Z4.0000
G1 X313.7682 Y-84.8604 Z-1.0000 F20.0
G1 X313.9259 Y-87.3307 Z-1.0000 F20.0
G1 X316.7329 Y-89.2263 Z-1.0000 F20.0
G1 X318.7094 Y-88.1761 Z-1.0000 F20.0
G1 X319.8210 Y-85.4883 Z-1.0000 F20.0
G1 X317.3787 Y-83.1416 Z-1.0000 F20.0
G1 X316.1454 Y-83.1589 Z-1.0000 F20.0
G1 X313.7682 Y-84.8604 Z-1.0000 F20.0
G1 X313.7682 Y-84.8604 Z-1.0000 F20.0
G0 Z6.0000
G0 Z6.0000
G0 X478.1087 Y-196.4730
G0 Z4.0000
G1 X478.1087 Y-196.4730 Z-1.0000 F20.0
G1 X479.2310 Y-196.8732 Z-1.0000 F20.0
G1 X478.1087 Y-196.4730 Z-1.0000 F20.0
G0 Z6.0000
G0 Z6.0000
G0 X480.9670 Y-195.6236
G0 Z4.0000
G1 X480.9670 Y-195.6236 Z-1.0000 F20.0
G1 X479.8447 Y-196.0237 Z-1.0000 F20.0
G1 X480.9670 Y-195.6236 Z-1.0000 F20.0
G0 Z6.0000
G0 Z6.0000
G0 X481.9425 Y-195.3529
G0 Z4.0000
G1 X481.9425 Y-195.3529 Z-1.0000 F20.0
G1 X481.9047 Y-195.4290 Z-1.0000 F20.0
G1 X481.7867 Y-195.6017 Z-1.0000 F20.0
G1 X481.7022 Y-195.6642 Z-1.0000 F20.0
G1 X481.6553 Y-195.6502 Z-1.0000 F20.0
G1 X481.9425 Y-195.3529 Z-1.0000 F20.0
G0 Z6.0000
G0 Z6.0000
G0 X472.9760 Y-198.6416
G0 Z4.0000
G1 X472.9760 Y-198.6416 Z-1.0000 F20.0
G1 X477.6844 Y-196.6879 Z-1.0000 F20.0
G1 X478.7314 Y-198.0669 Z-1.0000 F20.0
G1 X482.3586 Y-196.4101 Z-1.0000 F20.0
G1 X483.9699 Y-193.2570 Z-1.0000 F20.0
G1 X483.1999 Y-193.3764 Z-1.0000 F20.0
G1 X482.1257 Y-193.6193 Z-1.0000 F20.0
G1 X480.7983 Y-193.9967 Z-1.0000 F20.0
G1 X479.3484 Y-194.4871 Z-1.0000 F20.0
G1 X477.9304 Y-195.0462 Z-1.0000 F20.0
G1 X476.6582 Y-195.6283 Z-1.0000 F20.0
G1 X475.5924 Y-196.1968 Z-1.0000 F20.0
G1 X474.7377 Y-196.7350 Z-1.0000 F20.0
G1 X474.0790 Y-197.2346 Z-1.0000 F20.0
G1 X473.5928 Y-197.6931 Z-1.0000 F20.0
G1 X473.2530 Y-198.1117 Z-1.0000 F20.0
G1 X473.0924 Y-198.3764 Z-1.0000 F20.0
G1 X472.9760 Y-198.6416 Z-1.0000 F20.0
G0 Z6.0000
G0 Z6.0000
G0 X144.3236 Y-199.2398
G0 Z4.0000
G1 X144.3236 Y-199.2398 Z-1.0000 F20.0
G1 X144.9738 Y-199.2753 Z-1.0000 F20.0
G1 X145.5451 Y-199.3762 Z-1.0000 F20.0
G1 X146.0440 Y-199.5353 Z-1.0000 F20.0
G1 X146.4767 Y-199.7468 Z-1.0000 F20.0
G1 X146.8484 Y-200.0069 Z-1.0000 F20.0
G1 X147.1632 Y-200.3136 Z-1.0000 F20.0
G1 X147.4234 Y-200.6665 Z-1.0000 F20.0
G1 X147.6294 Y-201.0664 Z-1.0000 F20.0
G1 X147.7791 Y-201.5142 Z-1.0000 F20.0
G1 X147.8690 Y-202.0102 Z-1.0000 F20.0
G1 X147.8937 Y-202.5530 Z-1.0000 F20.0
G1 X147.8477 Y-203.1379 Z-1.0000 F20.0
G1 X147.7260 Y-203.7569 Z-1.0000 F20.0
G1 X147.5257 Y-204.3977 Z-1.0000 F20.0
G1 X147.2469 Y-205.0450 Z-1.0000 F20.0
G1 X146.8930 Y-205.6812 Z-1.0000 F20.0
G1 X146.4890 Y-206.2652 Z-1.0000 F20.0
G1 X144.3244 Y-206.4447 Z-1.0000 F20.0
G1 X143.5843 Y-206.4329 Z-1.0000 F20.0
G1 X143.1008 Y-206.3601 Z-1.0000 F20.0
G1 X142.7685 Y-206.2439 Z-1.0000 F20.0
G1 X142.5129 Y-206.0849 Z-1.0000 F20.0
G1 X142.2664 Y-205.8558 Z-1.0000 F20.0
G1 X141.7864 Y-205.3648 Z-1.0000 F20.0
G1 X141.3593 Y-205.0339 Z-1.0000 F20.0
G1 X140.8201 Y-204.7241 Z-1.0000 F20.0
G1 X140.6073 Y-204.6231 Z-1.0000 F20.0
G1 X140.3724 Y-204.5216 Z-1.0000 F20.0
G1 X140.4465 Y-203.7592 Z-1.0000 F20.0
G1 X140.4814 Y-202.8354 Z-1.0000 F20.0
G1 X140.5052 Y-202.2269 Z-1.0000 F20.0
G1 X140.5751 Y-201.5989 Z-1.0000 F20.0
G1 X140.6962 Y-201.1275 Z-1.0000 F20.0
G1 X140.8734 Y-200.7389 Z-1.0000 F20.0
G1 X141.1098 Y-200.4053 Z-1.0000 F20.0
G1 X141.4171 Y-200.1047 Z-1.0000 F20.0
G1 X141.8143 Y-199.8241 Z-1.0000 F20.0
G1 X142.3274 Y-199.5563 Z-1.0000 F20.0
G1 X143.1665 Y-199.2398 Z-1.0000 F20.0
G1 X144.3236 Y-199.2398 Z-1.0000 F20.0
G1 X144.3236 Y-199.2398 Z-1.0000 F20.0
G0 Z6.0000
G0 Z6.0000
G0 X139.2646 Y-198.7953
G0 Z4.0000
G1 X139.2646 Y-198.7953 Z-1.0000 F20.0
G1 X139.3421 Y-201.8532 Z-1.0000 F20.0
G1 X138.4225 Y-203.1240 Z-1.0000 F20.0
G1 X139.3014 Y-206.7632 Z-1.0000 F20.0
G1 X143.6953 Y-209.4613 Z-1.0000 F20.0
G1 X145.2684 Y-208.9822 Z-1.0000 F20.0
G1 X146.3566 Y-208.5802 Z-1.0000 F20.0
G1 X147.1397 Y-208.2172 Z-1.0000 F20.0
G1 X147.7174 Y-207.8727 Z-1.0000 F20.0
G1 X148.1613 Y-207.5268 Z-1.0000 F20.0
G1 X148.5188 Y-207.1595 Z-1.0000 F20.0
G1 X148.8249 Y-206.7444 Z-1.0000 F20.0
G1 X149.1127 Y-206.2363 Z-1.0000 F20.0
G1 X149.4343 Y-205.5315 Z-1.0000 F20.0
G1 X150.0192 Y-204.1334 Z-1.0000 F20.0
G1 X150.5902 Y-202.8998 Z-1.0000 F20.0
G1 X149.3821 Y-198.7953 Z-1.0000 F20.0
G1 X148.4065 Y-198.0516 Z-1.0000 F20.0
G1 X147.5652 Y-197.5005 Z-1.0000 F20.0
G1 X146.8193 Y-197.0974 Z-1.0000 F20.0
G1 X146.1414 Y-196.8124 Z-1.0000 F20.0
G1 X145.5108 Y-196.6251 Z-1.0000 F20.0
G1 X144.9105 Y-196.5218 Z-1.0000 F20.0
G1 X144.3253 Y-196.4944 Z-1.0000 F20.0
G1 X143.7411 Y-196.5395 Z-1.0000 F20.0
G1 X143.1434 Y-196.6587 Z-1.0000 F20.0
G1 X142.5166 Y-196.8580 Z-1.0000 F20.0
G1 X141.8421 Y-197.1490 Z-1.0000 F20.0
G1 X141.0962 Y-197.5503 Z-1.0000 F20.0
G1 X140.2454 Y-198.0906 Z-1.0000 F20.0
G1 X139.2646 Y-198.7953 Z-1.0000 F20.0
G1 X139.2646 Y-198.7953 Z-1.0000 F20.0
G0 Z6.0000
G0 Z6.0000
G0 X137.3803 Y-202.2312
G0 Z4.0000
G1 X137.3803 Y-202.2312 Z-1.0000 F20.0
G1 X137.4159 Y-201.4446 Z-1.0000 F20.0
G1 X137.5202 Y-200.7042 Z-1.0000 F20.0
G1 X137.6897 Y-200.0085 Z-1.0000 F20.0
G1 X137.9215 Y-199.3567 Z-1.0000 F20.0
G1 X138.2133 Y-198.7482 Z-1.0000 F20.0
G1 X138.5633 Y-198.1830 Z-1.0000 F20.0
G1 X138.9699 Y-197.6616 Z-1.0000 F20.0
G1 X139.4318 Y-197.1857 Z-1.0000 F20.0
G1 X139.9471 Y-196.7575 Z-1.0000 F20.0
G1 X140.5136 Y-196.3800 Z-1.0000 F20.0
G1 X141.1278 Y-196.0571 Z-1.0000 F20.0
G1 X141.7850 Y-195.7928 Z-1.0000 F20.0
G1 X142.4789 Y-195.5916 Z-1.0000 F20.0
G1 X143.2015 Y-195.4574 Z-1.0000 F20.0
G1 X143.9430 Y-195.3933 Z-1.0000 F20.0
G1 X144.6928 Y-195.4014 Z-1.0000 F20.0
G1 X145.4395 Y-195.4822 Z-1.0000 F20.0
G1 X146.1719 Y-195.6349 Z-1.0000 F20.0
G1 X146.8797 Y-195.8572 Z-1.0000 F20.0
G1 X147.5542 Y-196.1458 Z-1.0000 F20.0
G1 X148.1881 Y-196.4970 Z-1.0000 F20.0
G1 X148.7760 Y-196.9067 Z-1.0000 F20.0
G1 X149.3137 Y-197.3715 Z-1.0000 F20.0
G1 X149.7985 Y-197.8882 Z-1.0000 F20.0
G1 X150.2283 Y-198.4545 Z-1.0000 F20.0
G1 X150.6015 Y-199.0690 Z-1.0000 F20.0
G1 X150.9165 Y-199.7307 Z-1.0000 F20.0
G1 X151.1715 Y-200.4398 Z-1.0000 F20.0
G1 X151.3645 Y-201.1968 Z-1.0000 F20.0
G1 X151.4929 Y-202.0027 Z-1.0000 F20.0
G1 X151.5356 Y-202.4780 Z-1.0000 F20.0
G1 X151.5547 Y-203.3112 Z-1.0000 F20.0
G1 X151.5020 Y-204.0989 Z-1.0000 F20.0
G1 X151.3814 Y-204.8420 Z-1.0000 F20.0
G1 X151.1961 Y-205.5417 Z-1.0000 F20.0
G1 X150.9488 Y-206.1984 Z-1.0000 F20.0
G1 X150.6416 Y-206.8124 Z-1.0000 F20.0
G1 X150.2762 Y-207.3833 Z-1.0000 F20.0
G1 X149.8545 Y-207.9100 Z-1.0000 F20.0
G1 X149.3779 Y-208.3908 Z-1.0000 F20.0
G1 X148.8486 Y-208.8231 Z-1.0000 F20.0
G1 X148.2693 Y-209.2036 Z-1.0000 F20.0
G1 X147.6437 Y-209.5284 Z-1.0000 F20.0
G1 X146.9771 Y-209.7933 Z-1.0000 F20.0
G1 X146.2761 Y-209.9943 Z-1.0000 F20.0
G1 X145.5488 Y-210.1275 Z-1.0000 F20.0
G1 X144.8048 Y-210.1900 Z-1.0000 F20.0
G1 X144.0545 Y-210.1802 Z-1.0000 F20.0
G1 X143.3087 Y-210.0975 Z-1.0000 F20.0
G1 X142.5777 Y-209.9431 Z-1.0000 F20.0
G1 X141.8709 Y-209.7189 Z-1.0000 F20.0
G1 X141.1965 Y-209.4281 Z-1.0000 F20.0
G1 X140.5610 Y-209.0740 Z-1.0000 F20.0
G1 X139.9696 Y-208.6601 Z-1.0000 F20.0
G1 X139.4259 Y-208.1895 Z-1.0000 F20.0
G1 X138.9328 Y-207.6650 Z-1.0000 F20.0
G1 X138.4924 Y-207.0883 Z-1.0000 F20.0
G1 X138.1066 Y-206.4607 Z-1.0000 F20.0
G1 X137.7771 Y-205.7828 Z-1.0000 F20.0
G1 X137.5058 Y-205.0543 Z-1.0000 F20.0
G1 X137.4407 Y-204.8415 Z-1.0000 F20.0
G1 X137.3803 Y-204.6244 Z-1.0000 F20.0
G1 X137.3803 Y-203.4275 Z-1.0000 F20.0
G1 X137.3803 Y-202.2312 Z-1.0000 F20.0
G0 Z6.0000
G0 Z6.0000
G0 X144.3236 Y-193.8552
G0 Z4.0000
G1 X144.3236 Y-193.8552 Z-1.0000 F20.0
G1 X143.4234 Y-193.8909 Z-1.0000 F20.0
G1 X142.5777 Y-193.9953 Z-1.0000 F20.0
G1 X141.7843 Y-194.1647 Z-1.0000 F20.0
G1 X141.0409 Y-194.3960 Z-1.0000 F20.0
G1 X140.3457 Y-194.6867 Z-1.0000 F20.0
G1 X139.6972 Y-195.0350 Z-1.0000 F20.0
G1 X139.0946 Y-195.4397 Z-1.0000 F20.0
G1 X138.5375 Y-195.8998 Z-1.0000 F20.0
G1 X138.0262 Y-196.4148 Z-1.0000 F20.0
G1 X137.5619 Y-196.9842 Z-1.0000 F20.0
G1 X137.1466 Y-197.6070 Z-1.0000 F20.0
G1 X136.7829 Y-198.2820 Z-1.0000 F20.0
G1 X136.4741 Y-199.0067 Z-1.0000 F20.0
G1 X136.2239 Y-199.7775 Z-1.0000 F20.0
G1 X136.0363 Y-200.5892 Z-1.0000 F20.0
G1 X135.9149 Y-201.4347 Z-1.0000 F20.0
G1 X135.8630 Y-202.3051 Z-1.0000 F20.0
G1 X135.8828 Y-203.1898 Z-1.0000 F20.0
G1 X135.9751 Y-204.0770 Z-1.0000 F20.0
G1 X136.1394 Y-204.9540 Z-1.0000 F20.0
G1 X136.3734 Y-205.8085 Z-1.0000 F20.0
G1 X136.6737 Y-206.6288 Z-1.0000 F20.0
G1 X137.0355 Y-207.4050 Z-1.0000 F20.0
G1 X137.4535 Y-208.1288 Z-1.0000 F20.0
G1 X137.9224 Y-208.7941 Z-1.0000 F20.0
G1 X138.4368 Y-209.3968 Z-1.0000 F20.0
G1 X138.9921 Y-209.9343 Z-1.0000 F20.0
G1 X139.5845 Y-210.4053 Z-1.0000 F20.0
G1 X140.2110 Y-210.8093 Z-1.0000 F20.0
G1 X140.8696 Y-211.1461 Z-1.0000 F20.0
G1 X141.5591 Y-211.4157 Z-1.0000 F20.0
G1 X142.2792 Y-211.6177 Z-1.0000 F20.0
G1 X143.0301 Y-211.7513 Z-1.0000 F20.0
G1 X143.8126 Y-211.8150 Z-1.0000 F20.0
G1 X144.8434 Y-211.7925 Z-1.0000 F20.0
G1 X145.7202 Y-211.6893 Z-1.0000 F20.0
G1 X146.5500 Y-211.5201 Z-1.0000 F20.0
G1 X147.3342 Y-211.2877 Z-1.0000 F20.0
G1 X148.0737 Y-210.9945 Z-1.0000 F20.0
G1 X148.7689 Y-210.6421 Z-1.0000 F20.0
G1 X149.4199 Y-210.2322 Z-1.0000 F20.0
G1 X150.0264 Y-209.7659 Z-1.0000 F20.0
G1 X150.5871 Y-209.2446 Z-1.0000 F20.0
G1 X151.1004 Y-208.6696 Z-1.0000 F20.0
G1 X151.5639 Y-208.0426 Z-1.0000 F20.0
G1 X151.9747 Y-207.3663 Z-1.0000 F20.0
G1 X152.3292 Y-206.6439 Z-1.0000 F20.0
G1 X152.6239 Y-205.8802 Z-1.0000 F20.0
G1 X152.8549 Y-205.0812 Z-1.0000 F20.0
G1 X153.0188 Y-204.2542 Z-1.0000 F20.0
G1 X153.1128 Y-203.4082 Z-1.0000 F20.0
G1 X153.1349 Y-202.5530 Z-1.0000 F20.0
G1 X153.0843 Y-201.6992 Z-1.0000 F20.0
G1 X152.9616 Y-200.8574 Z-1.0000 F20.0
G1 X152.7686 Y-200.0379 Z-1.0000 F20.0
G1 X152.5080 Y-199.2498 Z-1.0000 F20.0
G1 X152.1834 Y-198.5010 Z-1.0000 F20.0
G1 X151.7988 Y-197.7979 Z-1.0000 F20.0
G1 X151.3582 Y-197.1454 Z-1.0000 F20.0
G1 X150.8654 Y-196.5468 Z-1.0000 F20.0
G1 X150.3236 Y-196.0045 Z-1.0000 F20.0
G1 X149.7355 Y-195.5203 Z-1.0000 F20.0
G1 X149.1030 Y-195.0952 Z-1.0000 F20.0
G1 X148.4273 Y-194.7301 Z-1.0000 F20.0
G1 X147.7088 Y-194.4263 Z-1.0000 F20.0
G1 X146.9474 Y-194.1849 Z-1.0000 F20.0
G1 X146.1426 Y-194.0077 Z-1.0000 F20.0
G1 X145.2933 Y-193.8970 Z-1.0000 F20.0
G1 X144.3236 Y-193.8552 Z-1.0000 F20.0
G0 Z6.0000
G0 Z6.0000
G0 X388.2071 Y-181.5932
G0 Z4.0000
G1 X388.2071 Y-181.5932 Z-1.0000 F20.0
G1 X388.1670 Y-181.6732 Z-1.0000 F20.0
G1 X388.0495 Y-181.8436 Z-1.0000 F20.0
G1 X387.9656 Y-181.9042 Z-1.0000 F20.0
G1 X387.9196 Y-181.8900 Z-1.0000 F20.0
G1 X388.2071 Y-181.5932 Z-1.0000 F20.0
G0 Z6.0000
G0 Z6.0000
G0 X391.6788 Y-179.7981
G0 Z4.0000
G1 X391.6788 Y-179.7981 Z-1.0000 F20.0
G1 X391.6410 Y-179.8743 Z-1.0000 F20.0
G1 X391.5232 Y-180.0468 Z-1.0000 F20.0
G1 X391.4387 Y-180.1091 Z-1.0000 F20.0
G1 X391.3917 Y-180.0950 Z-1.0000 F20.0
G1 X391.6788 Y-179.7981 Z-1.0000 F20.0
G0 Z6.0000
G0 Z6.0000
G0 X390.1690 Y-179.4640
G0 Z4.0000
G1 X390.1690 Y-179.4640 Z-1.0000 F20.0
G1 X387.3098 Y-179.7179 Z-1.0000 F20.0
G1 X390.1690 Y-179.4640 Z-1.0000 F20.0
G0 Z6.0000
G0 Z6.0000
G0 X386.0215 Y-181.3459
G0 Z4.0000
G1 X386.0215 Y-181.3459 Z-1.0000 F20.0
G1 X385.0269 Y-183.0864 Z-1.0000 F20.0
G1 X385.0269 Y-184.2828 Z-1.0000 F20.0
G1 X385.0269 Y-184.8814 Z-1.0000 F20.0
G1 X385.0631 Y-185.5282 Z-1.0000 F20.0
G1 X385.2006 Y-186.5880 Z-1.0000 F20.0
G1 X385.4500 Y-187.9023 Z-1.0000 F20.0
G1 X385.7735 Y-189.1963 Z-1.0000 F20.0
G1 X386.1307 Y-190.3204 Z-1.0000 F20.0
G1 X386.4987 Y-191.2395 Z-1.0000 F20.0
G1 X386.8638 Y-191.9591 Z-1.0000 F20.0
G1 X387.2180 Y-192.5004 Z-1.0000 F20.0
G1 X387.5578 Y-192.8901 Z-1.0000 F20.0
G1 X387.8830 Y-193.1541 Z-1.0000 F20.0
G1 X388.1952 Y-193.3142 Z-1.0000 F20.0
G1 X388.4976 Y-193.3867 Z-1.0000 F20.0
G1 X388.7979 Y-193.3823 Z-1.0000 F20.0
G1 X389.1046 Y-193.3024 Z-1.0000 F20.0
G1 X389.3279 Y-193.1980 Z-1.0000 F20.0
G1 X389.5567 Y-193.0518 Z-1.0000 F20.0
G1 X389.0408 Y-192.0505 Z-1.0000 F20.0
G1 X388.3892 Y-190.9041 Z-1.0000 F20.0
G1 X387.9235 Y-190.0787 Z-1.0000 F20.0
G1 X387.4976 Y-189.2200 Z-1.0000 F20.0
G1 X387.1996 Y-188.4547 Z-1.0000 F20.0
G1 X386.9883 Y-187.6972 Z-1.0000 F20.0
G1 X386.8488 Y-186.9073 Z-1.0000 F20.0
G1 X386.7748 Y-186.0423 Z-1.0000 F20.0
G1 X386.7656 Y-185.7662 Z-1.0000 F20.0
G1 X386.7625 Y-185.4796 Z-1.0000 F20.0
G1 X386.7625 Y-183.6846 Z-1.0000 F20.0
G1 X393.7058 Y-183.6846 Z-1.0000 F20.0
G1 X393.7058 Y-185.4796 Z-1.0000 F20.0
G1 X393.6713 Y-186.3344 Z-1.0000 F20.0
G1 X393.5711 Y-187.1272 Z-1.0000 F20.0
G1 X393.4080 Y-187.8788 Z-1.0000 F20.0
G1 X393.1796 Y-188.6173 Z-1.0000 F20.0
G1 X392.8730 Y-189.3912 Z-1.0000 F20.0
G1 X392.4350 Y-190.3455 Z-1.0000 F20.0
G1 X392.0984 Y-191.0876 Z-1.0000 F20.0
G1 X391.8029 Y-191.8658 Z-1.0000 F20.0
G1 X391.6170 Y-192.5621 Z-1.0000 F20.0
G1 X391.5157 Y-193.2438 Z-1.0000 F20.0
G1 X391.4907 Y-193.7528 Z-1.0000 F20.0
G1 X391.8382 Y-193.6559 Z-1.0000 F20.0
G1 X392.1876 Y-193.4837 Z-1.0000 F20.0
G1 X392.5427 Y-193.2283 Z-1.0000 F20.0
G1 X392.9054 Y-192.8784 Z-1.0000 F20.0
G1 X393.2754 Y-192.4211 Z-1.0000 F20.0
G1 X393.6496 Y-191.8442 Z-1.0000 F20.0
G1 X394.0223 Y-191.1381 Z-1.0000 F20.0
G1 X394.3841 Y-190.3003 Z-1.0000 F20.0
G1 X394.7218 Y-189.3403 Z-1.0000 F20.0
G1 X395.0177 Y-188.2877 Z-1.0000 F20.0
G1 X395.2515 Y-187.1983 Z-1.0000 F20.0
G1 X395.4045 Y-186.1543 Z-1.0000 F20.0
G1 X395.4589 Y-185.4797 Z-1.0000 F20.0
G1 X395.4667 Y-184.8801 Z-1.0000 F20.0
G1 X395.3621 Y-182.4350 Z-1.0000 F20.0
G1 X393.4260 Y-181.7522 Z-1.0000 F20.0
G1 X393.3317 Y-177.8165 Z-1.0000 F20.0
G1 X385.9718 Y-177.7053 Z-1.0000 F20.0
G1 X386.0216 Y-181.3459 Z-1.0000 F20.0
G1 X386.0215 Y-181.3459 Z-1.0000 F20.0
G0 Z6.0000
G0 Z6.0000
G0 X539.5165 Y-59.2452
G0 Z4.0000
G1 X539.5165 Y-59.2452 Z-1.0000 F20.0
G1 X545.8817 Y-59.2452 Z-1.0000 F20.0
G1 X545.8308 Y-60.0444 Z-1.0000 F20.0
G1 X545.7134 Y-60.7731 Z-1.0000 F20.0
G1 X545.5345 Y-61.4360 Z-1.0000 F20.0
G1 X545.2983 Y-62.0379 Z-1.0000 F20.0
G1 X545.0076 Y-62.5831 Z-1.0000 F20.0
G1 X544.6639 Y-63.0753 Z-1.0000 F20.0
G1 X544.2674 Y-63.5174 Z-1.0000 F20.0
G1 X543.8171 Y-63.9113 Z-1.0000 F20.0
G1 X543.3111 Y-64.2577 Z-1.0000 F20.0
G1 X542.7467 Y-64.5560 Z-1.0000 F20.0
G1 X542.1206 Y-64.8044 Z-1.0000 F20.0
G1 X541.4297 Y-65.0000 Z-1.0000 F20.0
G1 X540.6708 Y-65.1389 Z-1.0000 F20.0
G1 X539.5165 Y-65.2280 Z-1.0000 F20.0
G1 X539.5165 Y-59.2452 Z-1.0000 F20.0
G0 Z6.0000
G0 Z6.0000
G0 X536.0448 Y-58.6470
G0 Z4.0000
G1 X536.0448 Y-58.6470 Z-1.0000 F20.0
G1 X538.2617 Y-58.6829 Z-1.0000 F20.0
G1 X538.3594 Y-65.2279 Z-1.0000 F20.0
G1 X537.5663 Y-65.1204 Z-1.0000 F20.0
G1 X536.8142 Y-64.9460 Z-1.0000 F20.0
G1 X536.1072 Y-64.7081 Z-1.0000 F20.0
G1 X535.4488 Y-64.4105 Z-1.0000 F20.0
G1 X534.8421 Y-64.0569 Z-1.0000 F20.0
G1 X534.2894 Y-63.6507 Z-1.0000 F20.0
G1 X533.7925 Y-63.1953 Z-1.0000 F20.0
G1 X533.3528 Y-62.6934 Z-1.0000 F20.0
G1 X532.9717 Y-62.1472 Z-1.0000 F20.0
G1 X532.6505 Y-61.5587 Z-1.0000 F20.0
G1 X532.3905 Y-60.9288 Z-1.0000 F20.0
G1 X532.1937 Y-60.2585 Z-1.0000 F20.0
G1 X532.0622 Y-59.5483 Z-1.0000 F20.0
G1 X531.9946 Y-58.6470 Z-1.0000 F20.0
G1 X536.0448 Y-58.6470 Z-1.0000 F20.0
G0 Z6.0000
G0 Z6.0000
G0 X539.5096 Y-50.2714
G0 Z4.0000
G1 X539.5096 Y-50.2714 Z-1.0000 F20.0
G1 X540.2869 Y-50.3771 Z-1.0000 F20.0
G1 X541.0310 Y-50.5506 Z-1.0000 F20.0
G1 X541.7396 Y-50.7895 Z-1.0000 F20.0
G1 X542.4100 Y-51.0915 Z-1.0000 F20.0
G1 X543.0398 Y-51.4543 Z-1.0000 F20.0
G1 X543.6262 Y-51.8755 Z-1.0000 F20.0
G1 X544.1666 Y-52.3528 Z-1.0000 F20.0
G1 X544.6582 Y-52.8839 Z-1.0000 F20.0
G1 X545.0979 Y-53.4663 Z-1.0000 F20.0
G1 X545.4830 Y-54.0973 Z-1.0000 F20.0
G1 X545.8104 Y-54.7745 Z-1.0000 F20.0
G1 X546.0773 Y-55.4949 Z-1.0000 F20.0
G1 X546.2808 Y-56.2558 Z-1.0000 F20.0
G1 X546.4182 Y-57.0543 Z-1.0000 F20.0
G1 X546.4410 Y-57.2515 Z-1.0000 F20.0
G1 X546.4598 Y-57.4506 Z-1.0000 F20.0
G1 X539.5311 Y-57.3482 Z-1.0000 F20.0
G1 X539.5096 Y-50.2714 Z-1.0000 F20.0
G1 X539.5096 Y-50.2714 Z-1.0000 F20.0
G0 Z6.0000
G0 Z6.0000
G0 X538.3191 Y-50.1872
G0 Z4.0000
G1 X538.3191 Y-50.1872 Z-1.0000 F20.0
G1 X538.3453 Y-57.3482 Z-1.0000 F20.0
G1 X536.0453 Y-57.4679 Z-1.0000 F20.0
G1 X535.3786 Y-57.4443 Z-1.0000 F20.0
G1 X534.8517 Y-57.3629 Z-1.0000 F20.0
G1 X534.3258 Y-57.2219 Z-1.0000 F20.0
G1 X533.7591 Y-57.0609 Z-1.0000 F20.0
G1 X533.0733 Y-56.9301 Z-1.0000 F20.0
G1 X532.5856 Y-56.8796 Z-1.0000 F20.0
G1 X531.9947 Y-56.8519 Z-1.0000 F20.0
G1 X532.9092 Y-52.9650 Z-1.0000 F20.0
G1 X538.3192 Y-50.1872 Z-1.0000 F20.0
G1 X538.3191 Y-50.1872 Z-1.0000 F20.0
G0 Z6.0000
G0 Z6.0000
G0 X539.6814 Y-47.9487
G0 Z4.0000
G1 X539.6814 Y-47.9487 Z-1.0000 F20.0
G1 X531.9265 Y-51.6667 Z-1.0000 F20.0
G1 X532.6122 Y-50.4717 Z-1.0000 F20.0
G1 X529.7533 Y-48.0616 Z-1.0000 F20.0
G1 X530.5373 Y-47.2868 Z-1.0000 F20.0
G1 X531.2943 Y-46.6403 Z-1.0000 F20.0
G1 X532.0401 Y-46.0986 Z-1.0000 F20.0
G1 X532.7884 Y-45.6448 Z-1.0000 F20.0
G1 X533.5522 Y-45.2665 Z-1.0000 F20.0
G1 X534.3450 Y-44.9550 Z-1.0000 F20.0
G1 X535.1813 Y-44.7049 Z-1.0000 F20.0
G1 X536.0776 Y-44.5129 Z-1.0000 F20.0
G1 X537.0539 Y-44.3786 Z-1.0000 F20.0
G1 X538.1352 Y-44.3036 Z-1.0000 F20.0
G1 X538.9379 Y-44.2886 Z-1.0000 F20.0
G1 X539.5165 Y-44.2886 Z-1.0000 F20.0
G1 X540.5180 Y-44.3246 Z-1.0000 F20.0
G1 X541.4910 Y-44.4312 Z-1.0000 F20.0
G1 X542.4347 Y-44.6068 Z-1.0000 F20.0
G1 X543.3480 Y-44.8498 Z-1.0000 F20.0
G1 X544.2298 Y-45.1587 Z-1.0000 F20.0
G1 X545.0786 Y-45.5324 Z-1.0000 F20.0
G1 X545.8927 Y-45.9696 Z-1.0000 F20.0
G1 X546.6703 Y-46.4691 Z-1.0000 F20.0
G1 X547.4091 Y-47.0297 Z-1.0000 F20.0
G1 X548.1068 Y-47.6499 Z-1.0000 F20.0
G1 X548.7607 Y-48.3281 Z-1.0000 F20.0
G1 X549.3679 Y-49.0624 Z-1.0000 F20.0
G1 X549.9254 Y-49.8508 Z-1.0000 F20.0
G1 X550.4302 Y-50.6906 Z-1.0000 F20.0
G1 X550.8791 Y-51.5789 Z-1.0000 F20.0
G1 X551.2691 Y-52.5126 Z-1.0000 F20.0
G1 X551.5974 Y-53.4880 Z-1.0000 F20.0
G1 X551.8612 Y-54.5012 Z-1.0000 F20.0
G1 X552.0582 Y-55.5483 Z-1.0000 F20.0
G1 X552.1861 Y-56.6249 Z-1.0000 F20.0
G1 X552.2310 Y-57.3318 Z-1.0000 F20.0
G1 X552.2461 Y-58.0488 Z-1.0000 F20.0
G1 X552.2101 Y-59.1132 Z-1.0000 F20.0
G1 X552.1036 Y-60.1444 Z-1.0000 F20.0
G1 X551.9286 Y-61.1414 Z-1.0000 F20.0
G1 X551.6869 Y-62.1028 Z-1.0000 F20.0
G1 X551.3805 Y-63.0273 Z-1.0000 F20.0
G1 X551.0110 Y-63.9134 Z-1.0000 F20.0
G1 X550.5802 Y-64.7595 Z-1.0000 F20.0
G1 X550.0897 Y-65.5638 Z-1.0000 F20.0
G1 X549.5413 Y-66.3244 Z-1.0000 F20.0
G1 X548.9367 Y-67.0393 Z-1.0000 F20.0
G1 X548.2780 Y-67.7061 Z-1.0000 F20.0
G1 X547.5670 Y-68.3226 Z-1.0000 F20.0
G1 X546.8060 Y-68.8864 Z-1.0000 F20.0
G1 X545.9974 Y-69.3949 Z-1.0000 F20.0
G1 X545.1437 Y-69.8457 Z-1.0000 F20.0
G1 X544.2478 Y-70.2363 Z-1.0000 F20.0
G1 X543.3127 Y-70.5643 Z-1.0000 F20.0
G1 X542.3414 Y-70.8276 Z-1.0000 F20.0
G1 X541.3373 Y-71.0238 Z-1.0000 F20.0
G1 X540.3037 Y-71.1512 Z-1.0000 F20.0
G1 X539.6259 Y-71.1958 Z-1.0000 F20.0
G1 X538.9379 Y-71.2107 Z-1.0000 F20.0
G1 X537.9174 Y-71.1747 Z-1.0000 F20.0
G1 X536.9146 Y-71.0671 Z-1.0000 F20.0
G1 X535.9338 Y-70.8895 Z-1.0000 F20.0
G1 X534.9796 Y-70.6433 Z-1.0000 F20.0
G1 X534.0564 Y-70.3304 Z-1.0000 F20.0
G1 X533.1684 Y-69.9530 Z-1.0000 F20.0
G1 X532.3198 Y-69.5137 Z-1.0000 F20.0
G1 X531.5145 Y-69.0150 Z-1.0000 F20.0
G1 X530.7562 Y-68.4599 Z-1.0000 F20.0
G1 X530.0480 Y-67.8513 Z-1.0000 F20.0
G1 X529.3928 Y-67.1921 Z-1.0000 F20.0
G1 X528.7933 Y-66.4853 Z-1.0000 F20.0
G1 X528.2516 Y-65.7336 Z-1.0000 F20.0
G1 X527.7698 Y-64.9397 Z-1.0000 F20.0
G1 X527.3495 Y-64.1058 Z-1.0000 F20.0
G1 X526.9924 Y-63.2342 Z-1.0000 F20.0
G1 X526.7002 Y-62.3268 Z-1.0000 F20.0
G1 X526.4742 Y-61.3850 Z-1.0000 F20.0
G1 X526.3162 Y-60.4105 Z-1.0000 F20.0
G1 X526.2279 Y-59.4043 Z-1.0000 F20.0
G1 X526.2133 Y-59.0279 Z-1.0000 F20.0
G1 X526.2084 Y-58.6469 Z-1.0000 F20.0
G1 X526.2084 Y-57.4506 Z-1.0000 F20.0
G1 X526.2443 Y-56.3219 Z-1.0000 F20.0
G1 X526.3484 Y-55.2772 Z-1.0000 F20.0
G1 X526.5167 Y-54.3038 Z-1.0000 F20.0
G1 X526.7468 Y-53.3901 Z-1.0000 F20.0
G1 X527.0378 Y-52.5254 Z-1.0000 F20.0
G1 X527.3909 Y-51.6990 Z-1.0000 F20.0
G1 X527.8096 Y-50.9004 Z-1.0000 F20.0
G1 X528.2996 Y-50.1188 Z-1.0000 F20.0
G1 X528.6403 Y-49.6414 Z-1.0000 F20.0
G1 X529.0025 Y-49.1774 Z-1.0000 F20.0
G1 X528.6477 Y-50.6737 Z-1.0000 F20.0
G1 X531.7683 Y-53.0953 Z-1.0000 F20.0
G1 X531.1539 Y-53.9383 Z-1.0000 F20.0
G1 X530.8194 Y-54.4065 Z-1.0000 F20.0
G1 X530.5756 Y-54.8360 Z-1.0000 F20.0
G1 X530.4252 Y-55.2564 Z-1.0000 F20.0
G1 X530.3306 Y-55.7585 Z-1.0000 F20.0
G1 X530.2750 Y-56.4824 Z-1.0000 F20.0
G1 X530.2590 Y-57.4505 Z-1.0000 F20.0
G1 X530.2590 Y-58.6469 Z-1.0000 F20.0
G1 X530.2948 Y-59.4148 Z-1.0000 F20.0
G1 X530.4020 Y-60.1771 Z-1.0000 F20.0
G1 X530.5803 Y-60.9294 Z-1.0000 F20.0
G1 X530.8287 Y-61.6666 Z-1.0000 F20.0
G1 X531.1459 Y-62.3827 Z-1.0000 F20.0
G1 X531.5296 Y-63.0708 Z-1.0000 F20.0
G1 X531.9763 Y-63.7237 Z-1.0000 F20.0
G1 X532.4815 Y-64.3341 Z-1.0000 F20.0
G1 X533.0396 Y-64.8948 Z-1.0000 F20.0
G1 X533.6442 Y-65.3991 Z-1.0000 F20.0
G1 X534.2880 Y-65.8414 Z-1.0000 F20.0
G1 X534.9638 Y-66.2172 Z-1.0000 F20.0
G1 X535.6645 Y-66.5232 Z-1.0000 F20.0
G1 X536.3834 Y-66.7572 Z-1.0000 F20.0
G1 X537.1148 Y-66.9181 Z-1.0000 F20.0
G1 X537.8536 Y-67.0053 Z-1.0000 F20.0
G1 X538.3594 Y-67.0225 Z-1.0000 F20.0
G1 X539.5165 Y-67.0225 Z-1.0000 F20.0
G1 X540.2413 Y-66.9867 Z-1.0000 F20.0
G1 X540.9627 Y-66.8793 Z-1.0000 F20.0
G1 X541.6770 Y-66.7004 Z-1.0000 F20.0
G1 X542.3797 Y-66.4504 Z-1.0000 F20.0
G1 X543.0655 Y-66.1299 Z-1.0000 F20.0
G1 X543.7278 Y-65.7407 Z-1.0000 F20.0
G1 X544.3598 Y-65.2855 Z-1.0000 F20.0
G1 X544.9540 Y-64.7683 Z-1.0000 F20.0
G1 X545.5029 Y-64.1943 Z-1.0000 F20.0
G1 X545.9993 Y-63.5699 Z-1.0000 F20.0
G1 X546.4369 Y-62.9024 Z-1.0000 F20.0
G1 X546.8104 Y-62.1995 Z-1.0000 F20.0
G1 X547.1158 Y-61.4689 Z-1.0000 F20.0
G1 X547.3501 Y-60.7182 Z-1.0000 F20.0
G1 X547.5117 Y-59.9539 Z-1.0000 F20.0
G1 X547.5997 Y-59.1820 Z-1.0000 F20.0
G1 X547.6173 Y-58.6469 Z-1.0000 F20.0
G1 X547.6173 Y-57.4505 Z-1.0000 F20.0
G1 X547.5819 Y-56.3250 Z-1.0000 F20.0
G1 X547.4878 Y-55.4791 Z-1.0000 F20.0
G1 X547.3472 Y-54.8256 Z-1.0000 F20.0
G1 X547.1652 Y-54.2998 Z-1.0000 F20.0
G1 X546.9378 Y-53.8487 Z-1.0000 F20.0
G1 X546.6461 Y-53.4177 Z-1.0000 F20.0
G1 X546.2250 Y-52.9064 Z-1.0000 F20.0
G1 X545.7093 Y-52.2960 Z-1.0000 F20.0
G1 X545.2035 Y-51.6086 Z-1.0000 F20.0
G1 X544.7992 Y-50.9471 Z-1.0000 F20.0
G1 X547.0366 Y-50.9888 Z-1.0000 F20.0
G1 X546.3608 Y-52.5370 Z-1.0000 F20.0
G1 X550.0832 Y-52.4940 Z-1.0000 F20.0
G1 X550.0956 Y-51.8005 Z-1.0000 F20.0
G1 X548.2841 Y-51.3357 Z-1.0000 F20.0
G1 X546.7294 Y-47.6269 Z-1.0000 F20.0
G1 X544.9115 Y-50.3799 Z-1.0000 F20.0
G1 X540.1774 Y-48.7657 Z-1.0000 F20.0
G1 X541.3734 Y-48.0563 Z-1.0000 F20.0
G1 X541.2294 Y-44.9767 Z-1.0000 F20.0
G1 X538.9868 Y-46.0929 Z-1.0000 F20.0
G1 X535.8426 Y-46.3331 Z-1.0000 F20.0
G1 X539.6815 Y-47.9486 Z-1.0000 F20.0
G1 X539.6814 Y-47.9487 Z-1.0000 F20.0
G0 Z6.0000
G0 Z6.0000
G0 X536.0448 Y-43.0918
G0 Z4.0000
G1 X536.0448 Y-43.0918 Z-1.0000 F20.0
G1 X534.7172 Y-43.6999 Z-1.0000 F20.0
G1 X533.4807 Y-44.3447 Z-1.0000 F20.0
G1 X532.3323 Y-45.0238 Z-1.0000 F20.0
G1 X531.2695 Y-45.7351 Z-1.0000 F20.0
G1 X530.2895 Y-46.4767 Z-1.0000 F20.0
G1 X529.3900 Y-47.2467 Z-1.0000 F20.0
G1 X528.5688 Y-48.0437 Z-1.0000 F20.0
G1 X527.8239 Y-48.8660 Z-1.0000 F20.0
G1 X527.1536 Y-49.7125 Z-1.0000 F20.0
G1 X526.5563 Y-50.5817 Z-1.0000 F20.0
G1 X526.0310 Y-51.4726 Z-1.0000 F20.0
G1 X525.5767 Y-52.3839 Z-1.0000 F20.0
G1 X525.1928 Y-53.3144 Z-1.0000 F20.0
G1 X524.8792 Y-54.2628 Z-1.0000 F20.0
G1 X524.6357 Y-55.2275 Z-1.0000 F20.0
G1 X524.4627 Y-56.2067 Z-1.0000 F20.0
G1 X524.3605 Y-57.1982 Z-1.0000 F20.0
G1 X524.3296 Y-58.1993 Z-1.0000 F20.0
G1 X524.3705 Y-59.2071 Z-1.0000 F20.0
G1 X524.4837 Y-60.2177 Z-1.0000 F20.0
G1 X524.6693 Y-61.2269 Z-1.0000 F20.0
G1 X524.9272 Y-62.2298 Z-1.0000 F20.0
G1 X525.2567 Y-63.2211 Z-1.0000 F20.0
G1 X525.6567 Y-64.1948 Z-1.0000 F20.0
G1 X526.1251 Y-65.1447 Z-1.0000 F20.0
G1 X526.6595 Y-66.0643 Z-1.0000 F20.0
G1 X527.2565 Y-66.9472 Z-1.0000 F20.0
G1 X527.9123 Y-67.7872 Z-1.0000 F20.0
G1 X528.6223 Y-68.5785 Z-1.0000 F20.0
G1 X529.3816 Y-69.3156 Z-1.0000 F20.0
G1 X530.1852 Y-69.9941 Z-1.0000 F20.0
G1 X531.0278 Y-70.6100 Z-1.0000 F20.0
G1 X531.9045 Y-71.1602 Z-1.0000 F20.0
G1 X532.8104 Y-71.6423 Z-1.0000 F20.0
G1 X533.7410 Y-72.0547 Z-1.0000 F20.0
G1 X534.6925 Y-72.3960 Z-1.0000 F20.0
G1 X535.6612 Y-72.6655 Z-1.0000 F20.0
G1 X536.6444 Y-72.8628 Z-1.0000 F20.0
G1 X537.6394 Y-72.9874 Z-1.0000 F20.0
G1 X538.6444 Y-73.0391 Z-1.0000 F20.0
G1 X539.6575 Y-73.0174 Z-1.0000 F20.0
G1 X540.6777 Y-72.9217 Z-1.0000 F20.0
G1 X541.7038 Y-72.7513 Z-1.0000 F20.0
G1 X542.5523 Y-72.5542 Z-1.0000 F20.0
G1 X543.7228 Y-72.2101 Z-1.0000 F20.0
G1 X544.8181 Y-71.8140 Z-1.0000 F20.0
G1 X545.8410 Y-71.3682 Z-1.0000 F20.0
G1 X546.7946 Y-70.8749 Z-1.0000 F20.0
G1 X547.6812 Y-70.3359 Z-1.0000 F20.0
G1 X548.5032 Y-69.7527 Z-1.0000 F20.0
G1 X549.2626 Y-69.1263 Z-1.0000 F20.0
G1 X549.9609 Y-68.4575 Z-1.0000 F20.0
G1 X550.5994 Y-67.7469 Z-1.0000 F20.0
G1 X551.1789 Y-66.9948 Z-1.0000 F20.0
G1 X551.6996 Y-66.2014 Z-1.0000 F20.0
G1 X552.1614 Y-65.3670 Z-1.0000 F20.0
G1 X552.5636 Y-64.4919 Z-1.0000 F20.0
G1 X552.9052 Y-63.5767 Z-1.0000 F20.0
G1 X553.1846 Y-62.6221 Z-1.0000 F20.0
G1 X553.4000 Y-61.6298 Z-1.0000 F20.0
G1 X553.5495 Y-60.6018 Z-1.0000 F20.0
G1 X553.6310 Y-59.5412 Z-1.0000 F20.0
G1 X553.6423 Y-58.4518 Z-1.0000 F20.0
G1 X553.5817 Y-57.3390 Z-1.0000 F20.0
G1 X553.4479 Y-56.2088 Z-1.0000 F20.0
G1 X553.2401 Y-55.0689 Z-1.0000 F20.0
G1 X552.9587 Y-53.9279 Z-1.0000 F20.0
G1 X552.6049 Y-52.7953 Z-1.0000 F20.0
G1 X552.1810 Y-51.6812 Z-1.0000 F20.0
G1 X551.6907 Y-50.5962 Z-1.0000 F20.0
G1 X551.1386 Y-49.5507 Z-1.0000 F20.0
G1 X550.5304 Y-48.5542 Z-1.0000 F20.0
G1 X549.8723 Y-47.6155 Z-1.0000 F20.0
G1 X549.1712 Y-46.7420 Z-1.0000 F20.0
G1 X548.4337 Y-45.9396 Z-1.0000 F20.0
G1 X547.6665 Y-45.2126 Z-1.0000 F20.0
G1 X546.8758 Y-44.5637 Z-1.0000 F20.0
G1 X546.0669 Y-43.9943 Z-1.0000 F20.0
G1 X545.2445 Y-43.5048 Z-1.0000 F20.0
G1 X544.4125 Y-43.0947 Z-1.0000 F20.0
G1 X543.5737 Y-42.7629 Z-1.0000 F20.0
G1 X542.7304 Y-42.5081 Z-1.0000 F20.0
G1 X541.8838 Y-42.3290 Z-1.0000 F20.0
G1 X541.0348 Y-42.2246 Z-1.0000 F20.0
G1 X540.1835 Y-42.1940 Z-1.0000 F20.0
G1 X539.3298 Y-42.2371 Z-1.0000 F20.0
G1 X538.4733 Y-42.3543 Z-1.0000 F20.0
G1 X537.6132 Y-42.5466 Z-1.0000 F20.0
G1 X536.7490 Y-42.8157 Z-1.0000 F20.0
G1 X536.0448 Y-43.0918 Z-1.0000 F20.0
G0 Z6.0000
G0 Z6.0000
G0 X583.7871 Y-294.7576
G0 Z4.0000
G1 X583.7871 Y-294.7576 Z-1.0000 F20.0
G1 X584.1848 Y-295.3637 Z-1.0000 F20.0
G1 X578.1315 Y-298.6861 Z-1.0000 F20.0
G1 X583.7871 Y-294.7576 Z-1.0000 F20.0
G0 Z6.0000
G0 Z6.0000
G0 X263.1334 Y-293.2590
G0 Z4.0000
G1 X263.1334 Y-293.2590 Z-1.0000 F20.0
G1 X264.0916 Y-293.9448 Z-1.0000 F20.0
G1 X264.8027 Y-294.4571 Z-1.0000 F20.0
G1 X265.4921 Y-295.0134 Z-1.0000 F20.0
G1 X265.9851 Y-295.4996 Z-1.0000 F20.0
G1 X266.3497 Y-295.9624 Z-1.0000 F20.0
G1 X266.6165 Y-296.4231 Z-1.0000 F20.0
G1 X266.8007 Y-296.8925 Z-1.0000 F20.0
G1 X266.8901 Y-297.2531 Z-1.0000 F20.0
G1 X262.2424 Y-294.3477 Z-1.0000 F20.0
G1 X263.1334 Y-293.2590 Z-1.0000 F20.0
G0 Z6.0000
G0 Z6.0000
G0 X581.5803 Y-293.1788
G0 Z4.0000
G1 X581.5803 Y-293.1788 Z-1.0000 F20.0
G1 X581.4891 Y-293.6223 Z-1.0000 F20.0
G1 X581.3245 Y-294.0678 Z-1.0000 F20.0
G1 X581.0835 Y-294.5136 Z-1.0000 F20.0
G1 X580.7631 Y-294.9555 Z-1.0000 F20.0
G1 X580.3620 Y-295.3863 Z-1.0000 F20.0
G1 X579.8829 Y-295.7954 Z-1.0000 F20.0
G1 X579.3339 Y-296.1697 Z-1.0000 F20.0
G1 X578.7297 Y-296.4944 Z-1.0000 F20.0
G1 X578.0914 Y-296.7554 Z-1.0000 F20.0
G1 X577.4437 Y-296.9420 Z-1.0000 F20.0
G1 X576.8108 Y-297.0488 Z-1.0000 F20.0
G1 X576.3639 Y-297.0763 Z-1.0000 F20.0
G1 X575.9278 Y-297.0604 Z-1.0000 F20.0
G1 X581.5803 Y-293.1788 Z-1.0000 F20.0
G0 Z6.0000
G0 Z6.0000
G0 X256.5469 Y-292.2106
G0 Z4.0000
G1 X256.5469 Y-292.2106 Z-1.0000 F20.0
G1 X258.1081 Y-293.7735 Z-1.0000 F20.0
G1 X256.5469 Y-292.2106 Z-1.0000 F20.0
G0 Z6.0000
G0 Z6.0000
G0 X254.2323 Y-290.4160
G0 Z4.0000
G1 X254.2323 Y-290.4160 Z-1.0000 F20.0
G1 X255.7935 Y-291.9784 Z-1.0000 F20.0
G1 X254.2323 Y-290.4160 Z-1.0000 F20.0
G0 Z6.0000
G0 Z6.0000
G0 X251.9182 Y-288.6210
G0 Z4.0000
G1 X251.9182 Y-288.6210 Z-1.0000 F20.0
G1 X253.4789 Y-290.1839 Z-1.0000 F20.0
G1 X251.9182 Y-288.6210 Z-1.0000 F20.0
G0 Z6.0000
G0 Z6.0000
G0 X136.8008 Y-289.5781
G0 Z4.0000
G1 X136.8008 Y-289.5781 Z-1.0000 F20.0
G1 X141.6310 Y-289.5419 Z-1.0000 F20.0
G1 X145.6058 Y-289.4396 Z-1.0000 F20.0
G1 X149.0371 Y-289.2770 Z-1.0000 F20.0
G1 X152.0678 Y-289.0591 Z-1.0000 F20.0
G1 X154.8191 Y-288.7873 Z-1.0000 F20.0
G1 X157.3682 Y-288.4615 Z-1.0000 F20.0
G1 X159.7686 Y-288.0806 Z-1.0000 F20.0
G1 X162.0602 Y-287.6427 Z-1.0000 F20.0
G1 X164.2745 Y-287.1448 Z-1.0000 F20.0
G1 X166.4379 Y-286.5832 Z-1.0000 F20.0
G1 X168.5729 Y-285.9532 Z-1.0000 F20.0
G1 X170.7003 Y-285.2489 Z-1.0000 F20.0
G1 X172.8393 Y-284.4635 Z-1.0000 F20.0
G1 X175.0093 Y-283.5886 Z-1.0000 F20.0
G1 X177.2294 Y-282.6143 Z-1.0000 F20.0
G1 X179.5203 Y-281.5288 Z-1.0000 F20.0
G1 X181.3543 Y-280.6044 Z-1.0000 F20.0
G1 X184.3021 Y-279.0373 Z-1.0000 F20.0
G1 X187.0228 Y-277.5053 Z-1.0000 F20.0
G1 X189.4700 Y-276.0404 Z-1.0000 F20.0
G1 X191.6349 Y-274.6569 Z-1.0000 F20.0
G1 X193.5241 Y-273.3604 Z-1.0000 F20.0
G1 X195.1522 Y-272.1523 Z-1.0000 F20.0
G1 X196.5344 Y-271.0341 Z-1.0000 F20.0
G1 X197.7051 Y-269.9903 Z-1.0000 F20.0
G1 X198.6661 Y-269.0404 Z-1.0000 F20.0
G1 X200.7090 Y-266.9244 Z-1.0000 F20.0
G1 X204.3477 Y-263.1309 Z-1.0000 F20.0
G1 X206.9165 Y-260.5247 Z-1.0000 F20.0
G1 X208.7058 Y-258.7977 Z-1.0000 F20.0
G1 X209.9195 Y-257.7136 Z-1.0000 F20.0
G1 X210.7118 Y-257.0883 Z-1.0000 F20.0
G1 X211.2028 Y-256.7762 Z-1.0000 F20.0
G1 X211.3299 Y-256.7152 Z-1.0000 F20.0
G1 X211.4422 Y-256.6737 Z-1.0000 F20.0
G1 X210.9855 Y-257.5146 Z-1.0000 F20.0
G1 X210.3887 Y-258.4603 Z-1.0000 F20.0
G1 X209.6344 Y-259.5182 Z-1.0000 F20.0
G1 X208.7063 Y-260.6944 Z-1.0000 F20.0
G1 X207.5896 Y-261.9921 Z-1.0000 F20.0
G1 X206.2726 Y-263.4112 Z-1.0000 F20.0
G1 X204.7491 Y-264.9465 Z-1.0000 F20.0
G1 X203.0199 Y-266.5866 Z-1.0000 F20.0
G1 X201.0965 Y-268.3116 Z-1.0000 F20.0
G1 X199.0030 Y-270.0926 Z-1.0000 F20.0
G1 X196.7786 Y-271.8907 Z-1.0000 F20.0
G1 X194.4775 Y-273.6587 Z-1.0000 F20.0
G1 X192.1658 Y-275.3443 Z-1.0000 F20.0
G1 X189.9154 Y-276.8965 Z-1.0000 F20.0
G1 X187.7945 Y-278.2724 Z-1.0000 F20.0
G1 X185.8590 Y-279.4425 Z-1.0000 F20.0
G1 X184.1466 Y-280.3943 Z-1.0000 F20.0
G1 X182.6749 Y-281.1306 Z-1.0000 F20.0
G1 X181.7018 Y-281.5619 Z-1.0000 F20.0
G1 X177.0859 Y-283.4427 Z-1.0000 F20.0
G1 X173.5627 Y-284.8034 Z-1.0000 F20.0
G1 X170.6303 Y-285.8580 Z-1.0000 F20.0
G1 X168.0751 Y-286.6985 Z-1.0000 F20.0
G1 X165.7523 Y-287.3852 Z-1.0000 F20.0
G1 X163.5599 Y-287.9568 Z-1.0000 F20.0
G1 X161.4247 Y-288.4377 Z-1.0000 F20.0
G1 X159.2864 Y-288.8441 Z-1.0000 F20.0
G1 X157.0889 Y-289.1872 Z-1.0000 F20.0
G1 X154.7736 Y-289.4744 Z-1.0000 F20.0
G1 X152.2734 Y-289.7107 Z-1.0000 F20.0
G1 X149.5034 Y-289.8990 Z-1.0000 F20.0
G1 X146.3481 Y-290.0401 Z-1.0000 F20.0
G1 X142.6358 Y-290.1332 Z-1.0000 F20.0
G1 X139.8173 Y-290.1664 Z-1.0000 F20.0
G1 X136.8008 Y-290.1768 Z-1.0000 F20.0
G1 X136.8008 Y-289.5781 Z-1.0000 F20.0
G1 X136.8008 Y-289.5781 Z-1.0000 F20.0
G0 Z6.0000
G0 Z6.0000
G0 X136.2223 Y-289.5781
G0 Z4.0000
G1 X136.2223 Y-289.5781 Z-1.0000 F20.0
G1 X134.5197 Y-289.5416 Z-1.0000 F20.0
G1 X132.7623 Y-289.4315 Z-1.0000 F20.0
G1 X130.9498 Y-289.2455 Z-1.0000 F20.0
G1 X129.0821 Y-288.9812 Z-1.0000 F20.0
G1 X127.1597 Y-288.6360 Z-1.0000 F20.0
G1 X125.1837 Y-288.2077 Z-1.0000 F20.0
G1 X123.1555 Y-287.6942 Z-1.0000 F20.0
G1 X121.0774 Y-287.0935 Z-1.0000 F20.0
G1 X118.9526 Y-286.4041 Z-1.0000 F20.0
G1 X116.7847 Y-285.6248 Z-1.0000 F20.0
G1 X114.5788 Y-284.7551 Z-1.0000 F20.0
G1 X112.3406 Y-283.7951 Z-1.0000 F20.0
G1 X110.0773 Y-282.7458 Z-1.0000 F20.0
G1 X107.7968 Y-281.6091 Z-1.0000 F20.0
G1 X105.5088 Y-280.3881 Z-1.0000 F20.0
G1 X103.2236 Y-279.0868 Z-1.0000 F20.0
G1 X100.9531 Y-277.7110 Z-1.0000 F20.0
G1 X98.7098 Y-276.2674 Z-1.0000 F20.0
G1 X96.5072 Y-274.7643 Z-1.0000 F20.0
G1 X94.3593 Y-273.2113 Z-1.0000 F20.0
G1 X92.2801 Y-271.6191 Z-1.0000 F20.0
G1 X90.2835 Y-269.9993 Z-1.0000 F20.0
G1 X88.3824 Y-268.3643 Z-1.0000 F20.0
G1 X87.6255 Y-267.6852 Z-1.0000 F20.0
G1 X86.8852 Y-267.0042 Z-1.0000 F20.0
G1 X85.4735 Y-265.6393 Z-1.0000 F20.0
G1 X83.9693 Y-264.0826 Z-1.0000 F20.0
G1 X82.3885 Y-262.3407 Z-1.0000 F20.0
G1 X80.7512 Y-260.4270 Z-1.0000 F20.0
G1 X79.0806 Y-258.3611 Z-1.0000 F20.0
G1 X77.4016 Y-256.1677 Z-1.0000 F20.0
G1 X75.7394 Y-253.8751 Z-1.0000 F20.0
G1 X74.1177 Y-251.5130 Z-1.0000 F20.0
G1 X72.5579 Y-249.1109 Z-1.0000 F20.0
G1 X71.0779 Y-246.6966 Z-1.0000 F20.0
G1 X69.6920 Y-244.2950 Z-1.0000 F20.0
G1 X68.4105 Y-241.9272 Z-1.0000 F20.0
G1 X67.2404 Y-239.6111 Z-1.0000 F20.0
G1 X66.1857 Y-237.3606 Z-1.0000 F20.0
G1 X65.2478 Y-235.1864 Z-1.0000 F20.0
G1 X64.4260 Y-233.0964 Z-1.0000 F20.0
G1 X63.7180 Y-231.0957 Z-1.0000 F20.0
G1 X63.1203 Y-229.1875 Z-1.0000 F20.0
G1 X62.6285 Y-227.3732 Z-1.0000 F20.0
G1 X62.2379 Y-225.6528 Z-1.0000 F20.0
G1 X61.9432 Y-224.0251 Z-1.0000 F20.0
G1 X61.7389 Y-222.4880 Z-1.0000 F20.0
G1 X61.6200 Y-221.0388 Z-1.0000 F20.0
G1 X61.5897 Y-220.3047 Z-1.0000 F20.0
G1 X61.5812 Y-219.5811 Z-1.0000 F20.0
G1 X61.7899 Y-219.9885 Z-1.0000 F20.0
G1 X62.1672 Y-220.8961 Z-1.0000 F20.0
G1 X62.8153 Y-222.6500 Z-1.0000 F20.0
G1 X63.9144 Y-225.8272 Z-1.0000 F20.0
G1 X66.1531 Y-232.4680 Z-1.0000 F20.0
G1 X67.9180 Y-237.5967 Z-1.0000 F20.0
G1 X69.2665 Y-241.3258 Z-1.0000 F20.0
G1 X70.2894 Y-243.9608 Z-1.0000 F20.0
G1 X70.8708 Y-245.3424 Z-1.0000 F20.0
G1 X71.4099 Y-246.5112 Z-1.0000 F20.0
G1 X72.1780 Y-247.9974 Z-1.0000 F20.0
G1 X73.0641 Y-249.5547 Z-1.0000 F20.0
G1 X74.0711 Y-251.1791 Z-1.0000 F20.0
G1 X75.2003 Y-252.8639 Z-1.0000 F20.0
G1 X76.4501 Y-254.5999 Z-1.0000 F20.0
G1 X77.8159 Y-256.3740 Z-1.0000 F20.0
G1 X79.2885 Y-258.1697 Z-1.0000 F20.0
G1 X80.8541 Y-259.9659 Z-1.0000 F20.0
G1 X82.4931 Y-261.7377 Z-1.0000 F20.0
G1 X84.1802 Y-263.4564 Z-1.0000 F20.0
G1 X85.8851 Y-265.0913 Z-1.0000 F20.0
G1 X86.6482 Y-265.7907 Z-1.0000 F20.0
G1 X87.4063 Y-266.4655 Z-1.0000 F20.0
G1 X90.6018 Y-269.2320 Z-1.0000 F20.0
G1 X93.2300 Y-271.4201 Z-1.0000 F20.0
G1 X95.5249 Y-273.2350 Z-1.0000 F20.0
G1 X97.6287 Y-274.8024 Z-1.0000 F20.0
G1 X99.5935 Y-276.1719 Z-1.0000 F20.0
G1 X101.4624 Y-277.3828 Z-1.0000 F20.0
G1 X103.2655 Y-278.4620 Z-1.0000 F20.0
G1 X105.0228 Y-279.4270 Z-1.0000 F20.0
G1 X106.7488 Y-280.2900 Z-1.0000 F20.0
G1 X107.8457 Y-280.7946 Z-1.0000 F20.0
G1 X108.9601 Y-281.2722 Z-1.0000 F20.0
G1 X111.8358 Y-282.4881 Z-1.0000 F20.0
G1 X114.8203 Y-283.7636 Z-1.0000 F20.0
G1 X117.1935 Y-284.7202 Z-1.0000 F20.0
G1 X119.3908 Y-285.5240 Z-1.0000 F20.0
G1 X121.9716 Y-286.3649 Z-1.0000 F20.0
G1 X122.9471 Y-286.6284 Z-1.0000 F20.0
G1 X124.8455 Y-287.0663 Z-1.0000 F20.0
G1 X128.2148 Y-287.7774 Z-1.0000 F20.0
G1 X133.2774 Y-288.8276 Z-1.0000 F20.0
G1 X135.2883 Y-289.2855 Z-1.0000 F20.0
G1 X135.9046 Y-289.4540 Z-1.0000 F20.0
G1 X136.2221 Y-289.5783 Z-1.0000 F20.0
G1 X136.2223 Y-289.5781 Z-1.0000 F20.0
G0 Z6.0000
G0 Z6.0000
G0 X251.8953 Y-287.6298
G0 Z4.0000
G1 X251.8953 Y-287.6298 Z-1.0000 F20.0
G1 X251.4661 Y-287.4814 Z-1.0000 F20.0
G1 X251.0486 Y-287.2608 Z-1.0000 F20.0
G1 X250.6498 Y-286.9681 Z-1.0000 F20.0
G1 X250.2787 Y-286.6054 Z-1.0000 F20.0
G1 X249.9451 Y-286.1771 Z-1.0000 F20.0
G1 X249.6591 Y-285.6903 Z-1.0000 F20.0
G1 X249.4295 Y-285.1541 Z-1.0000 F20.0
G1 X249.2637 Y-284.5788 Z-1.0000 F20.0
G1 X249.2297 Y-284.4134 Z-1.0000 F20.0
G1 X249.2011 Y-284.2454 Z-1.0000 F20.0
G1 X251.8953 Y-287.6298 Z-1.0000 F20.0
G0 Z6.0000
G0 Z6.0000
G0 X248.7609 Y-283.2985
G0 Z4.0000
G1 X248.7609 Y-283.2985 Z-1.0000 F20.0
G1 X248.7231 Y-283.3748 Z-1.0000 F20.0
G1 X248.6050 Y-283.5473 Z-1.0000 F20.0
G1 X248.5204 Y-283.6095 Z-1.0000 F20.0
G1 X248.4734 Y-283.5954 Z-1.0000 F20.0
G1 X248.7609 Y-283.2985 Z-1.0000 F20.0
G0 Z6.0000
G0 Z6.0000
G0 X247.9943 Y-282.3476
G0 Z4.0000
G1 X247.9943 Y-282.3476 Z-1.0000 F20.0
G1 X247.9943 Y-281.2540 Z-1.0000 F20.0
G1 X247.9943 Y-282.3476 Z-1.0000 F20.0
G0 Z6.0000
G0 Z6.0000
G0 X247.4826 Y-278.2604
G0 Z4.0000
G1 X247.4826 Y-278.2604 Z-1.0000 F20.0
G1 X247.4667 Y-280.5508 Z-1.0000 F20.0
G1 X247.4826 Y-278.2604 Z-1.0000 F20.0
G0 Z6.0000
G0 Z6.0000
G0 X450.4125 Y-268.2959
G0 Z4.0000
G1 X450.4125 Y-268.2959 Z-1.0000 F20.0
G1 X471.2399 Y-268.0406 Z-1.0000 F20.0
G1 X479.3283 Y-268.7620 Z-1.0000 F20.0
G1 X479.3402 Y-285.3904 Z-1.0000 F20.0
G1 X468.9231 Y-285.4936 Z-1.0000 F20.0
G1 X407.3028 Y-285.3904 Z-1.0000 F20.0
G1 X347.9965 Y-286.1689 Z-1.0000 F20.0
G1 X347.4420 Y-276.4153 Z-1.0000 F20.0
G1 X347.4163 Y-273.4252 Z-1.0000 F20.0
G1 X347.4494 Y-272.4206 Z-1.0000 F20.0
G1 X347.5324 Y-271.7537 Z-1.0000 F20.0
G1 X347.6597 Y-271.2039 Z-1.0000 F20.0
G1 X347.8469 Y-270.4719 Z-1.0000 F20.0
G1 X347.9974 Y-269.4603 Z-1.0000 F20.0
G1 X450.4124 Y-268.2958 Z-1.0000 F20.0
G1 X450.4125 Y-268.2959 Z-1.0000 F20.0
G0 Z6.0000
G0 Z6.0000
G0 X246.7379 Y-275.8180
G0 Z4.0000
G1 X246.7379 Y-275.8180 Z-1.0000 F20.0
G1 X246.7736 Y-274.8669 Z-1.0000 F20.0
G1 X246.8885 Y-273.7624 Z-1.0000 F20.0
G1 X247.0866 Y-272.5654 Z-1.0000 F20.0
G1 X247.3604 Y-271.3599 Z-1.0000 F20.0
G1 X247.6923 Y-270.2297 Z-1.0000 F20.0
G1 X248.0605 Y-269.2358 Z-1.0000 F20.0
G1 X248.4448 Y-268.4088 Z-1.0000 F20.0
G1 X248.8282 Y-267.7551 Z-1.0000 F20.0
G1 X248.9392 Y-267.5943 Z-1.0000 F20.0
G1 X249.0525 Y-267.4424 Z-1.0000 F20.0
G1 X248.7218 Y-268.7457 Z-1.0000 F20.0
G1 X248.1207 Y-270.9163 Z-1.0000 F20.0
G1 X247.7382 Y-272.4520 Z-1.0000 F20.0
G1 X247.4965 Y-273.7040 Z-1.0000 F20.0
G1 X247.3619 Y-274.7899 Z-1.0000 F20.0
G1 X247.3281 Y-275.3038 Z-1.0000 F20.0
G1 X247.3164 Y-275.8180 Z-1.0000 F20.0
G1 X247.3164 Y-277.6130 Z-1.0000 F20.0
G1 X246.7379 Y-277.6130 Z-1.0000 F20.0
G1 X246.7379 Y-275.8180 Z-1.0000 F20.0
G0 Z6.0000
G0 Z6.0000
G0 X196.8143 Y-274.0526
G0 Z4.0000
G1 X196.8143 Y-274.0526 Z-1.0000 F20.0
G1 X197.0517 Y-275.7182 Z-1.0000 F20.0
G1 X198.6472 Y-276.0426 Z-1.0000 F20.0
G1 X191.9396 Y-280.9947 Z-1.0000 F20.0
G1 X190.1076 Y-278.5639 Z-1.0000 F20.0
G1 X196.8143 Y-274.0527 Z-1.0000 F20.0
G1 X196.8143 Y-274.0526 Z-1.0000 F20.0
G0 Z6.0000
G0 Z6.0000
G0 X231.9115 Y-260.1285
G0 Z4.0000
G1 X231.9115 Y-260.1285 Z-1.0000 F20.0
G1 X234.5869 Y-260.2766 Z-1.0000 F20.0
G1 X243.8538 Y-260.2634 Z-1.0000 F20.0
G1 X306.3350 Y-263.0066 Z-1.0000 F20.0
G1 X308.6809 Y-264.1547 Z-1.0000 F20.0
G1 X306.3174 Y-263.1861 Z-1.0000 F20.0
G1 X304.1147 Y-264.5092 Z-1.0000 F20.0
G1 X304.1970 Y-267.6614 Z-1.0000 F20.0
G1 X307.3322 Y-268.0589 Z-1.0000 F20.0
G1 X309.0571 Y-265.0883 Z-1.0000 F20.0
G1 X307.6476 Y-272.8072 Z-1.0000 F20.0
G1 X306.2771 Y-271.1296 Z-1.0000 F20.0
G1 X303.2302 Y-271.2147 Z-1.0000 F20.0
G1 X302.8458 Y-274.4564 Z-1.0000 F20.0
G1 X305.1796 Y-275.9178 Z-1.0000 F20.0
G1 X307.3485 Y-273.4807 Z-1.0000 F20.0
G1 X306.8990 Y-276.4128 Z-1.0000 F20.0
G1 X302.2749 Y-274.8318 Z-1.0000 F20.0
G1 X302.2937 Y-270.9674 Z-1.0000 F20.0
G1 X301.8254 Y-270.3982 Z-1.0000 F20.0
G1 X301.3172 Y-269.8921 Z-1.0000 F20.0
G1 X300.7654 Y-269.4432 Z-1.0000 F20.0
G1 X300.1649 Y-269.0465 Z-1.0000 F20.0
G1 X299.5086 Y-268.6984 Z-1.0000 F20.0
G1 X298.7871 Y-268.3963 Z-1.0000 F20.0
G1 X297.9877 Y-268.1388 Z-1.0000 F20.0
G1 X297.0931 Y-267.9251 Z-1.0000 F20.0
G1 X296.0777 Y-267.7548 Z-1.0000 F20.0
G1 X294.8999 Y-267.6278 Z-1.0000 F20.0
G1 X293.4790 Y-267.5425 Z-1.0000 F20.0
G1 X291.5990 Y-267.4921 Z-1.0000 F20.0
G1 X288.4199 Y-267.4195 Z-1.0000 F20.0
G1 X282.9687 Y-267.1780 Z-1.0000 F20.0
G1 X278.3344 Y-266.9833 Z-1.0000 F20.0
G1 X274.2607 Y-266.8671 Z-1.0000 F20.0
G1 X271.6183 Y-266.8439 Z-1.0000 F20.0
G1 X268.9695 Y-266.8150 Z-1.0000 F20.0
G1 X266.0541 Y-266.7138 Z-1.0000 F20.0
G1 X262.7565 Y-266.5314 Z-1.0000 F20.0
G1 X258.8152 Y-266.2481 Z-1.0000 F20.0
G1 X253.2608 Y-265.7954 Z-1.0000 F20.0
G1 X248.6817 Y-265.4407 Z-1.0000 F20.0
G1 X244.8577 Y-265.2051 Z-1.0000 F20.0
G1 X241.6964 Y-265.0823 Z-1.0000 F20.0
G1 X240.4514 Y-265.0578 Z-1.0000 F20.0
G1 X239.2159 Y-265.0493 Z-1.0000 F20.0
G1 X230.8883 Y-264.9984 Z-1.0000 F20.0
G1 X231.9113 Y-260.1287 Z-1.0000 F20.0
G1 X231.9115 Y-260.1285 Z-1.0000 F20.0
G0 Z6.0000
G0 Z6.0000
G0 X198.4214 Y-274.3247
G0 Z4.0000
G1 X198.4214 Y-274.3247 Z-1.0000 F20.0
G1 X198.3823 Y-274.4032 Z-1.0000 F20.0
G1 X198.2646 Y-274.5745 Z-1.0000 F20.0
G1 X198.1806 Y-274.6359 Z-1.0000 F20.0
G1 X198.1342 Y-274.6216 Z-1.0000 F20.0
G1 X198.4214 Y-274.3247 Z-1.0000 F20.0
G0 Z6.0000
G0 Z6.0000
G0 X304.8493 Y-272.2457
G0 Z4.0000
G1 X304.8493 Y-272.2457 Z-1.0000 F20.0
G1 X305.8547 Y-273.8218 Z-1.0000 F20.0
G1 X303.9053 Y-273.7797 Z-1.0000 F20.0
G1 X304.8493 Y-272.2457 Z-1.0000 F20.0
G0 Z6.0000
G0 Z6.0000
G0 X493.3137 Y-280.0128
G0 Z4.0000
G1 X493.3137 Y-280.0128 Z-1.0000 F20.0
G1 X493.2271 Y-282.9976 Z-1.0000 F20.0
G1 X480.5344 Y-285.5711 Z-1.0000 F20.0
G1 X480.5585 Y-278.8125 Z-1.0000 F20.0
G1 X481.0020 Y-269.2051 Z-1.0000 F20.0
G1 X481.6470 Y-269.2964 Z-1.0000 F20.0
G1 X493.8032 Y-271.0533 Z-1.0000 F20.0
G1 X493.3138 Y-280.0129 Z-1.0000 F20.0
G1 X493.3137 Y-280.0128 Z-1.0000 F20.0
G0 Z6.0000
G0 Z6.0000
G0 X219.4779 Y-269.8024
G0 Z4.0000
G1 X219.4779 Y-269.8024 Z-1.0000 F20.0
G1 X216.6182 Y-270.0563 Z-1.0000 F20.0
G1 X219.4779 Y-269.8024 Z-1.0000 F20.0
G0 Z6.0000
G0 Z6.0000
G0 X276.8737 Y-268.7602
G0 Z4.0000
G1 X276.8737 Y-268.7602 Z-1.0000 F20.0
G1 X283.1797 Y-269.3757 Z-1.0000 F20.0
G1 X268.3122 Y-295.0894 Z-1.0000 F20.0
G1 X263.4199 Y-291.3939 Z-1.0000 F20.0
G1 X276.8737 Y-268.7602 Z-1.0000 F20.0
G0 Z6.0000
G0 Z6.0000
G0 X220.4086 Y-269.5383
G0 Z4.0000
G1 X220.4086 Y-269.5383 Z-1.0000 F20.0
G1 X220.3706 Y-269.6149 Z-1.0000 F20.0
G1 X220.2527 Y-269.7874 Z-1.0000 F20.0
G1 X220.1682 Y-269.8496 Z-1.0000 F20.0
G1 X220.1215 Y-269.8356 Z-1.0000 F20.0
G1 X220.4086 Y-269.5383 Z-1.0000 F20.0
G0 Z6.0000
G0 Z6.0000
G0 X210.9133 Y-266.6900
G0 Z4.0000
G1 X210.9133 Y-266.6900 Z-1.0000 F20.0
G1 X211.9344 Y-265.2983 Z-1.0000 F20.0
G1 X213.5514 Y-263.2302 Z-1.0000 F20.0
G1 X215.1096 Y-261.3577 Z-1.0000 F20.0
G1 X216.4315 Y-259.8790 Z-1.0000 F20.0
G1 X217.4888 Y-258.7988 Z-1.0000 F20.0
G1 X218.3030 Y-258.0629 Z-1.0000 F20.0
G1 X218.9112 Y-257.6016 Z-1.0000 F20.0
G1 X219.3538 Y-257.3467 Z-1.0000 F20.0
G1 X219.4504 Y-257.3051 Z-1.0000 F20.0
G1 X219.5425 Y-257.2718 Z-1.0000 F20.0
G1 X219.3491 Y-257.9438 Z-1.0000 F20.0
G1 X219.1012 Y-258.5544 Z-1.0000 F20.0
G1 X218.7996 Y-259.1134 Z-1.0000 F20.0
G1 X218.4424 Y-259.6303 Z-1.0000 F20.0
G1 X218.0239 Y-260.1151 Z-1.0000 F20.0
G1 X217.5333 Y-260.5798 Z-1.0000 F20.0
G1 X216.9478 Y-261.0437 Z-1.0000 F20.0
G1 X216.2071 Y-261.5529 Z-1.0000 F20.0
G1 X215.1565 Y-262.2525 Z-1.0000 F20.0
G1 X214.6145 Y-262.6800 Z-1.0000 F20.0
G1 X214.2430 Y-263.0606 Z-1.0000 F20.0
G1 X213.9835 Y-263.4319 Z-1.0000 F20.0
G1 X213.8115 Y-263.8099 Z-1.0000 F20.0
G1 X213.7138 Y-264.2085 Z-1.0000 F20.0
G1 X213.6857 Y-264.6440 Z-1.0000 F20.0
G1 X213.7310 Y-265.1329 Z-1.0000 F20.0
G1 X213.8601 Y-265.6932 Z-1.0000 F20.0
G1 X214.0892 Y-266.3451 Z-1.0000 F20.0
G1 X214.4402 Y-267.1117 Z-1.0000 F20.0
G1 X214.9406 Y-268.0196 Z-1.0000 F20.0
G1 X215.4340 Y-268.8123 Z-1.0000 F20.0
G1 X216.0216 Y-269.6814 Z-1.0000 F20.0
G1 X210.9133 Y-266.6901 Z-1.0000 F20.0
G1 X210.9133 Y-266.6900 Z-1.0000 F20.0
G0 Z6.0000
G0 Z6.0000
G0 X493.2269 Y-269.2370
G0 Z4.0000
G1 X493.2269 Y-269.2370 Z-1.0000 F20.0
G1 X490.9621 Y-269.0832 Z-1.0000 F20.0
G1 X491.0815 Y-268.7662 Z-1.0000 F20.0
G1 X491.2309 Y-268.5612 Z-1.0000 F20.0
G1 X491.4106 Y-268.4319 Z-1.0000 F20.0
G1 X491.6330 Y-268.3590 Z-1.0000 F20.0
G1 X491.9250 Y-268.3381 Z-1.0000 F20.0
G1 X492.3417 Y-268.3776 Z-1.0000 F20.0
G1 X493.0680 Y-268.5042 Z-1.0000 F20.0
G1 X493.8105 Y-268.6097 Z-1.0000 F20.0
G1 X494.0925 Y-268.6310 Z-1.0000 F20.0
G1 X494.3844 Y-268.6388 Z-1.0000 F20.0
G1 X495.1046 Y-268.6058 Z-1.0000 F20.0
G1 X495.6150 Y-268.5209 Z-1.0000 F20.0
G1 X495.9686 Y-268.4016 Z-1.0000 F20.0
G1 X496.2153 Y-268.2592 Z-1.0000 F20.0
G1 X496.4333 Y-268.0863 Z-1.0000 F20.0
G1 X496.5744 Y-268.0248 Z-1.0000 F20.0
G1 X496.7517 Y-268.0373 Z-1.0000 F20.0
G1 X497.0492 Y-268.1487 Z-1.0000 F20.0
G1 X497.4265 Y-268.3406 Z-1.0000 F20.0
G1 X497.9551 Y-268.6388 Z-1.0000 F20.0
G1 X495.5578 Y-269.3442 Z-1.0000 F20.0
G1 X493.2269 Y-269.2370 Z-1.0000 F20.0
G0 Z6.0000
G0 Z6.0000
G0 X260.7232 Y-272.1260
G0 Z4.0000
G1 X260.7232 Y-272.1260 Z-1.0000 F20.0
G1 X260.8818 Y-271.4974 Z-1.0000 F20.0
G1 X261.1325 Y-270.8050 Z-1.0000 F20.0
G1 X261.4602 Y-270.1172 Z-1.0000 F20.0
G1 X261.8368 Y-269.4986 Z-1.0000 F20.0
G1 X262.2337 Y-268.9888 Z-1.0000 F20.0
G1 X262.6285 Y-268.6010 Z-1.0000 F20.0
G1 X263.0111 Y-268.3279 Z-1.0000 F20.0
G1 X263.4184 Y-268.1430 Z-1.0000 F20.0
G1 X263.2595 Y-268.7721 Z-1.0000 F20.0
G1 X263.0086 Y-269.4649 Z-1.0000 F20.0
G1 X262.6808 Y-270.1528 Z-1.0000 F20.0
G1 X262.3041 Y-270.7713 Z-1.0000 F20.0
G1 X261.9072 Y-271.2810 Z-1.0000 F20.0
G1 X261.5125 Y-271.6685 Z-1.0000 F20.0
G1 X261.1300 Y-271.9415 Z-1.0000 F20.0
G1 X260.7232 Y-272.1260 Z-1.0000 F20.0
G0 Z6.0000
G0 Z6.0000
G0 X251.9449 Y-275.2198
G0 Z4.0000
G1 X251.9449 Y-275.2198 Z-1.0000 F20.0
G1 X251.9807 Y-274.3757 Z-1.0000 F20.0
G1 X252.0921 Y-273.4682 Z-1.0000 F20.0
G1 X252.2808 Y-272.5271 Z-1.0000 F20.0
G1 X252.5433 Y-271.5887 Z-1.0000 F20.0
G1 X252.8705 Y-270.6898 Z-1.0000 F20.0
G1 X253.2495 Y-269.8619 Z-1.0000 F20.0
G1 X253.6662 Y-269.1272 Z-1.0000 F20.0
G1 X254.1073 Y-268.4975 Z-1.0000 F20.0
G1 X254.2316 Y-268.3430 Z-1.0000 F20.0
G1 X254.3589 Y-268.1943 Z-1.0000 F20.0
G1 X260.6242 Y-268.0264 Z-1.0000 F20.0
G1 X258.6602 Y-272.7951 Z-1.0000 F20.0
G1 X260.5004 Y-274.7496 Z-1.0000 F20.0
G1 X261.2118 Y-275.1059 Z-1.0000 F20.0
G1 X265.7497 Y-267.9675 Z-1.0000 F20.0
G1 X274.5006 Y-268.8032 Z-1.0000 F20.0
G1 X274.2810 Y-269.4709 Z-1.0000 F20.0
G1 X273.8594 Y-270.5096 Z-1.0000 F20.0
G1 X273.1746 Y-271.9971 Z-1.0000 F20.0
G1 X272.1929 Y-273.9517 Z-1.0000 F20.0
G1 X270.9367 Y-276.2873 Z-1.0000 F20.0
G1 X269.4968 Y-278.8079 Z-1.0000 F20.0
G1 X268.0046 Y-281.2705 Z-1.0000 F20.0
G1 X266.5808 Y-283.4776 Z-1.0000 F20.0
G1 X265.3112 Y-285.3113 Z-1.0000 F20.0
G1 X264.2249 Y-286.7550 Z-1.0000 F20.0
G1 X263.3213 Y-287.8392 Z-1.0000 F20.0
G1 X262.5862 Y-288.6137 Z-1.0000 F20.0
G1 X261.9988 Y-289.1338 Z-1.0000 F20.0
G1 X261.5361 Y-289.4538 Z-1.0000 F20.0
G1 X261.3390 Y-289.5567 Z-1.0000 F20.0
G1 X261.1535 Y-289.6295 Z-1.0000 F20.0
G1 X259.5248 Y-288.3446 Z-1.0000 F20.0
G1 X257.9817 Y-287.0674 Z-1.0000 F20.0
G1 X256.7687 Y-285.9732 Z-1.0000 F20.0
G1 X255.7711 Y-284.9740 Z-1.0000 F20.0
G1 X254.9338 Y-284.0285 Z-1.0000 F20.0
G1 X254.2322 Y-283.1223 Z-1.0000 F20.0
G1 X253.6458 Y-282.2422 Z-1.0000 F20.0
G1 X253.1594 Y-281.3776 Z-1.0000 F20.0
G1 X252.7630 Y-280.5208 Z-1.0000 F20.0
G1 X252.4492 Y-279.6654 Z-1.0000 F20.0
G1 X252.2132 Y-278.8059 Z-1.0000 F20.0
G1 X252.0517 Y-277.9373 Z-1.0000 F20.0
G1 X251.9634 Y-277.0547 Z-1.0000 F20.0
G1 X251.9449 Y-276.4161 Z-1.0000 F20.0
G1 X251.9449 Y-275.2198 Z-1.0000 F20.0
G1 X251.9449 Y-275.2198 Z-1.0000 F20.0
G0 Z6.0000
G0 Z6.0000
G0 X249.0522 Y-274.6216
G0 Z4.0000
G1 X249.0522 Y-274.6216 Z-1.0000 F20.0
G1 X249.0893 Y-273.3904 Z-1.0000 F20.0
G1 X249.1938 Y-272.3602 Z-1.0000 F20.0
G1 X249.3568 Y-271.4809 Z-1.0000 F20.0
G1 X249.5745 Y-270.7095 Z-1.0000 F20.0
G1 X249.8459 Y-270.0177 Z-1.0000 F20.0
G1 X250.1728 Y-269.3853 Z-1.0000 F20.0
G1 X250.5596 Y-268.7974 Z-1.0000 F20.0
G1 X251.0131 Y-268.2423 Z-1.0000 F20.0
G1 X251.3956 Y-267.8485 Z-1.0000 F20.0
G1 X251.8197 Y-267.4681 Z-1.0000 F20.0
G1 X251.7930 Y-268.1195 Z-1.0000 F20.0
G1 X251.6965 Y-268.7983 Z-1.0000 F20.0
G1 X251.5210 Y-269.5542 Z-1.0000 F20.0
G1 X251.2342 Y-270.5119 Z-1.0000 F20.0
G1 X250.7874 Y-271.9412 Z-1.0000 F20.0
G1 X250.5102 Y-273.0258 Z-1.0000 F20.0
G1 X250.3304 Y-274.0340 Z-1.0000 F20.0
G1 X250.2320 Y-275.0355 Z-1.0000 F20.0
G1 X250.2151 Y-275.4198 Z-1.0000 F20.0
G1 X250.2092 Y-275.8180 Z-1.0000 F20.0
G1 X250.2449 Y-277.0407 Z-1.0000 F20.0
G1 X250.3481 Y-278.1689 Z-1.0000 F20.0
G1 X250.5143 Y-279.2128 Z-1.0000 F20.0
G1 X250.7398 Y-280.1819 Z-1.0000 F20.0
G1 X251.0222 Y-281.0855 Z-1.0000 F20.0
G1 X251.3607 Y-281.9326 Z-1.0000 F20.0
G1 X251.7558 Y-282.7318 Z-1.0000 F20.0
G1 X252.2098 Y-283.4918 Z-1.0000 F20.0
G1 X252.7277 Y-284.2220 Z-1.0000 F20.0
G1 X253.3173 Y-284.9328 Z-1.0000 F20.0
G1 X253.9922 Y-285.6377 Z-1.0000 F20.0
G1 X254.7755 Y-286.3571 Z-1.0000 F20.0
G1 X255.7146 Y-287.1292 Z-1.0000 F20.0
G1 X256.9407 Y-288.0584 Z-1.0000 F20.0
G1 X258.4245 Y-289.1656 Z-1.0000 F20.0
G1 X259.5228 Y-290.0490 Z-1.0000 F20.0
G1 X260.3717 Y-290.8218 Z-1.0000 F20.0
G1 X261.0656 Y-291.5547 Z-1.0000 F20.0
G1 X261.7063 Y-292.3622 Z-1.0000 F20.0
G1 X261.4032 Y-292.5434 Z-1.0000 F20.0
G1 X261.0706 Y-292.6588 Z-1.0000 F20.0
G1 X260.7026 Y-292.7098 Z-1.0000 F20.0
G1 X260.2923 Y-292.6932 Z-1.0000 F20.0
G1 X259.8321 Y-292.6014 Z-1.0000 F20.0
G1 X259.3152 Y-292.4234 Z-1.0000 F20.0
G1 X258.7362 Y-292.1464 Z-1.0000 F20.0
G1 X258.0917 Y-291.7568 Z-1.0000 F20.0
G1 X257.3819 Y-291.2421 Z-1.0000 F20.0
G1 X256.6111 Y-290.5927 Z-1.0000 F20.0
G1 X255.7888 Y-289.8045 Z-1.0000 F20.0
G1 X254.9307 Y-288.8807 Z-1.0000 F20.0
G1 X254.0581 Y-287.8340 Z-1.0000 F20.0
G1 X253.1967 Y-286.6867 Z-1.0000 F20.0
G1 X252.3740 Y-285.4690 Z-1.0000 F20.0
G1 X251.6155 Y-284.2158 Z-1.0000 F20.0
G1 X250.9422 Y-282.9621 Z-1.0000 F20.0
G1 X250.3683 Y-281.7389 Z-1.0000 F20.0
G1 X249.9010 Y-280.5707 Z-1.0000 F20.0
G1 X249.5413 Y-279.4748 Z-1.0000 F20.0
G1 X249.2855 Y-278.4616 Z-1.0000 F20.0
G1 X249.1269 Y-277.5355 Z-1.0000 F20.0
G1 X249.0522 Y-276.4162 Z-1.0000 F20.0
G1 X249.0522 Y-274.6216 Z-1.0000 F20.0
G1 X249.0522 Y-274.6216 Z-1.0000 F20.0
G0 Z6.0000
G0 Z6.0000
G0 X222.7424 Y-266.8256
G0 Z4.0000
G1 X222.7424 Y-266.8256 Z-1.0000 F20.0
G1 X221.2750 Y-269.0624 Z-1.0000 F20.0
G1 X222.7424 Y-266.8256 Z-1.0000 F20.0
G0 Z6.0000
G0 Z6.0000
G0 X501.2624 Y-268.0078
G0 Z4.0000
G1 X501.2624 Y-268.0078 Z-1.0000 F20.0
G1 X498.4031 Y-268.2617 Z-1.0000 F20.0
G1 X501.2624 Y-268.0078 Z-1.0000 F20.0
G0 Z6.0000
G0 Z6.0000
G0 X221.6606 Y-257.1305
G0 Z4.0000
G1 X221.6606 Y-257.1305 Z-1.0000 F20.0
G1 X224.1714 Y-257.2825 Z-1.0000 F20.0
G1 X225.9075 Y-257.2720 Z-1.0000 F20.0
G1 X228.7899 Y-257.3234 Z-1.0000 F20.0
G1 X220.9655 Y-266.9347 Z-1.0000 F20.0
G1 X220.8408 Y-263.2929 Z-1.0000 F20.0
G1 X216.1332 Y-262.9911 Z-1.0000 F20.0
G1 X215.6875 Y-266.0787 Z-1.0000 F20.0
G1 X216.7117 Y-267.9450 Z-1.0000 F20.0
G1 X220.6441 Y-267.7190 Z-1.0000 F20.0
G1 X216.8459 Y-268.8166 Z-1.0000 F20.0
G1 X214.7983 Y-266.3623 Z-1.0000 F20.0
G1 X215.6031 Y-262.7430 Z-1.0000 F20.0
G1 X219.0970 Y-261.6153 Z-1.0000 F20.0
G1 X221.6606 Y-257.1306 Z-1.0000 F20.0
G1 X221.6606 Y-257.1305 Z-1.0000 F20.0
G0 Z6.0000
G0 Z6.0000
G0 X309.9306 Y-263.2387
G0 Z4.0000
G1 X309.9306 Y-263.2387 Z-1.0000 F20.0
G1 X314.3870 Y-263.2949 Z-1.0000 F20.0
G1 X312.0930 Y-265.7254 Z-1.0000 F20.0
G1 X313.3264 Y-267.9462 Z-1.0000 F20.0
G1 X316.3828 Y-267.8581 Z-1.0000 F20.0
G1 X316.7672 Y-264.6163 Z-1.0000 F20.0
G1 X315.0170 Y-263.4868 Z-1.0000 F20.0
G1 X317.3273 Y-263.2263 Z-1.0000 F20.0
G1 X317.3273 Y-265.0492 Z-1.0000 F20.0
G1 X317.2669 Y-267.2922 Z-1.0000 F20.0
G1 X316.0348 Y-268.4988 Z-1.0000 F20.0
G1 X313.8565 Y-268.6645 Z-1.0000 F20.0
G1 X312.6986 Y-268.6388 Z-1.0000 F20.0
G1 X310.5477 Y-268.5285 Z-1.0000 F20.0
G1 X309.9297 Y-263.2387 Z-1.0000 F20.0
G1 X309.9306 Y-263.2387 Z-1.0000 F20.0
G0 Z6.0000
G0 Z6.0000
G0 X409.9071 Y-266.8659
G0 Z4.0000
G1 X409.9071 Y-266.8659 Z-1.0000 F20.0
G1 X408.1971 Y-266.7405 Z-1.0000 F20.0
G1 X408.2186 Y-265.1511 Z-1.0000 F20.0
G1 X409.9053 Y-265.0275 Z-1.0000 F20.0
G1 X411.5450 Y-265.0939 Z-1.0000 F20.0
G1 X411.6174 Y-266.7414 Z-1.0000 F20.0
G1 X409.9071 Y-266.8659 Z-1.0000 F20.0
G0 Z6.0000
G0 Z6.0000
G0 X405.2783 Y-266.8659
G0 Z4.0000
G1 X405.2783 Y-266.8659 Z-1.0000 F20.0
G1 X403.5684 Y-266.7405 Z-1.0000 F20.0
G1 X403.5893 Y-265.1511 Z-1.0000 F20.0
G1 X405.2765 Y-265.0275 Z-1.0000 F20.0
G1 X406.9161 Y-265.0939 Z-1.0000 F20.0
G1 X406.9885 Y-266.7414 Z-1.0000 F20.0
G1 X405.2783 Y-266.8659 Z-1.0000 F20.0
G0 Z6.0000
G0 Z6.0000
G0 X207.8017 Y-263.9897
G0 Z4.0000
G1 X207.8017 Y-263.9897 Z-1.0000 F20.0
G1 X209.3985 Y-266.1454 Z-1.0000 F20.0
G1 X200.2302 Y-275.0948 Z-1.0000 F20.0
G1 X198.4461 Y-272.6843 Z-1.0000 F20.0
G1 X207.8017 Y-263.9898 Z-1.0000 F20.0
G1 X207.8017 Y-263.9897 Z-1.0000 F20.0
G0 Z6.0000
G0 Z6.0000
G0 X314.4843 Y-266.8110
G0 Z4.0000
G1 X314.4843 Y-266.8110 Z-1.0000 F20.0
G1 X313.7931 Y-265.2278 Z-1.0000 F20.0
G1 X315.5621 Y-265.7059 Z-1.0000 F20.0
G1 X314.4843 Y-266.8110 Z-1.0000 F20.0
G0 Z6.0000
G0 Z6.0000
G0 X306.8519 Y-266.7954
G0 Z4.0000
G1 X306.8519 Y-266.7954 Z-1.0000 F20.0
G1 X305.2067 Y-265.7598 Z-1.0000 F20.0
G1 X306.7173 Y-264.9573 Z-1.0000 F20.0
G1 X306.8519 Y-266.7954 Z-1.0000 F20.0
G1 X306.8519 Y-266.7954 Z-1.0000 F20.0
G0 Z6.0000
G0 Z6.0000
G0 X217.7798 Y-266.9717
G0 Z4.0000
G1 X217.7798 Y-266.9717 Z-1.0000 F20.0
G1 X216.6484 Y-264.9756 Z-1.0000 F20.0
G1 X219.3920 Y-264.3220 Z-1.0000 F20.0
G1 X219.3041 Y-266.4728 Z-1.0000 F20.0
G1 X217.7798 Y-266.9717 Z-1.0000 F20.0
G0 Z6.0000
G0 Z6.0000
G0 X209.1004 Y-263.4938
G0 Z4.0000
G1 X209.1004 Y-263.4938 Z-1.0000 F20.0
G1 X210.6616 Y-265.0562 Z-1.0000 F20.0
G1 X209.1004 Y-263.4938 Z-1.0000 F20.0
G0 Z6.0000
G0 Z6.0000
G0 X451.5857 Y-260.7505
G0 Z4.0000
G1 X451.5857 Y-260.7505 Z-1.0000 F20.0
G1 X452.9183 Y-259.6578 Z-1.0000 F20.0
G1 X454.0333 Y-258.6532 Z-1.0000 F20.0
G1 X454.9618 Y-257.7227 Z-1.0000 F20.0
G1 X455.7307 Y-256.8534 Z-1.0000 F20.0
G1 X456.3630 Y-256.0333 Z-1.0000 F20.0
G1 X456.8784 Y-255.2507 Z-1.0000 F20.0
G1 X457.2934 Y-254.4936 Z-1.0000 F20.0
G1 X457.6218 Y-253.7493 Z-1.0000 F20.0
G1 X457.8749 Y-253.0032 Z-1.0000 F20.0
G1 X458.0615 Y-252.2369 Z-1.0000 F20.0
G1 X458.1883 Y-251.4242 Z-1.0000 F20.0
G1 X458.2603 Y-250.5214 Z-1.0000 F20.0
G1 X458.2816 Y-249.4328 Z-1.0000 F20.0
G1 X458.2608 Y-247.7035 Z-1.0000 F20.0
G1 X458.2762 Y-246.2682 Z-1.0000 F20.0
G1 X458.3592 Y-245.0107 Z-1.0000 F20.0
G1 X458.5141 Y-243.8365 Z-1.0000 F20.0
G1 X458.7435 Y-242.6974 Z-1.0000 F20.0
G1 X459.0509 Y-241.5651 Z-1.0000 F20.0
G1 X459.6445 Y-239.8985 Z-1.0000 F20.0
G1 X460.0993 Y-238.8720 Z-1.0000 F20.0
G1 X460.6090 Y-237.8982 Z-1.0000 F20.0
G1 X461.1729 Y-236.9754 Z-1.0000 F20.0
G1 X461.7905 Y-236.1023 Z-1.0000 F20.0
G1 X462.4616 Y-235.2779 Z-1.0000 F20.0
G1 X463.1863 Y-234.5014 Z-1.0000 F20.0
G1 X463.9648 Y-233.7726 Z-1.0000 F20.0
G1 X464.7976 Y-233.0916 Z-1.0000 F20.0
G1 X465.6851 Y-232.4587 Z-1.0000 F20.0
G1 X466.6277 Y-231.8750 Z-1.0000 F20.0
G1 X467.6257 Y-231.3418 Z-1.0000 F20.0
G1 X468.6790 Y-230.8607 Z-1.0000 F20.0
G1 X469.7872 Y-230.4338 Z-1.0000 F20.0
G1 X470.9493 Y-230.0635 Z-1.0000 F20.0
G1 X472.1637 Y-229.7522 Z-1.0000 F20.0
G1 X473.4277 Y-229.5026 Z-1.0000 F20.0
G1 X474.7378 Y-229.3175 Z-1.0000 F20.0
G1 X476.0893 Y-229.1995 Z-1.0000 F20.0
G1 X477.4763 Y-229.1509 Z-1.0000 F20.0
G1 X478.1831 Y-229.1532 Z-1.0000 F20.0
G1 X504.7132 Y-229.8795 Z-1.0000 F20.0
G1 X504.1719 Y-232.0587 Z-1.0000 F20.0
G1 X506.2555 Y-230.7085 Z-1.0000 F20.0
G1 X506.3383 Y-231.5428 Z-1.0000 F20.0
G1 X506.3522 Y-232.4139 Z-1.0000 F20.0
G1 X506.2944 Y-233.3248 Z-1.0000 F20.0
G1 X506.1615 Y-234.2784 Z-1.0000 F20.0
G1 X505.9491 Y-235.2774 Z-1.0000 F20.0
G1 X505.6527 Y-236.3243 Z-1.0000 F20.0
G1 X505.2670 Y-237.4207 Z-1.0000 F20.0
G1 X504.7868 Y-238.5682 Z-1.0000 F20.0
G1 X504.2067 Y-239.7671 Z-1.0000 F20.0
G1 X503.5217 Y-241.0170 Z-1.0000 F20.0
G1 X502.7276 Y-242.3162 Z-1.0000 F20.0
G1 X501.8208 Y-243.6617 Z-1.0000 F20.0
G1 X500.7996 Y-245.0483 Z-1.0000 F20.0
G1 X499.6643 Y-246.4688 Z-1.0000 F20.0
G1 X498.4179 Y-247.9134 Z-1.0000 F20.0
G1 X497.0674 Y-249.3693 Z-1.0000 F20.0
G1 X495.6239 Y-250.8203 Z-1.0000 F20.0
G1 X494.1039 Y-252.2470 Z-1.0000 F20.0
G1 X492.5297 Y-253.6267 Z-1.0000 F20.0
G1 X490.9290 Y-254.9350 Z-1.0000 F20.0
G1 X489.3340 Y-256.1467 Z-1.0000 F20.0
G1 X487.7793 Y-257.2383 Z-1.0000 F20.0
G1 X486.2990 Y-258.1906 Z-1.0000 F20.0
G1 X484.9234 Y-258.9910 Z-1.0000 F20.0
G1 X483.4602 Y-259.7367 Z-1.0000 F20.0
G1 X482.5202 Y-260.1359 Z-1.0000 F20.0
G1 X481.4073 Y-260.5292 Z-1.0000 F20.0
G1 X480.1012 Y-260.9134 Z-1.0000 F20.0
G1 X478.5805 Y-261.2850 Z-1.0000 F20.0
G1 X476.8230 Y-261.6398 Z-1.0000 F20.0
G1 X474.8055 Y-261.9735 Z-1.0000 F20.0
G1 X472.5041 Y-262.2813 Z-1.0000 F20.0
G1 X469.8942 Y-262.5584 Z-1.0000 F20.0
G1 X466.9504 Y-262.7997 Z-1.0000 F20.0
G1 X463.6465 Y-262.9999 Z-1.0000 F20.0
G1 X459.9542 Y-263.1542 Z-1.0000 F20.0
G1 X455.8399 Y-263.2580 Z-1.0000 F20.0
G1 X451.2538 Y-263.3076 Z-1.0000 F20.0
G1 X446.0866 Y-263.3019 Z-1.0000 F20.0
G1 X442.4918 Y-263.2732 Z-1.0000 F20.0
G1 X439.4066 Y-263.2457 Z-1.0000 F20.0
G1 X433.4238 Y-263.1720 Z-1.0000 F20.0
G1 X423.5403 Y-262.9948 Z-1.0000 F20.0
G1 X415.5865 Y-262.8809 Z-1.0000 F20.0
G1 X409.1634 Y-262.8533 Z-1.0000 F20.0
G1 X403.8505 Y-262.9023 Z-1.0000 F20.0
G1 X399.3062 Y-263.0179 Z-1.0000 F20.0
G1 X395.3605 Y-263.1925 Z-1.0000 F20.0
G1 X391.0740 Y-263.4880 Z-1.0000 F20.0
G1 X388.8810 Y-263.6382 Z-1.0000 F20.0
G1 X385.4562 Y-263.7970 Z-1.0000 F20.0
G1 X380.7084 Y-263.9422 Z-1.0000 F20.0
G1 X374.9069 Y-264.0451 Z-1.0000 F20.0
G1 X368.6833 Y-264.0808 Z-1.0000 F20.0
G1 X362.7510 Y-264.0405 Z-1.0000 F20.0
G1 X357.6455 Y-263.9329 Z-1.0000 F20.0
G1 X353.5280 Y-263.7750 Z-1.0000 F20.0
G1 X350.3632 Y-263.5842 Z-1.0000 F20.0
G1 X348.0369 Y-263.3760 Z-1.0000 F20.0
G1 X346.4059 Y-263.1633 Z-1.0000 F20.0
G1 X346.0792 Y-263.1090 Z-1.0000 F20.0
G1 X345.7744 Y-263.0529 Z-1.0000 F20.0
G1 X345.3458 Y-261.3518 Z-1.0000 F20.0
G1 X356.6269 Y-263.0635 Z-1.0000 F20.0
G1 X429.6158 Y-262.6559 Z-1.0000 F20.0
G1 X455.6753 Y-261.9788 Z-1.0000 F20.0
G1 X455.6851 Y-261.0510 Z-1.0000 F20.0
G1 X451.5856 Y-260.7505 Z-1.0000 F20.0
G1 X451.5857 Y-260.7505 Z-1.0000 F20.0
G0 Z6.0000
G0 Z6.0000
G0 X208.6482 Y-262.5535
G0 Z4.0000
G1 X208.6482 Y-262.5535 Z-1.0000 F20.0
G1 X209.4034 Y-261.4744 Z-1.0000 F20.0
G1 X210.1808 Y-260.4982 Z-1.0000 F20.0
G1 X210.9607 Y-259.6416 Z-1.0000 F20.0
G1 X211.7310 Y-258.9081 Z-1.0000 F20.0
G1 X212.4859 Y-258.2930 Z-1.0000 F20.0
G1 X213.2226 Y-257.7892 Z-1.0000 F20.0
G1 X213.9405 Y-257.3885 Z-1.0000 F20.0
G1 X214.6402 Y-257.0831 Z-1.0000 F20.0
G1 X215.3234 Y-256.8657 Z-1.0000 F20.0
G1 X215.9928 Y-256.7306 Z-1.0000 F20.0
G1 X216.6496 Y-256.6735 Z-1.0000 F20.0
G1 X211.8370 Y-263.7619 Z-1.0000 F20.0
G1 X210.1357 Y-262.2119 Z-1.0000 F20.0
G1 X208.6482 Y-262.5536 Z-1.0000 F20.0
G1 X208.6482 Y-262.5535 Z-1.0000 F20.0
G0 Z6.0000
G0 Z6.0000
G0 X412.7994 Y-266.8441
G0 Z4.0000
G1 X412.7994 Y-266.8441 Z-1.0000 F20.0
G1 X412.8886 Y-266.3402 Z-1.0000 F20.0
G1 X413.0295 Y-265.9407 Z-1.0000 F20.0
G1 X413.2153 Y-265.6232 Z-1.0000 F20.0
G1 X413.4447 Y-265.3702 Z-1.0000 F20.0
G1 X413.7223 Y-265.1697 Z-1.0000 F20.0
G1 X414.0590 Y-265.0148 Z-1.0000 F20.0
G1 X414.4723 Y-264.9034 Z-1.0000 F20.0
G1 X414.9894 Y-264.8378 Z-1.0000 F20.0
G1 X415.6567 Y-264.8236 Z-1.0000 F20.0
G1 X416.5762 Y-264.8705 Z-1.0000 F20.0
G1 X418.2661 Y-265.0061 Z-1.0000 F20.0
G1 X419.0042 Y-265.0474 Z-1.0000 F20.0
G1 X419.7590 Y-265.0615 Z-1.0000 F20.0
G1 X421.1818 Y-265.0220 Z-1.0000 F20.0
G1 X422.4843 Y-264.9221 Z-1.0000 F20.0
G1 X423.9204 Y-264.7530 Z-1.0000 F20.0
G1 X425.2110 Y-264.5933 Z-1.0000 F20.0
G1 X426.6650 Y-264.4584 Z-1.0000 F20.0
G1 X428.5969 Y-264.3563 Z-1.0000 F20.0
G1 X430.9136 Y-264.3033 Z-1.0000 F20.0
G1 X433.7660 Y-264.3047 Z-1.0000 F20.0
G1 X437.5782 Y-264.3664 Z-1.0000 F20.0
G1 X443.4658 Y-264.4511 Z-1.0000 F20.0
G1 X460.8310 Y-264.4573 Z-1.0000 F20.0
G1 X462.4975 Y-264.4284 Z-1.0000 F20.0
G1 X464.4837 Y-264.3259 Z-1.0000 F20.0
G1 X466.9620 Y-264.1337 Z-1.0000 F20.0
G1 X470.8265 Y-263.7856 Z-1.0000 F20.0
G1 X473.3021 Y-263.5990 Z-1.0000 F20.0
G1 X474.3325 Y-263.5482 Z-1.0000 F20.0
G1 X475.3055 Y-263.5250 Z-1.0000 F20.0
G1 X476.1947 Y-263.4821 Z-1.0000 F20.0
G1 X477.4249 Y-263.3481 Z-1.0000 F20.0
G1 X479.0463 Y-263.0968 Z-1.0000 F20.0
G1 X481.0789 Y-262.7072 Z-1.0000 F20.0
G1 X483.4916 Y-262.1701 Z-1.0000 F20.0
G1 X486.1862 Y-261.4953 Z-1.0000 F20.0
G1 X489.0031 Y-260.7144 Z-1.0000 F20.0
G1 X491.7555 Y-259.8754 Z-1.0000 F20.0
G1 X494.2792 Y-259.0297 Z-1.0000 F20.0
G1 X496.4667 Y-258.2197 Z-1.0000 F20.0
G1 X498.2681 Y-257.4757 Z-1.0000 F20.0
G1 X499.6861 Y-256.8130 Z-1.0000 F20.0
G1 X500.5054 Y-256.3797 Z-1.0000 F20.0
G1 X501.2121 Y-255.9559 Z-1.0000 F20.0
G1 X503.4699 Y-254.4527 Z-1.0000 F20.0
G1 X505.2695 Y-253.1707 Z-1.0000 F20.0
G1 X506.7361 Y-252.0401 Z-1.0000 F20.0
G1 X507.9610 Y-251.0077 Z-1.0000 F20.0
G1 X509.0140 Y-250.0290 Z-1.0000 F20.0
G1 X509.9534 Y-249.0606 Z-1.0000 F20.0
G1 X510.8346 Y-248.0522 Z-1.0000 F20.0
G1 X511.7245 Y-246.9292 Z-1.0000 F20.0
G1 X512.7400 Y-245.5396 Z-1.0000 F20.0
G1 X514.2788 Y-243.3371 Z-1.0000 F20.0
G1 X515.9307 Y-241.0132 Z-1.0000 F20.0
G1 X516.9505 Y-239.6353 Z-1.0000 F20.0
G1 X518.1071 Y-238.1271 Z-1.0000 F20.0
G1 X518.1383 Y-240.8803 Z-1.0000 F20.0
G1 X518.2491 Y-245.4816 Z-1.0000 F20.0
G1 X518.3393 Y-249.5452 Z-1.0000 F20.0
G1 X518.3703 Y-253.2949 Z-1.0000 F20.0
G1 X518.3266 Y-256.0868 Z-1.0000 F20.0
G1 X518.2250 Y-258.1976 Z-1.0000 F20.0
G1 X518.0952 Y-259.6527 Z-1.0000 F20.0
G1 X518.0076 Y-260.1076 Z-1.0000 F20.0
G1 X517.8454 Y-260.5697 Z-1.0000 F20.0
G1 X517.6028 Y-261.0426 Z-1.0000 F20.0
G1 X517.2721 Y-261.5289 Z-1.0000 F20.0
G1 X516.8440 Y-262.0298 Z-1.0000 F20.0
G1 X516.3085 Y-262.5450 Z-1.0000 F20.0
G1 X515.6563 Y-263.0726 Z-1.0000 F20.0
G1 X514.8796 Y-263.6084 Z-1.0000 F20.0
G1 X513.9743 Y-264.1459 Z-1.0000 F20.0
G1 X512.9427 Y-264.6754 Z-1.0000 F20.0
G1 X511.7965 Y-265.1838 Z-1.0000 F20.0
G1 X510.5605 Y-265.6546 Z-1.0000 F20.0
G1 X509.2757 Y-266.0685 Z-1.0000 F20.0
G1 X507.9989 Y-266.4057 Z-1.0000 F20.0
G1 X506.7970 Y-266.6503 Z-1.0000 F20.0
G1 X505.7328 Y-266.7951 Z-1.0000 F20.0
G1 X504.7991 Y-266.8443 Z-1.0000 F20.0
G1 X479.3584 Y-266.8443 Z-1.0000 F20.0
G1 X472.4100 Y-266.1278 Z-1.0000 F20.0
G1 X450.4092 Y-266.2461 Z-1.0000 F20.0
G1 X412.7996 Y-266.8443 Z-1.0000 F20.0
G1 X412.7994 Y-266.8441 Z-1.0000 F20.0
G0 Z6.0000
G0 Z6.0000
G0 X290.1334 Y-260.8613
G0 Z4.0000
G1 X290.1334 Y-260.8613 Z-1.0000 F20.0
G1 X287.8685 Y-260.7076 Z-1.0000 F20.0
G1 X288.2051 Y-260.1523 Z-1.0000 F20.0
G1 X288.4801 Y-259.8244 Z-1.0000 F20.0
G1 X288.7187 Y-259.6437 Z-1.0000 F20.0
G1 X288.9383 Y-259.5631 Z-1.0000 F20.0
G1 X289.1603 Y-259.5560 Z-1.0000 F20.0
G1 X289.4116 Y-259.6191 Z-1.0000 F20.0
G1 X289.7352 Y-259.7728 Z-1.0000 F20.0
G1 X290.2543 Y-260.0885 Z-1.0000 F20.0
G1 X290.4748 Y-260.2249 Z-1.0000 F20.0
G1 X290.7119 Y-260.3655 Z-1.0000 F20.0
G1 X294.1831 Y-260.2693 Z-1.0000 F20.0
G1 X300.5483 Y-260.2631 Z-1.0000 F20.0
G1 X300.5483 Y-260.8613 Z-1.0000 F20.0
G1 X290.1334 Y-260.8613 Z-1.0000 F20.0
G0 Z6.0000
G0 Z6.0000
G0 X301.8546 Y-260.1094
G0 Z4.0000
G1 X301.8546 Y-260.1094 Z-1.0000 F20.0
G1 X302.1354 Y-259.6757 Z-1.0000 F20.0
G1 X302.4986 Y-259.2469 Z-1.0000 F20.0
G1 X302.9499 Y-258.8252 Z-1.0000 F20.0
G1 X303.4942 Y-258.4146 Z-1.0000 F20.0
G1 X304.1332 Y-258.0222 Z-1.0000 F20.0
G1 X304.8639 Y-257.6572 Z-1.0000 F20.0
G1 X305.6751 Y-257.3316 Z-1.0000 F20.0
G1 X306.5452 Y-257.0589 Z-1.0000 F20.0
G1 X307.4412 Y-256.8525 Z-1.0000 F20.0
G1 X308.3206 Y-256.7228 Z-1.0000 F20.0
G1 X309.2277 Y-256.6735 Z-1.0000 F20.0
G1 X310.3848 Y-256.6735 Z-1.0000 F20.0
G1 X311.4004 Y-256.7120 Z-1.0000 F20.0
G1 X312.4690 Y-256.8299 Z-1.0000 F20.0
G1 X313.4839 Y-257.0190 Z-1.0000 F20.0
G1 X314.3887 Y-257.2644 Z-1.0000 F20.0
G1 X315.1684 Y-257.5533 Z-1.0000 F20.0
G1 X315.8234 Y-257.8754 Z-1.0000 F20.0
G1 X316.3602 Y-258.2221 Z-1.0000 F20.0
G1 X316.7899 Y-258.5878 Z-1.0000 F20.0
G1 X317.1244 Y-258.9695 Z-1.0000 F20.0
G1 X317.3741 Y-259.3669 Z-1.0000 F20.0
G1 X317.5472 Y-259.7820 Z-1.0000 F20.0
G1 X317.6482 Y-260.2185 Z-1.0000 F20.0
G1 X317.6784 Y-260.6817 Z-1.0000 F20.0
G1 X317.6351 Y-261.1779 Z-1.0000 F20.0
G1 X317.5893 Y-261.4174 Z-1.0000 F20.0
G1 X317.5265 Y-261.6646 Z-1.0000 F20.0
G1 X301.8546 Y-260.1094 Z-1.0000 F20.0
G0 Z6.0000
G0 Z6.0000
G0 X282.0179 Y-259.5648
G0 Z4.0000
G1 X282.0179 Y-259.5648 Z-1.0000 F20.0
G1 X284.9256 Y-259.6645 Z-1.0000 F20.0
G1 X287.1939 Y-259.7318 Z-1.0000 F20.0
G1 X285.4952 Y-260.9468 Z-1.0000 F20.0
G1 X279.6699 Y-259.9330 Z-1.0000 F20.0
G1 X282.0179 Y-259.5648 Z-1.0000 F20.0
G1 X282.0179 Y-259.5648 Z-1.0000 F20.0
G0 Z6.0000
G0 Z6.0000
G0 X269.3034 Y-260.2631
G0 Z4.0000
G1 X269.3034 Y-260.2631 Z-1.0000 F20.0
G1 X269.3034 Y-259.0667 Z-1.0000 F20.0
G1 X273.3536 Y-259.0667 Z-1.0000 F20.0
G1 X279.1193 Y-259.8214 Z-1.0000 F20.0
G1 X279.1394 Y-260.2631 Z-1.0000 F20.0
G1 X269.3033 Y-260.2631 Z-1.0000 F20.0
G1 X269.3034 Y-260.2631 Z-1.0000 F20.0
G0 Z6.0000
G0 Z6.0000
G0 X264.6742 Y-259.6645
G0 Z4.0000
G1 X264.6742 Y-259.6645 Z-1.0000 F20.0
G1 X257.1524 Y-259.6645 Z-1.0000 F20.0
G1 X257.4854 Y-259.0935 Z-1.0000 F20.0
G1 X257.7366 Y-258.7864 Z-1.0000 F20.0
G1 X257.9535 Y-258.6261 Z-1.0000 F20.0
G1 X258.1611 Y-258.5583 Z-1.0000 F20.0
G1 X258.3948 Y-258.5564 Z-1.0000 F20.0
G1 X258.7149 Y-258.6236 Z-1.0000 F20.0
G1 X259.3938 Y-258.8245 Z-1.0000 F20.0
G1 X260.0760 Y-258.9765 Z-1.0000 F20.0
G1 X260.7915 Y-259.0554 Z-1.0000 F20.0
G1 X261.2026 Y-259.0667 Z-1.0000 F20.0
G1 X268.1459 Y-259.0667 Z-1.0000 F20.0
G1 X267.8161 Y-259.5474 Z-1.0000 F20.0
G1 X267.5371 Y-259.9109 Z-1.0000 F20.0
G1 X267.3707 Y-260.0466 Z-1.0000 F20.0
G1 X267.2281 Y-260.0781 Z-1.0000 F20.0
G1 X267.0447 Y-260.0421 Z-1.0000 F20.0
G1 X266.5737 Y-259.8892 Z-1.0000 F20.0
G1 X265.9698 Y-259.7557 Z-1.0000 F20.0
G1 X265.2160 Y-259.6783 Z-1.0000 F20.0
G1 X264.9565 Y-259.6681 Z-1.0000 F20.0
G1 X264.6742 Y-259.6645 Z-1.0000 F20.0
G0 Z6.0000
G0 Z6.0000
G0 X255.6876 Y-259.7673
G0 Z4.0000
G1 X255.6876 Y-259.7673 Z-1.0000 F20.0
G1 X255.6876 Y-258.3658 Z-1.0000 F20.0
G1 X256.3223 Y-258.3658 Z-1.0000 F20.0
G1 X255.6876 Y-259.7673 Z-1.0000 F20.0
G0 Z6.0000
G0 Z6.0000
G0 X253.3730 Y-259.7673
G0 Z4.0000
G1 X253.3730 Y-259.7673 Z-1.0000 F20.0
G1 X253.3730 Y-258.3658 Z-1.0000 F20.0
G1 X254.0081 Y-258.3658 Z-1.0000 F20.0
G1 X253.3730 Y-259.7673 Z-1.0000 F20.0
G0 Z6.0000
G0 Z6.0000
G0 X597.7487 Y-247.2798
G0 Z4.0000
G1 X597.7487 Y-247.2798 Z-1.0000 F20.0
G1 X598.7167 Y-249.1884 Z-1.0000 F20.0
G1 X600.0497 Y-251.6792 Z-1.0000 F20.0
G1 X601.8717 Y-255.0499 Z-1.0000 F20.0
G1 X603.1246 Y-257.4804 Z-1.0000 F20.0
G1 X604.0799 Y-259.4868 Z-1.0000 F20.0
G1 X604.8371 Y-261.2489 Z-1.0000 F20.0
G1 X605.4422 Y-262.8483 Z-1.0000 F20.0
G1 X605.9172 Y-264.3161 Z-1.0000 F20.0
G1 X606.2809 Y-265.6831 Z-1.0000 F20.0
G1 X606.5464 Y-266.9703 Z-1.0000 F20.0
G1 X606.7228 Y-268.1926 Z-1.0000 F20.0
G1 X606.8165 Y-269.3610 Z-1.0000 F20.0
G1 X606.8325 Y-270.4841 Z-1.0000 F20.0
G1 X606.7740 Y-271.5693 Z-1.0000 F20.0
G1 X606.6432 Y-272.6227 Z-1.0000 F20.0
G1 X606.4412 Y-273.6497 Z-1.0000 F20.0
G1 X606.1681 Y-274.6550 Z-1.0000 F20.0
G1 X605.9382 Y-275.3371 Z-1.0000 F20.0
G1 X605.6712 Y-276.0182 Z-1.0000 F20.0
G1 X605.3980 Y-276.5762 Z-1.0000 F20.0
G1 X604.9673 Y-277.2864 Z-1.0000 F20.0
G1 X604.3444 Y-278.1704 Z-1.0000 F20.0
G1 X603.4985 Y-279.2430 Z-1.0000 F20.0
G1 X602.4085 Y-280.5064 Z-1.0000 F20.0
G1 X601.0715 Y-281.9441 Z-1.0000 F20.0
G1 X599.5107 Y-283.5153 Z-1.0000 F20.0
G1 X597.7798 Y-285.1543 Z-1.0000 F20.0
G1 X595.9585 Y-286.7785 Z-1.0000 F20.0
G1 X594.1384 Y-288.3039 Z-1.0000 F20.0
G1 X592.4038 Y-289.6626 Z-1.0000 F20.0
G1 X590.8173 Y-290.8129 Z-1.0000 F20.0
G1 X589.4155 Y-291.7397 Z-1.0000 F20.0
G1 X588.2118 Y-292.4490 Z-1.0000 F20.0
G1 X587.2054 Y-292.9591 Z-1.0000 F20.0
G1 X586.3796 Y-293.2984 Z-1.0000 F20.0
G1 X585.7125 Y-293.4965 Z-1.0000 F20.0
G1 X585.1808 Y-293.5814 Z-1.0000 F20.0
G1 X584.7238 Y-293.5727 Z-1.0000 F20.0
G1 X586.5104 Y-292.2611 Z-1.0000 F20.0
G1 X589.3278 Y-290.2653 Z-1.0000 F20.0
G1 X591.8870 Y-288.4431 Z-1.0000 F20.0
G1 X594.3466 Y-286.6239 Z-1.0000 F20.0
G1 X596.3446 Y-285.0575 Z-1.0000 F20.0
G1 X598.0301 Y-283.6420 Z-1.0000 F20.0
G1 X599.4738 Y-282.3317 Z-1.0000 F20.0
G1 X600.7109 Y-281.1075 Z-1.0000 F20.0
G1 X601.7688 Y-279.9557 Z-1.0000 F20.0
G1 X602.6711 Y-278.8637 Z-1.0000 F20.0
G1 X603.4353 Y-277.8227 Z-1.0000 F20.0
G1 X604.0756 Y-276.8259 Z-1.0000 F20.0
G1 X604.6036 Y-275.8679 Z-1.0000 F20.0
G1 X604.9071 Y-275.2282 Z-1.0000 F20.0
G1 X605.1617 Y-274.5649 Z-1.0000 F20.0
G1 X605.3712 Y-273.8165 Z-1.0000 F20.0
G1 X605.5310 Y-272.9762 Z-1.0000 F20.0
G1 X605.6355 Y-272.0376 Z-1.0000 F20.0
G1 X605.6786 Y-270.9951 Z-1.0000 F20.0
G1 X605.6535 Y-269.8449 Z-1.0000 F20.0
G1 X605.5535 Y-268.5851 Z-1.0000 F20.0
G1 X605.3724 Y-267.2170 Z-1.0000 F20.0
G1 X605.1048 Y-265.7462 Z-1.0000 F20.0
G1 X604.7471 Y-264.1831 Z-1.0000 F20.0
G1 X604.2981 Y-262.5440 Z-1.0000 F20.0
G1 X603.7600 Y-260.8523 Z-1.0000 F20.0
G1 X603.1390 Y-259.1375 Z-1.0000 F20.0
G1 X602.4459 Y-257.4347 Z-1.0000 F20.0
G1 X601.6955 Y-255.7820 Z-1.0000 F20.0
G1 X600.9061 Y-254.2174 Z-1.0000 F20.0
G1 X600.0974 Y-252.7745 Z-1.0000 F20.0
G1 X599.2891 Y-251.4795 Z-1.0000 F20.0
G1 X598.4988 Y-250.3492 Z-1.0000 F20.0
G1 X597.7405 Y-249.3903 Z-1.0000 F20.0
G1 X597.0247 Y-248.6009 Z-1.0000 F20.0
G1 X596.2924 Y-247.9166 Z-1.0000 F20.0
G1 X597.7486 Y-247.2798 Z-1.0000 F20.0
G1 X597.7487 Y-247.2798 Z-1.0000 F20.0
G0 Z6.0000
G0 Z6.0000
G0 X349.6308 Y-255.4768
G0 Z4.0000
G1 X349.6308 Y-255.4768 Z-1.0000 F20.0
G1 X350.1058 Y-254.5386 Z-1.0000 F20.0
G1 X350.5276 Y-253.5974 Z-1.0000 F20.0
G1 X350.7797 Y-253.0538 Z-1.0000 F20.0
G1 X351.0299 Y-252.6363 Z-1.0000 F20.0
G1 X351.2952 Y-252.3357 Z-1.0000 F20.0
G1 X351.6137 Y-252.0922 Z-1.0000 F20.0
G1 X352.0388 Y-251.8655 Z-1.0000 F20.0
G1 X352.6537 Y-251.6259 Z-1.0000 F20.0
G1 X353.1684 Y-251.4623 Z-1.0000 F20.0
G1 X353.7805 Y-251.2890 Z-1.0000 F20.0
G1 X354.7312 Y-251.5604 Z-1.0000 F20.0
G1 X355.3904 Y-251.8177 Z-1.0000 F20.0
G1 X355.8820 Y-252.0860 Z-1.0000 F20.0
G1 X356.2614 Y-252.3767 Z-1.0000 F20.0
G1 X356.5588 Y-252.6979 Z-1.0000 F20.0
G1 X356.7953 Y-253.0629 Z-1.0000 F20.0
G1 X356.9816 Y-253.4883 Z-1.0000 F20.0
G1 X357.1216 Y-253.9955 Z-1.0000 F20.0
G1 X357.2138 Y-254.6129 Z-1.0000 F20.0
G1 X357.2521 Y-255.4768 Z-1.0000 F20.0
G1 X357.2153 Y-256.2820 Z-1.0000 F20.0
G1 X357.1150 Y-256.9177 Z-1.0000 F20.0
G1 X356.9629 Y-257.4242 Z-1.0000 F20.0
G1 X356.7657 Y-257.8323 Z-1.0000 F20.0
G1 X356.5253 Y-258.1642 Z-1.0000 F20.0
G1 X356.2393 Y-258.4355 Z-1.0000 F20.0
G1 X355.9003 Y-258.6561 Z-1.0000 F20.0
G1 X355.4961 Y-258.8312 Z-1.0000 F20.0
G1 X355.0099 Y-258.9611 Z-1.0000 F20.0
G1 X354.4190 Y-259.0420 Z-1.0000 F20.0
G1 X353.7805 Y-259.0668 Z-1.0000 F20.0
G1 X352.8995 Y-259.0394 Z-1.0000 F20.0
G1 X352.4234 Y-258.9646 Z-1.0000 F20.0
G1 X352.0771 Y-258.8410 Z-1.0000 F20.0
G1 X351.6694 Y-258.6213 Z-1.0000 F20.0
G1 X350.6889 Y-258.0751 Z-1.0000 F20.0
G1 X349.6308 Y-255.4768 Z-1.0000 F20.0
G1 X349.6308 Y-255.4768 Z-1.0000 F20.0
G0 Z6.0000
G0 Z6.0000
G0 X351.2679 Y-252.8789
G0 Z4.0000
G1 X351.2679 Y-252.8789 Z-1.0000 F20.0
G1 X350.8539 Y-254.1184 Z-1.0000 F20.0
G1 X350.6687 Y-254.8236 Z-1.0000 F20.0
G1 X350.6003 Y-255.3469 Z-1.0000 F20.0
G1 X350.6166 Y-255.7942 Z-1.0000 F20.0
G1 X350.7073 Y-256.2055 Z-1.0000 F20.0
G1 X350.8766 Y-256.6210 Z-1.0000 F20.0
G1 X351.1433 Y-257.0733 Z-1.0000 F20.0
G1 X351.5417 Y-257.5990 Z-1.0000 F20.0
G1 X351.8430 Y-257.9438 Z-1.0000 F20.0
G1 X352.1935 Y-258.3144 Z-1.0000 F20.0
G1 X353.7787 Y-258.4983 Z-1.0000 F20.0
G1 X355.3725 Y-258.3933 Z-1.0000 F20.0
G1 X356.5382 Y-257.1318 Z-1.0000 F20.0
G1 X356.7027 Y-255.4790 Z-1.0000 F20.0
G1 X356.6012 Y-253.8311 Z-1.0000 F20.0
G1 X354.4661 Y-251.7733 Z-1.0000 F20.0
G1 X351.2679 Y-252.8789 Z-1.0000 F20.0
G0 Z6.0000
G0 Z6.0000
G0 X251.9442 Y-259.0668
G0 Z4.0000
G1 X251.9442 Y-259.0668 Z-1.0000 F20.0
G1 X241.5293 Y-259.0668 Z-1.0000 F20.0
G1 X241.8455 Y-258.5361 Z-1.0000 F20.0
G1 X242.1200 Y-258.2064 Z-1.0000 F20.0
G1 X242.3701 Y-258.0118 Z-1.0000 F20.0
G1 X242.6154 Y-257.9081 Z-1.0000 F20.0
G1 X242.8787 Y-257.8726 Z-1.0000 F20.0
G1 X243.1943 Y-257.9009 Z-1.0000 F20.0
G1 X243.6353 Y-258.0080 Z-1.0000 F20.0
G1 X244.6015 Y-258.2802 Z-1.0000 F20.0
G1 X245.3162 Y-258.4136 Z-1.0000 F20.0
G1 X246.1584 Y-258.4682 Z-1.0000 F20.0
G1 X251.9442 Y-258.4682 Z-1.0000 F20.0
G1 X251.9442 Y-259.0668 Z-1.0000 F20.0
G1 X251.9442 Y-259.0668 Z-1.0000 F20.0
G0 Z6.0000
G0 Z6.0000
G0 X351.9949 Y-256.1264
G0 Z4.0000
G1 X351.9949 Y-256.1264 Z-1.0000 F20.0
G1 X352.1946 Y-255.4292 Z-1.0000 F20.0
G1 X352.3999 Y-254.8490 Z-1.0000 F20.0
G1 X352.5802 Y-254.5215 Z-1.0000 F20.0
G1 X352.7778 Y-254.3095 Z-1.0000 F20.0
G1 X353.0204 Y-254.1580 Z-1.0000 F20.0
G1 X353.3676 Y-254.0296 Z-1.0000 F20.0
G1 X354.2101 Y-253.8360 Z-1.0000 F20.0
G1 X354.5433 Y-254.3131 Z-1.0000 F20.0
G1 X354.8840 Y-254.8507 Z-1.0000 F20.0
G1 X355.0362 Y-255.1960 Z-1.0000 F20.0
G1 X355.0805 Y-255.4681 Z-1.0000 F20.0
G1 X355.0467 Y-255.7215 Z-1.0000 F20.0
G1 X354.9316 Y-256.0128 Z-1.0000 F20.0
G1 X354.6881 Y-256.4252 Z-1.0000 F20.0
G1 X354.2101 Y-257.1181 Z-1.0000 F20.0
G1 X351.9949 Y-256.1264 Z-1.0000 F20.0
G0 Z6.0000
G0 Z6.0000
G0 X593.2975 Y-250.9230
G0 Z4.0000
G1 X593.2975 Y-250.9230 Z-1.0000 F20.0
G1 X593.3076 Y-254.7240 Z-1.0000 F20.0
G1 X592.5143 Y-255.5286 Z-1.0000 F20.0
G1 X591.9547 Y-256.1059 Z-1.0000 F20.0
G1 X591.3216 Y-256.7016 Z-1.0000 F20.0
G1 X590.7848 Y-257.1142 Z-1.0000 F20.0
G1 X590.2723 Y-257.4136 Z-1.0000 F20.0
G1 X589.7535 Y-257.6278 Z-1.0000 F20.0
G1 X589.2025 Y-257.7724 Z-1.0000 F20.0
G1 X588.5943 Y-257.8529 Z-1.0000 F20.0
G1 X588.3616 Y-257.8657 Z-1.0000 F20.0
G1 X588.1188 Y-257.8700 Z-1.0000 F20.0
G1 X587.4250 Y-257.8361 Z-1.0000 F20.0
G1 X586.8863 Y-257.7450 Z-1.0000 F20.0
G1 X586.4327 Y-257.6035 Z-1.0000 F20.0
G1 X585.9731 Y-257.3971 Z-1.0000 F20.0
G1 X585.3813 Y-257.1146 Z-1.0000 F20.0
G1 X584.8196 Y-256.9158 Z-1.0000 F20.0
G1 X584.1717 Y-256.7760 Z-1.0000 F20.0
G1 X583.3889 Y-256.6932 Z-1.0000 F20.0
G1 X583.1574 Y-256.6813 Z-1.0000 F20.0
G1 X582.9111 Y-256.6736 Z-1.0000 F20.0
G1 X582.9899 Y-254.9251 Z-1.0000 F20.0
G1 X585.4772 Y-256.4552 Z-1.0000 F20.0
G1 X593.2973 Y-250.9230 Z-1.0000 F20.0
G1 X593.2975 Y-250.9230 Z-1.0000 F20.0
G0 Z6.0000
G0 Z6.0000
G0 X711.1462 Y-148.1689
G0 Z4.0000
G1 X711.1462 Y-148.1689 Z-1.0000 F20.0
G1 X712.0377 Y-147.9238 Z-1.0000 F20.0
G1 X712.9378 Y-147.7422 Z-1.0000 F20.0
G1 X713.9195 Y-147.6025 Z-1.0000 F20.0
G1 X714.8538 Y-147.4817 Z-1.0000 F20.0
G1 X715.4945 Y-147.3523 Z-1.0000 F20.0
G1 X715.9605 Y-147.1891 Z-1.0000 F20.0
G1 X716.3379 Y-146.9774 Z-1.0000 F20.0
G1 X716.6579 Y-146.7099 Z-1.0000 F20.0
G1 X716.9470 Y-146.3682 Z-1.0000 F20.0
G1 X717.2202 Y-145.9260 Z-1.0000 F20.0
G1 X717.4870 Y-145.3474 Z-1.0000 F20.0
G1 X717.7548 Y-144.5827 Z-1.0000 F20.0
G1 X718.0306 Y-143.5621 Z-1.0000 F20.0
G1 X718.2854 Y-142.3815 Z-1.0000 F20.0
G1 X718.6605 Y-140.2970 Z-1.0000 F20.0
G1 X719.0471 Y-137.7829 Z-1.0000 F20.0
G1 X719.5912 Y-133.9026 Z-1.0000 F20.0
G1 X719.9452 Y-131.5343 Z-1.0000 F20.0
G1 X720.8694 Y-125.5410 Z-1.0000 F20.0
G1 X722.2830 Y-116.0521 Z-1.0000 F20.0
G1 X722.7976 Y-112.6762 Z-1.0000 F20.0
G1 X723.3290 Y-109.3078 Z-1.0000 F20.0
G1 X723.6980 Y-106.8102 Z-1.0000 F20.0
G1 X724.3727 Y-101.7654 Z-1.0000 F20.0
G1 X726.0561 Y-88.9529 Z-1.0000 F20.0
G1 X727.0317 Y-82.0068 Z-1.0000 F20.0
G1 X727.8324 Y-76.7880 Z-1.0000 F20.0
G1 X728.4994 Y-72.8893 Z-1.0000 F20.0
G1 X729.0564 Y-70.0346 Z-1.0000 F20.0
G1 X729.5199 Y-68.0080 Z-1.0000 F20.0
G1 X729.9028 Y-66.6282 Z-1.0000 F20.0
G1 X730.2158 Y-65.7396 Z-1.0000 F20.0
G1 X730.4579 Y-65.2279 Z-1.0000 F20.0
G1 X730.4169 Y-66.9618 Z-1.0000 F20.0
G1 X730.2940 Y-69.0772 Z-1.0000 F20.0
G1 X730.0730 Y-71.6352 Z-1.0000 F20.0
G1 X729.7355 Y-74.7076 Z-1.0000 F20.0
G1 X729.2603 Y-78.3851 Z-1.0000 F20.0
G1 X728.6202 Y-82.7951 Z-1.0000 F20.0
G1 X727.7744 Y-88.1520 Z-1.0000 F20.0
G1 X726.6366 Y-94.9559 Z-1.0000 F20.0
G1 X724.7979 Y-105.7502 Z-1.0000 F20.0
G1 X723.9392 Y-111.0846 Z-1.0000 F20.0
G1 X723.5527 Y-113.7266 Z-1.0000 F20.0
G1 X722.4913 Y-121.1202 Z-1.0000 F20.0
G1 X721.4725 Y-127.6923 Z-1.0000 F20.0
G1 X720.4999 Y-133.4791 Z-1.0000 F20.0
G1 X719.7965 Y-137.3631 Z-1.0000 F20.0
G1 X719.5869 Y-138.6509 Z-1.0000 F20.0
G1 X719.0551 Y-142.2930 Z-1.0000 F20.0
G1 X718.5917 Y-145.2587 Z-1.0000 F20.0
G1 X718.2323 Y-147.2001 Z-1.0000 F20.0
G1 X717.9689 Y-148.3066 Z-1.0000 F20.0
G1 X717.8391 Y-148.7148 Z-1.0000 F20.0
G1 X717.7137 Y-148.9972 Z-1.0000 F20.0
G1 X717.1128 Y-149.9806 Z-1.0000 F20.0
G1 X716.5889 Y-150.7223 Z-1.0000 F20.0
G1 X716.1415 Y-151.2586 Z-1.0000 F20.0
G1 X715.7702 Y-151.6359 Z-1.0000 F20.0
G1 X715.6404 Y-151.7740 Z-1.0000 F20.0
G1 X715.5931 Y-151.8829 Z-1.0000 F20.0
G1 X715.6250 Y-151.9920 Z-1.0000 F20.0
G1 X715.7756 Y-152.2070 Z-1.0000 F20.0
G1 X716.1474 Y-152.7180 Z-1.0000 F20.0
G1 X716.6612 Y-153.5476 Z-1.0000 F20.0
G1 X717.4519 Y-155.0957 Z-1.0000 F20.0
G1 X585.3521 Y-254.8143 Z-1.0000 F20.0
G1 X592.4977 Y-248.0951 Z-1.0000 F20.0
G1 X591.8292 Y-247.2550 Z-1.0000 F20.0
G1 X583.0354 Y-254.4426 Z-1.0000 F20.0
G1 X583.0151 Y-253.3075 Z-1.0000 F20.0
G1 X583.0697 Y-252.2572 Z-1.0000 F20.0
G1 X583.1927 Y-251.3029 Z-1.0000 F20.0
G1 X583.3767 Y-250.4489 Z-1.0000 F20.0
G1 X583.6141 Y-249.6946 Z-1.0000 F20.0
G1 X583.8981 Y-249.0357 Z-1.0000 F20.0
G1 X584.2233 Y-248.4662 Z-1.0000 F20.0
G1 X584.5857 Y-247.9794 Z-1.0000 F20.0
G1 X584.9831 Y-247.5686 Z-1.0000 F20.0
G1 X585.4150 Y-247.2282 Z-1.0000 F20.0
G1 X585.8826 Y-246.9537 Z-1.0000 F20.0
G1 X586.3889 Y-246.7426 Z-1.0000 F20.0
G1 X586.9378 Y-246.5944 Z-1.0000 F20.0
G1 X587.5345 Y-246.5107 Z-1.0000 F20.0
G1 X588.1849 Y-246.4953 Z-1.0000 F20.0
G1 X588.8953 Y-246.5535 Z-1.0000 F20.0
G1 X589.6059 Y-246.6780 Z-1.0000 F20.0
G1 X591.2362 Y-247.0005 Z-1.0000 F20.0
G1 X592.2677 Y-247.1405 Z-1.0000 F20.0
G1 X592.9996 Y-247.1717 Z-1.0000 F20.0
G1 X593.5633 Y-247.1256 Z-1.0000 F20.0
G1 X594.0332 Y-247.0160 Z-1.0000 F20.0
G1 X594.4665 Y-246.8418 Z-1.0000 F20.0
G1 X594.9152 Y-246.5842 Z-1.0000 F20.0
G1 X595.4560 Y-246.1924 Z-1.0000 F20.0
G1 X596.3076 Y-245.4954 Z-1.0000 F20.0
G1 X597.5256 Y-244.5063 Z-1.0000 F20.0
G1 X599.0095 Y-243.4048 Z-1.0000 F20.0
G1 X601.0505 Y-241.9274 Z-1.0000 F20.0
G1 X603.4015 Y-240.1429 Z-1.0000 F20.0
G1 X606.3933 Y-237.7949 Z-1.0000 F20.0
G1 X610.2001 Y-234.7883 Z-1.0000 F20.0
G1 X613.0307 Y-232.6194 Z-1.0000 F20.0
G1 X614.3421 Y-231.6521 Z-1.0000 F20.0
G1 X615.6620 Y-230.7099 Z-1.0000 F20.0
G1 X619.0654 Y-228.2831 Z-1.0000 F20.0
G1 X622.8204 Y-225.5198 Z-1.0000 F20.0
G1 X627.0419 Y-222.3278 Z-1.0000 F20.0
G1 X631.9618 Y-218.5239 Z-1.0000 F20.0
G1 X638.2289 Y-213.6013 Z-1.0000 F20.0
G1 X643.4393 Y-209.4907 Z-1.0000 F20.0
G1 X648.5512 Y-205.4875 Z-1.0000 F20.0
G1 X650.4998 Y-204.0161 Z-1.0000 F20.0
G1 X654.3004 Y-201.2378 Z-1.0000 F20.0
G1 X662.2185 Y-195.5257 Z-1.0000 F20.0
G1 X670.8180 Y-189.3019 Z-1.0000 F20.0
G1 X678.7064 Y-183.5172 Z-1.0000 F20.0
G1 X685.2732 Y-178.6129 Z-1.0000 F20.0
G1 X690.8063 Y-174.3897 Z-1.0000 F20.0
G1 X695.4674 Y-170.7398 Z-1.0000 F20.0
G1 X699.3701 Y-167.5908 Z-1.0000 F20.0
G1 X702.6071 Y-164.8851 Z-1.0000 F20.0
G1 X705.2595 Y-162.5732 Z-1.0000 F20.0
G1 X707.4011 Y-160.6107 Z-1.0000 F20.0
G1 X709.0994 Y-158.9566 Z-1.0000 F20.0
G1 X710.4172 Y-157.5734 Z-1.0000 F20.0
G1 X711.4120 Y-156.4263 Z-1.0000 F20.0
G1 X712.1367 Y-155.4829 Z-1.0000 F20.0
G1 X712.6394 Y-154.7137 Z-1.0000 F20.0
G1 X712.9631 Y-154.0913 Z-1.0000 F20.0
G1 X713.1453 Y-153.5905 Z-1.0000 F20.0
G1 X713.2145 Y-153.2241 Z-1.0000 F20.0
G1 X710.3878 Y-150.7312 Z-1.0000 F20.0
G1 X711.1463 Y-148.1688 Z-1.0000 F20.0
G1 X711.1462 Y-148.1689 Z-1.0000 F20.0
G0 Z6.0000
G0 Z6.0000
G0 X156.4739 Y-250.0925
G0 Z4.0000
G1 X156.4739 Y-250.0925 Z-1.0000 F20.0
G1 X156.7662 Y-248.8644 Z-1.0000 F20.0
G1 X156.9532 Y-248.2702 Z-1.0000 F20.0
G1 X157.1320 Y-247.9105 Z-1.0000 F20.0
G1 X157.3312 Y-247.6695 Z-1.0000 F20.0
G1 X157.5649 Y-247.5032 Z-1.0000 F20.0
G1 X157.8621 Y-247.3844 Z-1.0000 F20.0
G1 X158.2699 Y-247.3033 Z-1.0000 F20.0
G1 X159.3173 Y-247.2549 Z-1.0000 F20.0
G1 X156.8832 Y-249.2900 Z-1.0000 F20.0
G1 X157.1330 Y-251.1413 Z-1.0000 F20.0
G1 X159.9121 Y-252.7113 Z-1.0000 F20.0
G1 X162.0617 Y-250.6858 Z-1.0000 F20.0
G1 X161.9004 Y-251.8570 Z-1.0000 F20.0
G1 X161.8146 Y-252.1134 Z-1.0000 F20.0
G1 X161.6947 Y-252.2586 Z-1.0000 F20.0
G1 X161.4990 Y-252.3766 Z-1.0000 F20.0
G1 X160.9655 Y-252.6157 Z-1.0000 F20.0
G1 X160.5403 Y-252.8265 Z-1.0000 F20.0
G1 X159.9948 Y-253.1349 Z-1.0000 F20.0
G1 X157.1681 Y-252.3240 Z-1.0000 F20.0
G1 X156.4739 Y-250.0925 Z-1.0000 F20.0
G1 X156.4739 Y-250.0925 Z-1.0000 F20.0
G0 Z6.0000
G0 Z6.0000
G0 X125.2667 Y-247.1516
G0 Z4.0000
G1 X125.2667 Y-247.1516 Z-1.0000 F20.0
G1 X126.0556 Y-248.8359 Z-1.0000 F20.0
G1 X127.6755 Y-247.2385 Z-1.0000 F20.0
G1 X129.2770 Y-247.0714 Z-1.0000 F20.0
G1 X130.8708 Y-247.1760 Z-1.0000 F20.0
G1 X132.1607 Y-248.7149 Z-1.0000 F20.0
G1 X130.5082 Y-247.6191 Z-1.0000 F20.0
G1 X128.2656 Y-247.7707 Z-1.0000 F20.0
G1 X127.0636 Y-250.4856 Z-1.0000 F20.0
G1 X128.1804 Y-252.3869 Z-1.0000 F20.0
G1 X130.8609 Y-252.4512 Z-1.0000 F20.0
G1 X131.9473 Y-250.6942 Z-1.0000 F20.0
G1 X130.9929 Y-253.0157 Z-1.0000 F20.0
G1 X125.2457 Y-251.8352 Z-1.0000 F20.0
G1 X125.2667 Y-247.1516 Z-1.0000 F20.0
G1 X125.2667 Y-247.1516 Z-1.0000 F20.0
G0 Z6.0000
G0 Z6.0000
G0 X165.6823 Y-245.9056
G0 Z4.0000
G1 X165.6823 Y-245.9056 Z-1.0000 F20.0
G1 X170.1470 Y-245.9396 Z-1.0000 F20.0
G1 X175.1334 Y-246.0456 Z-1.0000 F20.0
G1 X181.0007 Y-246.2360 Z-1.0000 F20.0
G1 X188.9573 Y-246.5508 Z-1.0000 F20.0
G1 X195.3777 Y-246.8005 Z-1.0000 F20.0
G1 X201.7840 Y-246.9975 Z-1.0000 F20.0
G1 X207.0502 Y-247.0884 Z-1.0000 F20.0
G1 X209.7059 Y-247.1011 Z-1.0000 F20.0
G1 X211.6067 Y-247.1326 Z-1.0000 F20.0
G1 X214.0631 Y-247.2338 Z-1.0000 F20.0
G1 X216.6574 Y-247.3517 Z-1.0000 F20.0
G1 X218.8576 Y-247.4044 Z-1.0000 F20.0
G1 X220.3077 Y-247.3874 Z-1.0000 F20.0
G1 X220.7753 Y-247.4076 Z-1.0000 F20.0
G1 X221.3444 Y-247.5040 Z-1.0000 F20.0
G1 X222.0456 Y-247.6945 Z-1.0000 F20.0
G1 X222.9296 Y-248.0060 Z-1.0000 F20.0
G1 X224.1121 Y-248.4905 Z-1.0000 F20.0
G1 X226.1992 Y-249.3801 Z-1.0000 F20.0
G1 X227.3062 Y-249.7924 Z-1.0000 F20.0
G1 X228.2551 Y-250.0580 Z-1.0000 F20.0
G1 X229.5928 Y-250.3106 Z-1.0000 F20.0
G1 X230.8436 Y-250.4759 Z-1.0000 F20.0
G1 X232.0279 Y-250.5621 Z-1.0000 F20.0
G1 X233.1667 Y-250.5755 Z-1.0000 F20.0
G1 X234.2848 Y-250.5195 Z-1.0000 F20.0
G1 X235.4144 Y-250.3941 Z-1.0000 F20.0
G1 X236.6054 Y-250.1937 Z-1.0000 F20.0
G1 X237.9592 Y-249.8996 Z-1.0000 F20.0
G1 X239.8177 Y-249.4388 Z-1.0000 F20.0
G1 X241.4902 Y-249.0369 Z-1.0000 F20.0
G1 X243.0901 Y-248.7152 Z-1.0000 F20.0
G1 X244.5685 Y-248.4954 Z-1.0000 F20.0
G1 X246.0192 Y-248.3591 Z-1.0000 F20.0
G1 X247.8946 Y-248.2975 Z-1.0000 F20.0
G1 X255.4164 Y-248.2975 Z-1.0000 F20.0
G1 X347.4122 Y-250.8423 Z-1.0000 F20.0
G1 X345.9445 Y-258.4158 Z-1.0000 F20.0
G1 X346.4767 Y-258.7920 Z-1.0000 F20.0
G1 X342.7149 Y-261.4967 Z-1.0000 F20.0
G1 X319.7336 Y-260.0703 Z-1.0000 F20.0
G1 X319.2132 Y-259.1912 Z-1.0000 F20.0
G1 X318.6751 Y-258.4210 Z-1.0000 F20.0
G1 X318.1197 Y-257.7495 Z-1.0000 F20.0
G1 X317.5465 Y-257.1675 Z-1.0000 F20.0
G1 X316.9539 Y-256.6669 Z-1.0000 F20.0
G1 X316.3398 Y-256.2411 Z-1.0000 F20.0
G1 X315.7010 Y-255.8847 Z-1.0000 F20.0
G1 X315.0334 Y-255.5938 Z-1.0000 F20.0
G1 X314.3317 Y-255.3659 Z-1.0000 F20.0
G1 X313.5895 Y-255.1998 Z-1.0000 F20.0
G1 X312.7992 Y-255.0960 Z-1.0000 F20.0
G1 X311.9512 Y-255.0566 Z-1.0000 F20.0
G1 X311.0334 Y-255.0849 Z-1.0000 F20.0
G1 X310.0292 Y-255.1867 Z-1.0000 F20.0
G1 X308.9151 Y-255.3701 Z-1.0000 F20.0
G1 X307.6518 Y-255.6481 Z-1.0000 F20.0
G1 X306.1629 Y-256.0444 Z-1.0000 F20.0
G1 X304.2378 Y-256.6205 Z-1.0000 F20.0
G1 X301.8207 Y-257.3589 Z-1.0000 F20.0
G1 X300.0478 Y-257.8471 Z-1.0000 F20.0
G1 X298.6313 Y-258.1656 Z-1.0000 F20.0
G1 X297.4264 Y-258.3618 Z-1.0000 F20.0
G1 X296.3656 Y-258.4590 Z-1.0000 F20.0
G1 X295.8500 Y-258.4752 Z-1.0000 F20.0
G1 X295.3407 Y-258.4681 Z-1.0000 F20.0
G1 X165.8407 Y-253.3183 Z-1.0000 F20.0
G1 X165.6821 Y-245.9056 Z-1.0000 F20.0
G1 X165.6823 Y-245.9056 Z-1.0000 F20.0
G0 Z6.0000
G0 Z6.0000
G0 X160.4248 Y-248.9214
G0 Z4.0000
G1 X160.4248 Y-248.9214 Z-1.0000 F20.0
G1 X159.4902 Y-251.2942 Z-1.0000 F20.0
G1 X158.6309 Y-249.1062 Z-1.0000 F20.0
G1 X160.4248 Y-248.9214 Z-1.0000 F20.0
G0 Z6.0000
G0 Z6.0000
G0 X603.1622 Y-269.2369
G0 Z4.0000
G1 X603.1622 Y-269.2369 Z-1.0000 F20.0
G1 X603.1267 Y-268.5761 Z-1.0000 F20.0
G1 X603.0099 Y-267.7694 Z-1.0000 F20.0
G1 X602.7951 Y-266.7951 Z-1.0000 F20.0
G1 X602.4645 Y-265.6325 Z-1.0000 F20.0
G1 X602.0000 Y-264.2628 Z-1.0000 F20.0
G1 X601.3852 Y-262.6719 Z-1.0000 F20.0
G1 X600.6071 Y-260.8552 Z-1.0000 F20.0
G1 X599.6611 Y-258.8242 Z-1.0000 F20.0
G1 X598.5579 Y-256.6189 Z-1.0000 F20.0
G1 X597.3356 Y-254.3273 Z-1.0000 F20.0
G1 X596.0774 Y-252.1102 Z-1.0000 F20.0
G1 X595.2622 Y-250.7525 Z-1.0000 F20.0
G1 X594.5476 Y-249.6264 Z-1.0000 F20.0
G1 X595.6241 Y-248.7566 Z-1.0000 F20.0
G1 X596.2293 Y-249.6364 Z-1.0000 F20.0
G1 X597.0491 Y-250.9609 Z-1.0000 F20.0
G1 X598.0719 Y-252.7553 Z-1.0000 F20.0
G1 X599.2314 Y-254.9402 Z-1.0000 F20.0
G1 X600.4163 Y-257.3319 Z-1.0000 F20.0
G1 X601.5114 Y-259.7101 Z-1.0000 F20.0
G1 X602.4379 Y-261.8995 Z-1.0000 F20.0
G1 X603.1595 Y-263.7923 Z-1.0000 F20.0
G1 X603.6825 Y-265.3655 Z-1.0000 F20.0
G1 X604.0297 Y-266.6339 Z-1.0000 F20.0
G1 X604.2299 Y-267.6294 Z-1.0000 F20.0
G1 X604.2966 Y-268.1622 Z-1.0000 F20.0
G1 X604.3194 Y-268.6387 Z-1.0000 F20.0
G1 X604.3194 Y-269.8355 Z-1.0000 F20.0
G1 X604.2836 Y-270.8796 Z-1.0000 F20.0
G1 X604.1782 Y-271.8783 Z-1.0000 F20.0
G1 X604.0054 Y-272.8375 Z-1.0000 F20.0
G1 X603.7663 Y-273.7632 Z-1.0000 F20.0
G1 X603.4607 Y-274.6614 Z-1.0000 F20.0
G1 X603.0872 Y-275.5378 Z-1.0000 F20.0
G1 X602.6430 Y-276.3985 Z-1.0000 F20.0
G1 X602.1235 Y-277.2498 Z-1.0000 F20.0
G1 X601.5222 Y-278.0987 Z-1.0000 F20.0
G1 X600.8297 Y-278.9533 Z-1.0000 F20.0
G1 X600.0332 Y-279.8242 Z-1.0000 F20.0
G1 X599.1130 Y-280.7262 Z-1.0000 F20.0
G1 X598.0383 Y-281.6825 Z-1.0000 F20.0
G1 X596.7521 Y-282.7360 Z-1.0000 F20.0
G1 X596.2001 Y-283.1676 Z-1.0000 F20.0
G1 X595.6408 Y-283.5961 Z-1.0000 F20.0
G1 X594.3121 Y-284.6427 Z-1.0000 F20.0
G1 X590.7531 Y-287.4869 Z-1.0000 F20.0
G1 X588.6473 Y-289.0894 Z-1.0000 F20.0
G1 X586.9638 Y-290.2846 Z-1.0000 F20.0
G1 X585.6104 Y-291.1603 Z-1.0000 F20.0
G1 X584.5267 Y-291.7785 Z-1.0000 F20.0
G1 X583.6668 Y-292.1894 Z-1.0000 F20.0
G1 X582.9915 Y-292.4357 Z-1.0000 F20.0
G1 X582.6478 Y-292.5226 Z-1.0000 F20.0
G1 X582.3323 Y-292.5694 Z-1.0000 F20.0
G1 X582.8408 Y-291.8914 Z-1.0000 F20.0
G1 X583.4503 Y-291.1979 Z-1.0000 F20.0
G1 X584.1763 Y-290.4798 Z-1.0000 F20.0
G1 X585.0407 Y-289.7246 Z-1.0000 F20.0
G1 X586.0765 Y-288.9125 Z-1.0000 F20.0
G1 X587.3415 Y-288.0082 Z-1.0000 F20.0
G1 X588.9614 Y-286.9312 Z-1.0000 F20.0
G1 X591.3945 Y-285.3782 Z-1.0000 F20.0
G1 X593.4589 Y-284.0362 Z-1.0000 F20.0
G1 X595.1564 Y-282.8591 Z-1.0000 F20.0
G1 X596.5336 Y-281.8161 Z-1.0000 F20.0
G1 X597.6966 Y-280.8417 Z-1.0000 F20.0
G1 X598.6932 Y-279.9082 Z-1.0000 F20.0
G1 X599.5492 Y-279.0034 Z-1.0000 F20.0
G1 X600.2878 Y-278.1139 Z-1.0000 F20.0
G1 X600.9244 Y-277.2307 Z-1.0000 F20.0
G1 X601.4698 Y-276.3469 Z-1.0000 F20.0
G1 X601.9319 Y-275.4569 Z-1.0000 F20.0
G1 X602.3162 Y-274.5556 Z-1.0000 F20.0
G1 X602.6267 Y-273.6382 Z-1.0000 F20.0
G1 X602.8660 Y-272.7001 Z-1.0000 F20.0
G1 X603.0351 Y-271.7365 Z-1.0000 F20.0
G1 X603.1340 Y-270.7429 Z-1.0000 F20.0
G1 X603.1552 Y-270.2934 Z-1.0000 F20.0
G1 X603.1623 Y-269.8355 Z-1.0000 F20.0
G1 X603.1623 Y-269.2369 Z-1.0000 F20.0
G1 X603.1622 Y-269.2369 Z-1.0000 F20.0
G0 Z6.0000
G0 Z6.0000
G0 X456.7709 Y-248.6875
G0 Z4.0000
G1 X456.7709 Y-248.6875 Z-1.0000 F20.0
G1 X456.7125 Y-249.8435 Z-1.0000 F20.0
G1 X456.5871 Y-250.9156 Z-1.0000 F20.0
G1 X456.3992 Y-251.9103 Z-1.0000 F20.0
G1 X456.1522 Y-252.8340 Z-1.0000 F20.0
G1 X455.8490 Y-253.6926 Z-1.0000 F20.0
G1 X455.4911 Y-254.4913 Z-1.0000 F20.0
G1 X455.0795 Y-255.2352 Z-1.0000 F20.0
G1 X454.6142 Y-255.9286 Z-1.0000 F20.0
G1 X454.0939 Y-256.5751 Z-1.0000 F20.0
G1 X453.5167 Y-257.1780 Z-1.0000 F20.0
G1 X452.8795 Y-257.7395 Z-1.0000 F20.0
