(Exported by FreeCAD)
(Post Processor: linuxcnc_post)
(Output Time:2022-03-06 19:41:08.153463)
(begin preamble)
G17 G54 G40 G49 G80 G90
G21
(begin operation: Fixture)
(machine units: mm/min)
G54 
(finish operation: Fixture)
(begin operation: 60 Deg. V-Bit001)
(machine units: mm/min)
(60 Deg. V-Bit001) 
M5
M6 T2 
G43 H2 
(finish operation: 60 Deg. V-Bit001)
(begin operation: Engrave)
(machine units: mm/min)
(Engrave) 
G0 Z6.000 
G0 Z6.000 
G0 X268.621 Y-258.671 
G0 Z4.000 
G1 X268.621 Y-258.671 Z-1.000 F10.000 
G1 X269.864 Y-259.604 Z-1.000 F10.000 
G1 X268.621 Y-258.671 Z-1.000 F10.000 
G0 Z6.000 
G0 Z6.000 
G0 X318.755 Y-223.401 
G0 Z4.000 
G1 X318.755 Y-223.401 Z-1.000 F10.000 
G1 X319.072 Y-223.292 Z-1.000 F10.000 
G1 X318.755 Y-223.401 Z-1.000 F10.000 
G0 Z6.000 
G0 Z6.000 
G0 X404.165 Y-181.921 
G0 Z4.000 
G1 X404.165 Y-181.921 Z-1.000 F10.000 
G1 X404.482 Y-181.812 Z-1.000 F10.000 
G1 X404.165 Y-181.921 Z-1.000 F10.000 
G0 Z6.000 
G0 Z6.000 
G0 X327.133 Y-229.654 
G0 Z4.000 
G1 X327.133 Y-229.654 Z-1.000 F10.000 
G1 X327.133 Y-229.356 Z-1.000 F10.000 
G1 X327.133 Y-229.654 Z-1.000 F10.000 
G0 Z6.000 
G0 Z6.000 
G0 X327.209 Y-235.061 
G0 Z4.000 
G1 X327.209 Y-235.061 Z-1.000 F10.000 
G1 X326.931 Y-234.799 Z-1.000 F10.000 
G1 X327.209 Y-235.061 Z-1.000 F10.000 
G0 Z6.000 
G0 Z6.000 
G0 X326.940 Y-211.194 
G0 Z4.000 
G1 X326.940 Y-211.194 Z-1.000 F10.000 
G1 X327.012 Y-210.711 Z-1.000 F10.000 
G1 X326.940 Y-211.194 Z-1.000 F10.000 
G0 Z6.000 
G0 Z6.000 
G0 X362.897 Y-169.231 
G0 Z4.000 
G1 X362.897 Y-169.231 Z-1.000 F10.000 
G1 X362.897 Y-168.932 Z-1.000 F10.000 
G1 X362.897 Y-169.231 Z-1.000 F10.000 
G0 Z6.000 
G0 Z6.000 
G0 X327.133 Y-229.001 
G0 Z4.000 
G1 X327.133 Y-229.001 Z-1.000 F10.000 
G1 X327.133 Y-228.702 Z-1.000 F10.000 
G1 X327.133 Y-229.001 Z-1.000 F10.000 
G0 Z6.000 
G0 Z6.000 
G0 X220.772 Y-192.699 
G0 Z4.000 
G1 X220.772 Y-192.699 Z-1.000 F10.000 
G1 X221.088 Y-192.590 Z-1.000 F10.000 
G1 X220.772 Y-192.699 Z-1.000 F10.000 
G0 Z6.000 
G0 Z6.000 
G0 X406.554 Y-183.207 
G0 Z4.000 
G1 X406.554 Y-183.207 Z-1.000 F10.000 
G1 X406.519 Y-183.149 Z-1.000 F10.000 
G1 X406.472 Y-183.126 Z-1.000 F10.000 
G1 X406.554 Y-183.207 Z-1.000 F10.000 
G0 Z6.000 
G0 Z6.000 
G0 X400.017 Y-232.799 
G0 Z4.000 
G1 X400.017 Y-232.799 Z-1.000 F10.000 
G1 X400.196 Y-232.416 Z-1.000 F10.000 
G1 X400.017 Y-232.416 Z-1.000 F10.000 
G1 X400.017 Y-232.799 Z-1.000 F10.000 
G0 Z6.000 
G0 Z6.000 
G0 X395.934 Y-232.962 
G0 Z4.000 
G1 X395.934 Y-232.962 Z-1.000 F10.000 
G1 X396.113 Y-232.580 Z-1.000 F10.000 
G1 X395.934 Y-232.580 Z-1.000 F10.000 
G1 X395.934 Y-232.962 Z-1.000 F10.000 
G0 Z6.000 
G0 Z6.000 
G0 X326.771 Y-233.074 
G0 Z4.000 
G1 X326.771 Y-233.074 Z-1.000 F10.000 
G1 X327.078 Y-232.834 Z-1.000 F10.000 
G1 X327.122 Y-232.757 Z-1.000 F10.000 
G1 X327.085 Y-232.715 Z-1.000 F10.000 
G1 X326.984 Y-232.662 Z-1.000 F10.000 
G1 X326.868 Y-232.565 Z-1.000 F10.000 
G1 X326.771 Y-233.074 Z-1.000 F10.000 
G0 Z6.000 
G0 Z6.000 
G0 X400.757 Y-233.914 
G0 Z4.000 
G1 X400.757 Y-233.914 Z-1.000 F10.000 
G1 X401.531 Y-234.227 Z-1.000 F10.000 
G1 X401.454 Y-233.905 Z-1.000 F10.000 
G1 X401.363 Y-233.763 Z-1.000 F10.000 
G1 X401.252 Y-233.715 Z-1.000 F10.000 
G1 X401.106 Y-233.734 Z-1.000 F10.000 
G1 X400.757 Y-233.914 Z-1.000 F10.000 
G0 Z6.000 
G0 Z6.000 
G0 X399.088 Y-230.371 
G0 Z4.000 
G1 X399.088 Y-230.371 Z-1.000 F10.000 
G1 X399.224 Y-230.083 Z-1.000 F10.000 
G1 X399.244 Y-229.901 Z-1.000 F10.000 
G1 X399.190 Y-229.777 Z-1.000 F10.000 
G1 X399.068 Y-229.684 Z-1.000 F10.000 
G1 X398.844 Y-229.609 Z-1.000 F10.000 
G1 X398.730 Y-229.587 Z-1.000 F10.000 
G1 X398.601 Y-229.569 Z-1.000 F10.000 
G1 X399.088 Y-230.371 Z-1.000 F10.000 
G0 Z6.000 
G0 Z6.000 
G0 X324.642 Y-225.659 
G0 Z4.000 
G1 X324.642 Y-225.659 Z-1.000 F10.000 
G1 X324.673 Y-225.759 Z-1.000 F10.000 
G1 X324.694 Y-225.857 Z-1.000 F10.000 
G1 X324.767 Y-225.925 Z-1.000 F10.000 
G1 X324.936 Y-225.953 Z-1.000 F10.000 
G1 X325.150 Y-225.941 Z-1.000 F10.000 
G1 X325.827 Y-225.749 Z-1.000 F10.000 
G1 X325.778 Y-225.684 Z-1.000 F10.000 
G1 X325.733 Y-225.602 Z-1.000 F10.000 
G1 X325.614 Y-225.553 Z-1.000 F10.000 
G1 X325.305 Y-225.558 Z-1.000 F10.000 
G1 X324.642 Y-225.659 Z-1.000 F10.000 
G0 Z6.000 
G0 Z6.000 
G0 X325.132 Y-249.338 
G0 Z4.000 
G1 X325.132 Y-249.338 Z-1.000 F10.000 
G1 X325.163 Y-249.439 Z-1.000 F10.000 
G1 X325.184 Y-249.536 Z-1.000 F10.000 
G1 X325.257 Y-249.605 Z-1.000 F10.000 
G1 X325.426 Y-249.632 Z-1.000 F10.000 
G1 X325.640 Y-249.621 Z-1.000 F10.000 
G1 X326.317 Y-249.428 Z-1.000 F10.000 
G1 X326.268 Y-249.363 Z-1.000 F10.000 
G1 X326.223 Y-249.282 Z-1.000 F10.000 
G1 X326.104 Y-249.233 Z-1.000 F10.000 
G1 X325.795 Y-249.238 Z-1.000 F10.000 
G1 X325.132 Y-249.338 Z-1.000 F10.000 
G0 Z6.000 
G0 Z6.000 
G0 X331.813 Y-178.688 
G0 Z4.000 
G1 X331.813 Y-178.688 Z-1.000 F10.000 
G1 X331.803 Y-178.278 Z-1.000 F10.000 
G1 X331.731 Y-178.001 Z-1.000 F10.000 
G1 X331.608 Y-177.811 Z-1.000 F10.000 
G1 X331.438 Y-177.687 Z-1.000 F10.000 
G1 X331.212 Y-177.617 Z-1.000 F10.000 
G1 X331.135 Y-177.606 Z-1.000 F10.000 
G1 X331.053 Y-177.601 Z-1.000 F10.000 
G1 X331.182 Y-178.040 Z-1.000 F10.000 
G1 X331.342 Y-178.350 Z-1.000 F10.000 
G1 X331.523 Y-178.550 Z-1.000 F10.000 
G1 X331.658 Y-178.636 Z-1.000 F10.000 
G1 X331.813 Y-178.688 Z-1.000 F10.000 
G0 Z6.000 
G0 Z6.000 
G0 X235.796 Y-233.322 
G0 Z4.000 
G1 X235.796 Y-233.322 Z-1.000 F10.000 
G1 X236.112 Y-233.431 Z-1.000 F10.000 
G1 X235.796 Y-233.322 Z-1.000 F10.000 
G0 Z6.000 
G0 Z6.000 
G0 X235.464 Y-233.426 
G0 Z4.000 
G1 X235.464 Y-233.426 Z-1.000 F10.000 
G1 X236.164 Y-233.963 Z-1.000 F10.000 
G1 X236.698 Y-233.377 Z-1.000 F10.000 
G1 X235.968 Y-232.922 Z-1.000 F10.000 
G1 X235.464 Y-233.426 Z-1.000 F10.000 
G1 X235.464 Y-233.426 Z-1.000 F10.000 
G0 Z6.000 
G0 Z6.000 
G0 X397.519 Y-230.456 
G0 Z4.000 
G1 X397.519 Y-230.456 Z-1.000 F10.000 
G1 X397.873 Y-230.380 Z-1.000 F10.000 
G1 X398.078 Y-230.364 Z-1.000 F10.000 
G1 X398.252 Y-230.422 Z-1.000 F10.000 
G1 X398.373 Y-230.513 Z-1.000 F10.000 
G1 X398.507 Y-230.655 Z-1.000 F10.000 
G1 X398.252 Y-230.975 Z-1.000 F10.000 
G1 X397.682 Y-230.839 Z-1.000 F10.000 
G1 X397.773 Y-231.131 Z-1.000 F10.000 
G1 X397.882 Y-231.274 Z-1.000 F10.000 
G1 X398.006 Y-231.326 Z-1.000 F10.000 
G1 X398.157 Y-231.313 Z-1.000 F10.000 
G1 X398.368 Y-231.220 Z-1.000 F10.000 
G1 X398.593 Y-231.077 Z-1.000 F10.000 
G1 X398.843 Y-230.898 Z-1.000 F10.000 
G1 X398.428 Y-230.036 Z-1.000 F10.000 
G1 X397.963 Y-229.988 Z-1.000 F10.000 
G1 X397.751 Y-230.013 Z-1.000 F10.000 
G1 X397.623 Y-230.094 Z-1.000 F10.000 
G1 X397.547 Y-230.234 Z-1.000 F10.000 
G1 X397.519 Y-230.456 Z-1.000 F10.000 
G0 Z6.000 
G0 Z6.000 
G0 X299.670 Y-239.956 
G0 Z4.000 
G1 X299.670 Y-239.956 Z-1.000 F10.000 
G1 X300.813 Y-239.765 Z-1.000 F10.000 
G1 X301.130 Y-239.951 Z-1.000 F10.000 
G1 X301.275 Y-239.966 Z-1.000 F10.000 
G1 X301.410 Y-239.960 Z-1.000 F10.000 
G1 X301.629 Y-239.956 Z-1.000 F10.000 
G1 X302.119 Y-239.956 Z-1.000 F10.000 
G1 X301.991 Y-239.677 Z-1.000 F10.000 
G1 X301.867 Y-239.549 Z-1.000 F10.000 
G1 X301.706 Y-239.489 Z-1.000 F10.000 
G1 X301.425 Y-239.467 Z-1.000 F10.000 
G1 X301.139 Y-239.466 Z-1.000 F10.000 
G1 X300.486 Y-239.466 Z-1.000 F10.000 
G1 X300.030 Y-239.459 Z-1.000 F10.000 
G1 X299.872 Y-239.497 Z-1.000 F10.000 
G1 X299.776 Y-239.593 Z-1.000 F10.000 
G1 X299.705 Y-239.785 Z-1.000 F10.000 
G1 X299.670 Y-239.956 Z-1.000 F10.000 
G0 Z6.000 
G0 Z6.000 
G0 X240.361 Y-220.331 
G0 Z4.000 
G1 X240.361 Y-220.331 Z-1.000 F10.000 
G1 X239.972 Y-220.339 Z-1.000 F10.000 
G1 X239.876 Y-220.312 Z-1.000 F10.000 
G1 X239.831 Y-220.227 Z-1.000 F10.000 
G1 X239.764 Y-219.897 Z-1.000 F10.000 
G1 X240.361 Y-219.875 Z-1.000 F10.000 
G1 X240.361 Y-220.331 Z-1.000 F10.000 
G1 X240.361 Y-220.331 Z-1.000 F10.000 
G0 Z6.000 
G0 Z6.000 
G0 X239.445 Y-219.741 
G0 Z4.000 
G1 X239.445 Y-219.741 Z-1.000 F10.000 
G1 X239.510 Y-220.616 Z-1.000 F10.000 
G1 X240.063 Y-220.686 Z-1.000 F10.000 
G1 X240.333 Y-220.705 Z-1.000 F10.000 
G1 X240.462 Y-220.659 Z-1.000 F10.000 
G1 X240.544 Y-220.623 Z-1.000 F10.000 
G1 X240.666 Y-220.583 Z-1.000 F10.000 
G1 X240.683 Y-219.738 Z-1.000 F10.000 
G1 X240.240 Y-219.370 Z-1.000 F10.000 
G1 X239.879 Y-219.358 Z-1.000 F10.000 
G1 X239.445 Y-219.741 Z-1.000 F10.000 
G1 X239.445 Y-219.741 Z-1.000 F10.000 
G0 Z6.000 
G0 Z6.000 
G0 X314.858 Y-218.999 
G0 Z4.000 
G1 X314.858 Y-218.999 Z-1.000 F10.000 
G1 X314.369 Y-218.999 Z-1.000 F10.000 
G1 X314.624 Y-218.741 Z-1.000 F10.000 
G1 X314.858 Y-218.999 Z-1.000 F10.000 
G0 Z6.000 
G0 Z6.000 
G0 X313.841 Y-218.852 
G0 Z4.000 
G1 X313.841 Y-218.852 Z-1.000 F10.000 
G1 X314.246 Y-219.534 Z-1.000 F10.000 
G1 X314.988 Y-219.510 Z-1.000 F10.000 
G1 X315.366 Y-219.067 Z-1.000 F10.000 
G1 X315.326 Y-218.562 Z-1.000 F10.000 
G1 X314.501 Y-218.207 Z-1.000 F10.000 
G1 X313.841 Y-218.852 Z-1.000 F10.000 
G0 Z6.000 
G0 Z6.000 
G0 X331.351 Y-180.839 
G0 Z4.000 
G1 X331.351 Y-180.839 Z-1.000 F10.000 
G1 X331.381 Y-180.849 Z-1.000 F10.000 
G1 X331.420 Y-180.908 Z-1.000 F10.000 
G1 X331.358 Y-180.866 Z-1.000 F10.000 
G1 X331.351 Y-180.839 Z-1.000 F10.000 
G0 Z6.000 
G0 Z6.000 
G0 X330.379 Y-179.701 
G0 Z4.000 
G1 X330.379 Y-179.701 Z-1.000 F10.000 
G1 X331.170 Y-179.899 Z-1.000 F10.000 
G1 X330.920 Y-180.540 Z-1.000 F10.000 
G1 X331.706 Y-180.209 Z-1.000 F10.000 
G1 X331.779 Y-180.838 Z-1.000 F10.000 
G1 X331.464 Y-180.460 Z-1.000 F10.000 
G1 X331.219 Y-181.177 Z-1.000 F10.000 
G1 X332.118 Y-181.062 Z-1.000 F10.000 
G1 X332.130 Y-180.224 Z-1.000 F10.000 
G1 X331.801 Y-179.884 Z-1.000 F10.000 
G1 X331.213 Y-179.828 Z-1.000 F10.000 
G1 X331.734 Y-179.320 Z-1.000 F10.000 
G1 X331.631 Y-179.188 Z-1.000 F10.000 
G1 X330.379 Y-179.701 Z-1.000 F10.000 
G1 X330.379 Y-179.701 Z-1.000 F10.000 
G0 Z6.000 
G0 Z6.000 
G0 X393.063 Y-231.728 
G0 Z4.000 
G1 X393.063 Y-231.728 Z-1.000 F10.000 
G1 X393.081 Y-232.934 Z-1.000 F10.000 
G1 X393.346 Y-232.820 Z-1.000 F10.000 
G1 X393.426 Y-232.750 Z-1.000 F10.000 
G1 X393.435 Y-232.649 Z-1.000 F10.000 
G1 X393.414 Y-232.401 Z-1.000 F10.000 
G1 X393.422 Y-231.934 Z-1.000 F10.000 
G1 X394.736 Y-231.440 Z-1.000 F10.000 
G1 X395.815 Y-232.267 Z-1.000 F10.000 
G1 X395.786 Y-231.975 Z-1.000 F10.000 
G1 X395.695 Y-231.748 Z-1.000 F10.000 
G1 X395.542 Y-231.554 Z-1.000 F10.000 
G1 X395.305 Y-231.363 Z-1.000 F10.000 
G1 X394.895 Y-231.113 Z-1.000 F10.000 
G1 X394.712 Y-231.004 Z-1.000 F10.000 
G1 X394.521 Y-230.884 Z-1.000 F10.000 
G1 X393.062 Y-231.728 Z-1.000 F10.000 
G1 X393.063 Y-231.728 Z-1.000 F10.000 
G0 Z6.000 
G0 Z6.000 
G0 X284.915 Y-201.194 
G0 Z4.000 
G1 X284.915 Y-201.194 Z-1.000 F10.000 
G1 X284.966 Y-201.878 Z-1.000 F10.000 
G1 X284.092 Y-201.474 Z-1.000 F10.000 
G1 X284.915 Y-201.194 Z-1.000 F10.000 
G0 Z6.000 
G0 Z6.000 
G0 X283.804 Y-201.222 
G0 Z4.000 
G1 X283.804 Y-201.222 Z-1.000 F10.000 
G1 X283.848 Y-201.897 Z-1.000 F10.000 
G1 X284.640 Y-202.414 Z-1.000 F10.000 
G1 X285.198 Y-202.128 Z-1.000 F10.000 
G1 X285.512 Y-201.394 Z-1.000 F10.000 
G1 X284.823 Y-200.753 Z-1.000 F10.000 
G1 X284.475 Y-200.758 Z-1.000 F10.000 
G1 X283.804 Y-201.222 Z-1.000 F10.000 
G1 X283.804 Y-201.222 Z-1.000 F10.000 
G0 Z6.000 
G0 Z6.000 
G0 X330.187 Y-231.689 
G0 Z4.000 
G1 X330.187 Y-231.689 Z-1.000 F10.000 
G1 X330.504 Y-231.798 Z-1.000 F10.000 
G1 X330.187 Y-231.689 Z-1.000 F10.000 
G0 Z6.000 
G0 Z6.000 
G0 X330.994 Y-231.457 
G0 Z4.000 
G1 X330.994 Y-231.457 Z-1.000 F10.000 
G1 X330.677 Y-231.566 Z-1.000 F10.000 
G1 X330.994 Y-231.457 Z-1.000 F10.000 
G0 Z6.000 
G0 Z6.000 
G0 X331.269 Y-231.383 
G0 Z4.000 
G1 X331.269 Y-231.383 Z-1.000 F10.000 
G1 X331.234 Y-231.440 Z-1.000 F10.000 
G1 X331.188 Y-231.464 Z-1.000 F10.000 
G1 X331.269 Y-231.383 Z-1.000 F10.000 
G0 Z6.000 
G0 Z6.000 
G0 X328.738 Y-232.281 
G0 Z4.000 
G1 X328.738 Y-232.281 Z-1.000 F10.000 
G1 X330.067 Y-231.748 Z-1.000 F10.000 
G1 X330.363 Y-232.124 Z-1.000 F10.000 
G1 X331.386 Y-231.672 Z-1.000 F10.000 
G1 X331.841 Y-230.811 Z-1.000 F10.000 
G1 X331.386 Y-230.894 Z-1.000 F10.000 
G1 X330.664 Y-231.103 Z-1.000 F10.000 
G1 X329.907 Y-231.398 Z-1.000 F10.000 
G1 X329.344 Y-231.691 Z-1.000 F10.000 
G1 X328.988 Y-231.949 Z-1.000 F10.000 
G1 X328.795 Y-232.167 Z-1.000 F10.000 
G1 X328.738 Y-232.281 Z-1.000 F10.000 
G0 Z6.000 
G0 Z6.000 
G0 X235.980 Y-232.444 
G0 Z4.000 
G1 X235.980 Y-232.444 Z-1.000 F10.000 
G1 X236.314 Y-232.479 Z-1.000 F10.000 
G1 X236.570 Y-232.573 Z-1.000 F10.000 
G1 X236.761 Y-232.715 Z-1.000 F10.000 
G1 X236.893 Y-232.901 Z-1.000 F10.000 
G1 X236.970 Y-233.129 Z-1.000 F10.000 
G1 X236.985 Y-233.401 Z-1.000 F10.000 
G1 X236.931 Y-233.711 Z-1.000 F10.000 
G1 X236.799 Y-234.041 Z-1.000 F10.000 
G1 X236.704 Y-234.204 Z-1.000 F10.000 
G1 X236.591 Y-234.362 Z-1.000 F10.000 
G1 X235.980 Y-234.411 Z-1.000 F10.000 
G1 X235.645 Y-234.390 Z-1.000 F10.000 
G1 X235.481 Y-234.321 Z-1.000 F10.000 
G1 X235.353 Y-234.202 Z-1.000 F10.000 
G1 X235.159 Y-234.036 Z-1.000 F10.000 
G1 X234.865 Y-233.886 Z-1.000 F10.000 
G1 X234.893 Y-233.507 Z-1.000 F10.000 
G1 X234.907 Y-233.194 Z-1.000 F10.000 
G1 X234.962 Y-232.943 Z-1.000 F10.000 
G1 X235.076 Y-232.758 Z-1.000 F10.000 
G1 X235.264 Y-232.608 Z-1.000 F10.000 
G1 X235.435 Y-232.523 Z-1.000 F10.000 
G1 X235.653 Y-232.444 Z-1.000 F10.000 
G1 X235.980 Y-232.444 Z-1.000 F10.000 
G1 X235.980 Y-232.444 Z-1.000 F10.000 
G0 Z6.000 
G0 Z6.000 
G0 X234.552 Y-232.323 
G0 Z4.000 
G1 X234.552 Y-232.323 Z-1.000 F10.000 
G1 X234.574 Y-233.157 Z-1.000 F10.000 
G1 X234.314 Y-233.504 Z-1.000 F10.000 
G1 X234.562 Y-234.498 Z-1.000 F10.000 
G1 X235.803 Y-235.234 Z-1.000 F10.000 
G1 X236.522 Y-235.006 Z-1.000 F10.000 
G1 X236.907 Y-234.820 Z-1.000 F10.000 
G1 X237.137 Y-234.636 Z-1.000 F10.000 
G1 X237.295 Y-234.420 Z-1.000 F10.000 
G1 X237.452 Y-234.093 Z-1.000 F10.000 
G1 X237.579 Y-233.799 Z-1.000 F10.000 
G1 X237.749 Y-233.443 Z-1.000 F10.000 
G1 X237.408 Y-232.323 Z-1.000 F10.000 
G1 X236.917 Y-231.982 Z-1.000 F10.000 
G1 X236.522 Y-231.792 Z-1.000 F10.000 
G1 X236.182 Y-231.707 Z-1.000 F10.000 
G1 X235.866 Y-231.701 Z-1.000 F10.000 
G1 X235.544 Y-231.769 Z-1.000 F10.000 
G1 X235.188 Y-231.918 Z-1.000 F10.000 
G1 X234.882 Y-232.096 Z-1.000 F10.000 
G1 X234.552 Y-232.323 Z-1.000 F10.000 
G1 X234.552 Y-232.323 Z-1.000 F10.000 
G0 Z6.000 
G0 Z6.000 
G0 X234.020 Y-233.261 
G0 Z4.000 
G1 X234.020 Y-233.261 Z-1.000 F10.000 
G1 X234.055 Y-232.867 Z-1.000 F10.000 
G1 X234.156 Y-232.518 Z-1.000 F10.000 
G1 X234.316 Y-232.210 Z-1.000 F10.000 
G1 X234.534 Y-231.945 Z-1.000 F10.000 
G1 X234.806 Y-231.724 Z-1.000 F10.000 
G1 X235.129 Y-231.553 Z-1.000 F10.000 
G1 X235.495 Y-231.440 Z-1.000 F10.000 
G1 X235.890 Y-231.394 Z-1.000 F10.000 
G1 X236.295 Y-231.418 Z-1.000 F10.000 
G1 X236.686 Y-231.515 Z-1.000 F10.000 
G1 X237.044 Y-231.680 Z-1.000 F10.000 
G1 X237.355 Y-231.904 Z-1.000 F10.000 
G1 X237.610 Y-232.180 Z-1.000 F10.000 
G1 X237.807 Y-232.503 Z-1.000 F10.000 
G1 X237.942 Y-232.871 Z-1.000 F10.000 
G1 X238.015 Y-233.328 Z-1.000 F10.000 
G1 X238.009 Y-233.746 Z-1.000 F10.000 
G1 X237.934 Y-234.120 Z-1.000 F10.000 
G1 X237.796 Y-234.452 Z-1.000 F10.000 
G1 X237.601 Y-234.743 Z-1.000 F10.000 
G1 X237.349 Y-234.990 Z-1.000 F10.000 
G1 X237.045 Y-235.190 Z-1.000 F10.000 
G1 X236.695 Y-235.336 Z-1.000 F10.000 
G1 X236.310 Y-235.418 Z-1.000 F10.000 
G1 X235.907 Y-235.431 Z-1.000 F10.000 
G1 X235.506 Y-235.370 Z-1.000 F10.000 
G1 X235.128 Y-235.240 Z-1.000 F10.000 
G1 X234.790 Y-235.044 Z-1.000 F10.000 
G1 X234.502 Y-234.792 Z-1.000 F10.000 
G1 X234.268 Y-234.488 Z-1.000 F10.000 
G1 X234.093 Y-234.135 Z-1.000 F10.000 
G1 X234.020 Y-233.914 Z-1.000 F10.000 
G1 X234.020 Y-233.587 Z-1.000 F10.000 
G1 X234.020 Y-233.261 Z-1.000 F10.000 
G0 Z6.000 
G0 Z6.000 
G0 X235.980 Y-230.974 
G0 Z4.000 
G1 X235.980 Y-230.974 Z-1.000 F10.000 
G1 X235.507 Y-231.009 Z-1.000 F10.000 
G1 X235.089 Y-231.110 Z-1.000 F10.000 
G1 X234.722 Y-231.269 Z-1.000 F10.000 
G1 X234.404 Y-231.484 Z-1.000 F10.000 
G1 X234.134 Y-231.751 Z-1.000 F10.000 
G1 X233.913 Y-232.068 Z-1.000 F10.000 
G1 X233.745 Y-232.434 Z-1.000 F10.000 
G1 X233.636 Y-232.841 Z-1.000 F10.000 
G1 X233.592 Y-233.280 Z-1.000 F10.000 
G1 X233.619 Y-233.734 Z-1.000 F10.000 
G1 X233.719 Y-234.182 Z-1.000 F10.000 
G1 X233.886 Y-234.602 Z-1.000 F10.000 
G1 X234.114 Y-234.975 Z-1.000 F10.000 
G1 X234.392 Y-235.289 Z-1.000 F10.000 
G1 X234.711 Y-235.538 Z-1.000 F10.000 
G1 X235.066 Y-235.719 Z-1.000 F10.000 
G1 X235.453 Y-235.833 Z-1.000 F10.000 
G1 X235.872 Y-235.878 Z-1.000 F10.000 
G1 X236.127 Y-235.871 Z-1.000 F10.000 
G1 X236.588 Y-235.801 Z-1.000 F10.000 
G1 X237.001 Y-235.669 Z-1.000 F10.000 
G1 X237.368 Y-235.478 Z-1.000 F10.000 
G1 X237.687 Y-235.232 Z-1.000 F10.000 
G1 X237.959 Y-234.935 Z-1.000 F10.000 
G1 X238.178 Y-234.591 Z-1.000 F10.000 
G1 X238.340 Y-234.204 Z-1.000 F10.000 
G1 X238.438 Y-233.785 Z-1.000 F10.000 
G1 X238.467 Y-233.349 Z-1.000 F10.000 
G1 X238.423 Y-232.912 Z-1.000 F10.000 
G1 X238.308 Y-232.494 Z-1.000 F10.000 
G1 X238.127 Y-232.111 Z-1.000 F10.000 
G1 X237.886 Y-231.775 Z-1.000 F10.000 
G1 X237.593 Y-231.493 Z-1.000 F10.000 
G1 X237.252 Y-231.270 Z-1.000 F10.000 
G1 X236.866 Y-231.107 Z-1.000 F10.000 
G1 X236.436 Y-231.007 Z-1.000 F10.000 
G1 X236.214 Y-230.983 Z-1.000 F10.000 
G1 X235.980 Y-230.974 Z-1.000 F10.000 
G0 Z6.000 
G0 Z6.000 
G0 X304.813 Y-227.627 
G0 Z4.000 
G1 X304.813 Y-227.627 Z-1.000 F10.000 
G1 X304.777 Y-227.686 Z-1.000 F10.000 
G1 X304.732 Y-227.708 Z-1.000 F10.000 
G1 X304.813 Y-227.627 Z-1.000 F10.000 
G0 Z6.000 
G0 Z6.000 
G0 X305.793 Y-227.137 
G0 Z4.000 
G1 X305.793 Y-227.137 Z-1.000 F10.000 
G1 X305.758 Y-227.195 Z-1.000 F10.000 
G1 X305.712 Y-227.218 Z-1.000 F10.000 
G1 X305.793 Y-227.137 Z-1.000 F10.000 
G0 Z6.000 
G0 Z6.000 
G0 X305.367 Y-227.046 
G0 Z4.000 
G1 X305.367 Y-227.046 Z-1.000 F10.000 
G1 X304.560 Y-227.115 Z-1.000 F10.000 
G1 X305.367 Y-227.046 Z-1.000 F10.000 
G0 Z6.000 
G0 Z6.000 
G0 X304.196 Y-227.560 
G0 Z4.000 
G1 X304.196 Y-227.560 Z-1.000 F10.000 
G1 X303.916 Y-228.035 Z-1.000 F10.000 
G1 X303.916 Y-228.361 Z-1.000 F10.000 
G1 X303.916 Y-228.525 Z-1.000 F10.000 
G1 X303.952 Y-228.908 Z-1.000 F10.000 
G1 X304.095 Y-229.592 Z-1.000 F10.000 
G1 X304.284 Y-230.153 Z-1.000 F10.000 
G1 X304.476 Y-230.523 Z-1.000 F10.000 
G1 X304.657 Y-230.735 Z-1.000 F10.000 
G1 X304.826 Y-230.832 Z-1.000 F10.000 
G1 X304.992 Y-230.843 Z-1.000 F10.000 
G1 X305.194 Y-230.755 Z-1.000 F10.000 
G1 X304.922 Y-230.266 Z-1.000 F10.000 
G1 X304.690 Y-229.865 Z-1.000 F10.000 
G1 X304.519 Y-229.471 Z-1.000 F10.000 
G1 X304.428 Y-229.065 Z-1.000 F10.000 
G1 X304.405 Y-228.688 Z-1.000 F10.000 
G1 X304.405 Y-228.198 Z-1.000 F10.000 
G1 X306.365 Y-228.198 Z-1.000 F10.000 
G1 X306.365 Y-228.688 Z-1.000 F10.000 
G1 X306.332 Y-229.108 Z-1.000 F10.000 
G1 X306.239 Y-229.481 Z-1.000 F10.000 
G1 X306.084 Y-229.857 Z-1.000 F10.000 
G1 X305.847 Y-230.376 Z-1.000 F10.000 
G1 X305.756 Y-230.728 Z-1.000 F10.000 
G1 X305.745 Y-230.834 Z-1.000 F10.000 
G1 X305.740 Y-230.946 Z-1.000 F10.000 
G1 X305.924 Y-230.880 Z-1.000 F10.000 
G1 X306.111 Y-230.737 Z-1.000 F10.000 
G1 X306.302 Y-230.500 Z-1.000 F10.000 
G1 X306.494 Y-230.150 Z-1.000 F10.000 
G1 X306.670 Y-229.684 Z-1.000 F10.000 
G1 X306.804 Y-229.141 Z-1.000 F10.000 
G1 X306.851 Y-228.809 Z-1.000 F10.000 
G1 X306.862 Y-228.524 Z-1.000 F10.000 
G1 X306.833 Y-227.857 Z-1.000 F10.000 
G1 X306.286 Y-227.671 Z-1.000 F10.000 
G1 X306.260 Y-226.596 Z-1.000 F10.000 
G1 X304.182 Y-226.566 Z-1.000 F10.000 
G1 X304.196 Y-227.560 Z-1.000 F10.000 
G1 X304.196 Y-227.560 Z-1.000 F10.000 
G0 Z6.000 
G0 Z6.000 
G0 X347.518 Y-194.230 
G0 Z4.000 
G1 X347.518 Y-194.230 Z-1.000 F10.000 
G1 X349.315 Y-194.230 Z-1.000 F10.000 
G1 X349.272 Y-194.628 Z-1.000 F10.000 
G1 X349.166 Y-194.959 Z-1.000 F10.000 
G1 X349.004 Y-195.234 Z-1.000 F10.000 
G1 X348.789 Y-195.459 Z-1.000 F10.000 
G1 X348.519 Y-195.637 Z-1.000 F10.000 
G1 X348.189 Y-195.768 Z-1.000 F10.000 
G1 X347.793 Y-195.845 Z-1.000 F10.000 
G1 X347.518 Y-195.863 Z-1.000 F10.000 
G1 X347.518 Y-194.230 Z-1.000 F10.000 
G0 Z6.000 
G0 Z6.000 
G0 X346.539 Y-194.067 
G0 Z4.000 
G1 X346.539 Y-194.067 Z-1.000 F10.000 
G1 X347.164 Y-194.077 Z-1.000 F10.000 
G1 X347.192 Y-195.863 Z-1.000 F10.000 
G1 X346.772 Y-195.791 Z-1.000 F10.000 
G1 X346.399 Y-195.654 Z-1.000 F10.000 
G1 X346.080 Y-195.461 Z-1.000 F10.000 
G1 X345.818 Y-195.219 Z-1.000 F10.000 
G1 X345.618 Y-194.932 Z-1.000 F10.000 
G1 X345.479 Y-194.607 Z-1.000 F10.000 
G1 X345.420 Y-194.347 Z-1.000 F10.000 
G1 X345.396 Y-194.067 Z-1.000 F10.000 
G1 X346.539 Y-194.067 Z-1.000 F10.000 
G1 X346.539 Y-194.067 Z-1.000 F10.000 
G0 Z6.000 
G0 Z6.000 
G0 X347.517 Y-191.781 
G0 Z4.000 
G1 X347.517 Y-191.781 Z-1.000 F10.000 
G1 X347.928 Y-191.852 Z-1.000 F10.000 
G1 X348.303 Y-191.989 Z-1.000 F10.000 
G1 X348.635 Y-192.186 Z-1.000 F10.000 
G1 X348.920 Y-192.439 Z-1.000 F10.000 
G1 X349.153 Y-192.742 Z-1.000 F10.000 
G1 X349.328 Y-193.091 Z-1.000 F10.000 
G1 X349.441 Y-193.479 Z-1.000 F10.000 
G1 X349.478 Y-193.740 Z-1.000 F10.000 
G1 X347.523 Y-193.713 Z-1.000 F10.000 
G1 X347.517 Y-191.781 Z-1.000 F10.000 
G1 X347.517 Y-191.781 Z-1.000 F10.000 
G0 Z6.000 
G0 Z6.000 
G0 X347.181 Y-191.758 
G0 Z4.000 
G1 X347.181 Y-191.758 Z-1.000 F10.000 
G1 X347.188 Y-193.713 Z-1.000 F10.000 
G1 X346.539 Y-193.745 Z-1.000 F10.000 
G1 X346.216 Y-193.719 Z-1.000 F10.000 
G1 X345.938 Y-193.645 Z-1.000 F10.000 
G1 X345.719 Y-193.601 Z-1.000 F10.000 
G1 X345.396 Y-193.577 Z-1.000 F10.000 
G1 X345.654 Y-192.516 Z-1.000 F10.000 
G1 X347.181 Y-191.758 Z-1.000 F10.000 
G1 X347.181 Y-191.758 Z-1.000 F10.000 
G0 Z6.000 
G0 Z6.000 
G0 X347.565 Y-191.147 
G0 Z4.000 
G1 X347.565 Y-191.147 Z-1.000 F10.000 
G1 X345.376 Y-192.162 Z-1.000 F10.000 
G1 X345.570 Y-191.835 Z-1.000 F10.000 
G1 X344.763 Y-191.178 Z-1.000 F10.000 
G1 X345.185 Y-190.799 Z-1.000 F10.000 
G1 X345.591 Y-190.533 Z-1.000 F10.000 
G1 X346.007 Y-190.347 Z-1.000 F10.000 
G1 X346.462 Y-190.225 Z-1.000 F10.000 
G1 X346.987 Y-190.159 Z-1.000 F10.000 
G1 X347.168 Y-190.150 Z-1.000 F10.000 
G1 X347.355 Y-190.148 Z-1.000 F10.000 
G1 X347.518 Y-190.148 Z-1.000 F10.000 
G1 X348.052 Y-190.183 Z-1.000 F10.000 
G1 X348.555 Y-190.288 Z-1.000 F10.000 
G1 X349.024 Y-190.458 Z-1.000 F10.000 
G1 X349.458 Y-190.691 Z-1.000 F10.000 
G1 X349.852 Y-190.984 Z-1.000 F10.000 
G1 X350.202 Y-191.333 Z-1.000 F10.000 
G1 X350.503 Y-191.737 Z-1.000 F10.000 
G1 X350.749 Y-192.188 Z-1.000 F10.000 
G1 X350.935 Y-192.682 Z-1.000 F10.000 
G1 X351.057 Y-193.213 Z-1.000 F10.000 
G1 X351.111 Y-193.904 Z-1.000 F10.000 
G1 X351.076 Y-194.443 Z-1.000 F10.000 
G1 X350.971 Y-194.949 Z-1.000 F10.000 
G1 X350.802 Y-195.420 Z-1.000 F10.000 
G1 X350.570 Y-195.853 Z-1.000 F10.000 
G1 X350.279 Y-196.245 Z-1.000 F10.000 
G1 X349.931 Y-196.593 Z-1.000 F10.000 
G1 X349.530 Y-196.892 Z-1.000 F10.000 
G1 X349.080 Y-197.136 Z-1.000 F10.000 
G1 X348.586 Y-197.321 Z-1.000 F10.000 
G1 X348.054 Y-197.442 Z-1.000 F10.000 
G1 X347.355 Y-197.497 Z-1.000 F10.000 
G1 X346.809 Y-197.461 Z-1.000 F10.000 
G1 X346.285 Y-197.355 Z-1.000 F10.000 
G1 X345.792 Y-197.182 Z-1.000 F10.000 
G1 X345.339 Y-196.947 Z-1.000 F10.000 
G1 X344.933 Y-196.655 Z-1.000 F10.000 
G1 X344.581 Y-196.312 Z-1.000 F10.000 
G1 X344.288 Y-195.924 Z-1.000 F10.000 
G1 X344.056 Y-195.496 Z-1.000 F10.000 
G1 X343.890 Y-195.033 Z-1.000 F10.000 
G1 X343.791 Y-194.537 Z-1.000 F10.000 
G1 X343.762 Y-194.067 Z-1.000 F10.000 
G1 X343.762 Y-193.740 Z-1.000 F10.000 
G1 X343.798 Y-193.177 Z-1.000 F10.000 
G1 X343.898 Y-192.687 Z-1.000 F10.000 
G1 X344.059 Y-192.248 Z-1.000 F10.000 
G1 X344.283 Y-191.842 Z-1.000 F10.000 
G1 X344.551 Y-191.482 Z-1.000 F10.000 
G1 X344.451 Y-191.891 Z-1.000 F10.000 
G1 X345.332 Y-192.552 Z-1.000 F10.000 
G1 X345.048 Y-192.933 Z-1.000 F10.000 
G1 X344.951 Y-193.146 Z-1.000 F10.000 
G1 X344.912 Y-193.440 Z-1.000 F10.000 
G1 X344.906 Y-193.740 Z-1.000 F10.000 
G1 X344.906 Y-194.067 Z-1.000 F10.000 
G1 X344.941 Y-194.458 Z-1.000 F10.000 
G1 X345.046 Y-194.840 Z-1.000 F10.000 
G1 X345.221 Y-195.204 Z-1.000 F10.000 
G1 X345.460 Y-195.538 Z-1.000 F10.000 
G1 X345.757 Y-195.829 Z-1.000 F10.000 
G1 X346.100 Y-196.064 Z-1.000 F10.000 
G1 X346.476 Y-196.233 Z-1.000 F10.000 
G1 X346.871 Y-196.330 Z-1.000 F10.000 
G1 X347.030 Y-196.347 Z-1.000 F10.000 
G1 X347.192 Y-196.353 Z-1.000 F10.000 
G1 X347.518 Y-196.353 Z-1.000 F10.000 
G1 X347.906 Y-196.318 Z-1.000 F10.000 
G1 X348.287 Y-196.212 Z-1.000 F10.000 
G1 X348.651 Y-196.038 Z-1.000 F10.000 
G1 X348.986 Y-195.797 Z-1.000 F10.000 
G1 X349.279 Y-195.499 Z-1.000 F10.000 
G1 X349.515 Y-195.155 Z-1.000 F10.000 
G1 X349.684 Y-194.779 Z-1.000 F10.000 
G1 X349.781 Y-194.385 Z-1.000 F10.000 
G1 X349.799 Y-194.227 Z-1.000 F10.000 
G1 X349.805 Y-194.067 Z-1.000 F10.000 
G1 X349.805 Y-193.740 Z-1.000 F10.000 
G1 X349.771 Y-193.220 Z-1.000 F10.000 
G1 X349.688 Y-192.905 Z-1.000 F10.000 
G1 X349.563 Y-192.682 Z-1.000 F10.000 
G1 X349.359 Y-192.441 Z-1.000 F10.000 
G1 X349.009 Y-191.965 Z-1.000 F10.000 
G1 X349.641 Y-191.977 Z-1.000 F10.000 
G1 X349.450 Y-192.399 Z-1.000 F10.000 
G1 X350.501 Y-192.388 Z-1.000 F10.000 
G1 X350.504 Y-192.198 Z-1.000 F10.000 
G1 X349.993 Y-192.071 Z-1.000 F10.000 
G1 X349.554 Y-191.059 Z-1.000 F10.000 
G1 X349.041 Y-191.810 Z-1.000 F10.000 
G1 X347.705 Y-191.370 Z-1.000 F10.000 
G1 X348.042 Y-191.176 Z-1.000 F10.000 
G1 X348.002 Y-190.336 Z-1.000 F10.000 
G1 X347.369 Y-190.640 Z-1.000 F10.000 
G1 X346.481 Y-190.706 Z-1.000 F10.000 
G1 X347.565 Y-191.147 Z-1.000 F10.000 
G1 X347.565 Y-191.147 Z-1.000 F10.000 
G0 Z6.000 
G0 Z6.000 
G0 X346.539 Y-189.821 
G0 Z4.000 
G1 X346.539 Y-189.821 Z-1.000 F10.000 
G1 X345.845 Y-190.147 Z-1.000 F10.000 
G1 X345.244 Y-190.507 Z-1.000 F10.000 
G1 X344.729 Y-190.896 Z-1.000 F10.000 
G1 X344.296 Y-191.311 Z-1.000 F10.000 
G1 X343.940 Y-191.749 Z-1.000 F10.000 
G1 X343.659 Y-192.207 Z-1.000 F10.000 
G1 X343.449 Y-192.684 Z-1.000 F10.000 
G1 X343.310 Y-193.176 Z-1.000 F10.000 
G1 X343.240 Y-193.680 Z-1.000 F10.000 
G1 X343.242 Y-194.193 Z-1.000 F10.000 
G1 X343.315 Y-194.710 Z-1.000 F10.000 
G1 X343.459 Y-195.222 Z-1.000 F10.000 
G1 X343.675 Y-195.720 Z-1.000 F10.000 
G1 X343.958 Y-196.194 Z-1.000 F10.000 
G1 X344.304 Y-196.631 Z-1.000 F10.000 
G1 X344.705 Y-197.020 Z-1.000 F10.000 
G1 X345.152 Y-197.351 Z-1.000 F10.000 
G1 X345.634 Y-197.618 Z-1.000 F10.000 
G1 X346.144 Y-197.816 Z-1.000 F10.000 
G1 X346.673 Y-197.942 Z-1.000 F10.000 
G1 X347.215 Y-197.994 Z-1.000 F10.000 
G1 X347.766 Y-197.973 Z-1.000 F10.000 
G1 X348.375 Y-197.863 Z-1.000 F10.000 
G1 X348.989 Y-197.671 Z-1.000 F10.000 
G1 X349.527 Y-197.429 Z-1.000 F10.000 
G1 X349.994 Y-197.143 Z-1.000 F10.000 
G1 X350.395 Y-196.815 Z-1.000 F10.000 
G1 X350.733 Y-196.446 Z-1.000 F10.000 
G1 X351.011 Y-196.040 Z-1.000 F10.000 
G1 X351.229 Y-195.595 Z-1.000 F10.000 
G1 X351.386 Y-195.113 Z-1.000 F10.000 
G1 X351.480 Y-194.597 Z-1.000 F10.000 
G1 X351.506 Y-194.050 Z-1.000 F10.000 
G1 X351.462 Y-193.479 Z-1.000 F10.000 
G1 X351.345 Y-192.897 Z-1.000 F10.000 
G1 X351.155 Y-192.318 Z-1.000 F10.000 
G1 X350.897 Y-191.759 Z-1.000 F10.000 
G1 X350.577 Y-191.239 Z-1.000 F10.000 
G1 X350.206 Y-190.776 Z-1.000 F10.000 
G1 X349.798 Y-190.382 Z-1.000 F10.000 
G1 X349.364 Y-190.066 Z-1.000 F10.000 
G1 X348.915 Y-189.828 Z-1.000 F10.000 
G1 X348.458 Y-189.670 Z-1.000 F10.000 
G1 X347.997 Y-189.589 Z-1.000 F10.000 
G1 X347.534 Y-189.582 Z-1.000 F10.000 
G1 X347.069 Y-189.651 Z-1.000 F10.000 
G1 X346.805 Y-189.723 Z-1.000 F10.000 
G1 X346.539 Y-189.821 Z-1.000 F10.000 
G0 Z6.000 
G0 Z6.000 
G0 X360.013 Y-258.517 
G0 Z4.000 
G1 X360.013 Y-258.517 Z-1.000 F10.000 
G1 X360.126 Y-258.683 Z-1.000 F10.000 
G1 X358.417 Y-259.590 Z-1.000 F10.000 
G1 X360.013 Y-258.517 Z-1.000 F10.000 
G1 X360.013 Y-258.517 Z-1.000 F10.000 
G0 Z6.000 
G0 Z6.000 
G0 X269.513 Y-258.108 
G0 Z4.000 
G1 X269.513 Y-258.108 Z-1.000 F10.000 
G1 X270.041 Y-258.477 Z-1.000 F10.000 
G1 X270.324 Y-258.727 Z-1.000 F10.000 
G1 X270.492 Y-258.964 Z-1.000 F10.000 
G1 X270.573 Y-259.198 Z-1.000 F10.000 
G1 X269.261 Y-258.405 Z-1.000 F10.000 
G1 X269.513 Y-258.108 Z-1.000 F10.000 
G0 Z6.000 
G0 Z6.000 
G0 X359.391 Y-258.086 
G0 Z4.000 
G1 X359.391 Y-258.086 Z-1.000 F10.000 
G1 X359.326 Y-258.311 Z-1.000 F10.000 
G1 X359.189 Y-258.535 Z-1.000 F10.000 
G1 X358.974 Y-258.752 Z-1.000 F10.000 
G1 X358.684 Y-258.943 Z-1.000 F10.000 
G1 X358.344 Y-259.082 Z-1.000 F10.000 
G1 X357.996 Y-259.147 Z-1.000 F10.000 
G1 X357.795 Y-259.146 Z-1.000 F10.000 
G1 X359.391 Y-258.086 Z-1.000 F10.000 
G0 Z6.000 
G0 Z6.000 
G0 X267.654 Y-257.822 
G0 Z4.000 
G1 X267.654 Y-257.822 Z-1.000 F10.000 
G1 X268.094 Y-258.249 Z-1.000 F10.000 
G1 X267.654 Y-257.822 Z-1.000 F10.000 
G0 Z6.000 
G0 Z6.000 
G0 X267.000 Y-257.332 
G0 Z4.000 
G1 X267.000 Y-257.332 Z-1.000 F10.000 
G1 X267.441 Y-257.759 Z-1.000 F10.000 
G1 X267.000 Y-257.332 Z-1.000 F10.000 
G0 Z6.000 
G0 Z6.000 
G0 X266.347 Y-256.842 
G0 Z4.000 
G1 X266.347 Y-256.842 Z-1.000 F10.000 
G1 X266.788 Y-257.269 Z-1.000 F10.000 
G1 X266.347 Y-256.842 Z-1.000 F10.000 
G0 Z6.000 
G0 Z6.000 
G0 X233.857 Y-257.103 
G0 Z4.000 
G1 X233.857 Y-257.103 Z-1.000 F10.000 
G1 X236.208 Y-257.070 Z-1.000 F10.000 
G1 X237.989 Y-256.976 Z-1.000 F10.000 
G1 X239.477 Y-256.823 Z-1.000 F10.000 
G1 X240.782 Y-256.615 Z-1.000 F10.000 
G1 X241.984 Y-256.348 Z-1.000 F10.000 
G1 X243.141 Y-256.015 Z-1.000 F10.000 
G1 X244.295 Y-255.606 Z-1.000 F10.000 
G1 X245.483 Y-255.106 Z-1.000 F10.000 
G1 X245.953 Y-254.887 Z-1.000 F10.000 
G1 X246.431 Y-254.654 Z-1.000 F10.000 
G1 X247.925 Y-253.867 Z-1.000 F10.000 
G1 X249.182 Y-253.126 Z-1.000 F10.000 
G1 X250.165 Y-252.465 Z-1.000 F10.000 
G1 X251.046 Y-251.757 Z-1.000 F10.000 
G1 X251.644 Y-251.172 Z-1.000 F10.000 
G1 X253.649 Y-249.170 Z-1.000 F10.000 
G1 X254.437 Y-248.452 Z-1.000 F10.000 
G1 X254.725 Y-248.230 Z-1.000 F10.000 
G1 X254.923 Y-248.122 Z-1.000 F10.000 
G1 X254.657 Y-248.564 Z-1.000 F10.000 
G1 X254.243 Y-249.110 Z-1.000 F10.000 
G1 X253.651 Y-249.769 Z-1.000 F10.000 
G1 X252.862 Y-250.541 Z-1.000 F10.000 
G1 X251.873 Y-251.408 Z-1.000 F10.000 
G1 X250.719 Y-252.326 Z-1.000 F10.000 
G1 X249.483 Y-253.218 Z-1.000 F10.000 
G1 X248.293 Y-253.991 Z-1.000 F10.000 
G1 X247.281 Y-254.565 Z-1.000 F10.000 
G1 X246.530 Y-254.915 Z-1.000 F10.000 
G1 X244.391 Y-255.742 Z-1.000 F10.000 
G1 X242.873 Y-256.259 Z-1.000 F10.000 
G1 X241.604 Y-256.614 Z-1.000 F10.000 
G1 X240.442 Y-256.862 Z-1.000 F10.000 
G1 X239.254 Y-257.039 Z-1.000 F10.000 
G1 X237.926 Y-257.161 Z-1.000 F10.000 
G1 X236.301 Y-257.237 Z-1.000 F10.000 
G1 X233.857 Y-257.267 Z-1.000 F10.000 
G1 X233.857 Y-257.103 Z-1.000 F10.000 
G1 X233.857 Y-257.103 Z-1.000 F10.000 
G0 Z6.000 
G0 Z6.000 
G0 X233.693 Y-257.103 
G0 Z4.000 
G1 X233.693 Y-257.103 Z-1.000 F10.000 
G1 X232.769 Y-257.068 Z-1.000 F10.000 
G1 X231.790 Y-256.957 Z-1.000 F10.000 
G1 X230.756 Y-256.769 Z-1.000 F10.000 
G1 X229.669 Y-256.498 Z-1.000 F10.000 
G1 X228.534 Y-256.140 Z-1.000 F10.000 
G1 X227.357 Y-255.695 Z-1.000 F10.000 
G1 X226.151 Y-255.162 Z-1.000 F10.000 
G1 X224.929 Y-254.544 Z-1.000 F10.000 
G1 X223.712 Y-253.847 Z-1.000 F10.000 
G1 X222.521 Y-253.084 Z-1.000 F10.000 
G1 X221.383 Y-252.271 Z-1.000 F10.000 
G1 X220.325 Y-251.426 Z-1.000 F10.000 
G1 X219.769 Y-250.941 Z-1.000 F10.000 
G1 X219.003 Y-250.202 Z-1.000 F10.000 
G1 X218.155 Y-249.282 Z-1.000 F10.000 
G1 X217.265 Y-248.205 Z-1.000 F10.000 
G1 X216.377 Y-247.016 Z-1.000 F10.000 
G1 X215.539 Y-245.768 Z-1.000 F10.000 
G1 X214.786 Y-244.515 Z-1.000 F10.000 
G1 X214.142 Y-243.299 Z-1.000 F10.000 
G1 X213.617 Y-242.150 Z-1.000 F10.000 
G1 X213.212 Y-241.086 Z-1.000 F10.000 
G1 X212.920 Y-240.115 Z-1.000 F10.000 
G1 X212.734 Y-239.239 Z-1.000 F10.000 
G1 X212.641 Y-238.454 Z-1.000 F10.000 
G1 X212.627 Y-237.997 Z-1.000 F10.000 
G1 X212.752 Y-238.258 Z-1.000 F10.000 
G1 X213.074 Y-239.107 Z-1.000 F10.000 
G1 X213.849 Y-241.320 Z-1.000 F10.000 
G1 X214.566 Y-243.324 Z-1.000 F10.000 
G1 X215.127 Y-244.752 Z-1.000 F10.000 
G1 X215.269 Y-245.072 Z-1.000 F10.000 
G1 X215.401 Y-245.348 Z-1.000 F10.000 
G1 X215.829 Y-246.115 Z-1.000 F10.000 
G1 X216.376 Y-246.948 Z-1.000 F10.000 
G1 X217.041 Y-247.833 Z-1.000 F10.000 
G1 X217.818 Y-248.748 Z-1.000 F10.000 
G1 X218.681 Y-249.657 Z-1.000 F10.000 
G1 X219.301 Y-250.250 Z-1.000 F10.000 
G1 X219.916 Y-250.794 Z-1.000 F10.000 
G1 X221.311 Y-251.950 Z-1.000 F10.000 
G1 X222.520 Y-252.871 Z-1.000 F10.000 
G1 X223.584 Y-253.590 Z-1.000 F10.000 
G1 X224.577 Y-254.170 Z-1.000 F10.000 
G1 X225.526 Y-254.636 Z-1.000 F10.000 
G1 X225.761 Y-254.738 Z-1.000 F10.000 
G1 X225.999 Y-254.836 Z-1.000 F10.000 
G1 X227.543 Y-255.471 Z-1.000 F10.000 
G1 X228.717 Y-255.919 Z-1.000 F10.000 
G1 X229.171 Y-256.072 Z-1.000 F10.000 
G1 X229.671 Y-256.226 Z-1.000 F10.000 
G1 X230.285 Y-256.375 Z-1.000 F10.000 
G1 X231.898 Y-256.704 Z-1.000 F10.000 
G1 X233.092 Y-256.947 Z-1.000 F10.000 
G1 X233.693 Y-257.103 Z-1.000 F10.000 
G1 X233.693 Y-257.103 Z-1.000 F10.000 
G0 Z6.000 
G0 Z6.000 
G0 X266.341 Y-256.572 
G0 Z4.000 
G1 X266.341 Y-256.572 Z-1.000 F10.000 
G1 X266.114 Y-256.478 Z-1.000 F10.000 
G1 X265.907 Y-256.315 Z-1.000 F10.000 
G1 X265.735 Y-256.088 Z-1.000 F10.000 
G1 X265.616 Y-255.809 Z-1.000 F10.000 
G1 X265.580 Y-255.648 Z-1.000 F10.000 
G1 X266.341 Y-256.572 Z-1.000 F10.000 
G0 Z6.000 
G0 Z6.000 
G0 X265.456 Y-255.389 
G0 Z4.000 
G1 X265.456 Y-255.389 Z-1.000 F10.000 
G1 X265.421 Y-255.447 Z-1.000 F10.000 
G1 X265.375 Y-255.470 Z-1.000 F10.000 
G1 X265.456 Y-255.389 Z-1.000 F10.000 
G0 Z6.000 
G0 Z6.000 
G0 X265.240 Y-255.130 
G0 Z4.000 
G1 X265.240 Y-255.130 Z-1.000 F10.000 
G1 X265.240 Y-254.831 Z-1.000 F10.000 
G1 X265.240 Y-255.130 Z-1.000 F10.000 
G0 Z6.000 
G0 Z6.000 
G0 X265.095 Y-254.014 
G0 Z4.000 
G1 X265.095 Y-254.014 Z-1.000 F10.000 
G1 X265.091 Y-254.639 Z-1.000 F10.000 
G1 X265.095 Y-254.014 Z-1.000 F10.000 
G0 Z6.000 
G0 Z6.000 
G0 X322.370 Y-251.294 
G0 Z4.000 
G1 X322.370 Y-251.294 Z-1.000 F10.000 
G1 X328.248 Y-251.224 Z-1.000 F10.000 
G1 X330.531 Y-251.421 Z-1.000 F10.000 
G1 X330.534 Y-255.960 Z-1.000 F10.000 
G1 X327.594 Y-255.988 Z-1.000 F10.000 
G1 X310.203 Y-255.960 Z-1.000 F10.000 
G1 X293.464 Y-256.173 Z-1.000 F10.000 
G1 X293.308 Y-253.510 Z-1.000 F10.000 
G1 X293.301 Y-252.694 Z-1.000 F10.000 
G1 X293.331 Y-252.252 Z-1.000 F10.000 
G1 X293.400 Y-251.978 Z-1.000 F10.000 
G1 X293.435 Y-251.825 Z-1.000 F10.000 
G1 X293.465 Y-251.612 Z-1.000 F10.000 
G1 X322.370 Y-251.294 Z-1.000 F10.000 
G1 X322.370 Y-251.294 Z-1.000 F10.000 
G0 Z6.000 
G0 Z6.000 
G0 X264.885 Y-253.347 
G0 Z4.000 
G1 X264.885 Y-253.347 Z-1.000 F10.000 
G1 X264.920 Y-252.841 Z-1.000 F10.000 
G1 X265.036 Y-252.227 Z-1.000 F10.000 
G1 X265.218 Y-251.648 Z-1.000 F10.000 
G1 X265.422 Y-251.229 Z-1.000 F10.000 
G1 X265.538 Y-251.061 Z-1.000 F10.000 
G1 X265.353 Y-251.739 Z-1.000 F10.000 
G1 X265.173 Y-252.403 Z-1.000 F10.000 
G1 X265.068 Y-252.999 Z-1.000 F10.000 
G1 X265.048 Y-253.347 Z-1.000 F10.000 
G1 X265.048 Y-253.837 Z-1.000 F10.000 
G1 X264.885 Y-253.837 Z-1.000 F10.000 
G1 X264.885 Y-253.347 Z-1.000 F10.000 
G0 Z6.000 
G0 Z6.000 
G0 X250.795 Y-252.865 
G0 Z4.000 
G1 X250.795 Y-252.865 Z-1.000 F10.000 
G1 X250.862 Y-253.320 Z-1.000 F10.000 
G1 X251.312 Y-253.409 Z-1.000 F10.000 
G1 X249.419 Y-254.760 Z-1.000 F10.000 
G1 X248.902 Y-254.097 Z-1.000 F10.000 
G1 X250.795 Y-252.865 Z-1.000 F10.000 
G1 X250.795 Y-252.865 Z-1.000 F10.000 
G0 Z6.000 
G0 Z6.000 
G0 X260.701 Y-249.065 
G0 Z4.000 
G1 X260.701 Y-249.065 Z-1.000 F10.000 
G1 X261.456 Y-249.105 Z-1.000 F10.000 
G1 X264.071 Y-249.101 Z-1.000 F10.000 
G1 X281.706 Y-249.850 Z-1.000 F10.000 
G1 X282.368 Y-250.164 Z-1.000 F10.000 
G1 X281.701 Y-249.899 Z-1.000 F10.000 
G1 X281.079 Y-250.260 Z-1.000 F10.000 
G1 X281.102 Y-251.121 Z-1.000 F10.000 
G1 X281.987 Y-251.229 Z-1.000 F10.000 
G1 X282.474 Y-250.418 Z-1.000 F10.000 
G1 X282.076 Y-252.525 Z-1.000 F10.000 
G1 X281.689 Y-252.068 Z-1.000 F10.000 
G1 X280.830 Y-252.091 Z-1.000 F10.000 
G1 X280.721 Y-252.976 Z-1.000 F10.000 
G1 X281.380 Y-253.375 Z-1.000 F10.000 
G1 X281.992 Y-252.709 Z-1.000 F10.000 
G1 X281.865 Y-253.510 Z-1.000 F10.000 
G1 X280.560 Y-253.078 Z-1.000 F10.000 
G1 X280.565 Y-252.023 Z-1.000 F10.000 
G1 X280.306 Y-251.745 Z-1.000 F10.000 
G1 X280.005 Y-251.523 Z-1.000 F10.000 
G1 X279.651 Y-251.350 Z-1.000 F10.000 
G1 X279.228 Y-251.221 Z-1.000 F10.000 
G1 X278.706 Y-251.134 Z-1.000 F10.000 
G1 X278.022 Y-251.086 Z-1.000 F10.000 
G1 X276.649 Y-251.055 Z-1.000 F10.000 
G1 X273.679 Y-250.931 Z-1.000 F10.000 
G1 X271.907 Y-250.898 Z-1.000 F10.000 
G1 X270.473 Y-250.868 Z-1.000 F10.000 
G1 X268.730 Y-250.767 Z-1.000 F10.000 
G1 X266.066 Y-250.560 Z-1.000 F10.000 
G1 X264.109 Y-250.439 Z-1.000 F10.000 
G1 X262.762 Y-250.408 Z-1.000 F10.000 
G1 X260.412 Y-250.394 Z-1.000 F10.000 
G1 X260.701 Y-249.065 Z-1.000 F10.000 
G1 X260.701 Y-249.065 Z-1.000 F10.000 
G0 Z6.000 
G0 Z6.000 
G0 X251.248 Y-252.940 
G0 Z4.000 
G1 X251.248 Y-252.940 Z-1.000 F10.000 
G1 X251.211 Y-253.000 Z-1.000 F10.000 
G1 X251.167 Y-253.021 Z-1.000 F10.000 
G1 X251.248 Y-252.940 Z-1.000 F10.000 
G0 Z6.000 
G0 Z6.000 
G0 X281.286 Y-252.372 
G0 Z4.000 
G1 X281.286 Y-252.372 Z-1.000 F10.000 
G1 X281.570 Y-252.802 Z-1.000 F10.000 
G1 X281.020 Y-252.791 Z-1.000 F10.000 
G1 X281.286 Y-252.372 Z-1.000 F10.000 
G1 X281.286 Y-252.372 Z-1.000 F10.000 
G0 Z6.000 
G0 Z6.000 
G0 X334.478 Y-254.492 
G0 Z4.000 
G1 X334.478 Y-254.492 Z-1.000 F10.000 
G1 X334.454 Y-255.307 Z-1.000 F10.000 
G1 X330.872 Y-256.010 Z-1.000 F10.000 
G1 X330.878 Y-254.165 Z-1.000 F10.000 
G1 X331.004 Y-251.542 Z-1.000 F10.000 
G1 X331.186 Y-251.567 Z-1.000 F10.000 
G1 X334.617 Y-252.047 Z-1.000 F10.000 
G1 X334.478 Y-254.492 Z-1.000 F10.000 
G1 X334.478 Y-254.492 Z-1.000 F10.000 
G0 Z6.000 
G0 Z6.000 
G0 X257.191 Y-251.705 
G0 Z4.000 
G1 X257.191 Y-251.705 Z-1.000 F10.000 
G1 X256.384 Y-251.775 Z-1.000 F10.000 
G1 X257.191 Y-251.705 Z-1.000 F10.000 
G0 Z6.000 
G0 Z6.000 
G0 X273.391 Y-251.421 
G0 Z4.000 
G1 X273.391 Y-251.421 Z-1.000 F10.000 
G1 X275.170 Y-251.589 Z-1.000 F10.000 
G1 X270.974 Y-258.608 Z-1.000 F10.000 
G1 X269.593 Y-257.599 Z-1.000 F10.000 
G1 X273.391 Y-251.421 Z-1.000 F10.000 
G0 Z6.000 
G0 Z6.000 
G0 X257.454 Y-251.633 
G0 Z4.000 
G1 X257.454 Y-251.633 Z-1.000 F10.000 
G1 X257.418 Y-251.691 Z-1.000 F10.000 
G1 X257.373 Y-251.714 Z-1.000 F10.000 
G1 X257.454 Y-251.633 Z-1.000 F10.000 
G0 Z6.000 
G0 Z6.000 
G0 X254.774 Y-250.856 
G0 Z4.000 
G1 X254.774 Y-250.856 Z-1.000 F10.000 
G1 X255.427 Y-250.021 Z-1.000 F10.000 
G1 X256.213 Y-249.121 Z-1.000 F10.000 
G1 X256.757 Y-248.587 Z-1.000 F10.000 
G1 X257.007 Y-248.391 Z-1.000 F10.000 
G1 X257.210 Y-248.285 Z-1.000 F10.000 
G1 X257.095 Y-248.614 Z-1.000 F10.000 
G1 X256.928 Y-248.891 Z-1.000 F10.000 
G1 X256.707 Y-249.132 Z-1.000 F10.000 
G1 X256.414 Y-249.358 Z-1.000 F10.000 
G1 X255.962 Y-249.651 Z-1.000 F10.000 
G1 X255.729 Y-249.848 Z-1.000 F10.000 
G1 X255.604 Y-250.040 Z-1.000 F10.000 
G1 X255.557 Y-250.252 Z-1.000 F10.000 
G1 X255.584 Y-250.504 Z-1.000 F10.000 
G1 X255.701 Y-250.831 Z-1.000 F10.000 
G1 X255.945 Y-251.274 Z-1.000 F10.000 
G1 X256.070 Y-251.465 Z-1.000 F10.000 
G1 X256.216 Y-251.672 Z-1.000 F10.000 
G1 X254.774 Y-250.856 Z-1.000 F10.000 
G1 X254.774 Y-250.856 Z-1.000 F10.000 
G0 Z6.000 
G0 Z6.000 
G0 X334.454 Y-251.551 
G0 Z4.000 
G1 X334.454 Y-251.551 Z-1.000 F10.000 
G1 X333.815 Y-251.509 Z-1.000 F10.000 
G1 X333.886 Y-251.371 Z-1.000 F10.000 
G1 X333.988 Y-251.315 Z-1.000 F10.000 
G1 X334.145 Y-251.309 Z-1.000 F10.000 
G1 X334.475 Y-251.362 Z-1.000 F10.000 
G1 X334.780 Y-251.388 Z-1.000 F10.000 
G1 X335.118 Y-251.358 Z-1.000 F10.000 
G1 X335.283 Y-251.293 Z-1.000 F10.000 
G1 X335.383 Y-251.224 Z-1.000 F10.000 
G1 X335.493 Y-251.237 Z-1.000 F10.000 
G1 X335.788 Y-251.388 Z-1.000 F10.000 
G1 X335.112 Y-251.580 Z-1.000 F10.000 
G1 X334.454 Y-251.551 Z-1.000 F10.000 
G0 Z6.000 
G0 Z6.000 
G0 X268.832 Y-252.340 
G0 Z4.000 
G1 X268.832 Y-252.340 Z-1.000 F10.000 
G1 X268.935 Y-252.009 Z-1.000 F10.000 
G1 X269.121 Y-251.660 Z-1.000 F10.000 
G1 X269.332 Y-251.410 Z-1.000 F10.000 
G1 X269.458 Y-251.314 Z-1.000 F10.000 
G1 X269.593 Y-251.252 Z-1.000 F10.000 
G1 X269.490 Y-251.583 Z-1.000 F10.000 
G1 X269.305 Y-251.932 Z-1.000 F10.000 
G1 X269.094 Y-252.182 Z-1.000 F10.000 
G1 X268.967 Y-252.278 Z-1.000 F10.000 
G1 X268.832 Y-252.340 Z-1.000 F10.000 
G0 Z6.000 
G0 Z6.000 
G0 X266.355 Y-253.184 
G0 Z4.000 
G1 X266.355 Y-253.184 Z-1.000 F10.000 
G1 X266.390 Y-252.744 Z-1.000 F10.000 
G1 X266.501 Y-252.262 Z-1.000 F10.000 
G1 X266.682 Y-251.802 Z-1.000 F10.000 
G1 X266.845 Y-251.514 Z-1.000 F10.000 
G1 X267.036 Y-251.266 Z-1.000 F10.000 
G1 X268.804 Y-251.221 Z-1.000 F10.000 
G1 X268.250 Y-252.522 Z-1.000 F10.000 
G1 X268.769 Y-253.056 Z-1.000 F10.000 
G1 X268.970 Y-253.153 Z-1.000 F10.000 
G1 X270.251 Y-251.204 Z-1.000 F10.000 
G1 X272.721 Y-251.433 Z-1.000 F10.000 
G1 X272.576 Y-251.816 Z-1.000 F10.000 
G1 X272.208 Y-252.575 Z-1.000 F10.000 
G1 X271.563 Y-253.737 Z-1.000 F10.000 
G1 X270.760 Y-255.031 Z-1.000 F10.000 
G1 X270.064 Y-256.024 Z-1.000 F10.000 
G1 X269.549 Y-256.647 Z-1.000 F10.000 
G1 X269.199 Y-256.977 Z-1.000 F10.000 
G1 X268.954 Y-257.117 Z-1.000 F10.000 
G1 X268.345 Y-256.650 Z-1.000 F10.000 
G1 X267.681 Y-256.087 Z-1.000 F10.000 
G1 X267.200 Y-255.590 Z-1.000 F10.000 
G1 X266.850 Y-255.125 Z-1.000 F10.000 
G1 X266.603 Y-254.672 Z-1.000 F10.000 
G1 X266.445 Y-254.223 Z-1.000 F10.000 
G1 X266.366 Y-253.770 Z-1.000 F10.000 
G1 X266.355 Y-253.511 Z-1.000 F10.000 
G1 X266.355 Y-253.184 Z-1.000 F10.000 
G1 X266.355 Y-253.184 Z-1.000 F10.000 
G0 Z6.000 
G0 Z6.000 
G0 X265.538 Y-253.021 
G0 Z4.000 
G1 X265.538 Y-253.021 Z-1.000 F10.000 
G1 X265.573 Y-252.439 Z-1.000 F10.000 
G1 X265.670 Y-252.000 Z-1.000 F10.000 
G1 X265.824 Y-251.645 Z-1.000 F10.000 
G1 X266.036 Y-251.342 Z-1.000 F10.000 
G1 X266.319 Y-251.068 Z-1.000 F10.000 
G1 X266.291 Y-251.398 Z-1.000 F10.000 
G1 X266.194 Y-251.776 Z-1.000 F10.000 
G1 X265.980 Y-252.461 Z-1.000 F10.000 
G1 X265.885 Y-252.972 Z-1.000 F10.000 
G1 X265.865 Y-253.347 Z-1.000 F10.000 
G1 X265.900 Y-253.955 Z-1.000 F10.000 
G1 X265.998 Y-254.479 Z-1.000 F10.000 
G1 X266.154 Y-254.936 Z-1.000 F10.000 
G1 X266.364 Y-255.341 Z-1.000 F10.000 
G1 X266.634 Y-255.712 Z-1.000 F10.000 
G1 X266.973 Y-256.066 Z-1.000 F10.000 
G1 X267.414 Y-256.431 Z-1.000 F10.000 
G1 X268.069 Y-256.907 Z-1.000 F10.000 
G1 X268.584 Y-257.308 Z-1.000 F10.000 
G1 X268.862 Y-257.571 Z-1.000 F10.000 
G1 X269.110 Y-257.863 Z-1.000 F10.000 
G1 X268.941 Y-257.942 Z-1.000 F10.000 
G1 X268.738 Y-257.956 Z-1.000 F10.000 
G1 X268.490 Y-257.901 Z-1.000 F10.000 
G1 X268.185 Y-257.757 Z-1.000 F10.000 
G1 X267.817 Y-257.501 Z-1.000 F10.000 
G1 X267.392 Y-257.118 Z-1.000 F10.000 
G1 X266.934 Y-256.606 Z-1.000 F10.000 
G1 X266.485 Y-255.996 Z-1.000 F10.000 
G1 X266.095 Y-255.342 Z-1.000 F10.000 
G1 X265.803 Y-254.709 Z-1.000 F10.000 
G1 X265.622 Y-254.146 Z-1.000 F10.000 
G1 X265.560 Y-253.820 Z-1.000 F10.000 
G1 X265.538 Y-253.511 Z-1.000 F10.000 
G1 X265.538 Y-253.021 Z-1.000 F10.000 
G1 X265.538 Y-253.021 Z-1.000 F10.000 
G0 Z6.000 
G0 Z6.000 
G0 X258.113 Y-250.893 
G0 Z4.000 
G1 X258.113 Y-250.893 Z-1.000 F10.000 
G1 X257.699 Y-251.503 Z-1.000 F10.000 
G1 X258.113 Y-250.893 Z-1.000 F10.000 
G0 Z6.000 
G0 Z6.000 
G0 X336.722 Y-251.215 
G0 Z4.000 
G1 X336.722 Y-251.215 Z-1.000 F10.000 
G1 X335.915 Y-251.285 Z-1.000 F10.000 
G1 X336.722 Y-251.215 Z-1.000 F10.000 
G0 Z6.000 
G0 Z6.000 
G0 X257.807 Y-248.246 
G0 Z4.000 
G1 X257.807 Y-248.246 Z-1.000 F10.000 
G1 X258.516 Y-248.288 Z-1.000 F10.000 
G1 X259.006 Y-248.285 Z-1.000 F10.000 
G1 X259.820 Y-248.299 Z-1.000 F10.000 
G1 X257.611 Y-250.922 Z-1.000 F10.000 
G1 X257.576 Y-249.928 Z-1.000 F10.000 
G1 X256.247 Y-249.846 Z-1.000 F10.000 
G1 X256.122 Y-250.689 Z-1.000 F10.000 
G1 X256.411 Y-251.198 Z-1.000 F10.000 
G1 X257.520 Y-251.137 Z-1.000 F10.000 
G1 X256.448 Y-251.436 Z-1.000 F10.000 
G1 X255.871 Y-250.766 Z-1.000 F10.000 
G1 X256.098 Y-249.778 Z-1.000 F10.000 
G1 X257.084 Y-249.470 Z-1.000 F10.000 
G1 X257.807 Y-248.246 Z-1.000 F10.000 
G1 X257.807 Y-248.246 Z-1.000 F10.000 
G0 Z6.000 
G0 Z6.000 
G0 X282.721 Y-249.914 
G0 Z4.000 
G1 X282.721 Y-249.914 Z-1.000 F10.000 
G1 X283.978 Y-249.929 Z-1.000 F10.000 
G1 X283.331 Y-250.592 Z-1.000 F10.000 
G1 X283.679 Y-251.199 Z-1.000 F10.000 
G1 X284.542 Y-251.175 Z-1.000 F10.000 
G1 X284.650 Y-250.290 Z-1.000 F10.000 
G1 X284.156 Y-249.981 Z-1.000 F10.000 
G1 X284.808 Y-249.910 Z-1.000 F10.000 
G1 X284.808 Y-250.408 Z-1.000 F10.000 
G1 X284.791 Y-251.020 Z-1.000 F10.000 
G1 X284.444 Y-251.349 Z-1.000 F10.000 
G1 X283.829 Y-251.395 Z-1.000 F10.000 
G1 X283.502 Y-251.388 Z-1.000 F10.000 
G1 X282.895 Y-251.358 Z-1.000 F10.000 
G1 X282.721 Y-249.914 Z-1.000 F10.000 
G1 X282.721 Y-249.914 Z-1.000 F10.000 
G0 Z6.000 
G0 Z6.000 
G0 X310.938 Y-250.904 
G0 Z4.000 
G1 X310.938 Y-250.904 Z-1.000 F10.000 
G1 X310.455 Y-250.870 Z-1.000 F10.000 
G1 X310.461 Y-250.436 Z-1.000 F10.000 
G1 X310.937 Y-250.402 Z-1.000 F10.000 
G1 X311.400 Y-250.420 Z-1.000 F10.000 
G1 X311.420 Y-250.870 Z-1.000 F10.000 
G1 X310.938 Y-250.904 Z-1.000 F10.000 
G1 X310.938 Y-250.904 Z-1.000 F10.000 
G0 Z6.000 
G0 Z6.000 
G0 X309.631 Y-250.904 
G0 Z4.000 
G1 X309.631 Y-250.904 Z-1.000 F10.000 
G1 X309.149 Y-250.870 Z-1.000 F10.000 
G1 X309.155 Y-250.436 Z-1.000 F10.000 
G1 X309.631 Y-250.402 Z-1.000 F10.000 
G1 X310.093 Y-250.420 Z-1.000 F10.000 
G1 X310.114 Y-250.870 Z-1.000 F10.000 
G1 X309.631 Y-250.904 Z-1.000 F10.000 
G1 X309.631 Y-250.904 Z-1.000 F10.000 
G0 Z6.000 
G0 Z6.000 
G0 X253.896 Y-250.119 
G0 Z4.000 
G1 X253.896 Y-250.119 Z-1.000 F10.000 
G1 X254.347 Y-250.707 Z-1.000 F10.000 
G1 X251.759 Y-253.150 Z-1.000 F10.000 
G1 X251.255 Y-252.492 Z-1.000 F10.000 
G1 X253.896 Y-250.119 Z-1.000 F10.000 
G1 X253.896 Y-250.119 Z-1.000 F10.000 
G0 Z6.000 
G0 Z6.000 
G0 X284.006 Y-250.889 
G0 Z4.000 
G1 X284.006 Y-250.889 Z-1.000 F10.000 
G1 X283.811 Y-250.457 Z-1.000 F10.000 
G1 X284.310 Y-250.587 Z-1.000 F10.000 
G1 X284.006 Y-250.889 Z-1.000 F10.000 
G0 Z6.000 
G0 Z6.000 
G0 X281.852 Y-250.885 
G0 Z4.000 
G1 X281.852 Y-250.885 Z-1.000 F10.000 
G1 X281.387 Y-250.602 Z-1.000 F10.000 
G1 X281.814 Y-250.383 Z-1.000 F10.000 
G1 X281.852 Y-250.885 Z-1.000 F10.000 
G0 Z6.000 
G0 Z6.000 
G0 X256.712 Y-250.933 
G0 Z4.000 
G1 X256.712 Y-250.933 Z-1.000 F10.000 
G1 X256.393 Y-250.388 Z-1.000 F10.000 
G1 X257.167 Y-250.209 Z-1.000 F10.000 
G1 X257.142 Y-250.796 Z-1.000 F10.000 
G1 X256.712 Y-250.933 Z-1.000 F10.000 
G1 X256.712 Y-250.933 Z-1.000 F10.000 
G0 Z6.000 
G0 Z6.000 
G0 X254.262 Y-249.983 
G0 Z4.000 
G1 X254.262 Y-249.983 Z-1.000 F10.000 
G1 X254.703 Y-250.410 Z-1.000 F10.000 
G1 X254.262 Y-249.983 Z-1.000 F10.000 
G0 Z6.000 
G0 Z6.000 
G0 X322.701 Y-249.234 
G0 Z4.000 
G1 X322.701 Y-249.234 Z-1.000 F10.000 
G1 X323.371 Y-248.681 Z-1.000 F10.000 
G1 X323.840 Y-248.207 Z-1.000 F10.000 
G1 X324.161 Y-247.786 Z-1.000 F10.000 
G1 X324.373 Y-247.397 Z-1.000 F10.000 
G1 X324.504 Y-247.017 Z-1.000 F10.000 
G1 X324.573 Y-246.615 Z-1.000 F10.000 
G1 X324.591 Y-246.125 Z-1.000 F10.000 
G1 X324.592 Y-245.213 Z-1.000 F10.000 
G1 X324.659 Y-244.605 Z-1.000 F10.000 
G1 X324.803 Y-244.013 Z-1.000 F10.000 
G1 X324.976 Y-243.543 Z-1.000 F10.000 
G1 X325.230 Y-243.027 Z-1.000 F10.000 
G1 X325.539 Y-242.561 Z-1.000 F10.000 
G1 X325.902 Y-242.142 Z-1.000 F10.000 
G1 X326.319 Y-241.769 Z-1.000 F10.000 
G1 X326.792 Y-241.442 Z-1.000 F10.000 
G1 X327.320 Y-241.164 Z-1.000 F10.000 
G1 X327.904 Y-240.937 Z-1.000 F10.000 
G1 X328.543 Y-240.766 Z-1.000 F10.000 
G1 X329.233 Y-240.655 Z-1.000 F10.000 
G1 X329.718 Y-240.617 Z-1.000 F10.000 
G1 X330.208 Y-240.609 Z-1.000 F10.000 
G1 X337.696 Y-240.808 Z-1.000 F10.000 
G1 X337.543 Y-241.403 Z-1.000 F10.000 
G1 X338.131 Y-241.034 Z-1.000 F10.000 
G1 X338.159 Y-241.466 Z-1.000 F10.000 
G1 X338.117 Y-241.934 Z-1.000 F10.000 
G1 X337.999 Y-242.444 Z-1.000 F10.000 
G1 X337.797 Y-242.999 Z-1.000 F10.000 
G1 X337.501 Y-243.602 Z-1.000 F10.000 
G1 X337.102 Y-244.253 Z-1.000 F10.000 
G1 X336.592 Y-244.948 Z-1.000 F10.000 
G1 X335.969 Y-245.675 Z-1.000 F10.000 
G1 X335.242 Y-246.418 Z-1.000 F10.000 
G1 X334.432 Y-247.145 Z-1.000 F10.000 
G1 X333.578 Y-247.817 Z-1.000 F10.000 
G1 X332.740 Y-248.388 Z-1.000 F10.000 
G1 X332.199 Y-248.706 Z-1.000 F10.000 
G1 X331.697 Y-248.958 Z-1.000 F10.000 
G1 X331.167 Y-249.159 Z-1.000 F10.000 
G1 X330.452 Y-249.351 Z-1.000 F10.000 
G1 X329.513 Y-249.529 Z-1.000 F10.000 
G1 X328.311 Y-249.685 Z-1.000 F10.000 
G1 X326.805 Y-249.809 Z-1.000 F10.000 
G1 X324.959 Y-249.894 Z-1.000 F10.000 
G1 X322.742 Y-249.932 Z-1.000 F10.000 
G1 X319.264 Y-249.916 Z-1.000 F10.000 
G1 X315.947 Y-249.868 Z-1.000 F10.000 
G1 X312.842 Y-249.819 Z-1.000 F10.000 
G1 X309.673 Y-249.816 Z-1.000 F10.000 
G1 X307.282 Y-249.879 Z-1.000 F10.000 
G1 X305.622 Y-249.982 Z-1.000 F10.000 
G1 X304.288 Y-250.056 Z-1.000 F10.000 
G1 X301.718 Y-250.125 Z-1.000 F10.000 
G1 X298.358 Y-250.140 Z-1.000 F10.000 
G1 X295.624 Y-250.085 Z-1.000 F10.000 
G1 X293.878 Y-249.989 Z-1.000 F10.000 
G1 X293.296 Y-249.931 Z-1.000 F10.000 
G1 X292.837 Y-249.863 Z-1.000 F10.000 
G1 X292.716 Y-249.399 Z-1.000 F10.000 
G1 X295.900 Y-249.866 Z-1.000 F10.000 
G1 X316.500 Y-249.755 Z-1.000 F10.000 
G1 X323.855 Y-249.570 Z-1.000 F10.000 
G1 X323.858 Y-249.316 Z-1.000 F10.000 
G1 X322.701 Y-249.234 Z-1.000 F10.000 
G1 X322.701 Y-249.234 Z-1.000 F10.000 
G0 Z6.000 
G0 Z6.000 
G0 X254.135 Y-249.727 
G0 Z4.000 
G1 X254.135 Y-249.727 Z-1.000 F10.000 
G1 X254.542 Y-249.195 Z-1.000 F10.000 
G1 X254.957 Y-248.773 Z-1.000 F10.000 
G1 X255.363 Y-248.465 Z-1.000 F10.000 
G1 X255.753 Y-248.262 Z-1.000 F10.000 
G1 X256.129 Y-248.150 Z-1.000 F10.000 
G1 X256.260 Y-248.131 Z-1.000 F10.000 
G1 X256.393 Y-248.122 Z-1.000 F10.000 
G1 X255.035 Y-250.056 Z-1.000 F10.000 
G1 X254.555 Y-249.633 Z-1.000 F10.000 
G1 X254.135 Y-249.727 Z-1.000 F10.000 
G1 X254.135 Y-249.727 Z-1.000 F10.000 
G0 Z6.000 
G0 Z6.000 
G0 X311.754 Y-250.898 
G0 Z4.000 
G1 X311.754 Y-250.898 Z-1.000 F10.000 
G1 X311.815 Y-250.659 Z-1.000 F10.000 
G1 X311.924 Y-250.507 Z-1.000 F10.000 
G1 X312.077 Y-250.411 Z-1.000 F10.000 
G1 X312.297 Y-250.357 Z-1.000 F10.000 
G1 X312.627 Y-250.348 Z-1.000 F10.000 
G1 X313.209 Y-250.390 Z-1.000 F10.000 
G1 X313.718 Y-250.411 Z-1.000 F10.000 
G1 X314.435 Y-250.378 Z-1.000 F10.000 
G1 X315.180 Y-250.292 Z-1.000 F10.000 
G1 X315.412 Y-250.267 Z-1.000 F10.000 
G1 X315.667 Y-250.247 Z-1.000 F10.000 
G1 X316.735 Y-250.206 Z-1.000 F10.000 
G1 X318.226 Y-250.212 Z-1.000 F10.000 
G1 X319.345 Y-250.233 Z-1.000 F10.000 
G1 X320.409 Y-250.244 Z-1.000 F10.000 
G1 X325.310 Y-250.246 Z-1.000 F10.000 
G1 X326.223 Y-250.217 Z-1.000 F10.000 
G1 X327.495 Y-250.118 Z-1.000 F10.000 
G1 X328.500 Y-250.034 Z-1.000 F10.000 
G1 X329.396 Y-249.992 Z-1.000 F10.000 
G1 X329.919 Y-249.953 Z-1.000 F10.000 
G1 X330.803 Y-249.812 Z-1.000 F10.000 
G1 X332.076 Y-249.535 Z-1.000 F10.000 
G1 X333.581 Y-249.133 Z-1.000 F10.000 
G1 X334.978 Y-248.686 Z-1.000 F10.000 
G1 X335.987 Y-248.293 Z-1.000 F10.000 
G1 X336.708 Y-247.925 Z-1.000 F10.000 
G1 X337.821 Y-247.188 Z-1.000 F10.000 
G1 X338.569 Y-246.612 Z-1.000 F10.000 
G1 X339.113 Y-246.107 Z-1.000 F10.000 
G1 X339.573 Y-245.588 Z-1.000 F10.000 
G1 X340.081 Y-244.917 Z-1.000 F10.000 
G1 X340.678 Y-244.094 Z-1.000 F10.000 
G1 X341.476 Y-243.059 Z-1.000 F10.000 
G1 X341.503 Y-244.557 Z-1.000 F10.000 
G1 X341.545 Y-246.425 Z-1.000 F10.000 
G1 X341.538 Y-247.956 Z-1.000 F10.000 
G1 X341.472 Y-248.935 Z-1.000 F10.000 
G1 X341.410 Y-249.166 Z-1.000 F10.000 
G1 X341.271 Y-249.407 Z-1.000 F10.000 
G1 X341.041 Y-249.659 Z-1.000 F10.000 
G1 X340.703 Y-249.925 Z-1.000 F10.000 
G1 X340.244 Y-250.196 Z-1.000 F10.000 
G1 X339.662 Y-250.457 Z-1.000 F10.000 
G1 X338.993 Y-250.683 Z-1.000 F10.000 
G1 X338.320 Y-250.839 Z-1.000 F10.000 
G1 X338.000 Y-250.883 Z-1.000 F10.000 
G1 X337.720 Y-250.898 Z-1.000 F10.000 
G1 X330.539 Y-250.898 Z-1.000 F10.000 
G1 X328.578 Y-250.702 Z-1.000 F10.000 
G1 X322.369 Y-250.734 Z-1.000 F10.000 
G1 X311.754 Y-250.898 Z-1.000 F10.000 
G1 X311.754 Y-250.898 Z-1.000 F10.000 
G0 Z6.000 
G0 Z6.000 
G0 X277.133 Y-249.265 
G0 Z4.000 
G1 X277.133 Y-249.265 Z-1.000 F10.000 
G1 X276.494 Y-249.223 Z-1.000 F10.000 
G1 X276.657 Y-248.990 Z-1.000 F10.000 
G1 X276.783 Y-248.913 Z-1.000 F10.000 
G1 X276.903 Y-248.917 Z-1.000 F10.000 
G1 X277.067 Y-248.994 Z-1.000 F10.000 
G1 X277.296 Y-249.129 Z-1.000 F10.000 
G1 X278.276 Y-249.103 Z-1.000 F10.000 
G1 X280.073 Y-249.102 Z-1.000 F10.000 
G1 X280.073 Y-249.265 Z-1.000 F10.000 
G1 X277.133 Y-249.265 Z-1.000 F10.000 
G1 X277.133 Y-249.265 Z-1.000 F10.000 
G0 Z6.000 
G0 Z6.000 
G0 X280.441 Y-249.059 
G0 Z4.000 
G1 X280.441 Y-249.059 Z-1.000 F10.000 
G1 X280.606 Y-248.842 Z-1.000 F10.000 
G1 X280.854 Y-248.631 Z-1.000 F10.000 
G1 X281.195 Y-248.434 Z-1.000 F10.000 
G1 X281.620 Y-248.268 Z-1.000 F10.000 
G1 X282.096 Y-248.157 Z-1.000 F10.000 
G1 X282.315 Y-248.131 Z-1.000 F10.000 
G1 X282.522 Y-248.122 Z-1.000 F10.000 
G1 X282.849 Y-248.122 Z-1.000 F10.000 
G1 X283.421 Y-248.162 Z-1.000 F10.000 
G1 X283.943 Y-248.272 Z-1.000 F10.000 
G1 X284.341 Y-248.427 Z-1.000 F10.000 
G1 X284.617 Y-248.609 Z-1.000 F10.000 
G1 X284.794 Y-248.809 Z-1.000 F10.000 
G1 X284.887 Y-249.028 Z-1.000 F10.000 
G1 X284.905 Y-249.267 Z-1.000 F10.000 
G1 X284.864 Y-249.484 Z-1.000 F10.000 
G1 X280.441 Y-249.059 Z-1.000 F10.000 
G1 X280.441 Y-249.059 Z-1.000 F10.000 
G0 Z6.000 
G0 Z6.000 
G0 X274.843 Y-248.911 
G0 Z4.000 
G1 X274.843 Y-248.911 Z-1.000 F10.000 
G1 X275.663 Y-248.938 Z-1.000 F10.000 
G1 X276.303 Y-248.956 Z-1.000 F10.000 
G1 X275.824 Y-249.288 Z-1.000 F10.000 
G1 X274.180 Y-249.011 Z-1.000 F10.000 
G1 X274.843 Y-248.911 Z-1.000 F10.000 
G0 Z6.000 
G0 Z6.000 
G0 X271.254 Y-249.101 
G0 Z4.000 
G1 X271.254 Y-249.101 Z-1.000 F10.000 
G1 X271.254 Y-248.775 Z-1.000 F10.000 
G1 X272.397 Y-248.775 Z-1.000 F10.000 
G1 X274.024 Y-248.981 Z-1.000 F10.000 
G1 X274.030 Y-249.101 Z-1.000 F10.000 
G1 X271.254 Y-249.101 Z-1.000 F10.000 
G1 X271.254 Y-249.101 Z-1.000 F10.000 
G0 Z6.000 
G0 Z6.000 
G0 X269.947 Y-248.938 
G0 Z4.000 
G1 X269.947 Y-248.938 Z-1.000 F10.000 
G1 X267.825 Y-248.938 Z-1.000 F10.000 
G1 X267.979 Y-248.708 Z-1.000 F10.000 
G1 X268.095 Y-248.639 Z-1.000 F10.000 
G1 X268.222 Y-248.643 Z-1.000 F10.000 
G1 X268.502 Y-248.720 Z-1.000 F10.000 
G1 X268.968 Y-248.775 Z-1.000 F10.000 
G1 X270.927 Y-248.775 Z-1.000 F10.000 
G1 X270.766 Y-248.994 Z-1.000 F10.000 
G1 X270.682 Y-249.050 Z-1.000 F10.000 
G1 X270.586 Y-249.031 Z-1.000 F10.000 
G1 X270.297 Y-248.960 Z-1.000 F10.000 
G1 X269.947 Y-248.938 Z-1.000 F10.000 
G0 Z6.000 
G0 Z6.000 
G0 X267.411 Y-248.966 
G0 Z4.000 
G1 X267.411 Y-248.966 Z-1.000 F10.000 
G1 X267.411 Y-248.584 Z-1.000 F10.000 
G1 X267.590 Y-248.584 Z-1.000 F10.000 
G1 X267.411 Y-248.966 Z-1.000 F10.000 
G0 Z6.000 
G0 Z6.000 
G0 X266.758 Y-248.966 
G0 Z4.000 
G1 X266.758 Y-248.966 Z-1.000 F10.000 
G1 X266.758 Y-248.584 Z-1.000 F10.000 
G1 X266.937 Y-248.584 Z-1.000 F10.000 
G1 X266.758 Y-248.966 Z-1.000 F10.000 
G0 Z6.000 
G0 Z6.000 
G0 X363.954 Y-245.557 
G0 Z4.000 
G1 X363.954 Y-245.557 Z-1.000 F10.000 
G1 X364.486 Y-246.548 Z-1.000 F10.000 
G1 X365.423 Y-248.249 Z-1.000 F10.000 
G1 X365.893 Y-249.226 Z-1.000 F10.000 
G1 X366.205 Y-250.037 Z-1.000 F10.000 
G1 X366.401 Y-250.749 Z-1.000 F10.000 
G1 X366.500 Y-251.394 Z-1.000 F10.000 
G1 X366.515 Y-251.984 Z-1.000 F10.000 
G1 X366.454 Y-252.536 Z-1.000 F10.000 
G1 X366.320 Y-253.061 Z-1.000 F10.000 
G1 X366.190 Y-253.402 Z-1.000 F10.000 
G1 X366.020 Y-253.705 Z-1.000 F10.000 
G1 X365.678 Y-254.161 Z-1.000 F10.000 
G1 X365.112 Y-254.794 Z-1.000 F10.000 
G1 X364.310 Y-255.580 Z-1.000 F10.000 
G1 X363.348 Y-256.423 Z-1.000 F10.000 
G1 X362.383 Y-257.172 Z-1.000 F10.000 
G1 X361.585 Y-257.704 Z-1.000 F10.000 
G1 X360.992 Y-258.020 Z-1.000 F10.000 
G1 X360.584 Y-258.167 Z-1.000 F10.000 
G1 X360.278 Y-258.194 Z-1.000 F10.000 
G1 X361.282 Y-257.493 Z-1.000 F10.000 
G1 X362.408 Y-256.717 Z-1.000 F10.000 
G1 X363.535 Y-255.887 Z-1.000 F10.000 
G1 X364.378 Y-255.182 Z-1.000 F10.000 
G1 X365.014 Y-254.558 Z-1.000 F10.000 
G1 X365.488 Y-253.992 Z-1.000 F10.000 
G1 X365.830 Y-253.470 Z-1.000 F10.000 
G1 X365.974 Y-253.186 Z-1.000 F10.000 
G1 X366.097 Y-252.833 Z-1.000 F10.000 
G1 X366.173 Y-252.396 Z-1.000 F10.000 
G1 X366.191 Y-251.865 Z-1.000 F10.000 
G1 X366.140 Y-251.234 Z-1.000 F10.000 
G1 X366.009 Y-250.502 Z-1.000 F10.000 
G1 X365.791 Y-249.686 Z-1.000 F10.000 
G1 X365.484 Y-248.818 Z-1.000 F10.000 
G1 X365.104 Y-247.953 Z-1.000 F10.000 
G1 X364.678 Y-247.158 Z-1.000 F10.000 
G1 X364.241 Y-246.496 Z-1.000 F10.000 
G1 X363.831 Y-246.002 Z-1.000 F10.000 
G1 X363.687 Y-245.857 Z-1.000 F10.000 
G1 X363.543 Y-245.731 Z-1.000 F10.000 
G1 X363.954 Y-245.557 Z-1.000 F10.000 
G1 X363.954 Y-245.557 Z-1.000 F10.000 
G0 Z6.000 
G0 Z6.000 
G0 X293.925 Y-247.795 
G0 Z4.000 
G1 X293.925 Y-247.795 Z-1.000 F10.000 
G1 X294.146 Y-247.354 Z-1.000 F10.000 
G1 X294.260 Y-247.114 Z-1.000 F10.000 
G1 X294.393 Y-246.940 Z-1.000 F10.000 
G1 X294.585 Y-246.818 Z-1.000 F10.000 
G1 X295.097 Y-246.652 Z-1.000 F10.000 
G1 X295.516 Y-246.781 Z-1.000 F10.000 
G1 X295.764 Y-246.922 Z-1.000 F10.000 
G1 X295.923 Y-247.095 Z-1.000 F10.000 
G1 X296.021 Y-247.316 Z-1.000 F10.000 
G1 X296.077 Y-247.795 Z-1.000 F10.000 
G1 X296.042 Y-248.168 Z-1.000 F10.000 
G1 X295.952 Y-248.416 Z-1.000 F10.000 
G1 X295.817 Y-248.582 Z-1.000 F10.000 
G1 X295.631 Y-248.692 Z-1.000 F10.000 
G1 X295.374 Y-248.758 Z-1.000 F10.000 
G1 X295.242 Y-248.771 Z-1.000 F10.000 
G1 X295.097 Y-248.775 Z-1.000 F10.000 
G1 X294.740 Y-248.753 Z-1.000 F10.000 
G1 X294.550 Y-248.680 Z-1.000 F10.000 
G1 X294.418 Y-248.606 Z-1.000 F10.000 
G1 X294.224 Y-248.504 Z-1.000 F10.000 
G1 X293.925 Y-247.795 Z-1.000 F10.000 
G0 Z6.000 
G0 Z6.000 
G0 X294.388 Y-247.086 
G0 Z4.000 
G1 X294.388 Y-247.086 Z-1.000 F10.000 
G1 X294.252 Y-247.485 Z-1.000 F10.000 
G1 X294.199 Y-247.768 Z-1.000 F10.000 
G1 X294.228 Y-247.990 Z-1.000 F10.000 
G1 X294.337 Y-248.208 Z-1.000 F10.000 
G1 X294.649 Y-248.569 Z-1.000 F10.000 
G1 X295.096 Y-248.620 Z-1.000 F10.000 
G1 X295.546 Y-248.591 Z-1.000 F10.000 
G1 X295.875 Y-248.247 Z-1.000 F10.000 
G1 X295.921 Y-247.795 Z-1.000 F10.000 
G1 X295.893 Y-247.346 Z-1.000 F10.000 
G1 X295.290 Y-246.784 Z-1.000 F10.000 
G1 X294.388 Y-247.086 Z-1.000 F10.000 
G1 X294.388 Y-247.086 Z-1.000 F10.000 
G0 Z6.000 
G0 Z6.000 
G0 X266.355 Y-248.775 
G0 Z4.000 
G1 X266.355 Y-248.775 Z-1.000 F10.000 
G1 X263.415 Y-248.775 Z-1.000 F10.000 
G1 X263.573 Y-248.549 Z-1.000 F10.000 
G1 X263.709 Y-248.462 Z-1.000 F10.000 
G1 X263.852 Y-248.452 Z-1.000 F10.000 
G1 X264.071 Y-248.503 Z-1.000 F10.000 
G1 X264.443 Y-248.591 Z-1.000 F10.000 
G1 X264.575 Y-248.606 Z-1.000 F10.000 
G1 X264.722 Y-248.611 Z-1.000 F10.000 
G1 X266.355 Y-248.611 Z-1.000 F10.000 
G1 X266.355 Y-248.775 Z-1.000 F10.000 
G0 Z6.000 
G0 Z6.000 
G0 X294.593 Y-247.972 
G0 Z4.000 
G1 X294.593 Y-247.972 Z-1.000 F10.000 
G1 X294.680 Y-247.691 Z-1.000 F10.000 
G1 X294.773 Y-247.515 Z-1.000 F10.000 
G1 X294.897 Y-247.428 Z-1.000 F10.000 
G1 X295.218 Y-247.347 Z-1.000 F10.000 
G1 X295.376 Y-247.571 Z-1.000 F10.000 
G1 X295.458 Y-247.745 Z-1.000 F10.000 
G1 X295.448 Y-247.880 Z-1.000 F10.000 
G1 X295.353 Y-248.054 Z-1.000 F10.000 
G1 X295.218 Y-248.243 Z-1.000 F10.000 
G1 X294.593 Y-247.972 Z-1.000 F10.000 
G0 Z6.000 
G0 Z6.000 
G0 X362.698 Y-246.552 
G0 Z4.000 
G1 X362.698 Y-246.552 Z-1.000 F10.000 
G1 X362.700 Y-247.589 Z-1.000 F10.000 
G1 X362.276 Y-248.008 Z-1.000 F10.000 
G1 X361.990 Y-248.241 Z-1.000 F10.000 
G1 X361.713 Y-248.377 Z-1.000 F10.000 
G1 X361.494 Y-248.430 Z-1.000 F10.000 
G1 X361.236 Y-248.448 Z-1.000 F10.000 
G1 X360.899 Y-248.416 Z-1.000 F10.000 
G1 X360.669 Y-248.337 Z-1.000 F10.000 
G1 X360.328 Y-248.194 Z-1.000 F10.000 
G1 X360.094 Y-248.146 Z-1.000 F10.000 
G1 X359.766 Y-248.122 Z-1.000 F10.000 
G1 X359.788 Y-247.644 Z-1.000 F10.000 
G1 X360.490 Y-248.062 Z-1.000 F10.000 
G1 X362.698 Y-246.552 Z-1.000 F10.000 
G1 X362.698 Y-246.552 Z-1.000 F10.000 
G0 Z6.000 
G0 Z6.000 
G0 X395.959 Y-218.503 
G0 Z4.000 
G1 X395.959 Y-218.503 Z-1.000 F10.000 
G1 X396.419 Y-218.395 Z-1.000 F10.000 
G1 X396.905 Y-218.329 Z-1.000 F10.000 
G1 X397.203 Y-218.276 Z-1.000 F10.000 
G1 X397.423 Y-218.179 Z-1.000 F10.000 
G1 X397.589 Y-218.021 Z-1.000 F10.000 
G1 X397.731 Y-217.773 Z-1.000 F10.000 
G1 X397.871 Y-217.367 Z-1.000 F10.000 
G1 X397.974 Y-216.924 Z-1.000 F10.000 
G1 X398.161 Y-215.851 Z-1.000 F10.000 
G1 X398.442 Y-213.963 Z-1.000 F10.000 
G1 X398.926 Y-210.882 Z-1.000 F10.000 
G1 X399.397 Y-207.896 Z-1.000 F10.000 
G1 X399.614 Y-206.412 Z-1.000 F10.000 
G1 X400.256 Y-201.708 Z-1.000 F10.000 
G1 X400.687 Y-198.907 Z-1.000 F10.000 
G1 X401.005 Y-197.217 Z-1.000 F10.000 
G1 X401.232 Y-196.312 Z-1.000 F10.000 
G1 X401.322 Y-196.050 Z-1.000 F10.000 
G1 X401.409 Y-195.863 Z-1.000 F10.000 
G1 X401.372 Y-196.795 Z-1.000 F10.000 
G1 X401.247 Y-198.108 Z-1.000 F10.000 
G1 X401.004 Y-199.917 Z-1.000 F10.000 
G1 X400.606 Y-202.392 Z-1.000 F10.000 
G1 X399.972 Y-206.005 Z-1.000 F10.000 
G1 X399.685 Y-207.670 Z-1.000 F10.000 
G1 X399.461 Y-209.102 Z-1.000 F10.000 
G1 X398.914 Y-212.667 Z-1.000 F10.000 
G1 X398.400 Y-215.554 Z-1.000 F10.000 
G1 X398.275 Y-216.341 Z-1.000 F10.000 
G1 X398.075 Y-217.626 Z-1.000 F10.000 
G1 X397.913 Y-218.436 Z-1.000 F10.000 
G1 X397.813 Y-218.730 Z-1.000 F10.000 
G1 X397.516 Y-219.174 Z-1.000 F10.000 
G1 X397.302 Y-219.414 Z-1.000 F10.000 
G1 X397.223 Y-219.494 Z-1.000 F10.000 
G1 X397.227 Y-219.553 Z-1.000 F10.000 
G1 X397.372 Y-219.747 Z-1.000 F10.000 
G1 X397.529 Y-219.995 Z-1.000 F10.000 
G1 X397.739 Y-220.394 Z-1.000 F10.000 
G1 X360.455 Y-247.614 Z-1.000 F10.000 
G1 X362.472 Y-245.780 Z-1.000 F10.000 
G1 X362.283 Y-245.551 Z-1.000 F10.000 
G1 X359.801 Y-247.513 Z-1.000 F10.000 
G1 X359.809 Y-246.937 Z-1.000 F10.000 
G1 X359.888 Y-246.458 Z-1.000 F10.000 
G1 X360.024 Y-246.078 Z-1.000 F10.000 
G1 X360.206 Y-245.788 Z-1.000 F10.000 
G1 X360.425 Y-245.577 Z-1.000 F10.000 
G1 X360.680 Y-245.435 Z-1.000 F10.000 
G1 X360.976 Y-245.358 Z-1.000 F10.000 
G1 X361.324 Y-245.346 Z-1.000 F10.000 
G1 X361.485 Y-245.363 Z-1.000 F10.000 
G1 X361.656 Y-245.393 Z-1.000 F10.000 
G1 X362.354 Y-245.514 Z-1.000 F10.000 
G1 X362.725 Y-245.521 Z-1.000 F10.000 
G1 X362.980 Y-245.459 Z-1.000 F10.000 
G1 X363.216 Y-245.327 Z-1.000 F10.000 
G1 X363.580 Y-245.044 Z-1.000 F10.000 
G1 X363.894 Y-244.798 Z-1.000 F10.000 
G1 X364.310 Y-244.500 Z-1.000 F10.000 
G1 X365.403 Y-243.718 Z-1.000 F10.000 
G1 X366.910 Y-242.573 Z-1.000 F10.000 
G1 X367.953 Y-241.785 Z-1.000 F10.000 
G1 X369.010 Y-241.034 Z-1.000 F10.000 
G1 X370.846 Y-239.750 Z-1.000 F10.000 
G1 X373.068 Y-238.116 Z-1.000 F10.000 
G1 X376.079 Y-235.830 Z-1.000 F10.000 
G1 X378.292 Y-234.150 Z-1.000 F10.000 
G1 X379.515 Y-233.270 Z-1.000 F10.000 
G1 X383.405 Y-230.554 Z-1.000 F10.000 
G1 X387.336 Y-227.770 Z-1.000 F10.000 
G1 X390.416 Y-225.513 Z-1.000 F10.000 
G1 X392.661 Y-223.785 Z-1.000 F10.000 
G1 X394.239 Y-222.486 Z-1.000 F10.000 
G1 X395.296 Y-221.531 Z-1.000 F10.000 
G1 X395.956 Y-220.848 Z-1.000 F10.000 
G1 X396.327 Y-220.374 Z-1.000 F10.000 
G1 X396.499 Y-220.055 Z-1.000 F10.000 
G1 X396.543 Y-219.883 Z-1.000 F10.000 
G1 X395.745 Y-219.203 Z-1.000 F10.000 
G1 X395.959 Y-218.503 Z-1.000 F10.000 
G1 X395.959 Y-218.503 Z-1.000 F10.000 
G0 Z6.000 
G0 Z6.000 
G0 X239.409 Y-246.325 
G0 Z4.000 
G1 X239.409 Y-246.325 Z-1.000 F10.000 
G1 X239.504 Y-245.945 Z-1.000 F10.000 
G1 X239.594 Y-245.731 Z-1.000 F10.000 
G1 X239.710 Y-245.622 Z-1.000 F10.000 
G1 X239.883 Y-245.568 Z-1.000 F10.000 
G1 X240.212 Y-245.551 Z-1.000 F10.000 
G1 X239.525 Y-246.106 Z-1.000 F10.000 
G1 X239.595 Y-246.611 Z-1.000 F10.000 
G1 X240.380 Y-247.040 Z-1.000 F10.000 
G1 X240.986 Y-246.487 Z-1.000 F10.000 
G1 X240.940 Y-246.808 Z-1.000 F10.000 
G1 X240.889 Y-246.911 Z-1.000 F10.000 
G1 X240.774 Y-246.972 Z-1.000 F10.000 
G1 X240.403 Y-247.156 Z-1.000 F10.000 
G1 X239.605 Y-246.934 Z-1.000 F10.000 
G1 X239.409 Y-246.325 Z-1.000 F10.000 
G0 Z6.000 
G0 Z6.000 
G0 X230.601 Y-245.522 
G0 Z4.000 
G1 X230.601 Y-245.522 Z-1.000 F10.000 
G1 X230.824 Y-245.982 Z-1.000 F10.000 
G1 X231.281 Y-245.546 Z-1.000 F10.000 
G1 X231.733 Y-245.501 Z-1.000 F10.000 
G1 X232.183 Y-245.529 Z-1.000 F10.000 
G1 X232.547 Y-245.949 Z-1.000 F10.000 
G1 X232.081 Y-245.650 Z-1.000 F10.000 
G1 X231.448 Y-245.691 Z-1.000 F10.000 
G1 X231.109 Y-246.432 Z-1.000 F10.000 
G1 X231.424 Y-246.951 Z-1.000 F10.000 
G1 X232.180 Y-246.969 Z-1.000 F10.000 
G1 X232.487 Y-246.489 Z-1.000 F10.000 
G1 X232.218 Y-247.123 Z-1.000 F10.000 
G1 X230.595 Y-246.801 Z-1.000 F10.000 
G1 X230.601 Y-245.522 Z-1.000 F10.000 
G1 X230.601 Y-245.522 Z-1.000 F10.000 
G0 Z6.000 
G0 Z6.000 
G0 X242.008 Y-245.182 
G0 Z4.000 
G1 X242.008 Y-245.182 Z-1.000 F10.000 
G1 X244.417 Y-245.214 Z-1.000 F10.000 
G1 X247.474 Y-245.315 Z-1.000 F10.000 
G1 X251.282 Y-245.456 Z-1.000 F10.000 
G1 X254.433 Y-245.509 Z-1.000 F10.000 
G1 X255.461 Y-245.536 Z-1.000 F10.000 
G1 X256.954 Y-245.591 Z-1.000 F10.000 
G1 X257.191 Y-245.591 Z-1.000 F10.000 
G1 X257.426 Y-245.587 Z-1.000 F10.000 
G1 X257.688 Y-245.612 Z-1.000 F10.000 
G1 X258.062 Y-245.718 Z-1.000 F10.000 
G1 X258.634 Y-245.944 Z-1.000 F10.000 
G1 X259.322 Y-246.217 Z-1.000 F10.000 
G1 X259.669 Y-246.316 Z-1.000 F10.000 
G1 X260.368 Y-246.427 Z-1.000 F10.000 
G1 X260.993 Y-246.458 Z-1.000 F10.000 
G1 X261.584 Y-246.421 Z-1.000 F10.000 
G1 X262.204 Y-246.317 Z-1.000 F10.000 
G1 X263.028 Y-246.123 Z-1.000 F10.000 
G1 X263.813 Y-245.957 Z-1.000 F10.000 
G1 X264.599 Y-245.858 Z-1.000 F10.000 
G1 X265.212 Y-245.835 Z-1.000 F10.000 
G1 X267.335 Y-245.835 Z-1.000 F10.000 
G1 X293.299 Y-246.530 Z-1.000 F10.000 
G1 X292.885 Y-248.597 Z-1.000 F10.000 
G1 X293.035 Y-248.700 Z-1.000 F10.000 
G1 X291.974 Y-249.438 Z-1.000 F10.000 
G1 X285.487 Y-249.049 Z-1.000 F10.000 
G1 X285.204 Y-248.618 Z-1.000 F10.000 
G1 X284.903 Y-248.286 Z-1.000 F10.000 
G1 X284.583 Y-248.037 Z-1.000 F10.000 
G1 X284.239 Y-247.857 Z-1.000 F10.000 
G1 X283.865 Y-247.741 Z-1.000 F10.000 
G1 X283.448 Y-247.685 Z-1.000 F10.000 
G1 X282.974 Y-247.692 Z-1.000 F10.000 
G1 X282.417 Y-247.769 Z-1.000 F10.000 
G1 X281.726 Y-247.931 Z-1.000 F10.000 
G1 X280.738 Y-248.219 Z-1.000 F10.000 
G1 X279.927 Y-248.443 Z-1.000 F10.000 
G1 X279.230 Y-248.577 Z-1.000 F10.000 
G1 X278.603 Y-248.611 Z-1.000 F10.000 
G1 X242.053 Y-247.206 Z-1.000 F10.000 
G1 X242.008 Y-245.182 Z-1.000 F10.000 
G1 X242.008 Y-245.182 Z-1.000 F10.000 
G0 Z6.000 
G0 Z6.000 
G0 X240.524 Y-246.005 
G0 Z4.000 
G1 X240.524 Y-246.005 Z-1.000 F10.000 
G1 X240.261 Y-246.653 Z-1.000 F10.000 
G1 X240.018 Y-246.056 Z-1.000 F10.000 
G1 X240.524 Y-246.005 Z-1.000 F10.000 
G0 Z6.000 
G0 Z6.000 
G0 X365.482 Y-251.551 
G0 Z4.000 
G1 X365.482 Y-251.551 Z-1.000 F10.000 
G1 X365.447 Y-251.195 Z-1.000 F10.000 
G1 X365.324 Y-250.694 Z-1.000 F10.000 
G1 X365.084 Y-250.014 Z-1.000 F10.000 
G1 X364.700 Y-249.134 Z-1.000 F10.000 
G1 X364.163 Y-248.071 Z-1.000 F10.000 
G1 X363.521 Y-246.940 Z-1.000 F10.000 
G1 X363.050 Y-246.198 Z-1.000 F10.000 
G1 X363.354 Y-245.961 Z-1.000 F10.000 
G1 X363.700 Y-246.470 Z-1.000 F10.000 
G1 X364.240 Y-247.403 Z-1.000 F10.000 
G1 X364.869 Y-248.635 Z-1.000 F10.000 
G1 X365.365 Y-249.764 Z-1.000 F10.000 
G1 X365.660 Y-250.596 Z-1.000 F10.000 
G1 X365.788 Y-251.145 Z-1.000 F10.000 
G1 X365.808 Y-251.388 Z-1.000 F10.000 
G1 X365.808 Y-251.714 Z-1.000 F10.000 
G1 X365.773 Y-252.240 Z-1.000 F10.000 
G1 X365.670 Y-252.726 Z-1.000 F10.000 
G1 X365.502 Y-253.182 Z-1.000 F10.000 
G1 X365.267 Y-253.619 Z-1.000 F10.000 
G1 X364.955 Y-254.049 Z-1.000 F10.000 
G1 X364.554 Y-254.485 Z-1.000 F10.000 
G1 X364.034 Y-254.949 Z-1.000 F10.000 
G1 X363.359 Y-255.471 Z-1.000 F10.000 
G1 X362.556 Y-256.089 Z-1.000 F10.000 
G1 X361.630 Y-256.793 Z-1.000 F10.000 
G1 X360.750 Y-257.399 Z-1.000 F10.000 
G1 X360.152 Y-257.739 Z-1.000 F10.000 
G1 X359.764 Y-257.890 Z-1.000 F10.000 
G1 X359.680 Y-257.909 Z-1.000 F10.000 
G1 X359.603 Y-257.920 Z-1.000 F10.000 
G1 X359.890 Y-257.575 Z-1.000 F10.000 
G1 X360.285 Y-257.210 Z-1.000 F10.000 
G1 X360.826 Y-256.804 Z-1.000 F10.000 
G1 X361.604 Y-256.300 Z-1.000 F10.000 
G1 X363.008 Y-255.416 Z-1.000 F10.000 
G1 X363.743 Y-254.881 Z-1.000 F10.000 
G1 X364.290 Y-254.395 Z-1.000 F10.000 
G1 X364.708 Y-253.927 Z-1.000 F10.000 
G1 X365.022 Y-253.460 Z-1.000 F10.000 
G1 X365.248 Y-252.991 Z-1.000 F10.000 
G1 X365.395 Y-252.509 Z-1.000 F10.000 
G1 X365.471 Y-252.004 Z-1.000 F10.000 
G1 X365.482 Y-251.714 Z-1.000 F10.000 
G1 X365.482 Y-251.551 Z-1.000 F10.000 
G1 X365.482 Y-251.551 Z-1.000 F10.000 
G0 Z6.000 
G0 Z6.000 
G0 X324.165 Y-245.942 
G0 Z4.000 
G1 X324.165 Y-245.942 Z-1.000 F10.000 
G1 X324.117 Y-246.519 Z-1.000 F10.000 
G1 X324.006 Y-247.020 Z-1.000 F10.000 
G1 X323.838 Y-247.456 Z-1.000 F10.000 
G1 X323.616 Y-247.835 Z-1.000 F10.000 
G1 X323.340 Y-248.168 Z-1.000 F10.000 
G1 X323.006 Y-248.459 Z-1.000 F10.000 
G1 X322.607 Y-248.711 Z-1.000 F10.000 
G1 X322.134 Y-248.926 Z-1.000 F10.000 
G1 X321.573 Y-249.103 Z-1.000 F10.000 
G1 X320.908 Y-249.239 Z-1.000 F10.000 
G1 X320.115 Y-249.330 Z-1.000 F10.000 
G1 X319.157 Y-249.371 Z-1.000 F10.000 
G1 X317.959 Y-249.358 Z-1.000 F10.000 
G1 X316.160 Y-249.286 Z-1.000 F10.000 
G1 X315.661 Y-249.271 Z-1.000 F10.000 
G1 X315.183 Y-249.265 Z-1.000 F10.000 
G1 X303.262 Y-249.265 Z-1.000 F10.000 
G1 X301.631 Y-249.265 Z-1.000 F10.000 
G1 X297.219 Y-249.304 Z-1.000 F10.000 
G1 X297.224 Y-248.180 Z-1.000 F10.000 
G1 X297.180 Y-247.598 Z-1.000 F10.000 
G1 X297.072 Y-247.130 Z-1.000 F10.000 
G1 X296.891 Y-246.692 Z-1.000 F10.000 
G1 X296.580 Y-246.178 Z-1.000 F10.000 
G1 X324.165 Y-245.942 Z-1.000 F10.000 
G1 X324.165 Y-245.942 Z-1.000 F10.000 
G0 Z6.000 
G0 Z6.000 
G0 X296.403 Y-248.285 
G0 Z4.000 
G1 X296.403 Y-248.285 Z-1.000 F10.000 
G1 X296.519 Y-247.964 Z-1.000 F10.000 
G1 X296.555 Y-247.662 Z-1.000 F10.000 
G1 X296.521 Y-247.376 Z-1.000 F10.000 
G1 X296.418 Y-247.109 Z-1.000 F10.000 
G1 X296.248 Y-246.863 Z-1.000 F10.000 
G1 X296.014 Y-246.648 Z-1.000 F10.000 
G1 X295.723 Y-246.478 Z-1.000 F10.000 
G1 X295.392 Y-246.367 Z-1.000 F10.000 
G1 X295.047 Y-246.329 Z-1.000 F10.000 
G1 X294.713 Y-246.365 Z-1.000 F10.000 
G1 X294.409 Y-246.473 Z-1.000 F10.000 
G1 X294.145 Y-246.646 Z-1.000 F10.000 
G1 X293.925 Y-246.881 Z-1.000 F10.000 
G1 X293.724 Y-247.243 Z-1.000 F10.000 
G1 X293.627 Y-247.572 Z-1.000 F10.000 
G1 X293.607 Y-247.884 Z-1.000 F10.000 
G1 X293.657 Y-248.177 Z-1.000 F10.000 
G1 X293.774 Y-248.450 Z-1.000 F10.000 
G1 X293.956 Y-248.696 Z-1.000 F10.000 
G1 X294.198 Y-248.905 Z-1.000 F10.000 
G1 X294.491 Y-249.064 Z-1.000 F10.000 
G1 X294.816 Y-249.157 Z-1.000 F10.000 
G1 X295.150 Y-249.177 Z-1.000 F10.000 
G1 X295.472 Y-249.122 Z-1.000 F10.000 
G1 X295.768 Y-248.996 Z-1.000 F10.000 
G1 X296.030 Y-248.803 Z-1.000 F10.000 
G1 X296.254 Y-248.542 Z-1.000 F10.000 
G1 X296.403 Y-248.285 Z-1.000 F10.000 
G0 Z6.000 
G0 Z6.000 
G0 X293.300 Y-248.122 
G0 Z4.000 
G1 X293.300 Y-248.122 Z-1.000 F10.000 
G1 X293.337 Y-247.626 Z-1.000 F10.000 
G1 X293.440 Y-247.207 Z-1.000 F10.000 
G1 X293.598 Y-246.866 Z-1.000 F10.000 
G1 X293.803 Y-246.597 Z-1.000 F10.000 
G1 X294.049 Y-246.396 Z-1.000 F10.000 
G1 X294.338 Y-246.256 Z-1.000 F10.000 
G1 X294.673 Y-246.178 Z-1.000 F10.000 
G1 X294.933 Y-246.162 Z-1.000 F10.000 
G1 X295.260 Y-246.162 Z-1.000 F10.000 
G1 X295.872 Y-246.179 Z-1.000 F10.000 
G1 X296.414 Y-246.761 Z-1.000 F10.000 
G1 X296.649 Y-247.096 Z-1.000 F10.000 
G1 X296.750 Y-247.356 Z-1.000 F10.000 
G1 X296.778 Y-247.625 Z-1.000 F10.000 
G1 X296.756 Y-248.066 Z-1.000 F10.000 
G1 X296.738 Y-248.383 Z-1.000 F10.000 
G1 X296.730 Y-248.775 Z-1.000 F10.000 
G1 X296.730 Y-249.428 Z-1.000 F10.000 
G1 X296.076 Y-249.428 Z-1.000 F10.000 
G1 X293.403 Y-249.208 Z-1.000 F10.000 
G1 X293.278 Y-248.451 Z-1.000 F10.000 
G1 X293.300 Y-248.122 Z-1.000 F10.000 
G1 X293.300 Y-248.122 Z-1.000 F10.000 
G0 Z6.000 
G0 Z6.000 
G0 X232.054 Y-246.624 
G0 Z4.000 
G1 X232.054 Y-246.624 Z-1.000 F10.000 
G1 X231.407 Y-246.163 Z-1.000 F10.000 
G1 X232.012 Y-245.965 Z-1.000 F10.000 
G1 X232.054 Y-246.624 Z-1.000 F10.000 
G0 Z6.000 
G0 Z6.000 
G0 X263.590 Y-244.756 
G0 Z4.000 
G1 X263.590 Y-244.756 Z-1.000 F10.000 
G1 X264.052 Y-244.894 Z-1.000 F10.000 
G1 X264.875 Y-244.655 Z-1.000 F10.000 
G1 X264.690 Y-245.316 Z-1.000 F10.000 
G1 X264.232 Y-245.351 Z-1.000 F10.000 
G1 X263.936 Y-245.329 Z-1.000 F10.000 
G1 X263.683 Y-245.251 Z-1.000 F10.000 
G1 X263.380 Y-245.122 Z-1.000 F10.000 
G1 X263.183 Y-245.094 Z-1.000 F10.000 
G1 X262.897 Y-245.182 Z-1.000 F10.000 
G1 X263.414 Y-245.432 Z-1.000 F10.000 
G1 X261.327 Y-246.027 Z-1.000 F10.000 
G1 X262.569 Y-245.316 Z-1.000 F10.000 
G1 X262.450 Y-244.904 Z-1.000 F10.000 
G1 X263.590 Y-244.756 Z-1.000 F10.000 
G1 X263.590 Y-244.756 Z-1.000 F10.000 
G0 Z6.000 
G0 Z6.000 
G0 X240.394 Y-245.570 
G0 Z4.000 
G1 X240.394 Y-245.570 Z-1.000 F10.000 
G1 X241.007 Y-245.981 Z-1.000 F10.000 
G1 X240.394 Y-245.570 Z-1.000 F10.000 
G0 Z6.000 
G0 Z6.000 
G0 X241.450 Y-247.018 
G0 Z4.000 
G1 X241.450 Y-247.018 Z-1.000 F10.000 
G1 X241.243 Y-245.535 Z-1.000 F10.000 
G1 X241.666 Y-245.516 Z-1.000 F10.000 
G1 X241.700 Y-246.162 Z-1.000 F10.000 
G1 X241.695 Y-246.325 Z-1.000 F10.000 
G1 X241.450 Y-247.018 Z-1.000 F10.000 
G1 X241.450 Y-247.018 Z-1.000 F10.000 
G0 Z6.000 
G0 Z6.000 
G0 X292.973 Y-239.140 
G0 Z4.000 
G1 X292.973 Y-239.140 Z-1.000 F10.000 
G1 X293.463 Y-239.140 Z-1.000 F10.000 
G1 X293.463 Y-245.019 Z-1.000 F10.000 
G1 X293.459 Y-245.602 Z-1.000 F10.000 
G1 X293.415 Y-245.803 Z-1.000 F10.000 
G1 X293.325 Y-245.909 Z-1.000 F10.000 
G1 X293.170 Y-245.970 Z-1.000 F10.000 
G1 X292.973 Y-245.998 Z-1.000 F10.000 
G1 X292.973 Y-239.140 Z-1.000 F10.000 
G0 Z6.000 
G0 Z6.000 
G0 X280.236 Y-244.044 
G0 Z4.000 
G1 X280.236 Y-244.044 Z-1.000 F10.000 
G1 X280.236 Y-245.672 Z-1.000 F10.000 
G1 X277.950 Y-245.672 Z-1.000 F10.000 
G1 X278.320 Y-244.254 Z-1.000 F10.000 
G1 X280.237 Y-244.044 Z-1.000 F10.000 
G1 X280.236 Y-244.044 Z-1.000 F10.000 
G0 Z6.000 
G0 Z6.000 
G0 X280.768 Y-244.083 
G0 Z4.000 
G1 X280.768 Y-244.083 Z-1.000 F10.000 
G1 X281.378 Y-244.031 Z-1.000 F10.000 
G1 X283.338 Y-244.039 Z-1.000 F10.000 
G1 X283.338 Y-245.835 Z-1.000 F10.000 
G1 X282.032 Y-245.835 Z-1.000 F10.000 
G1 X280.833 Y-245.729 Z-1.000 F10.000 
G1 X280.552 Y-245.458 Z-1.000 F10.000 
G1 X280.768 Y-244.083 Z-1.000 F10.000 
G1 X280.768 Y-244.083 Z-1.000 F10.000 
G0 Z6.000 
G0 Z6.000 
G0 X267.064 Y-234.139 
G0 Z4.000 
G1 X267.064 Y-234.139 Z-1.000 F10.000 
G1 X267.106 Y-234.406 Z-1.000 F10.000 
G1 X267.112 Y-234.938 Z-1.000 F10.000 
G1 X267.049 Y-235.853 Z-1.000 F10.000 
G1 X266.882 Y-237.214 Z-1.000 F10.000 
G1 X266.605 Y-238.902 Z-1.000 F10.000 
G1 X266.266 Y-240.526 Z-1.000 F10.000 
G1 X265.976 Y-241.608 Z-1.000 F10.000 
G1 X265.765 Y-242.180 Z-1.000 F10.000 
G1 X265.712 Y-242.284 Z-1.000 F10.000 
G1 X265.662 Y-242.366 Z-1.000 F10.000 
G1 X265.083 Y-242.398 Z-1.000 F10.000 
G1 X264.433 Y-242.365 Z-1.000 F10.000 
G1 X263.670 Y-242.262 Z-1.000 F10.000 
G1 X262.656 Y-242.070 Z-1.000 F10.000 
G1 X261.905 Y-241.934 Z-1.000 F10.000 
G1 X261.242 Y-241.866 Z-1.000 F10.000 
G1 X260.752 Y-241.883 Z-1.000 F10.000 
G1 X260.366 Y-241.967 Z-1.000 F10.000 
G1 X260.051 Y-242.113 Z-1.000 F10.000 
G1 X259.791 Y-242.316 Z-1.000 F10.000 
G1 X259.570 Y-242.585 Z-1.000 F10.000 
G1 X259.443 Y-242.804 Z-1.000 F10.000 
G1 X259.332 Y-243.059 Z-1.000 F10.000 
G1 X259.332 Y-243.386 Z-1.000 F10.000 
G1 X259.332 Y-243.876 Z-1.000 F10.000 
G1 X259.349 Y-244.488 Z-1.000 F10.000 
G1 X259.862 Y-244.950 Z-1.000 F10.000 
G1 X260.227 Y-245.193 Z-1.000 F10.000 
G1 X260.525 Y-245.310 Z-1.000 F10.000 
G1 X260.805 Y-245.344 Z-1.000 F10.000 
G1 X261.123 Y-245.313 Z-1.000 F10.000 
G1 X261.591 Y-245.198 Z-1.000 F10.000 
G1 X262.272 Y-245.019 Z-1.000 F10.000 
G1 X260.960 Y-245.687 Z-1.000 F10.000 
G1 X258.979 Y-244.403 Z-1.000 F10.000 
G1 X259.022 Y-243.601 Z-1.000 F10.000 
G1 X259.114 Y-243.058 Z-1.000 F10.000 
G1 X259.242 Y-242.690 Z-1.000 F10.000 
G1 X259.399 Y-242.433 Z-1.000 F10.000 
G1 X259.591 Y-242.238 Z-1.000 F10.000 
G1 X259.867 Y-242.037 Z-1.000 F10.000 
G1 X260.116 Y-241.837 Z-1.000 F10.000 
G1 X260.328 Y-241.578 Z-1.000 F10.000 
G1 X260.456 Y-241.340 Z-1.000 F10.000 
G1 X260.570 Y-241.030 Z-1.000 F10.000 
G1 X261.452 Y-240.808 Z-1.000 F10.000 
G1 X261.967 Y-240.988 Z-1.000 F10.000 
G1 X262.664 Y-241.173 Z-1.000 F10.000 
G1 X263.198 Y-241.327 Z-1.000 F10.000 
G1 X263.637 Y-241.511 Z-1.000 F10.000 
G1 X263.962 Y-241.724 Z-1.000 F10.000 
G1 X264.125 Y-241.877 Z-1.000 F10.000 
G1 X264.271 Y-242.058 Z-1.000 F10.000 
G1 X264.476 Y-241.752 Z-1.000 F10.000 
G1 X264.673 Y-241.330 Z-1.000 F10.000 
G1 X264.858 Y-240.760 Z-1.000 F10.000 
G1 X265.031 Y-240.004 Z-1.000 F10.000 
G1 X265.188 Y-239.008 Z-1.000 F10.000 
G1 X265.336 Y-237.663 Z-1.000 F10.000 
G1 X265.551 Y-235.465 Z-1.000 F10.000 
G1 X265.689 Y-234.569 Z-1.000 F10.000 
G1 X265.743 Y-234.331 Z-1.000 F10.000 
G1 X265.804 Y-234.121 Z-1.000 F10.000 
G1 X267.064 Y-234.139 Z-1.000 F10.000 
G1 X267.064 Y-234.139 Z-1.000 F10.000 
G0 Z6.000 
G0 Z6.000 
G0 X258.991 Y-244.794 
G0 Z4.000 
G1 X258.991 Y-244.794 Z-1.000 F10.000 
G1 X260.300 Y-245.791 Z-1.000 F10.000 
G1 X258.188 Y-245.278 Z-1.000 F10.000 
G1 X258.991 Y-244.794 Z-1.000 F10.000 
G0 Z6.000 
G0 Z6.000 
G0 X265.620 Y-244.621 
G0 Z4.000 
G1 X265.620 Y-244.621 Z-1.000 F10.000 
G1 X266.028 Y-244.692 Z-1.000 F10.000 
G1 X267.334 Y-244.692 Z-1.000 F10.000 
G1 X267.960 Y-244.702 Z-1.000 F10.000 
G1 X267.682 Y-245.498 Z-1.000 F10.000 
G1 X267.008 Y-245.516 Z-1.000 F10.000 
G1 X265.041 Y-245.285 Z-1.000 F10.000 
G1 X265.620 Y-244.621 Z-1.000 F10.000 
G1 X265.620 Y-244.621 Z-1.000 F10.000 
G0 Z6.000 
G0 Z6.000 
G0 X273.022 Y-244.389 
G0 Z4.000 
G1 X273.022 Y-244.389 Z-1.000 F10.000 
G1 X273.703 Y-244.358 Z-1.000 F10.000 
G1 X274.846 Y-244.365 Z-1.000 F10.000 
G1 X275.472 Y-244.375 Z-1.000 F10.000 
G1 X275.299 Y-245.479 Z-1.000 F10.000 
G1 X274.683 Y-245.513 Z-1.000 F10.000 
G1 X273.377 Y-245.509 Z-1.000 F10.000 
G1 X272.678 Y-245.457 Z-1.000 F10.000 
G1 X273.022 Y-244.389 Z-1.000 F10.000 
G1 X273.022 Y-244.389 Z-1.000 F10.000 
G0 Z6.000 
G0 Z6.000 
G0 X270.148 Y-244.428 
G0 Z4.000 
G1 X270.148 Y-244.428 Z-1.000 F10.000 
G1 X270.600 Y-244.529 Z-1.000 F10.000 
G1 X271.090 Y-244.529 Z-1.000 F10.000 
G1 X271.716 Y-244.539 Z-1.000 F10.000 
G1 X271.535 Y-245.477 Z-1.000 F10.000 
G1 X270.927 Y-245.513 Z-1.000 F10.000 
G1 X270.274 Y-245.509 Z-1.000 F10.000 
G1 X269.446 Y-245.306 Z-1.000 F10.000 
G1 X270.148 Y-244.428 Z-1.000 F10.000 
G0 Z6.000 
G0 Z6.000 
G0 X268.165 Y-245.303 
G0 Z4.000 
G1 X268.165 Y-245.303 Z-1.000 F10.000 
G1 X268.338 Y-244.932 Z-1.000 F10.000 
G1 X268.415 Y-244.761 Z-1.000 F10.000 
G1 X268.518 Y-244.661 Z-1.000 F10.000 
G1 X268.790 Y-244.571 Z-1.000 F10.000 
G1 X268.686 Y-245.201 Z-1.000 F10.000 
G1 X268.960 Y-244.896 Z-1.000 F10.000 
G1 X269.095 Y-244.705 Z-1.000 F10.000 
G1 X269.235 Y-244.628 Z-1.000 F10.000 
G1 X269.443 Y-244.571 Z-1.000 F10.000 
G1 X269.207 Y-245.406 Z-1.000 F10.000 
G1 X268.165 Y-245.303 Z-1.000 F10.000 
G1 X268.165 Y-245.303 Z-1.000 F10.000 
G0 Z6.000 
G0 Z6.000 
G0 X272.070 Y-245.537 
G0 Z4.000 
G1 X272.070 Y-245.537 Z-1.000 F10.000 
G1 X271.999 Y-245.322 Z-1.000 F10.000 
G1 X271.991 Y-245.078 Z-1.000 F10.000 
G1 X272.056 Y-244.834 Z-1.000 F10.000 
G1 X272.185 Y-244.626 Z-1.000 F10.000 
G1 X272.366 Y-244.479 Z-1.000 F10.000 
G1 X272.452 Y-244.438 Z-1.000 F10.000 
G1 X272.546 Y-244.407 Z-1.000 F10.000 
G1 X272.070 Y-245.537 Z-1.000 F10.000 
G0 Z6.000 
G0 Z6.000 
G0 X257.401 Y-245.154 
G0 Z4.000 
G1 X257.401 Y-245.154 Z-1.000 F10.000 
G1 X257.525 Y-244.719 Z-1.000 F10.000 
G1 X257.694 Y-244.389 Z-1.000 F10.000 
G1 X257.897 Y-244.154 Z-1.000 F10.000 
G1 X258.127 Y-243.999 Z-1.000 F10.000 
G1 X258.386 Y-243.917 Z-1.000 F10.000 
G1 X258.514 Y-243.903 Z-1.000 F10.000 
G1 X258.651 Y-243.904 Z-1.000 F10.000 
G1 X258.636 Y-244.251 Z-1.000 F10.000 
G1 X258.555 Y-244.532 Z-1.000 F10.000 
G1 X258.417 Y-244.756 Z-1.000 F10.000 
G1 X258.226 Y-244.930 Z-1.000 F10.000 
G1 X257.978 Y-245.057 Z-1.000 F10.000 
G1 X257.667 Y-245.135 Z-1.000 F10.000 
G1 X257.401 Y-245.154 Z-1.000 F10.000 
G0 Z6.000 
G0 Z6.000 
G0 X276.141 Y-244.214 
G0 Z4.000 
G1 X276.141 Y-244.214 Z-1.000 F10.000 
G1 X276.806 Y-244.197 Z-1.000 F10.000 
G1 X277.133 Y-244.202 Z-1.000 F10.000 
G1 X277.773 Y-244.221 Z-1.000 F10.000 
G1 X277.327 Y-245.652 Z-1.000 F10.000 
G1 X275.627 Y-245.454 Z-1.000 F10.000 
G1 X276.141 Y-244.214 Z-1.000 F10.000 
G1 X276.141 Y-244.214 Z-1.000 F10.000 
G0 Z6.000 
G0 Z6.000 
G0 X260.847 Y-242.652 
G0 Z4.000 
G1 X260.847 Y-242.652 Z-1.000 F10.000 
G1 X260.424 Y-243.279 Z-1.000 F10.000 
G1 X261.134 Y-243.176 Z-1.000 F10.000 
G1 X261.528 Y-243.709 Z-1.000 F10.000 
G1 X261.709 Y-243.091 Z-1.000 F10.000 
G1 X261.909 Y-243.282 Z-1.000 F10.000 
G1 X261.985 Y-243.445 Z-1.000 F10.000 
G1 X261.984 Y-243.604 Z-1.000 F10.000 
G1 X261.913 Y-243.804 Z-1.000 F10.000 
G1 X261.675 Y-244.258 Z-1.000 F10.000 
G1 X261.201 Y-244.403 Z-1.000 F10.000 
G1 X260.903 Y-244.430 Z-1.000 F10.000 
G1 X260.680 Y-244.380 Z-1.000 F10.000 
G1 X260.487 Y-244.261 Z-1.000 F10.000 
G1 X260.281 Y-244.045 Z-1.000 F10.000 
G1 X260.096 Y-243.792 Z-1.000 F10.000 
G1 X259.889 Y-243.469 Z-1.000 F10.000 
G1 X260.847 Y-242.652 Z-1.000 F10.000 
G1 X260.847 Y-242.652 Z-1.000 F10.000 
G0 Z6.000 
G0 Z6.000 
G0 X260.865 Y-244.280 
G0 Z4.000 
G1 X260.865 Y-244.280 Z-1.000 F10.000 
G1 X261.024 Y-244.043 Z-1.000 F10.000 
G1 X260.255 Y-243.866 Z-1.000 F10.000 
G1 X260.865 Y-244.280 Z-1.000 F10.000 
G0 Z6.000 
G0 Z6.000 
G0 X261.124 Y-243.975 
G0 Z4.000 
G1 X261.124 Y-243.975 Z-1.000 F10.000 
G1 X261.402 Y-243.714 Z-1.000 F10.000 
G1 X261.124 Y-243.975 Z-1.000 F10.000 
G0 Z6.000 
G0 Z6.000 
G0 X288.972 Y-243.958 
G0 Z4.000 
G1 X288.972 Y-243.958 Z-1.000 F10.000 
G1 X288.937 Y-244.015 Z-1.000 F10.000 
G1 X288.891 Y-244.039 Z-1.000 F10.000 
G1 X288.972 Y-243.958 Z-1.000 F10.000 
G0 Z6.000 
G0 Z6.000 
G0 X289.645 Y-242.901 
G0 Z4.000 
G1 X289.645 Y-242.901 Z-1.000 F10.000 
G1 X289.250 Y-243.849 Z-1.000 F10.000 
G1 X289.645 Y-242.901 Z-1.000 F10.000 
G0 Z6.000 
G0 Z6.000 
G0 X266.518 Y-242.896 
G0 Z4.000 
G1 X266.518 Y-242.896 Z-1.000 F10.000 
G1 X269.472 Y-242.866 Z-1.000 F10.000 
G1 X274.143 Y-242.768 Z-1.000 F10.000 
G1 X275.800 Y-242.742 Z-1.000 F10.000 
G1 X277.459 Y-242.732 Z-1.000 F10.000 
G1 X283.181 Y-242.738 Z-1.000 F10.000 
G1 X283.990 Y-242.708 Z-1.000 F10.000 
G1 X285.418 Y-242.604 Z-1.000 F10.000 
G1 X285.691 Y-242.589 Z-1.000 F10.000 
G1 X285.961 Y-242.578 Z-1.000 F10.000 
G1 X286.437 Y-242.530 Z-1.000 F10.000 
G1 X286.727 Y-242.437 Z-1.000 F10.000 
G1 X286.929 Y-242.306 Z-1.000 F10.000 
G1 X287.131 Y-242.105 Z-1.000 F10.000 
G1 X287.390 Y-241.860 Z-1.000 F10.000 
G1 X287.524 Y-241.763 Z-1.000 F10.000 
G1 X287.689 Y-241.666 Z-1.000 F10.000 
G1 X287.328 Y-242.163 Z-1.000 F10.000 
G1 X287.164 Y-242.392 Z-1.000 F10.000 
G1 X287.081 Y-242.585 Z-1.000 F10.000 
G1 X287.079 Y-242.781 Z-1.000 F10.000 
G1 X287.160 Y-243.091 Z-1.000 F10.000 
G1 X287.243 Y-243.334 Z-1.000 F10.000 
G1 X287.354 Y-243.642 Z-1.000 F10.000 
G1 X287.186 Y-243.591 Z-1.000 F10.000 
G1 X286.722 Y-243.537 Z-1.000 F10.000 
G1 X285.712 Y-243.495 Z-1.000 F10.000 
G1 X283.842 Y-243.491 Z-1.000 F10.000 
G1 X280.802 Y-243.553 Z-1.000 F10.000 
G1 X276.514 Y-243.700 Z-1.000 F10.000 
G1 X272.553 Y-243.868 Z-1.000 F10.000 
G1 X269.233 Y-243.994 Z-1.000 F10.000 
G1 X266.587 Y-244.122 Z-1.000 F10.000 
G1 X265.873 Y-244.171 Z-1.000 F10.000 
G1 X265.219 Y-244.226 Z-1.000 F10.000 
G1 X264.623 Y-244.314 Z-1.000 F10.000 
G1 X263.553 Y-244.533 Z-1.000 F10.000 
G1 X262.608 Y-244.721 Z-1.000 F10.000 
G1 X261.699 Y-244.852 Z-1.000 F10.000 
G1 X261.046 Y-244.881 Z-1.000 F10.000 
G1 X260.575 Y-244.834 Z-1.000 F10.000 
G1 X260.237 Y-244.733 Z-1.000 F10.000 
G1 X259.997 Y-244.587 Z-1.000 F10.000 
G1 X259.835 Y-244.402 Z-1.000 F10.000 
G1 X259.738 Y-244.176 Z-1.000 F10.000 
G1 X259.701 Y-243.889 Z-1.000 F10.000 
G1 X260.854 Y-244.979 Z-1.000 F10.000 
G1 X260.965 Y-244.855 Z-1.000 F10.000 
G1 X261.508 Y-244.693 Z-1.000 F10.000 
G1 X261.828 Y-244.532 Z-1.000 F10.000 
G1 X262.032 Y-244.351 Z-1.000 F10.000 
G1 X262.161 Y-244.138 Z-1.000 F10.000 
G1 X262.238 Y-243.864 Z-1.000 F10.000 
G1 X262.267 Y-243.483 Z-1.000 F10.000 
G1 X262.260 Y-243.234 Z-1.000 F10.000 
G1 X261.955 Y-242.779 Z-1.000 F10.000 
G1 X261.703 Y-242.520 Z-1.000 F10.000 
G1 X261.482 Y-242.387 Z-1.000 F10.000 
G1 X261.272 Y-242.337 Z-1.000 F10.000 
G1 X261.045 Y-242.353 Z-1.000 F10.000 
G1 X260.750 Y-242.438 Z-1.000 F10.000 
G1 X260.287 Y-242.587 Z-1.000 F10.000 
G1 X260.024 Y-242.634 Z-1.000 F10.000 
G1 X260.101 Y-242.490 Z-1.000 F10.000 
G1 X260.240 Y-242.381 Z-1.000 F10.000 
G1 X260.462 Y-242.302 Z-1.000 F10.000 
G1 X260.800 Y-242.259 Z-1.000 F10.000 
G1 X261.301 Y-242.268 Z-1.000 F10.000 
G1 X262.031 Y-242.351 Z-1.000 F10.000 
G1 X263.114 Y-242.537 Z-1.000 F10.000 
G1 X264.452 Y-242.780 Z-1.000 F10.000 
G1 X265.042 Y-242.864 Z-1.000 F10.000 
G1 X265.538 Y-242.896 Z-1.000 F10.000 
G1 X266.518 Y-242.896 Z-1.000 F10.000 
G1 X266.518 Y-242.896 Z-1.000 F10.000 
G0 Z6.000 
G0 Z6.000 
G0 X287.954 Y-241.864 
G0 Z4.000 
G1 X287.954 Y-241.864 Z-1.000 F10.000 
G1 X287.709 Y-242.499 Z-1.000 F10.000 
G1 X288.845 Y-242.472 Z-1.000 F10.000 
G1 X288.911 Y-242.639 Z-1.000 F10.000 
G1 X288.587 Y-243.348 Z-1.000 F10.000 
G1 X288.900 Y-243.344 Z-1.000 F10.000 
G1 X289.030 Y-243.320 Z-1.000 F10.000 
G1 X289.060 Y-243.261 Z-1.000 F10.000 
G1 X289.092 Y-243.039 Z-1.000 F10.000 
G1 X289.218 Y-242.761 Z-1.000 F10.000 
G1 X289.273 Y-242.676 Z-1.000 F10.000 
G1 X289.339 Y-242.583 Z-1.000 F10.000 
G1 X289.319 Y-242.993 Z-1.000 F10.000 
G1 X289.242 Y-243.243 Z-1.000 F10.000 
G1 X289.117 Y-243.411 Z-1.000 F10.000 
G1 X288.932 Y-243.538 Z-1.000 F10.000 
G1 X288.401 Y-243.712 Z-1.000 F10.000 
G1 X287.686 Y-243.456 Z-1.000 F10.000 
G1 X287.371 Y-242.523 Z-1.000 F10.000 
G1 X287.954 Y-241.864 Z-1.000 F10.000 
G1 X287.954 Y-241.864 Z-1.000 F10.000 
G0 Z6.000 
G0 Z6.000 
G0 X287.776 Y-242.924 
G0 Z4.000 
G1 X287.776 Y-242.924 Z-1.000 F10.000 
G1 X287.795 Y-243.223 Z-1.000 F10.000 
G1 X287.846 Y-243.373 Z-1.000 F10.000 
G1 X287.940 Y-243.441 Z-1.000 F10.000 
G1 X288.373 Y-243.521 Z-1.000 F10.000 
G1 X288.262 Y-243.097 Z-1.000 F10.000 
G1 X288.727 Y-242.828 Z-1.000 F10.000 
G1 X288.409 Y-242.531 Z-1.000 F10.000 
G1 X288.185 Y-243.042 Z-1.000 F10.000 
G1 X287.776 Y-242.924 Z-1.000 F10.000 
G1 X287.776 Y-242.924 Z-1.000 F10.000 
G0 Z6.000 
G0 Z6.000 
G0 X258.342 Y-243.454 
G0 Z4.000 
G1 X258.342 Y-243.454 Z-1.000 F10.000 
G1 X258.620 Y-243.716 Z-1.000 F10.000 
G1 X258.342 Y-243.454 Z-1.000 F10.000 
G0 Z6.000 
G0 Z6.000 
G0 X229.774 Y-243.549 
G0 Z4.000 
G1 X229.774 Y-243.549 Z-1.000 F10.000 
G1 X229.555 Y-243.300 Z-1.000 F10.000 
G1 X229.204 Y-243.005 Z-1.000 F10.000 
G1 X228.619 Y-242.594 Z-1.000 F10.000 
G1 X228.133 Y-242.258 Z-1.000 F10.000 
G1 X227.550 Y-241.804 Z-1.000 F10.000 
G1 X227.128 Y-241.390 Z-1.000 F10.000 
G1 X226.823 Y-240.987 Z-1.000 F10.000 
G1 X226.610 Y-240.581 Z-1.000 F10.000 
G1 X226.554 Y-240.435 Z-1.000 F10.000 
G1 X226.508 Y-240.283 Z-1.000 F10.000 
G1 X229.857 Y-243.472 Z-1.000 F10.000 
G1 X229.774 Y-243.549 Z-1.000 F10.000 
G1 X229.774 Y-243.549 Z-1.000 F10.000 
G0 Z6.000 
G0 Z6.000 
G0 X261.424 Y-242.725 
G0 Z4.000 
G1 X261.424 Y-242.725 Z-1.000 F10.000 
G1 X261.108 Y-242.834 Z-1.000 F10.000 
G1 X261.424 Y-242.725 Z-1.000 F10.000 
G0 Z6.000 
G0 Z6.000 
G0 X242.348 Y-243.222 
G0 Z4.000 
G1 X242.348 Y-243.222 Z-1.000 F10.000 
G1 X242.546 Y-243.002 Z-1.000 F10.000 
G1 X243.042 Y-242.557 Z-1.000 F10.000 
G1 X244.239 Y-241.547 Z-1.000 F10.000 
G1 X244.715 Y-241.117 Z-1.000 F10.000 
G1 X245.085 Y-240.733 Z-1.000 F10.000 
G1 X245.362 Y-240.356 Z-1.000 F10.000 
G1 X245.761 Y-239.702 Z-1.000 F10.000 
G1 X246.466 Y-238.477 Z-1.000 F10.000 
G1 X246.822 Y-237.945 Z-1.000 F10.000 
G1 X247.084 Y-237.670 Z-1.000 F10.000 
G1 X246.428 Y-238.916 Z-1.000 F10.000 
G1 X245.762 Y-240.027 Z-1.000 F10.000 
G1 X245.125 Y-240.949 Z-1.000 F10.000 
G1 X244.528 Y-241.686 Z-1.000 F10.000 
G1 X243.973 Y-242.256 Z-1.000 F10.000 
G1 X243.458 Y-242.680 Z-1.000 F10.000 
G1 X242.982 Y-242.977 Z-1.000 F10.000 
G1 X242.540 Y-243.167 Z-1.000 F10.000 
G1 X242.444 Y-243.197 Z-1.000 F10.000 
G1 X242.348 Y-243.222 Z-1.000 F10.000 
G0 Z6.000 
G0 Z6.000 
G0 X289.625 Y-242.325 
G0 Z4.000 
G1 X289.625 Y-242.325 Z-1.000 F10.000 
G1 X289.590 Y-242.382 Z-1.000 F10.000 
G1 X289.544 Y-242.406 Z-1.000 F10.000 
G1 X289.625 Y-242.325 Z-1.000 F10.000 
G0 Z6.000 
G0 Z6.000 
G0 X288.225 Y-241.856 
G0 Z4.000 
G1 X288.225 Y-241.856 Z-1.000 F10.000 
G1 X288.326 Y-241.690 Z-1.000 F10.000 
G1 X289.192 Y-242.374 Z-1.000 F10.000 
G1 X288.225 Y-241.856 Z-1.000 F10.000 
G0 Z6.000 
G0 Z6.000 
G0 X301.820 Y-242.228 
G0 Z4.000 
G1 X301.820 Y-242.228 Z-1.000 F10.000 
G1 X301.820 Y-241.930 Z-1.000 F10.000 
G1 X301.820 Y-242.228 Z-1.000 F10.000 
G0 Z6.000 
G0 Z6.000 
G0 X300.976 Y-241.916 
G0 Z4.000 
G1 X300.976 Y-241.916 Z-1.000 F10.000 
G1 X301.453 Y-241.938 Z-1.000 F10.000 
G1 X301.264 Y-242.204 Z-1.000 F10.000 
G1 X301.179 Y-242.249 Z-1.000 F10.000 
G1 X301.051 Y-242.248 Z-1.000 F10.000 
G1 X300.812 Y-242.242 Z-1.000 F10.000 
G1 X300.435 Y-242.228 Z-1.000 F10.000 
G1 X300.383 Y-242.194 Z-1.000 F10.000 
G1 X300.377 Y-242.147 Z-1.000 F10.000 
G1 X300.322 Y-242.079 Z-1.000 F10.000 
G1 X300.443 Y-241.974 Z-1.000 F10.000 
G1 X300.508 Y-241.914 Z-1.000 F10.000 
G1 X300.664 Y-241.900 Z-1.000 F10.000 
G1 X300.976 Y-241.916 Z-1.000 F10.000 
G1 X300.976 Y-241.916 Z-1.000 F10.000 
G0 Z6.000 
G0 Z6.000 
G0 X299.495 Y-241.985 
G0 Z4.000 
G1 X299.495 Y-241.985 Z-1.000 F10.000 
G1 X299.774 Y-242.246 Z-1.000 F10.000 
G1 X299.495 Y-241.985 Z-1.000 F10.000 
G0 Z6.000 
G0 Z6.000 
G0 X289.046 Y-241.655 
G0 Z4.000 
G1 X289.046 Y-241.655 Z-1.000 F10.000 
G1 X289.487 Y-242.081 Z-1.000 F10.000 
G1 X289.046 Y-241.655 Z-1.000 F10.000 
G0 Z6.000 
G0 Z6.000 
G0 X392.999 Y-241.508 
G0 Z4.000 
G1 X392.999 Y-241.508 Z-1.000 F10.000 
G1 X392.964 Y-241.565 Z-1.000 F10.000 
G1 X392.917 Y-241.589 Z-1.000 F10.000 
G1 X392.999 Y-241.508 Z-1.000 F10.000 
G0 Z6.000 
G0 Z6.000 
G0 X301.139 Y-241.597 
G0 Z4.000 
G1 X301.139 Y-241.597 Z-1.000 F10.000 
G1 X300.649 Y-241.589 Z-1.000 F10.000 
G1 X300.220 Y-241.604 Z-1.000 F10.000 
G1 X300.088 Y-241.590 Z-1.000 F10.000 
G1 X300.010 Y-241.516 Z-1.000 F10.000 
G1 X299.874 Y-241.277 Z-1.000 F10.000 
G1 X300.208 Y-241.430 Z-1.000 F10.000 
G1 X300.649 Y-241.426 Z-1.000 F10.000 
G1 X301.139 Y-241.426 Z-1.000 F10.000 
G1 X301.786 Y-241.483 Z-1.000 F10.000 
G1 X301.139 Y-241.597 Z-1.000 F10.000 
G0 Z6.000 
G0 Z6.000 
G0 X288.871 Y-241.426 
G0 Z4.000 
G1 X288.871 Y-241.426 Z-1.000 F10.000 
G1 X288.388 Y-241.493 Z-1.000 F10.000 
G1 X288.871 Y-241.426 Z-1.000 F10.000 
G0 Z6.000 
G0 Z6.000 
G0 X288.207 Y-241.419 
G0 Z4.000 
G1 X288.207 Y-241.419 Z-1.000 F10.000 
G1 X287.890 Y-241.528 Z-1.000 F10.000 
G1 X288.207 Y-241.419 Z-1.000 F10.000 
G0 Z6.000 
G0 Z6.000 
G0 X293.794 Y-239.167 
G0 Z4.000 
G1 X293.794 Y-239.167 Z-1.000 F10.000 
G1 X294.734 Y-240.617 Z-1.000 F10.000 
G1 X299.477 Y-240.818 Z-1.000 F10.000 
G1 X299.176 Y-241.915 Z-1.000 F10.000 
G1 X299.179 Y-242.569 Z-1.000 F10.000 
G1 X302.445 Y-242.569 Z-1.000 F10.000 
G1 X302.445 Y-241.916 Z-1.000 F10.000 
G1 X302.112 Y-241.433 Z-1.000 F10.000 
G1 X302.308 Y-240.782 Z-1.000 F10.000 
G1 X305.875 Y-240.773 Z-1.000 F10.000 
G1 X307.057 Y-240.788 Z-1.000 F10.000 
G1 X307.511 Y-240.836 Z-1.000 F10.000 
G1 X307.729 Y-240.919 Z-1.000 F10.000 
G1 X308.016 Y-241.099 Z-1.000 F10.000 
G1 X308.814 Y-241.461 Z-1.000 F10.000 
G1 X308.616 Y-245.560 Z-1.000 F10.000 
G1 X297.056 Y-245.704 Z-1.000 F10.000 
G1 X295.260 Y-245.672 Z-1.000 F10.000 
G1 X294.690 Y-245.701 Z-1.000 F10.000 
G1 X294.434 Y-245.769 Z-1.000 F10.000 
G1 X294.091 Y-245.912 Z-1.000 F10.000 
G1 X293.788 Y-245.998 Z-1.000 F10.000 
G1 X293.794 Y-239.168 Z-1.000 F10.000 
G1 X293.794 Y-239.167 Z-1.000 F10.000 
G0 Z6.000 
G0 Z6.000 
G0 X397.081 Y-241.181 
G0 Z4.000 
G1 X397.081 Y-241.181 Z-1.000 F10.000 
G1 X397.046 Y-241.239 Z-1.000 F10.000 
G1 X397.000 Y-241.263 Z-1.000 F10.000 
G1 X397.081 Y-241.181 Z-1.000 F10.000 
G0 Z6.000 
G0 Z6.000 
G0 X390.712 Y-240.855 
G0 Z4.000 
G1 X390.712 Y-240.855 Z-1.000 F10.000 
G1 X390.677 Y-240.912 Z-1.000 F10.000 
G1 X390.631 Y-240.936 Z-1.000 F10.000 
G1 X390.712 Y-240.855 Z-1.000 F10.000 
G0 Z6.000 
G0 Z6.000 
G0 X341.802 Y-243.222 
G0 Z4.000 
G1 X341.802 Y-243.222 Z-1.000 F10.000 
G1 X341.836 Y-242.701 Z-1.000 F10.000 
G1 X341.954 Y-241.971 Z-1.000 F10.000 
G1 X342.191 Y-240.914 Z-1.000 F10.000 
G1 X342.656 Y-239.018 Z-1.000 F10.000 
G1 X342.874 Y-237.928 Z-1.000 F10.000 
G1 X342.907 Y-237.708 Z-1.000 F10.000 
G1 X342.934 Y-237.495 Z-1.000 F10.000 
G1 X343.036 Y-236.341 Z-1.000 F10.000 
G1 X343.147 Y-235.004 Z-1.000 F10.000 
G1 X343.310 Y-233.485 Z-1.000 F10.000 
G1 X343.474 Y-232.497 Z-1.000 F10.000 
G1 X343.631 Y-231.916 Z-1.000 F10.000 
G1 X343.694 Y-231.757 Z-1.000 F10.000 
G1 X343.762 Y-231.627 Z-1.000 F10.000 
G1 X344.308 Y-232.306 Z-1.000 F10.000 
G1 X344.829 Y-233.071 Z-1.000 F10.000 
G1 X345.308 Y-233.904 Z-1.000 F10.000 
G1 X345.731 Y-234.785 Z-1.000 F10.000 
G1 X346.084 Y-235.691 Z-1.000 F10.000 
G1 X346.360 Y-236.602 Z-1.000 F10.000 
G1 X346.555 Y-237.498 Z-1.000 F10.000 
G1 X346.668 Y-238.364 Z-1.000 F10.000 
G1 X346.693 Y-238.753 Z-1.000 F10.000 
G1 X346.702 Y-239.140 Z-1.000 F10.000 
G1 X346.702 Y-239.956 Z-1.000 F10.000 
G1 X346.666 Y-240.643 Z-1.000 F10.000 
G1 X346.552 Y-241.432 Z-1.000 F10.000 
G1 X346.351 Y-242.311 Z-1.000 F10.000 
G1 X346.061 Y-243.253 Z-1.000 F10.000 
G1 X345.686 Y-244.222 Z-1.000 F10.000 
G1 X345.239 Y-245.175 Z-1.000 F10.000 
G1 X344.738 Y-246.071 Z-1.000 F10.000 
G1 X344.202 Y-246.878 Z-1.000 F10.000 
G1 X343.651 Y-247.576 Z-1.000 F10.000 
G1 X343.099 Y-248.157 Z-1.000 F10.000 
G1 X342.557 Y-248.622 Z-1.000 F10.000 
G1 X342.184 Y-248.883 Z-1.000 F10.000 
G1 X341.802 Y-249.101 Z-1.000 F10.000 
G1 X341.827 Y-243.712 Z-1.000 F10.000 
G1 X341.802 Y-243.222 Z-1.000 F10.000 
G1 X341.802 Y-243.222 Z-1.000 F10.000 
G0 Z6.000 
G0 Z6.000 
G0 X292.514 Y-239.480 
G0 Z4.000 
G1 X292.514 Y-239.480 Z-1.000 F10.000 
G1 X292.655 Y-240.119 Z-1.000 F10.000 
G1 X292.510 Y-240.758 Z-1.000 F10.000 
G1 X292.514 Y-239.480 Z-1.000 F10.000 
G0 Z6.000 
G0 Z6.000 
G0 X389.569 Y-240.202 
G0 Z4.000 
G1 X389.569 Y-240.202 Z-1.000 F10.000 
G1 X389.534 Y-240.259 Z-1.000 F10.000 
G1 X389.488 Y-240.283 Z-1.000 F10.000 
G1 X389.569 Y-240.202 Z-1.000 F10.000 
G0 Z6.000 
G0 Z6.000 
G0 X291.695 Y-240.255 
G0 Z4.000 
G1 X291.695 Y-240.255 Z-1.000 F10.000 
G1 X291.680 Y-239.910 Z-1.000 F10.000 
G1 X291.701 Y-239.820 Z-1.000 F10.000 
G1 X291.854 Y-239.772 Z-1.000 F10.000 
G1 X292.115 Y-239.643 Z-1.000 F10.000 
G1 X292.154 Y-240.254 Z-1.000 F10.000 
G1 X291.695 Y-240.255 Z-1.000 F10.000 
G1 X291.695 Y-240.255 Z-1.000 F10.000 
G0 Z6.000 
G0 Z6.000 
G0 X399.694 Y-239.875 
G0 Z4.000 
G1 X399.694 Y-239.875 Z-1.000 F10.000 
G1 X399.658 Y-239.934 Z-1.000 F10.000 
G1 X399.613 Y-239.956 Z-1.000 F10.000 
G1 X399.694 Y-239.875 Z-1.000 F10.000 
G0 Z6.000 
G0 Z6.000 
G0 X312.733 Y-238.976 
G0 Z4.000 
G1 X312.733 Y-238.976 Z-1.000 F10.000 
G1 X314.203 Y-238.976 Z-1.000 F10.000 
G1 X314.640 Y-239.007 Z-1.000 F10.000 
G1 X315.001 Y-239.087 Z-1.000 F10.000 
G1 X315.210 Y-239.130 Z-1.000 F10.000 
G1 X315.482 Y-239.167 Z-1.000 F10.000 
G1 X315.537 Y-240.610 Z-1.000 F10.000 
G1 X315.537 Y-242.079 Z-1.000 F10.000 
G1 X315.510 Y-245.509 Z-1.000 F10.000 
G1 X312.570 Y-245.509 Z-1.000 F10.000 
G1 X312.570 Y-244.202 Z-1.000 F10.000 
G1 X312.733 Y-242.896 Z-1.000 F10.000 
G1 X312.733 Y-238.976 Z-1.000 F10.000 
G1 X312.733 Y-238.976 Z-1.000 F10.000 
G0 Z6.000 
G0 Z6.000 
G0 X259.772 Y-239.601 
G0 Z4.000 
G1 X259.772 Y-239.601 Z-1.000 F10.000 
G1 X260.621 Y-239.846 Z-1.000 F10.000 
G1 X260.180 Y-240.815 Z-1.000 F10.000 
G1 X259.748 Y-241.683 Z-1.000 F10.000 
G1 X259.364 Y-242.317 Z-1.000 F10.000 
G1 X259.025 Y-242.746 Z-1.000 F10.000 
G1 X258.724 Y-243.018 Z-1.000 F10.000 
G1 X258.451 Y-243.171 Z-1.000 F10.000 
G1 X258.294 Y-243.218 Z-1.000 F10.000 
G1 X259.772 Y-239.601 Z-1.000 F10.000 
G1 X259.772 Y-239.601 Z-1.000 F10.000 
G0 Z6.000 
G0 Z6.000 
G0 X400.021 Y-239.548 
G0 Z4.000 
G1 X400.021 Y-239.548 Z-1.000 F10.000 
G1 X399.986 Y-239.606 Z-1.000 F10.000 
G1 X399.940 Y-239.630 Z-1.000 F10.000 
G1 X400.021 Y-239.548 Z-1.000 F10.000 
G0 Z6.000 
G0 Z6.000 
G0 X400.701 Y-238.977 
G0 Z4.000 
G1 X400.701 Y-238.977 Z-1.000 F10.000 
G1 X400.430 Y-239.248 Z-1.000 F10.000 
G1 X400.701 Y-238.977 Z-1.000 F10.000 
G0 Z6.000 
G0 Z6.000 
G0 X225.437 Y-238.328 
G0 Z4.000 
G1 X225.437 Y-238.328 Z-1.000 F10.000 
G1 X226.332 Y-239.913 Z-1.000 F10.000 
G1 X225.880 Y-239.922 Z-1.000 F10.000 
G1 X225.601 Y-239.864 Z-1.000 F10.000 
G1 X225.409 Y-239.753 Z-1.000 F10.000 
G1 X225.262 Y-239.583 Z-1.000 F10.000 
G1 X225.131 Y-239.318 Z-1.000 F10.000 
G1 X225.071 Y-239.148 Z-1.000 F10.000 
G1 X225.012 Y-238.955 Z-1.000 F10.000 
G1 X225.437 Y-238.328 Z-1.000 F10.000 
G1 X225.437 Y-238.328 Z-1.000 F10.000 
G0 Z6.000 
G0 Z6.000 
G0 X308.732 Y-238.732 
G0 Z4.000 
G1 X308.732 Y-238.732 Z-1.000 F10.000 
G1 X308.697 Y-238.789 Z-1.000 F10.000 
G1 X308.651 Y-238.813 Z-1.000 F10.000 
G1 X308.732 Y-238.732 Z-1.000 F10.000 
G0 Z6.000 
G0 Z6.000 
G0 X401.164 Y-238.569 
G0 Z4.000 
G1 X401.164 Y-238.569 Z-1.000 F10.000 
G1 X401.125 Y-238.630 Z-1.000 F10.000 
G1 X401.082 Y-238.650 Z-1.000 F10.000 
G1 X401.164 Y-238.569 Z-1.000 F10.000 
G0 Z6.000 
G0 Z6.000 
G0 X289.378 Y-227.066 
G0 Z4.000 
G1 X289.378 Y-227.066 Z-1.000 F10.000 
G1 X289.804 Y-227.125 Z-1.000 F10.000 
G1 X290.104 Y-227.234 Z-1.000 F10.000 
G1 X290.319 Y-227.385 Z-1.000 F10.000 
G1 X290.474 Y-227.580 Z-1.000 F10.000 
G1 X290.584 Y-227.833 Z-1.000 F10.000 
G1 X290.655 Y-228.172 Z-1.000 F10.000 
G1 X290.687 Y-228.851 Z-1.000 F10.000 
G1 X290.687 Y-237.670 Z-1.000 F10.000 
G1 X290.677 Y-238.613 Z-1.000 F10.000 
G1 X289.387 Y-239.178 Z-1.000 F10.000 
G1 X289.378 Y-227.066 Z-1.000 F10.000 
G1 X289.378 Y-227.066 Z-1.000 F10.000 
G0 Z6.000 
G0 Z6.000 
G0 X315.355 Y-237.031 
G0 Z4.000 
G1 X315.355 Y-237.031 Z-1.000 F10.000 
G1 X315.592 Y-237.208 Z-1.000 F10.000 
G1 X315.680 Y-237.315 Z-1.000 F10.000 
G1 X315.692 Y-237.440 Z-1.000 F10.000 
G1 X315.673 Y-237.833 Z-1.000 F10.000 
G1 X315.673 Y-238.160 Z-1.000 F10.000 
G1 X315.350 Y-238.799 Z-1.000 F10.000 
G1 X315.355 Y-237.031 Z-1.000 F10.000 
G1 X315.355 Y-237.031 Z-1.000 F10.000 
G0 Z6.000 
G0 Z6.000 
G0 X314.857 Y-238.486 
G0 Z4.000 
G1 X314.857 Y-238.486 Z-1.000 F10.000 
G1 X314.454 Y-238.549 Z-1.000 F10.000 
G1 X314.028 Y-238.637 Z-1.000 F10.000 
G1 X313.889 Y-238.646 Z-1.000 F10.000 
G1 X313.713 Y-238.650 Z-1.000 F10.000 
G1 X313.360 Y-238.619 Z-1.000 F10.000 
G1 X313.096 Y-238.544 Z-1.000 F10.000 
G1 X312.947 Y-238.513 Z-1.000 F10.000 
G1 X312.734 Y-238.486 Z-1.000 F10.000 
G1 X312.734 Y-237.343 Z-1.000 F10.000 
G1 X314.857 Y-237.343 Z-1.000 F10.000 
G1 X314.857 Y-238.486 Z-1.000 F10.000 
G0 Z6.000 
G0 Z6.000 
G0 X309.178 Y-237.520 
G0 Z4.000 
G1 X309.178 Y-237.520 Z-1.000 F10.000 
G1 X309.313 Y-237.996 Z-1.000 F10.000 
G1 X309.174 Y-238.472 Z-1.000 F10.000 
G1 X309.178 Y-237.520 Z-1.000 F10.000 
G1 X309.178 Y-237.520 Z-1.000 F10.000 
G0 Z6.000 
G0 Z6.000 
G0 X288.385 Y-227.159 
G0 Z4.000 
G1 X288.385 Y-227.159 Z-1.000 F10.000 
G1 X288.401 Y-238.650 Z-1.000 F10.000 
G1 X288.391 Y-239.275 Z-1.000 F10.000 
G1 X288.015 Y-239.241 Z-1.000 F10.000 
G1 X287.723 Y-239.145 Z-1.000 F10.000 
G1 X287.498 Y-238.996 Z-1.000 F10.000 
G1 X287.325 Y-238.796 Z-1.000 F10.000 
G1 X287.199 Y-238.537 Z-1.000 F10.000 
G1 X287.119 Y-238.205 Z-1.000 F10.000 
G1 X287.095 Y-237.833 Z-1.000 F10.000 
G1 X287.095 Y-228.851 Z-1.000 F10.000 
G1 X287.127 Y-228.418 Z-1.000 F10.000 
G1 X287.353 Y-227.444 Z-1.000 F10.000 
G1 X288.385 Y-227.159 Z-1.000 F10.000 
G1 X288.385 Y-227.159 Z-1.000 F10.000 
G0 Z6.000 
G0 Z6.000 
G0 X325.236 Y-237.831 
G0 Z4.000 
G1 X325.236 Y-237.831 Z-1.000 F10.000 
G1 X324.997 Y-238.288 Z-1.000 F10.000 
G1 X325.236 Y-237.831 Z-1.000 F10.000 
G0 Z6.000 
G0 Z6.000 
G0 X283.665 Y-234.077 
G0 Z4.000 
G1 X283.665 Y-234.077 Z-1.000 F10.000 
G1 X284.971 Y-234.077 Z-1.000 F10.000 
G1 X285.276 Y-235.041 Z-1.000 F10.000 
G1 X286.400 Y-235.073 Z-1.000 F10.000 
G1 X286.730 Y-235.422 Z-1.000 F10.000 
G1 X286.770 Y-238.650 Z-1.000 F10.000 
G1 X286.898 Y-238.984 Z-1.000 F10.000 
G1 X287.077 Y-239.257 Z-1.000 F10.000 
G1 X287.303 Y-239.472 Z-1.000 F10.000 
G1 X287.573 Y-239.630 Z-1.000 F10.000 
G1 X287.888 Y-239.730 Z-1.000 F10.000 
G1 X288.248 Y-239.766 Z-1.000 F10.000 
