(Exported by FreeCAD)
(Post Processor: linuxcnc_post)
(Output Time:2022-05-30 19:52:43.244770)
(begin preamble)
G17 G54 G40 G49 G80 G90
G21
(begin operation: G54)
(machine units: mm/min)
G54 
G0 Z17.700 
(finish operation: G54)
(begin operation: 6.4mm Endmill001)
(machine units: mm/min)
(6.4mm Endmill001) 
M5
M6 T2 
G43 H2 
M3 S15000 
(finish operation: 6.4mm Endmill001)
(begin operation: Profile)
(machine units: mm/min)
(Profile) 
(Compensated Tool Path. Diameter: 6.4) 
G0 Z17.700 
G0 X192.263 Y52.263 
G0 Z15.700 
G1 X192.263 Y52.263 Z8.700 F300.000 
G2 X193.200 Y50.000 Z8.700 I-2.263 J-2.263 F900.000 
G1 X193.200 Y0.000 Z8.700 F900.000 
G2 X190.000 Y-3.200 Z8.700 I-3.200 J-0.000 F900.000 
G1 X0.000 Y-3.200 Z8.700 F900.000 
G2 X-3.200 Y0.000 Z8.700 I-0.000 J3.200 F900.000 
G1 X-3.200 Y50.000 Z8.700 F900.000 
G2 X-0.000 Y53.200 Z8.700 I3.200 J0.000 F900.000 
G1 X8.500 Y53.200 Z8.700 F900.000 
G2 X11.699 Y50.080 Z8.700 I-0.000 J-3.200 F900.000 
G3 X40.000 Y21.701 Z8.700 I28.301 J-0.078 F900.000 
G3 X68.301 Y50.080 Z8.700 I0.000 J28.301 F900.000 
G2 X71.500 Y53.200 Z8.700 I3.199 J-0.080 F900.000 
G1 X190.000 Y53.200 Z8.700 F900.000 
G2 X192.263 Y52.263 Z8.700 I0.000 J-3.200 F900.000 
G1 X192.263 Y52.263 Z4.700 F300.000 
G2 X193.200 Y50.000 Z4.700 I-2.263 J-2.263 F900.000 
G1 X193.200 Y0.000 Z4.700 F900.000 
G2 X190.000 Y-3.200 Z4.700 I-3.200 J-0.000 F900.000 
G1 X0.000 Y-3.200 Z4.700 F900.000 
G2 X-3.200 Y0.000 Z4.700 I-0.000 J3.200 F900.000 
G1 X-3.200 Y50.000 Z4.700 F900.000 
G2 X-0.000 Y53.200 Z4.700 I3.200 J0.000 F900.000 
G1 X8.500 Y53.200 Z4.700 F900.000 
G2 X11.699 Y50.080 Z4.700 I-0.000 J-3.200 F900.000 
G3 X40.000 Y21.701 Z4.700 I28.301 J-0.078 F900.000 
G3 X68.301 Y50.080 Z4.700 I0.000 J28.301 F900.000 
G2 X71.500 Y53.200 Z4.700 I3.199 J-0.080 F900.000 
G1 X190.000 Y53.200 Z4.700 F900.000 
G2 X192.263 Y52.263 Z4.700 I0.000 J-3.200 F900.000 
G1 X192.263 Y52.263 Z0.700 F300.000 
G2 X193.200 Y50.000 Z0.700 I-2.263 J-2.263 F900.000 
G1 X193.200 Y0.000 Z0.700 F900.000 
G2 X190.000 Y-3.200 Z0.700 I-3.200 J-0.000 F900.000 
G1 X0.000 Y-3.200 Z0.700 F900.000 
G2 X-3.200 Y0.000 Z0.700 I-0.000 J3.200 F900.000 
G1 X-3.200 Y50.000 Z0.700 F900.000 
G2 X-0.000 Y53.200 Z0.700 I3.200 J0.000 F900.000 
G1 X8.500 Y53.200 Z0.700 F900.000 
G2 X11.699 Y50.080 Z0.700 I-0.000 J-3.200 F900.000 
G3 X40.000 Y21.701 Z0.700 I28.301 J-0.078 F900.000 
G3 X68.301 Y50.080 Z0.700 I0.000 J28.301 F900.000 
G2 X71.500 Y53.200 Z0.700 I3.199 J-0.080 F900.000 
G1 X190.000 Y53.200 Z0.700 F900.000 
G2 X192.263 Y52.263 Z0.700 I0.000 J-3.200 F900.000 
G1 X192.263 Y52.263 Z0.000 F300.000 
G2 X193.200 Y50.000 Z0.000 I-2.263 J-2.263 F900.000 
G1 X193.200 Y0.000 Z0.000 F900.000 
G2 X190.000 Y-3.200 Z0.000 I-3.200 J-0.000 F900.000 
G1 X0.000 Y-3.200 Z0.000 F900.000 
G2 X-3.200 Y0.000 Z0.000 I-0.000 J3.200 F900.000 
G1 X-3.200 Y50.000 Z0.000 F900.000 
G2 X-0.000 Y53.200 Z0.000 I3.200 J0.000 F900.000 
G1 X8.500 Y53.200 Z0.000 F900.000 
G2 X11.699 Y50.080 Z0.000 I-0.000 J-3.200 F900.000 
G3 X40.000 Y21.701 Z0.000 I28.301 J-0.078 F900.000 
G3 X68.301 Y50.080 Z0.000 I0.000 J28.301 F900.000 
G2 X71.500 Y53.200 Z0.000 I3.199 J-0.080 F900.000 
G1 X190.000 Y53.200 Z0.000 F900.000 
G2 X192.263 Y52.263 Z0.000 I0.000 J-3.200 F900.000 
G0 Z17.700 
G0 Z17.700 
(finish operation: Profile)
(begin postamble)
M05
G17 G54 G90 G80 G40
M2
