(Exported by FreeCAD)
(Post Processor: linuxcnc_post)
(Output Time:2022-02-28 10:54:33.325467)
(begin preamble)
G17 G54 G40 G49 G80 G90
G21
(begin operation: Fixture)
(machine units: mm/min)
G54 
(finish operation: Fixture)
(begin operation: 6.4mm Endmill001)
(machine units: mm/min)
(6.4mm Endmill001) 
M5
M6 T2 
G43 H2 
M3 S10000 
(finish operation: 6.4mm Endmill001)
(begin operation: Holes)
(machine units: mm/min)
(Holes) 
(Compensated Tool Path. Diameter: 6.4) 
G0 Z15.000 
G0 X68.027 Y69.456 
G0 Z13.000 
G1 X68.027 Y69.456 Z6.000 F600.000 
G2 X68.069 Y69.369 Z6.000 I-0.152 J-0.126 F600.000 
G1 X76.463 Y51.151 Z6.000 F600.000 
G2 X76.473 Y50.919 Z6.000 I-0.155 J-0.122 F600.000 
G1 X69.526 Y32.101 Z6.000 F600.000 
G2 X69.369 Y31.931 Z6.000 I-0.196 J0.023 F600.000 
G1 X51.122 Y23.523 Z6.000 F600.000 
G2 X50.978 Y23.506 Z6.000 I-0.084 J0.087 F600.000 
G1 X32.101 Y30.474 Z6.000 F600.000 
G2 X31.931 Y30.631 Z6.000 I0.023 J0.196 F600.000 
G1 X23.537 Y48.849 Z6.000 F600.000 
G2 X23.527 Y49.081 Z6.000 I0.155 J0.122 F600.000 
G1 X30.474 Y67.899 Z6.000 F600.000 
G2 X30.631 Y68.069 Z6.000 I0.196 J-0.023 F600.000 
G1 X48.849 Y76.463 Z6.000 F600.000 
G2 X49.081 Y76.473 Z6.000 I0.122 J-0.155 F600.000 
G1 X67.899 Y69.526 Z6.000 F600.000 
G2 X68.027 Y69.456 Z6.000 I-0.023 J-0.196 F600.000 
G1 X68.027 Y69.456 Z3.000 F600.000 
G2 X68.069 Y69.369 Z3.000 I-0.152 J-0.126 F600.000 
G1 X76.463 Y51.151 Z3.000 F600.000 
G2 X76.473 Y50.919 Z3.000 I-0.155 J-0.122 F600.000 
G1 X69.526 Y32.101 Z3.000 F600.000 
G2 X69.369 Y31.931 Z3.000 I-0.196 J0.023 F600.000 
G1 X51.122 Y23.523 Z3.000 F600.000 
G2 X50.978 Y23.506 Z3.000 I-0.084 J0.087 F600.000 
G1 X32.101 Y30.474 Z3.000 F600.000 
G2 X31.931 Y30.631 Z3.000 I0.023 J0.196 F600.000 
G1 X23.537 Y48.849 Z3.000 F600.000 
G2 X23.527 Y49.081 Z3.000 I0.155 J0.122 F600.000 
G1 X30.474 Y67.899 Z3.000 F600.000 
G2 X30.631 Y68.069 Z3.000 I0.196 J-0.023 F600.000 
G1 X48.849 Y76.463 Z3.000 F600.000 
G2 X49.081 Y76.473 Z3.000 I0.122 J-0.155 F600.000 
G1 X67.899 Y69.526 Z3.000 F600.000 
G2 X68.027 Y69.456 Z3.000 I-0.023 J-0.196 F600.000 
G1 X68.027 Y69.456 Z0.010 F600.000 
G2 X68.069 Y69.369 Z0.010 I-0.152 J-0.126 F600.000 
G1 X76.463 Y51.151 Z0.010 F600.000 
G2 X76.473 Y50.919 Z0.010 I-0.155 J-0.122 F600.000 
G1 X69.526 Y32.101 Z0.010 F600.000 
G2 X69.369 Y31.931 Z0.010 I-0.196 J0.023 F600.000 
G1 X51.122 Y23.523 Z0.010 F600.000 
G2 X50.978 Y23.506 Z0.010 I-0.084 J0.087 F600.000 
G1 X32.101 Y30.474 Z0.010 F600.000 
G2 X31.931 Y30.631 Z0.010 I0.023 J0.196 F600.000 
G1 X23.537 Y48.849 Z0.010 F600.000 
G2 X23.527 Y49.081 Z0.010 I0.155 J0.122 F600.000 
G1 X30.474 Y67.899 Z0.010 F600.000 
G2 X30.631 Y68.069 Z0.010 I0.196 J-0.023 F600.000 
G1 X48.849 Y76.463 Z0.010 F600.000 
G2 X49.081 Y76.473 Z0.010 I0.122 J-0.155 F600.000 
G1 X67.899 Y69.526 Z0.010 F600.000 
G2 X68.027 Y69.456 Z0.010 I-0.023 J-0.196 F600.000 
G0 Z15.000 
G0 Z15.000 
G0 X68.027 Y69.456 
G0 X88.350 Y79.987 
G0 X88.350 Y79.987 Z13.000 
G1 X88.350 Y79.987 Z6.000 F600.000 
G1 X83.618 Y89.119 Z6.000 F600.000 
G2 X83.612 Y89.335 Z6.000 I0.113 J0.111 F600.000 
G1 X92.862 Y110.077 Z6.000 F600.000 
G2 X93.027 Y110.216 Z6.000 I0.157 J-0.019 F600.000 
G1 X115.012 Y115.916 Z6.000 F600.000 
G2 X115.223 Y115.875 Z6.000 I0.083 J-0.135 F600.000 
G1 X133.387 Y102.240 Z6.000 F600.000 
G2 X133.486 Y102.049 Z6.000 I-0.054 J-0.149 F600.000 
G1 X134.151 Y79.347 Z6.000 F600.000 
G2 X134.064 Y79.150 Z6.000 I-0.150 J-0.051 F600.000 
G1 X116.729 Y64.476 Z6.000 F600.000 
G2 X116.520 Y64.421 Z6.000 I-0.134 J0.085 F600.000 
G1 X94.240 Y68.825 Z6.000 F600.000 
G2 X94.067 Y68.954 Z6.000 I-0.016 J0.158 F600.000 
G1 X88.350 Y79.987 Z6.000 F600.000 
G1 X88.350 Y79.987 Z3.000 F600.000 
G1 X83.618 Y89.119 Z3.000 F600.000 
G2 X83.612 Y89.335 Z3.000 I0.113 J0.111 F600.000 
G1 X92.862 Y110.077 Z3.000 F600.000 
G2 X93.027 Y110.216 Z3.000 I0.157 J-0.019 F600.000 
G1 X115.012 Y115.916 Z3.000 F600.000 
G2 X115.223 Y115.875 Z3.000 I0.083 J-0.135 F600.000 
G1 X133.387 Y102.240 Z3.000 F600.000 
G2 X133.486 Y102.049 Z3.000 I-0.054 J-0.149 F600.000 
G1 X134.151 Y79.347 Z3.000 F600.000 
G2 X134.064 Y79.150 Z3.000 I-0.150 J-0.051 F600.000 
G1 X116.729 Y64.476 Z3.000 F600.000 
G2 X116.520 Y64.421 Z3.000 I-0.134 J0.085 F600.000 
G1 X94.240 Y68.825 Z3.000 F600.000 
G2 X94.067 Y68.954 Z3.000 I-0.016 J0.158 F600.000 
G1 X88.350 Y79.987 Z3.000 F600.000 
G1 X88.350 Y79.987 Z0.010 F600.000 
G1 X83.618 Y89.119 Z0.010 F600.000 
G2 X83.612 Y89.335 Z0.010 I0.113 J0.111 F600.000 
G1 X92.862 Y110.077 Z0.010 F600.000 
G2 X93.027 Y110.216 Z0.010 I0.157 J-0.019 F600.000 
G1 X115.012 Y115.916 Z0.010 F600.000 
G2 X115.223 Y115.875 Z0.010 I0.083 J-0.135 F600.000 
G1 X133.387 Y102.240 Z0.010 F600.000 
G2 X133.486 Y102.049 Z0.010 I-0.054 J-0.149 F600.000 
G1 X134.151 Y79.347 Z0.010 F600.000 
G2 X134.064 Y79.150 Z0.010 I-0.150 J-0.051 F600.000 
G1 X116.729 Y64.476 Z0.010 F600.000 
G2 X116.520 Y64.421 Z0.010 I-0.134 J0.085 F600.000 
G1 X94.240 Y68.825 Z0.010 F600.000 
G2 X94.067 Y68.954 Z0.010 I-0.016 J0.158 F600.000 
G1 X88.350 Y79.987 Z0.010 F600.000 
G0 Z15.000 
G0 Z15.000 
G0 X88.350 Y79.987 
G0 X144.198 Y55.053 
G0 X144.198 Y55.053 Z13.000 
G1 X144.198 Y55.053 Z6.000 F600.000 
G2 X144.258 Y55.116 Z6.000 I0.121 J-0.054 F600.000 
G1 X161.364 Y74.784 Z6.000 F600.000 
G2 X161.560 Y74.851 Z6.000 I0.125 J-0.044 F600.000 
G1 X187.145 Y69.871 Z6.000 F600.000 
G2 X187.302 Y69.735 Z6.000 I0.024 J-0.130 F600.000 
G1 X195.781 Y45.088 Z6.000 F600.000 
G2 X195.742 Y44.884 Z6.000 I-0.101 J-0.086 F600.000 
G1 X178.636 Y25.216 Z6.000 F600.000 
G2 X178.440 Y25.149 Z6.000 I-0.125 J0.044 F600.000 
G1 X152.855 Y30.129 Z6.000 F600.000 
G2 X152.698 Y30.265 Z6.000 I-0.024 J0.130 F600.000 
G1 X144.219 Y54.912 Z6.000 F600.000 
G2 X144.198 Y55.053 Z6.000 I0.101 J0.086 F600.000 
G1 X144.198 Y55.053 Z3.000 F600.000 
G2 X144.258 Y55.116 Z3.000 I0.121 J-0.054 F600.000 
G1 X161.364 Y74.784 Z3.000 F600.000 
G2 X161.560 Y74.851 Z3.000 I0.125 J-0.044 F600.000 
G1 X187.145 Y69.871 Z3.000 F600.000 
G2 X187.302 Y69.735 Z3.000 I0.024 J-0.130 F600.000 
G1 X195.781 Y45.088 Z3.000 F600.000 
G2 X195.742 Y44.884 Z3.000 I-0.101 J-0.086 F600.000 
G1 X178.636 Y25.216 Z3.000 F600.000 
G2 X178.440 Y25.149 Z3.000 I-0.125 J0.044 F600.000 
G1 X152.855 Y30.129 Z3.000 F600.000 
G2 X152.698 Y30.265 Z3.000 I-0.024 J0.130 F600.000 
G1 X144.219 Y54.912 Z3.000 F600.000 
G2 X144.198 Y55.053 Z3.000 I0.101 J0.086 F600.000 
G1 X144.198 Y55.053 Z0.010 F600.000 
G2 X144.258 Y55.116 Z0.010 I0.121 J-0.054 F600.000 
G1 X161.364 Y74.784 Z0.010 F600.000 
G2 X161.560 Y74.851 Z0.010 I0.125 J-0.044 F600.000 
G1 X187.145 Y69.871 Z0.010 F600.000 
G2 X187.302 Y69.735 Z0.010 I0.024 J-0.130 F600.000 
G1 X195.781 Y45.088 Z0.010 F600.000 
G2 X195.742 Y44.884 Z0.010 I-0.101 J-0.086 F600.000 
G1 X178.636 Y25.216 Z0.010 F600.000 
G2 X178.440 Y25.149 Z0.010 I-0.125 J0.044 F600.000 
G1 X152.855 Y30.129 Z0.010 F600.000 
G2 X152.698 Y30.265 Z0.010 I-0.024 J0.130 F600.000 
G1 X144.219 Y54.912 Z0.010 F600.000 
G2 X144.198 Y55.053 Z0.010 I0.101 J0.086 F600.000 
G0 Z15.000 
G0 Z15.000 
(finish operation: Holes)
(begin operation: Profile001)
(machine units: mm/min)
(Profile001) 
(Compensated Tool Path. Diameter: 6.4) 
G0 Z15.000 
G0 X212.263 Y132.263 
G0 Z13.000 
G1 X212.263 Y132.263 Z6.000 F600.000 
G2 X213.200 Y130.000 Z6.000 I-2.263 J-2.263 F600.000 
G1 X213.200 Y10.000 Z6.000 F600.000 
G2 X210.000 Y6.800 Z6.000 I-3.200 J-0.000 F600.000 
G1 X10.000 Y6.800 Z6.000 F600.000 
G2 X6.800 Y10.000 Z6.000 I-0.000 J3.200 F600.000 
G1 X6.800 Y130.000 Z6.000 F600.000 
G2 X10.000 Y133.200 Z6.000 I3.200 J0.000 F600.000 
G1 X210.000 Y133.200 Z6.000 F600.000 
G2 X212.263 Y132.263 Z6.000 I0.000 J-3.200 F600.000 
G1 X212.263 Y132.263 Z3.000 F600.000 
G2 X213.200 Y130.000 Z3.000 I-2.263 J-2.263 F600.000 
G1 X213.200 Y10.000 Z3.000 F600.000 
G2 X210.000 Y6.800 Z3.000 I-3.200 J-0.000 F600.000 
G1 X10.000 Y6.800 Z3.000 F600.000 
G2 X6.800 Y10.000 Z3.000 I-0.000 J3.200 F600.000 
G1 X6.800 Y130.000 Z3.000 F600.000 
G2 X10.000 Y133.200 Z3.000 I3.200 J0.000 F600.000 
G1 X210.000 Y133.200 Z3.000 F600.000 
G2 X212.263 Y132.263 Z3.000 I0.000 J-3.200 F600.000 
G1 X212.263 Y132.263 Z0.010 F600.000 
G2 X213.200 Y130.000 Z0.010 I-2.263 J-2.263 F600.000 
G1 X213.200 Y10.000 Z0.010 F600.000 
G2 X210.000 Y6.800 Z0.010 I-3.200 J-0.000 F600.000 
G1 X10.000 Y6.800 Z0.010 F600.000 
G2 X6.800 Y10.000 Z0.010 I-0.000 J3.200 F600.000 
G1 X6.800 Y130.000 Z0.010 F600.000 
G2 X10.000 Y133.200 Z0.010 I3.200 J0.000 F600.000 
G1 X210.000 Y133.200 Z0.010 F600.000 
G2 X212.263 Y132.263 Z0.010 I0.000 J-3.200 F600.000 
G0 Z15.000 
G0 Z15.000 
G0 X212.263 Y132.263 
G0 X220.748 Y121.886 
G0 X220.748 Y121.886 Z13.000 
G1 X220.748 Y121.886 Z6.000 F600.000 
G1 X234.921 Y133.476 Z6.000 F600.000 
G2 X240.085 Y134.818 Z6.000 I4.051 J-4.982 F600.000 
G1 X262.713 Y129.945 Z6.000 F600.000 
G2 X266.981 Y126.745 Z6.000 I-1.370 J-6.273 F600.000 
G1 X277.280 Y106.016 Z6.000 F600.000 
G2 X277.439 Y100.683 Z6.000 I-5.759 J-2.841 F600.000 
G1 X267.653 Y79.706 Z6.000 F600.000 
G2 X263.583 Y76.257 Z6.000 I-5.811 J2.731 F600.000 
G1 X241.082 Y70.829 Z6.000 F600.000 
G1 X240.375 Y70.705 Z6.000 F600.000 
G2 X235.847 Y71.861 Z6.000 I-0.792 J6.346 F600.000 
G1 X217.574 Y86.069 Z6.000 F600.000 
G2 X215.117 Y90.805 Z6.000 I3.956 J5.058 F600.000 
G1 X214.833 Y113.949 Z6.000 F600.000 
G2 X217.003 Y118.823 Z6.000 I6.421 J0.061 F600.000 
G1 X220.748 Y121.886 Z6.000 F600.000 
G1 X220.748 Y121.886 Z3.000 F600.000 
G1 X234.921 Y133.476 Z3.000 F600.000 
G2 X240.085 Y134.818 Z3.000 I4.051 J-4.982 F600.000 
G1 X262.713 Y129.945 Z3.000 F600.000 
G2 X266.981 Y126.745 Z3.000 I-1.370 J-6.273 F600.000 
G1 X277.280 Y106.016 Z3.000 F600.000 
G2 X277.439 Y100.683 Z3.000 I-5.759 J-2.841 F600.000 
G1 X267.653 Y79.706 Z3.000 F600.000 
G2 X263.583 Y76.257 Z3.000 I-5.811 J2.731 F600.000 
G1 X241.082 Y70.829 Z3.000 F600.000 
G1 X240.375 Y70.705 Z3.000 F600.000 
G2 X235.847 Y71.861 Z3.000 I-0.792 J6.346 F600.000 
G1 X217.574 Y86.069 Z3.000 F600.000 
G2 X215.117 Y90.805 Z3.000 I3.956 J5.058 F600.000 
G1 X214.833 Y113.949 Z3.000 F600.000 
G2 X217.003 Y118.823 Z3.000 I6.421 J0.061 F600.000 
G1 X220.748 Y121.886 Z3.000 F600.000 
G1 X220.748 Y121.886 Z0.010 F600.000 
G1 X234.921 Y133.476 Z0.010 F600.000 
G2 X240.085 Y134.818 Z0.010 I4.051 J-4.982 F600.000 
G1 X262.713 Y129.945 Z0.010 F600.000 
G2 X266.981 Y126.745 Z0.010 I-1.370 J-6.273 F600.000 
G1 X277.280 Y106.016 Z0.010 F600.000 
G2 X277.439 Y100.683 Z0.010 I-5.759 J-2.841 F600.000 
G1 X267.653 Y79.706 Z0.010 F600.000 
G2 X263.583 Y76.257 Z0.010 I-5.811 J2.731 F600.000 
G1 X241.082 Y70.829 Z0.010 F600.000 
G1 X240.375 Y70.705 Z0.010 F600.000 
G2 X235.847 Y71.861 Z0.010 I-0.792 J6.346 F600.000 
G1 X217.574 Y86.069 Z0.010 F600.000 
G2 X215.117 Y90.805 Z0.010 I3.956 J5.058 F600.000 
G1 X214.833 Y113.949 Z0.010 F600.000 
G2 X217.003 Y118.823 Z0.010 I6.421 J0.061 F600.000 
G1 X220.748 Y121.886 Z0.010 F600.000 
G0 Z15.000 
G0 Z15.000 
G0 X220.748 Y121.886 
G0 X234.044 Y68.609 
G0 X234.044 Y68.609 Z13.000 
G1 X234.044 Y68.609 Z6.000 F600.000 
G2 X235.798 Y68.797 Z6.000 I1.553 J-6.223 F600.000 
G1 X262.229 Y66.966 Z6.000 F600.000 
G2 X267.423 Y63.600 Z6.000 I-0.459 J-6.398 F600.000 
G1 X279.052 Y39.794 Z6.000 F600.000 
G2 X278.734 Y33.613 Z6.000 I-5.770 J-2.802 F600.000 
G1 X263.933 Y11.639 Z6.000 F600.000 
G2 X258.421 Y8.824 Z6.000 I-5.311 J3.596 F600.000 
G1 X231.990 Y10.655 Z6.000 F600.000 
G2 X226.796 Y14.021 Z6.000 I0.459 J6.398 F600.000 
G1 X215.166 Y37.827 Z6.000 F600.000 
G2 X215.485 Y44.008 Z6.000 I5.770 J2.802 F600.000 
G1 X230.286 Y65.982 Z6.000 F600.000 
G2 X234.044 Y68.609 Z6.000 I5.311 J-3.596 F600.000 
G1 X234.044 Y68.609 Z3.000 F600.000 
G2 X235.798 Y68.797 Z3.000 I1.553 J-6.223 F600.000 
G1 X262.229 Y66.966 Z3.000 F600.000 
G2 X267.423 Y63.600 Z3.000 I-0.459 J-6.398 F600.000 
G1 X279.052 Y39.794 Z3.000 F600.000 
G2 X278.734 Y33.613 Z3.000 I-5.770 J-2.802 F600.000 
G1 X263.933 Y11.639 Z3.000 F600.000 
G2 X258.421 Y8.824 Z3.000 I-5.311 J3.596 F600.000 
G1 X231.990 Y10.655 Z3.000 F600.000 
G2 X226.796 Y14.021 Z3.000 I0.459 J6.398 F600.000 
G1 X215.166 Y37.827 Z3.000 F600.000 
G2 X215.485 Y44.008 Z3.000 I5.770 J2.802 F600.000 
G1 X230.286 Y65.982 Z3.000 F600.000 
G2 X234.044 Y68.609 Z3.000 I5.311 J-3.596 F600.000 
G1 X234.044 Y68.609 Z0.010 F600.000 
G2 X235.798 Y68.797 Z0.010 I1.553 J-6.223 F600.000 
G1 X262.229 Y66.966 Z0.010 F600.000 
G2 X267.423 Y63.600 Z0.010 I-0.459 J-6.398 F600.000 
G1 X279.052 Y39.794 Z0.010 F600.000 
G2 X278.734 Y33.613 Z0.010 I-5.770 J-2.802 F600.000 
G1 X263.933 Y11.639 Z0.010 F600.000 
G2 X258.421 Y8.824 Z0.010 I-5.311 J3.596 F600.000 
G1 X231.990 Y10.655 Z0.010 F600.000 
G2 X226.796 Y14.021 Z0.010 I0.459 J6.398 F600.000 
G1 X215.166 Y37.827 Z0.010 F600.000 
G2 X215.485 Y44.008 Z0.010 I5.770 J2.802 F600.000 
G1 X230.286 Y65.982 Z0.010 F600.000 
G2 X234.044 Y68.609 Z0.010 I5.311 J-3.596 F600.000 
G0 Z15.000 
G0 Z15.000 
(finish operation: Profile001)
(begin postamble)
M05
G17 G54 G90 G80 G40
M2
