(Exported by FreeCAD)
(Post Processor: linuxcnc_post)
(Output Time:2022-04-16 15:29:17.745754)
(begin preamble)
G17 G54 G40 G49 G80 G90
G21
(begin operation: Fixture)
(machine units: mm/min)
G54 
(finish operation: Fixture)
(begin operation: 60 Deg. V-Bit001)
(machine units: mm/min)
(60 Deg. V-Bit001) 
M5
M6 T1 
G43 H1 
M3 S15000 
(finish operation: 60 Deg. V-Bit001)
(begin operation: Engrave)
(machine units: mm/min)
(Engrave) 
G0 Z6.000 
G0 Z6.000 
G0 X754.197 Y-5.948 
G0 Z4.000 
G1 X754.197 Y-5.948 Z-2.000 F300.000 
G1 X753.562 Y-7.054 Z-2.000 F1200.000 
G1 X752.858 Y-8.137 Z-2.000 F1200.000 
G1 X752.083 Y-9.197 Z-2.000 F1200.000 
G1 X751.235 Y-10.236 Z-2.000 F1200.000 
G1 X750.311 Y-11.255 Z-2.000 F1200.000 
G1 X749.307 Y-12.254 Z-2.000 F1200.000 
G1 X748.222 Y-13.234 Z-2.000 F1200.000 
G1 X747.051 Y-14.195 Z-2.000 F1200.000 
G1 X745.790 Y-15.137 Z-2.000 F1200.000 
G1 X744.435 Y-16.060 Z-2.000 F1200.000 
G1 X742.981 Y-16.965 Z-2.000 F1200.000 
G1 X741.422 Y-17.851 Z-2.000 F1200.000 
G1 X739.754 Y-18.719 Z-2.000 F1200.000 
G1 X737.968 Y-19.568 Z-2.000 F1200.000 
G1 X737.327 Y-19.855 Z-2.000 F1200.000 
G1 X736.686 Y-20.133 Z-2.000 F1200.000 
G1 X734.594 Y-20.978 Z-2.000 F1200.000 
G1 X732.410 Y-21.783 Z-2.000 F1200.000 
G1 X730.127 Y-22.548 Z-2.000 F1200.000 
G1 X727.731 Y-23.276 Z-2.000 F1200.000 
G1 X725.208 Y-23.967 Z-2.000 F1200.000 
G1 X722.540 Y-24.626 Z-2.000 F1200.000 
G1 X719.698 Y-25.255 Z-2.000 F1200.000 
G1 X715.318 Y-26.101 Z-2.000 F1200.000 
G1 X715.347 Y-26.711 Z-2.000 F1200.000 
G1 X715.304 Y-27.320 Z-2.000 F1200.000 
G1 X715.189 Y-27.918 Z-2.000 F1200.000 
G1 X715.004 Y-28.493 Z-2.000 F1200.000 
G1 X714.754 Y-29.035 Z-2.000 F1200.000 
G1 X714.443 Y-29.535 Z-2.000 F1200.000 
G1 X714.075 Y-29.987 Z-2.000 F1200.000 
G1 X713.657 Y-30.384 Z-2.000 F1200.000 
G1 X713.456 Y-30.543 Z-2.000 F1200.000 
G1 X713.244 Y-30.691 Z-2.000 F1200.000 
G1 X712.316 Y-31.307 Z-2.000 F1200.000 
G1 X711.320 Y-31.885 Z-2.000 F1200.000 
G1 X710.244 Y-32.427 Z-2.000 F1200.000 
G1 X709.075 Y-32.936 Z-2.000 F1200.000 
G1 X707.795 Y-33.417 Z-2.000 F1200.000 
G1 X706.375 Y-33.877 Z-2.000 F1200.000 
G1 X704.764 Y-34.327 Z-2.000 F1200.000 
G1 X702.858 Y-34.791 Z-2.000 F1200.000 
G1 X701.435 Y-35.108 Z-2.000 F1200.000 
G1 X700.019 Y-35.413 Z-2.000 F1200.000 
G1 X697.080 Y-35.924 Z-2.000 F1200.000 
G1 X694.088 Y-36.372 Z-2.000 F1200.000 
G1 X691.042 Y-36.754 Z-2.000 F1200.000 
G1 X687.942 Y-37.071 Z-2.000 F1200.000 
G1 X684.786 Y-37.321 Z-2.000 F1200.000 
G1 X681.574 Y-37.502 Z-2.000 F1200.000 
G1 X678.304 Y-37.615 Z-2.000 F1200.000 
G1 X674.977 Y-37.658 Z-2.000 F1200.000 
G1 X671.590 Y-37.630 Z-2.000 F1200.000 
G1 X667.414 Y-37.498 Z-2.000 F1200.000 
G1 X667.807 Y-38.142 Z-2.000 F1200.000 
G1 X668.101 Y-38.770 Z-2.000 F1200.000 
G1 X668.292 Y-39.353 Z-2.000 F1200.000 
G1 X668.388 Y-39.882 Z-2.000 F1200.000 
G1 X668.397 Y-40.359 Z-2.000 F1200.000 
G1 X668.331 Y-40.783 Z-2.000 F1200.000 
G1 X668.196 Y-41.163 Z-2.000 F1200.000 
G1 X667.994 Y-41.506 Z-2.000 F1200.000 
G1 X667.846 Y-41.689 Z-2.000 F1200.000 
G1 X667.672 Y-41.863 Z-2.000 F1200.000 
G1 X667.106 Y-42.261 Z-2.000 F1200.000 
G1 X666.482 Y-42.613 Z-2.000 F1200.000 
G1 X665.792 Y-42.922 Z-2.000 F1200.000 
G1 X665.022 Y-43.190 Z-2.000 F1200.000 
G1 X664.150 Y-43.420 Z-2.000 F1200.000 
G1 X663.138 Y-43.617 Z-2.000 F1200.000 
G1 X661.901 Y-43.792 Z-2.000 F1200.000 
G1 X660.496 Y-43.953 Z-2.000 F1200.000 
G1 X658.192 Y-44.079 Z-2.000 F1200.000 
G1 X655.787 Y-44.139 Z-2.000 F1200.000 
G1 X653.259 Y-44.131 Z-2.000 F1200.000 
G1 X650.580 Y-44.053 Z-2.000 F1200.000 
G1 X647.707 Y-43.898 Z-2.000 F1200.000 
G1 X644.568 Y-43.660 Z-2.000 F1200.000 
G1 X641.035 Y-43.324 Z-2.000 F1200.000 
G1 X633.124 Y-42.420 Z-2.000 F1200.000 
G1 X632.834 Y-43.007 Z-2.000 F1200.000 
G1 X632.483 Y-43.558 Z-2.000 F1200.000 
G1 X632.069 Y-44.075 Z-2.000 F1200.000 
G1 X631.590 Y-44.558 Z-2.000 F1200.000 
G1 X631.046 Y-45.006 Z-2.000 F1200.000 
G1 X630.434 Y-45.419 Z-2.000 F1200.000 
G1 X629.752 Y-45.792 Z-2.000 F1200.000 
G1 X629.001 Y-46.122 Z-2.000 F1200.000 
G1 X628.183 Y-46.404 Z-2.000 F1200.000 
G1 X627.305 Y-46.632 Z-2.000 F1200.000 
G1 X626.373 Y-46.800 Z-2.000 F1200.000 
G1 X624.886 Y-46.982 Z-2.000 F1200.000 
G1 X623.318 Y-47.101 Z-2.000 F1200.000 
G1 X621.653 Y-47.158 Z-2.000 F1200.000 
G1 X619.863 Y-47.148 Z-2.000 F1200.000 
G1 X617.907 Y-47.069 Z-2.000 F1200.000 
G1 X615.711 Y-46.912 Z-2.000 F1200.000 
G1 X613.231 Y-46.673 Z-2.000 F1200.000 
G1 X613.328 Y-47.518 Z-2.000 F1200.000 
G1 X613.389 Y-48.241 Z-2.000 F1200.000 
G1 X613.378 Y-48.831 Z-2.000 F1200.000 
G1 X613.298 Y-49.304 Z-2.000 F1200.000 
G1 X613.155 Y-49.701 Z-2.000 F1200.000 
G1 X612.952 Y-50.039 Z-2.000 F1200.000 
G1 X612.699 Y-50.321 Z-2.000 F1200.000 
G1 X612.248 Y-50.713 Z-2.000 F1200.000 
G1 X611.738 Y-51.061 Z-2.000 F1200.000 
G1 X611.164 Y-51.369 Z-2.000 F1200.000 
G1 X610.514 Y-51.638 Z-2.000 F1200.000 
G1 X609.774 Y-51.870 Z-2.000 F1200.000 
G1 X608.921 Y-52.065 Z-2.000 F1200.000 
G1 X607.909 Y-52.230 Z-2.000 F1200.000 
G1 X607.236 Y-52.313 Z-2.000 F1200.000 
G1 X605.517 Y-52.395 Z-2.000 F1200.000 
G1 X603.873 Y-52.398 Z-2.000 F1200.000 
G1 X602.299 Y-52.327 Z-2.000 F1200.000 
G1 X600.793 Y-52.185 Z-2.000 F1200.000 
G1 X599.352 Y-51.975 Z-2.000 F1200.000 
G1 X597.973 Y-51.699 Z-2.000 F1200.000 
G1 X596.653 Y-51.359 Z-2.000 F1200.000 
G1 X595.286 Y-50.922 Z-2.000 F1200.000 
G1 X595.717 Y-52.075 Z-2.000 F1200.000 
G1 X595.894 Y-52.721 Z-2.000 F1200.000 
G1 X595.967 Y-53.251 Z-2.000 F1200.000 
G1 X595.955 Y-53.707 Z-2.000 F1200.000 
G1 X595.869 Y-54.111 Z-2.000 F1200.000 
G1 X595.714 Y-54.473 Z-2.000 F1200.000 
G1 X595.593 Y-54.667 Z-2.000 F1200.000 
G1 X595.279 Y-55.062 Z-2.000 F1200.000 
G1 X594.908 Y-55.416 Z-2.000 F1200.000 
G1 X594.474 Y-55.733 Z-2.000 F1200.000 
G1 X593.968 Y-56.016 Z-2.000 F1200.000 
G1 X593.376 Y-56.266 Z-2.000 F1200.000 
G1 X592.680 Y-56.488 Z-2.000 F1200.000 
G1 X591.840 Y-56.685 Z-2.000 F1200.000 
G1 X590.668 Y-56.894 Z-2.000 F1200.000 
G1 X589.093 Y-57.011 Z-2.000 F1200.000 
G1 X587.531 Y-57.053 Z-2.000 F1200.000 
G1 X585.987 Y-57.023 Z-2.000 F1200.000 
G1 X584.468 Y-56.919 Z-2.000 F1200.000 
G1 X582.976 Y-56.744 Z-2.000 F1200.000 
G1 X581.944 Y-56.578 Z-2.000 F1200.000 
G1 X580.919 Y-56.376 Z-2.000 F1200.000 
G1 X581.656 Y-57.606 Z-2.000 F1200.000 
G1 X581.986 Y-58.278 Z-2.000 F1200.000 
G1 X582.188 Y-58.853 Z-2.000 F1200.000 
G1 X582.293 Y-59.371 Z-2.000 F1200.000 
G1 X582.312 Y-59.854 Z-2.000 F1200.000 
G1 X582.280 Y-60.176 Z-2.000 F1200.000 
G1 X582.208 Y-60.502 Z-2.000 F1200.000 
G1 X582.053 Y-60.934 Z-2.000 F1200.000 
G1 X581.834 Y-61.334 Z-2.000 F1200.000 
G1 X581.550 Y-61.707 Z-2.000 F1200.000 
G1 X581.195 Y-62.058 Z-2.000 F1200.000 
G1 X580.762 Y-62.387 Z-2.000 F1200.000 
G1 X580.241 Y-62.696 Z-2.000 F1200.000 
G1 X579.621 Y-62.983 Z-2.000 F1200.000 
G1 X578.888 Y-63.250 Z-2.000 F1200.000 
G1 X578.633 Y-63.330 Z-2.000 F1200.000 
G1 X578.380 Y-63.403 Z-2.000 F1200.000 
G1 X577.273 Y-63.631 Z-2.000 F1200.000 
G1 X576.119 Y-63.796 Z-2.000 F1200.000 
G1 X574.915 Y-63.896 Z-2.000 F1200.000 
G1 X573.655 Y-63.929 Z-2.000 F1200.000 
G1 X572.335 Y-63.893 Z-2.000 F1200.000 
G1 X570.946 Y-63.784 Z-2.000 F1200.000 
G1 X569.480 Y-63.598 Z-2.000 F1200.000 
G1 X567.294 Y-63.203 Z-2.000 F1200.000 
G1 X567.772 Y-64.065 Z-2.000 F1200.000 
G1 X568.101 Y-64.795 Z-2.000 F1200.000 
G1 X568.309 Y-65.434 Z-2.000 F1200.000 
G1 X568.419 Y-66.009 Z-2.000 F1200.000 
G1 X568.442 Y-66.535 Z-2.000 F1200.000 
G1 X568.388 Y-67.018 Z-2.000 F1200.000 
G1 X568.261 Y-67.469 Z-2.000 F1200.000 
G1 X568.148 Y-67.734 Z-2.000 F1200.000 
G1 X567.836 Y-68.183 Z-2.000 F1200.000 
G1 X567.463 Y-68.597 Z-2.000 F1200.000 
G1 X567.024 Y-68.978 Z-2.000 F1200.000 
G1 X566.515 Y-69.326 Z-2.000 F1200.000 
G1 X565.932 Y-69.639 Z-2.000 F1200.000 
G1 X565.272 Y-69.915 Z-2.000 F1200.000 
G1 X564.530 Y-70.149 Z-2.000 F1200.000 
G1 X563.833 Y-70.313 Z-2.000 F1200.000 
G1 X562.636 Y-70.517 Z-2.000 F1200.000 
G1 X561.416 Y-70.653 Z-2.000 F1200.000 
G1 X560.174 Y-70.718 Z-2.000 F1200.000 
G1 X558.917 Y-70.711 Z-2.000 F1200.000 
G1 X557.649 Y-70.632 Z-2.000 F1200.000 
G1 X556.378 Y-70.480 Z-2.000 F1200.000 
G1 X555.108 Y-70.256 Z-2.000 F1200.000 
G1 X553.848 Y-69.959 Z-2.000 F1200.000 
G1 X553.243 Y-69.790 Z-2.000 F1200.000 
G1 X552.644 Y-69.605 Z-2.000 F1200.000 
G1 X553.310 Y-70.820 Z-2.000 F1200.000 
G1 X553.691 Y-71.618 Z-2.000 F1200.000 
G1 X553.932 Y-72.283 Z-2.000 F1200.000 
G1 X554.069 Y-72.875 Z-2.000 F1200.000 
G1 X554.117 Y-73.424 Z-2.000 F1200.000 
G1 X554.087 Y-73.941 Z-2.000 F1200.000 
G1 X554.025 Y-74.273 Z-2.000 F1200.000 
G1 X553.858 Y-74.727 Z-2.000 F1200.000 
G1 X553.626 Y-75.155 Z-2.000 F1200.000 
G1 X553.327 Y-75.558 Z-2.000 F1200.000 
G1 X552.957 Y-75.939 Z-2.000 F1200.000 
G1 X552.511 Y-76.295 Z-2.000 F1200.000 
G1 X551.986 Y-76.626 Z-2.000 F1200.000 
G1 X551.380 Y-76.925 Z-2.000 F1200.000 
G1 X550.695 Y-77.186 Z-2.000 F1200.000 
G1 X550.399 Y-77.278 Z-2.000 F1200.000 
G1 X550.105 Y-77.359 Z-2.000 F1200.000 
G1 X549.042 Y-77.587 Z-2.000 F1200.000 
G1 X547.939 Y-77.749 Z-2.000 F1200.000 
G1 X546.796 Y-77.846 Z-2.000 F1200.000 
G1 X545.609 Y-77.874 Z-2.000 F1200.000 
G1 X544.375 Y-77.833 Z-2.000 F1200.000 
G1 X543.092 Y-77.718 Z-2.000 F1200.000 
G1 X541.758 Y-77.528 Z-2.000 F1200.000 
G1 X540.371 Y-77.258 Z-2.000 F1200.000 
G1 X539.448 Y-77.041 Z-2.000 F1200.000 
G1 X538.535 Y-76.798 Z-2.000 F1200.000 
G1 X538.997 Y-77.634 Z-2.000 F1200.000 
G1 X539.344 Y-78.388 Z-2.000 F1200.000 
G1 X539.562 Y-79.032 Z-2.000 F1200.000 
G1 X539.678 Y-79.601 Z-2.000 F1200.000 
G1 X539.706 Y-80.116 Z-2.000 F1200.000 
G1 X539.656 Y-80.585 Z-2.000 F1200.000 
G1 X539.534 Y-81.020 Z-2.000 F1200.000 
G1 X539.360 Y-81.393 Z-2.000 F1200.000 
G1 X539.030 Y-81.792 Z-2.000 F1200.000 
G1 X538.640 Y-82.151 Z-2.000 F1200.000 
G1 X538.188 Y-82.474 Z-2.000 F1200.000 
G1 X537.665 Y-82.760 Z-2.000 F1200.000 
G1 X537.062 Y-83.010 Z-2.000 F1200.000 
G1 X536.370 Y-83.223 Z-2.000 F1200.000 
G1 X535.571 Y-83.398 Z-2.000 F1200.000 
G1 X535.079 Y-83.478 Z-2.000 F1200.000 
G1 X533.868 Y-83.589 Z-2.000 F1200.000 
G1 X532.629 Y-83.631 Z-2.000 F1200.000 
G1 X531.360 Y-83.601 Z-2.000 F1200.000 
G1 X530.063 Y-83.500 Z-2.000 F1200.000 
G1 X528.738 Y-83.324 Z-2.000 F1200.000 
G1 X527.387 Y-83.072 Z-2.000 F1200.000 
G1 X526.013 Y-82.743 Z-2.000 F1200.000 
G1 X524.619 Y-82.336 Z-2.000 F1200.000 
G1 X523.623 Y-82.000 Z-2.000 F1200.000 
G1 X522.640 Y-81.632 Z-2.000 F1200.000 
G1 X522.935 Y-82.893 Z-2.000 F1200.000 
G1 X523.091 Y-83.798 Z-2.000 F1200.000 
G1 X523.147 Y-84.535 Z-2.000 F1200.000 
G1 X523.122 Y-85.170 Z-2.000 F1200.000 
G1 X523.024 Y-85.736 Z-2.000 F1200.000 
G1 X522.858 Y-86.244 Z-2.000 F1200.000 
G1 X522.655 Y-86.662 Z-2.000 F1200.000 
G1 X522.361 Y-87.074 Z-2.000 F1200.000 
G1 X522.009 Y-87.445 Z-2.000 F1200.000 
G1 X521.596 Y-87.778 Z-2.000 F1200.000 
G1 X521.118 Y-88.073 Z-2.000 F1200.000 
G1 X520.569 Y-88.329 Z-2.000 F1200.000 
G1 X519.945 Y-88.543 Z-2.000 F1200.000 
G1 X519.241 Y-88.711 Z-2.000 F1200.000 
G1 X518.457 Y-88.827 Z-2.000 F1200.000 
G1 X518.214 Y-88.851 Z-2.000 F1200.000 
G1 X517.973 Y-88.869 Z-2.000 F1200.000 
G1 X516.872 Y-88.878 Z-2.000 F1200.000 
G1 X515.757 Y-88.814 Z-2.000 F1200.000 
G1 X514.634 Y-88.678 Z-2.000 F1200.000 
G1 X513.507 Y-88.469 Z-2.000 F1200.000 
G1 X512.383 Y-88.186 Z-2.000 F1200.000 
G1 X511.268 Y-87.831 Z-2.000 F1200.000 
G1 X510.169 Y-87.406 Z-2.000 F1200.000 
G1 X509.092 Y-86.911 Z-2.000 F1200.000 
G1 X508.046 Y-86.350 Z-2.000 F1200.000 
G1 X507.390 Y-85.955 Z-2.000 F1200.000 
G1 X506.750 Y-85.534 Z-2.000 F1200.000 
G1 X506.729 Y-86.935 Z-2.000 F1200.000 
G1 X506.653 Y-87.663 Z-2.000 F1200.000 
G1 X506.522 Y-88.247 Z-2.000 F1200.000 
G1 X506.336 Y-88.736 Z-2.000 F1200.000 
G1 X506.095 Y-89.154 Z-2.000 F1200.000 
G1 X505.971 Y-89.320 Z-2.000 F1200.000 
G1 X505.833 Y-89.479 Z-2.000 F1200.000 
G1 X505.449 Y-89.841 Z-2.000 F1200.000 
G1 X505.017 Y-90.151 Z-2.000 F1200.000 
G1 X504.533 Y-90.412 Z-2.000 F1200.000 
G1 X503.991 Y-90.625 Z-2.000 F1200.000 
G1 X503.385 Y-90.787 Z-2.000 F1200.000 
G1 X502.707 Y-90.896 Z-2.000 F1200.000 
G1 X501.949 Y-90.947 Z-2.000 F1200.000 
G1 X501.103 Y-90.937 Z-2.000 F1200.000 
G1 X500.750 Y-90.915 Z-2.000 F1200.000 
G1 X500.404 Y-90.886 Z-2.000 F1200.000 
G1 X499.391 Y-90.747 Z-2.000 F1200.000 
G1 X498.372 Y-90.534 Z-2.000 F1200.000 
G1 X497.349 Y-90.248 Z-2.000 F1200.000 
G1 X496.324 Y-89.886 Z-2.000 F1200.000 
G1 X495.298 Y-89.448 Z-2.000 F1200.000 
G1 X494.277 Y-88.934 Z-2.000 F1200.000 
G1 X493.264 Y-88.343 Z-2.000 F1200.000 
G1 X491.861 Y-87.384 Z-2.000 F1200.000 
G1 X491.634 Y-87.969 Z-2.000 F1200.000 
G1 X491.344 Y-88.515 Z-2.000 F1200.000 
G1 X491.000 Y-89.003 Z-2.000 F1200.000 
G1 X490.616 Y-89.422 Z-2.000 F1200.000 
G1 X490.201 Y-89.765 Z-2.000 F1200.000 
G1 X489.761 Y-90.032 Z-2.000 F1200.000 
G1 X489.302 Y-90.224 Z-2.000 F1200.000 
G1 X488.688 Y-90.363 Z-2.000 F1200.000 
G1 X487.861 Y-90.443 Z-2.000 F1200.000 
G1 X487.019 Y-90.452 Z-2.000 F1200.000 
G1 X486.166 Y-90.390 Z-2.000 F1200.000 
G1 X485.301 Y-90.255 Z-2.000 F1200.000 
G1 X484.428 Y-90.046 Z-2.000 F1200.000 
G1 X483.550 Y-89.762 Z-2.000 F1200.000 
G1 X482.674 Y-89.403 Z-2.000 F1200.000 
G1 X481.805 Y-88.969 Z-2.000 F1200.000 
G1 X480.950 Y-88.462 Z-2.000 F1200.000 
G1 X480.120 Y-87.885 Z-2.000 F1200.000 
G1 X479.323 Y-87.244 Z-2.000 F1200.000 
G1 X478.770 Y-86.741 Z-2.000 F1200.000 
G1 X478.246 Y-86.212 Z-2.000 F1200.000 
G1 X478.059 Y-86.762 Z-2.000 F1200.000 
G1 X477.805 Y-87.278 Z-2.000 F1200.000 
G1 X477.499 Y-87.734 Z-2.000 F1200.000 
G1 X477.153 Y-88.116 Z-2.000 F1200.000 
G1 X476.780 Y-88.417 Z-2.000 F1200.000 
G1 X476.386 Y-88.640 Z-2.000 F1200.000 
G1 X475.976 Y-88.786 Z-2.000 F1200.000 
G1 X475.541 Y-88.859 Z-2.000 F1200.000 
G1 X474.793 Y-88.884 Z-2.000 F1200.000 
G1 X474.037 Y-88.838 Z-2.000 F1200.000 
G1 X473.272 Y-88.719 Z-2.000 F1200.000 
G1 X472.497 Y-88.527 Z-2.000 F1200.000 
G1 X471.710 Y-88.259 Z-2.000 F1200.000 
G1 X470.912 Y-87.911 Z-2.000 F1200.000 
G1 X470.104 Y-87.481 Z-2.000 F1200.000 
G1 X469.287 Y-86.967 Z-2.000 F1200.000 
G1 X468.467 Y-86.366 Z-2.000 F1200.000 
G1 X467.649 Y-85.679 Z-2.000 F1200.000 
G1 X466.842 Y-84.910 Z-2.000 F1200.000 
G1 X466.617 Y-84.679 Z-2.000 F1200.000 
G1 X466.398 Y-84.445 Z-2.000 F1200.000 
G1 X466.088 Y-85.048 Z-2.000 F1200.000 
G1 X465.745 Y-85.552 Z-2.000 F1200.000 
G1 X465.381 Y-85.953 Z-2.000 F1200.000 
G1 X465.003 Y-86.259 Z-2.000 F1200.000 
G1 X464.614 Y-86.476 Z-2.000 F1200.000 
G1 X464.214 Y-86.613 Z-2.000 F1200.000 
G1 X463.781 Y-86.676 Z-2.000 F1200.000 
G1 X463.102 Y-86.698 Z-2.000 F1200.000 
G1 X462.416 Y-86.648 Z-2.000 F1200.000 
G1 X461.726 Y-86.525 Z-2.000 F1200.000 
G1 X461.034 Y-86.330 Z-2.000 F1200.000 
G1 X460.347 Y-86.062 Z-2.000 F1200.000 
G1 X459.670 Y-85.720 Z-2.000 F1200.000 
G1 X459.012 Y-85.308 Z-2.000 F1200.000 
G1 X458.383 Y-84.828 Z-2.000 F1200.000 
G1 X457.792 Y-84.287 Z-2.000 F1200.000 
G1 X457.250 Y-83.693 Z-2.000 F1200.000 
G1 X456.766 Y-83.053 Z-2.000 F1200.000 
G1 X456.350 Y-83.620 Z-2.000 F1200.000 
G1 X455.880 Y-84.136 Z-2.000 F1200.000 
G1 X455.369 Y-84.588 Z-2.000 F1200.000 
G1 X454.829 Y-84.969 Z-2.000 F1200.000 
G1 X454.269 Y-85.274 Z-2.000 F1200.000 
G1 X453.698 Y-85.501 Z-2.000 F1200.000 
G1 X453.121 Y-85.650 Z-2.000 F1200.000 
G1 X452.542 Y-85.724 Z-2.000 F1200.000 
G1 X452.319 Y-85.732 Z-2.000 F1200.000 
G1 X452.094 Y-85.729 Z-2.000 F1200.000 
G1 X451.453 Y-85.699 Z-2.000 F1200.000 
G1 X450.814 Y-85.599 Z-2.000 F1200.000 
G1 X450.172 Y-85.427 Z-2.000 F1200.000 
G1 X449.521 Y-85.179 Z-2.000 F1200.000 
G1 X448.854 Y-84.850 Z-2.000 F1200.000 
G1 X448.163 Y-84.431 Z-2.000 F1200.000 
G1 X447.436 Y-83.910 Z-2.000 F1200.000 
G1 X446.654 Y-83.265 Z-2.000 F1200.000 
G1 X446.062 Y-82.729 Z-2.000 F1200.000 
G1 X445.494 Y-82.184 Z-2.000 F1200.000 
G1 X445.192 Y-81.923 Z-2.000 F1200.000 
G1 X444.883 Y-81.748 Z-2.000 F1200.000 
G1 X444.565 Y-81.648 Z-2.000 F1200.000 
G1 X444.233 Y-81.617 Z-2.000 F1200.000 
G1 X443.881 Y-81.655 Z-2.000 F1200.000 
G1 X443.503 Y-81.766 Z-2.000 F1200.000 
G1 X443.095 Y-81.961 Z-2.000 F1200.000 
G1 X442.658 Y-82.247 Z-2.000 F1200.000 
G1 X442.193 Y-82.633 Z-2.000 F1200.000 
G1 X441.717 Y-83.117 Z-2.000 F1200.000 
G1 X441.096 Y-83.903 Z-2.000 F1200.000 
G1 X442.112 Y-84.366 Z-2.000 F1200.000 
G1 X443.555 Y-84.964 Z-2.000 F1200.000 
G1 X444.765 Y-85.479 Z-2.000 F1200.000 
G1 X445.807 Y-85.987 Z-2.000 F1200.000 
G1 X446.647 Y-86.477 Z-2.000 F1200.000 
G1 X446.963 Y-86.687 Z-2.000 F1200.000 
G1 X447.271 Y-86.911 Z-2.000 F1200.000 
G1 X447.887 Y-87.441 Z-2.000 F1200.000 
G1 X448.463 Y-88.030 Z-2.000 F1200.000 
G1 X448.990 Y-88.675 Z-2.000 F1200.000 
G1 X449.464 Y-89.368 Z-2.000 F1200.000 
G1 X449.878 Y-90.102 Z-2.000 F1200.000 
G1 X450.227 Y-90.869 Z-2.000 F1200.000 
G1 X450.507 Y-91.659 Z-2.000 F1200.000 
G1 X450.715 Y-92.465 Z-2.000 F1200.000 
G1 X450.849 Y-93.277 Z-2.000 F1200.000 
G1 X450.909 Y-94.087 Z-2.000 F1200.000 
G1 X450.874 Y-95.149 Z-2.000 F1200.000 
G1 X450.786 Y-95.977 Z-2.000 F1200.000 
G1 X450.627 Y-96.805 Z-2.000 F1200.000 
G1 X450.395 Y-97.630 Z-2.000 F1200.000 
G1 X450.090 Y-98.450 Z-2.000 F1200.000 
G1 X449.712 Y-99.260 Z-2.000 F1200.000 
G1 X449.261 Y-100.057 Z-2.000 F1200.000 
G1 X448.738 Y-100.834 Z-2.000 F1200.000 
G1 X448.145 Y-101.586 Z-2.000 F1200.000 
G1 X447.487 Y-102.304 Z-2.000 F1200.000 
G1 X446.769 Y-102.982 Z-2.000 F1200.000 
G1 X445.997 Y-103.610 Z-2.000 F1200.000 
G1 X445.644 Y-103.868 Z-2.000 F1200.000 
G1 X445.284 Y-104.114 Z-2.000 F1200.000 
G1 X444.341 Y-104.714 Z-2.000 F1200.000 
G1 X443.342 Y-105.264 Z-2.000 F1200.000 
G1 X442.285 Y-105.765 Z-2.000 F1200.000 
G1 X441.163 Y-106.218 Z-2.000 F1200.000 
G1 X439.973 Y-106.621 Z-2.000 F1200.000 
G1 X438.707 Y-106.975 Z-2.000 F1200.000 
G1 X437.359 Y-107.278 Z-2.000 F1200.000 
G1 X435.919 Y-107.529 Z-2.000 F1200.000 
G1 X434.374 Y-107.728 Z-2.000 F1200.000 
G1 X432.709 Y-107.871 Z-2.000 F1200.000 
G1 X430.536 Y-107.967 Z-2.000 F1200.000 
G1 X430.148 Y-108.017 Z-2.000 F1200.000 
G1 X429.731 Y-108.144 Z-2.000 F1200.000 
G1 X429.342 Y-108.340 Z-2.000 F1200.000 
G1 X429.026 Y-108.582 Z-2.000 F1200.000 
G1 X428.802 Y-108.846 Z-2.000 F1200.000 
G1 X428.665 Y-109.121 Z-2.000 F1200.000 
G1 X428.610 Y-109.403 Z-2.000 F1200.000 
G1 X428.662 Y-109.818 Z-2.000 F1200.000 
G1 X428.926 Y-110.165 Z-2.000 F1200.000 
G1 X429.258 Y-110.490 Z-2.000 F1200.000 
G1 X429.681 Y-110.808 Z-2.000 F1200.000 
G1 X430.242 Y-111.150 Z-2.000 F1200.000 
G1 X431.163 Y-111.661 Z-2.000 F1200.000 
G1 X431.575 Y-111.916 Z-2.000 F1200.000 
G1 X431.962 Y-112.201 Z-2.000 F1200.000 
G1 X432.600 Y-111.582 Z-2.000 F1200.000 
G1 X433.236 Y-111.043 Z-2.000 F1200.000 
G1 X433.798 Y-110.659 Z-2.000 F1200.000 
G1 X434.324 Y-110.389 Z-2.000 F1200.000 
G1 X434.832 Y-110.214 Z-2.000 F1200.000 
G1 X435.151 Y-110.147 Z-2.000 F1200.000 
G1 X435.482 Y-110.111 Z-2.000 F1200.000 
G1 X436.024 Y-110.074 Z-2.000 F1200.000 
G1 X436.577 Y-110.108 Z-2.000 F1200.000 
G1 X437.145 Y-110.213 Z-2.000 F1200.000 
G1 X437.736 Y-110.394 Z-2.000 F1200.000 
G1 X438.356 Y-110.657 Z-2.000 F1200.000 
G1 X439.016 Y-111.011 Z-2.000 F1200.000 
G1 X439.729 Y-111.471 Z-2.000 F1200.000 
G1 X440.158 Y-111.781 Z-2.000 F1200.000 
G1 X440.544 Y-111.314 Z-2.000 F1200.000 
G1 X440.981 Y-110.898 Z-2.000 F1200.000 
G1 X441.467 Y-110.534 Z-2.000 F1200.000 
G1 X441.998 Y-110.225 Z-2.000 F1200.000 
G1 X442.571 Y-109.976 Z-2.000 F1200.000 
G1 X443.178 Y-109.790 Z-2.000 F1200.000 
G1 X443.812 Y-109.671 Z-2.000 F1200.000 
G1 X444.464 Y-109.622 Z-2.000 F1200.000 
G1 X445.123 Y-109.646 Z-2.000 F1200.000 
G1 X445.778 Y-109.742 Z-2.000 F1200.000 
G1 X446.417 Y-109.910 Z-2.000 F1200.000 
G1 X447.030 Y-110.147 Z-2.000 F1200.000 
G1 X447.608 Y-110.448 Z-2.000 F1200.000 
G1 X448.953 Y-111.317 Z-2.000 F1200.000 
G1 X450.123 Y-112.163 Z-2.000 F1200.000 
G1 X451.144 Y-112.995 Z-2.000 F1200.000 
G1 X452.036 Y-113.818 Z-2.000 F1200.000 
G1 X452.815 Y-114.640 Z-2.000 F1200.000 
G1 X453.493 Y-115.464 Z-2.000 F1200.000 
G1 X454.198 Y-116.478 Z-2.000 F1200.000 
G1 X454.497 Y-117.185 Z-2.000 F1200.000 
G1 X454.726 Y-117.910 Z-2.000 F1200.000 
G1 X454.885 Y-118.652 Z-2.000 F1200.000 
G1 X454.975 Y-119.411 Z-2.000 F1200.000 
G1 X454.995 Y-120.186 Z-2.000 F1200.000 
G1 X454.943 Y-120.975 Z-2.000 F1200.000 
G1 X454.818 Y-121.776 Z-2.000 F1200.000 
G1 X454.619 Y-122.586 Z-2.000 F1200.000 
G1 X454.345 Y-123.399 Z-2.000 F1200.000 
G1 X453.996 Y-124.210 Z-2.000 F1200.000 
G1 X453.572 Y-125.011 Z-2.000 F1200.000 
G1 X453.077 Y-125.794 Z-2.000 F1200.000 
G1 X452.513 Y-126.549 Z-2.000 F1200.000 
G1 X451.887 Y-127.266 Z-2.000 F1200.000 
G1 X451.207 Y-127.935 Z-2.000 F1200.000 
G1 X450.482 Y-128.547 Z-2.000 F1200.000 
G1 X449.721 Y-129.094 Z-2.000 F1200.000 
G1 X448.935 Y-129.570 Z-2.000 F1200.000 
G1 X448.133 Y-129.969 Z-2.000 F1200.000 
G1 X447.637 Y-130.176 Z-2.000 F1200.000 
G1 X447.287 Y-130.299 Z-2.000 F1200.000 
G1 X446.895 Y-130.361 Z-2.000 F1200.000 
G1 X446.501 Y-130.350 Z-2.000 F1200.000 
G1 X446.143 Y-130.267 Z-2.000 F1200.000 
G1 X445.846 Y-130.123 Z-2.000 F1200.000 
G1 X445.617 Y-129.929 Z-2.000 F1200.000 
G1 X445.454 Y-129.692 Z-2.000 F1200.000 
G1 X445.343 Y-129.355 Z-2.000 F1200.000 
G1 X445.398 Y-128.524 Z-2.000 F1200.000 
G1 X445.528 Y-127.561 Z-2.000 F1200.000 
G1 X445.759 Y-126.293 Z-2.000 F1200.000 
G1 X446.011 Y-124.899 Z-2.000 F1200.000 
G1 X446.138 Y-123.910 Z-2.000 F1200.000 
G1 X445.359 Y-125.190 Z-2.000 F1200.000 
G1 X444.599 Y-126.294 Z-2.000 F1200.000 
G1 X443.847 Y-127.252 Z-2.000 F1200.000 
G1 X443.102 Y-128.080 Z-2.000 F1200.000 
G1 X442.357 Y-128.795 Z-2.000 F1200.000 
G1 X441.609 Y-129.410 Z-2.000 F1200.000 
G1 X440.854 Y-129.933 Z-2.000 F1200.000 
G1 X440.090 Y-130.373 Z-2.000 F1200.000 
G1 X439.858 Y-130.489 Z-2.000 F1200.000 
G1 X439.621 Y-130.600 Z-2.000 F1200.000 
G1 X439.296 Y-130.729 Z-2.000 F1200.000 
G1 X438.938 Y-130.795 Z-2.000 F1200.000 
G1 X438.556 Y-130.793 Z-2.000 F1200.000 
G1 X438.171 Y-130.720 Z-2.000 F1200.000 
G1 X437.805 Y-130.577 Z-2.000 F1200.000 
G1 X437.484 Y-130.375 Z-2.000 F1200.000 
G1 X437.226 Y-130.125 Z-2.000 F1200.000 
G1 X437.038 Y-129.841 Z-2.000 F1200.000 
G1 X436.924 Y-129.533 Z-2.000 F1200.000 
G1 X436.883 Y-129.206 Z-2.000 F1200.000 
G1 X436.907 Y-128.906 Z-2.000 F1200.000 
G1 X437.124 Y-127.805 Z-2.000 F1200.000 
G1 X437.507 Y-126.075 Z-2.000 F1200.000 
G1 X437.663 Y-125.263 Z-2.000 F1200.000 
G1 X437.781 Y-124.443 Z-2.000 F1200.000 
G1 X437.016 Y-125.631 Z-2.000 F1200.000 
G1 X436.262 Y-126.663 Z-2.000 F1200.000 
G1 X435.514 Y-127.559 Z-2.000 F1200.000 
G1 X434.766 Y-128.336 Z-2.000 F1200.000 
G1 X434.015 Y-129.009 Z-2.000 F1200.000 
G1 X433.256 Y-129.589 Z-2.000 F1200.000 
G1 X432.486 Y-130.084 Z-2.000 F1200.000 
G1 X431.952 Y-130.376 Z-2.000 F1200.000 
G1 X431.547 Y-130.532 Z-2.000 F1200.000 
G1 X431.089 Y-130.632 Z-2.000 F1200.000 
G1 X430.615 Y-130.660 Z-2.000 F1200.000 
G1 X430.162 Y-130.614 Z-2.000 F1200.000 
G1 X429.760 Y-130.499 Z-2.000 F1200.000 
G1 X429.423 Y-130.326 Z-2.000 F1200.000 
G1 X429.153 Y-130.104 Z-2.000 F1200.000 
G1 X428.948 Y-129.838 Z-2.000 F1200.000 
G1 X428.838 Y-129.616 Z-2.000 F1200.000 
G1 X428.759 Y-129.365 Z-2.000 F1200.000 
G1 X428.714 Y-128.823 Z-2.000 F1200.000 
G1 X428.732 Y-128.223 Z-2.000 F1200.000 
G1 X428.818 Y-127.517 Z-2.000 F1200.000 
G1 X428.993 Y-126.555 Z-2.000 F1200.000 
G1 X429.130 Y-125.780 Z-2.000 F1200.000 
G1 X429.213 Y-125.007 Z-2.000 F1200.000 
G1 X429.211 Y-124.368 Z-2.000 F1200.000 
G1 X429.133 Y-123.802 Z-2.000 F1200.000 
G1 X429.104 Y-123.678 Z-2.000 F1200.000 
G1 X429.072 Y-123.554 Z-2.000 F1200.000 
G1 X428.904 Y-123.213 Z-2.000 F1200.000 
G1 X428.662 Y-122.876 Z-2.000 F1200.000 
G1 X428.324 Y-122.518 Z-2.000 F1200.000 
G1 X427.817 Y-122.062 Z-2.000 F1200.000 
G1 X427.432 Y-121.708 Z-2.000 F1200.000 
G1 X427.198 Y-122.603 Z-2.000 F1200.000 
G1 X426.894 Y-123.487 Z-2.000 F1200.000 
G1 X426.518 Y-124.354 Z-2.000 F1200.000 
G1 X426.075 Y-125.195 Z-2.000 F1200.000 
G1 X425.567 Y-126.005 Z-2.000 F1200.000 
G1 X424.997 Y-126.775 Z-2.000 F1200.000 
G1 X424.372 Y-127.498 Z-2.000 F1200.000 
G1 X423.696 Y-128.169 Z-2.000 F1200.000 
G1 X422.975 Y-128.781 Z-2.000 F1200.000 
G1 X422.217 Y-129.330 Z-2.000 F1200.000 
G1 X421.425 Y-129.812 Z-2.000 F1200.000 
G1 X421.011 Y-130.032 Z-2.000 F1200.000 
G1 X420.587 Y-130.234 Z-2.000 F1200.000 
G1 X420.212 Y-130.364 Z-2.000 F1200.000 
G1 X419.779 Y-130.443 Z-2.000 F1200.000 
G1 X419.242 Y-130.475 Z-2.000 F1200.000 
G1 X418.264 Y-130.488 Z-2.000 F1200.000 
G1 X418.101 Y-129.986 Z-2.000 F1200.000 
G1 X418.002 Y-129.456 Z-2.000 F1200.000 
G1 X417.966 Y-128.884 Z-2.000 F1200.000 
G1 X417.995 Y-128.248 Z-2.000 F1200.000 
G1 X418.096 Y-127.506 Z-2.000 F1200.000 
G1 X418.288 Y-126.550 Z-2.000 F1200.000 
G1 X418.529 Y-125.417 Z-2.000 F1200.000 
G1 X418.667 Y-124.525 Z-2.000 F1200.000 
G1 X418.689 Y-124.298 Z-2.000 F1200.000 
G1 X418.703 Y-124.072 Z-2.000 F1200.000 
G1 X417.988 Y-125.284 Z-2.000 F1200.000 
G1 X417.262 Y-126.365 Z-2.000 F1200.000 
G1 X416.524 Y-127.329 Z-2.000 F1200.000 
G1 X415.775 Y-128.186 Z-2.000 F1200.000 
G1 X415.014 Y-128.942 Z-2.000 F1200.000 
G1 X414.241 Y-129.607 Z-2.000 F1200.000 
G1 X413.454 Y-130.184 Z-2.000 F1200.000 
G1 X412.498 Y-130.766 Z-2.000 F1200.000 
G1 X412.134 Y-130.922 Z-2.000 F1200.000 
G1 X411.729 Y-131.018 Z-2.000 F1200.000 
G1 X411.303 Y-131.045 Z-2.000 F1200.000 
G1 X410.881 Y-131.000 Z-2.000 F1200.000 
G1 X410.493 Y-130.885 Z-2.000 F1200.000 
G1 X410.157 Y-130.710 Z-2.000 F1200.000 
G1 X409.885 Y-130.486 Z-2.000 F1200.000 
G1 X409.680 Y-130.219 Z-2.000 F1200.000 
G1 X409.541 Y-129.916 Z-2.000 F1200.000 
G1 X409.480 Y-129.667 Z-2.000 F1200.000 
G1 X409.457 Y-129.394 Z-2.000 F1200.000 
G1 X409.698 Y-128.125 Z-2.000 F1200.000 
G1 X410.070 Y-126.260 Z-2.000 F1200.000 
G1 X410.203 Y-125.430 Z-2.000 F1200.000 
G1 X410.297 Y-124.594 Z-2.000 F1200.000 
G1 X409.751 Y-125.578 Z-2.000 F1200.000 
G1 X409.152 Y-126.504 Z-2.000 F1200.000 
G1 X408.508 Y-127.367 Z-2.000 F1200.000 
G1 X407.824 Y-128.160 Z-2.000 F1200.000 
G1 X407.103 Y-128.882 Z-2.000 F1200.000 
G1 X406.352 Y-129.531 Z-2.000 F1200.000 
G1 X405.572 Y-130.108 Z-2.000 F1200.000 
G1 X404.785 Y-130.600 Z-2.000 F1200.000 
G1 X404.381 Y-130.794 Z-2.000 F1200.000 
G1 X403.925 Y-130.932 Z-2.000 F1200.000 
G1 X403.449 Y-131.001 Z-2.000 F1200.000 
G1 X402.985 Y-130.994 Z-2.000 F1200.000 
G1 X402.559 Y-130.915 Z-2.000 F1200.000 
G1 X402.187 Y-130.770 Z-2.000 F1200.000 
G1 X401.875 Y-130.569 Z-2.000 F1200.000 
G1 X401.623 Y-130.317 Z-2.000 F1200.000 
G1 X401.477 Y-130.106 Z-2.000 F1200.000 
G1 X401.358 Y-129.863 Z-2.000 F1200.000 
G1 X401.283 Y-129.374 Z-2.000 F1200.000 
G1 X401.269 Y-128.835 Z-2.000 F1200.000 
G1 X401.321 Y-128.214 Z-2.000 F1200.000 
G1 X401.449 Y-127.438 Z-2.000 F1200.000 
G1 X401.702 Y-126.089 Z-2.000 F1200.000 
G1 X401.777 Y-125.363 Z-2.000 F1200.000 
G1 X401.767 Y-124.768 Z-2.000 F1200.000 
G1 X401.683 Y-124.248 Z-2.000 F1200.000 
G1 X401.530 Y-123.779 Z-2.000 F1200.000 
G1 X401.387 Y-123.481 Z-2.000 F1200.000 
G1 X400.772 Y-122.855 Z-2.000 F1200.000 
G1 X400.037 Y-122.206 Z-2.000 F1200.000 
G1 X399.129 Y-121.494 Z-2.000 F1200.000 
G1 X397.890 Y-120.595 Z-2.000 F1200.000 
G1 X396.987 Y-119.948 Z-2.000 F1200.000 
G1 X395.862 Y-119.092 Z-2.000 F1200.000 
G1 X395.003 Y-118.354 Z-2.000 F1200.000 
G1 X394.314 Y-117.665 Z-2.000 F1200.000 
G1 X393.747 Y-116.990 Z-2.000 F1200.000 
G1 X393.407 Y-116.514 Z-2.000 F1200.000 
G1 X393.098 Y-116.010 Z-2.000 F1200.000 
G1 X392.286 Y-117.070 Z-2.000 F1200.000 
G1 X391.510 Y-118.202 Z-2.000 F1200.000 
G1 X390.768 Y-119.410 Z-2.000 F1200.000 
G1 X390.062 Y-120.697 Z-2.000 F1200.000 
G1 X389.391 Y-122.067 Z-2.000 F1200.000 
G1 X388.757 Y-123.525 Z-2.000 F1200.000 
G1 X388.378 Y-124.487 Z-2.000 F1200.000 
G1 X388.251 Y-124.853 Z-2.000 F1200.000 
G1 X388.064 Y-125.178 Z-2.000 F1200.000 
G1 X387.818 Y-125.465 Z-2.000 F1200.000 
G1 X387.514 Y-125.711 Z-2.000 F1200.000 
G1 X387.153 Y-125.912 Z-2.000 F1200.000 
G1 X386.738 Y-126.060 Z-2.000 F1200.000 
G1 X386.279 Y-126.149 Z-2.000 F1200.000 
G1 X385.793 Y-126.170 Z-2.000 F1200.000 
G1 X385.301 Y-126.119 Z-2.000 F1200.000 
G1 X384.830 Y-125.997 Z-2.000 F1200.000 
G1 X384.403 Y-125.811 Z-2.000 F1200.000 
G1 X384.034 Y-125.570 Z-2.000 F1200.000 
G1 X383.732 Y-125.286 Z-2.000 F1200.000 
G1 X383.499 Y-124.964 Z-2.000 F1200.000 
G1 X383.387 Y-124.742 Z-2.000 F1200.000 
G1 X383.301 Y-124.501 Z-2.000 F1200.000 
G1 X383.136 Y-123.735 Z-2.000 F1200.000 
G1 X382.895 Y-122.079 Z-2.000 F1200.000 
G1 X381.365 Y-123.344 Z-2.000 F1200.000 
G1 X380.069 Y-124.388 Z-2.000 F1200.000 
G1 X378.946 Y-125.215 Z-2.000 F1200.000 
G1 X377.960 Y-125.850 Z-2.000 F1200.000 
G1 X377.044 Y-126.352 Z-2.000 F1200.000 
G1 X376.169 Y-126.743 Z-2.000 F1200.000 
G1 X375.353 Y-127.031 Z-2.000 F1200.000 
G1 X373.810 Y-127.499 Z-2.000 F1200.000 
G1 X372.383 Y-127.852 Z-2.000 F1200.000 
G1 X371.060 Y-128.102 Z-2.000 F1200.000 
G1 X369.834 Y-128.256 Z-2.000 F1200.000 
G1 X368.692 Y-128.324 Z-2.000 F1200.000 
G1 X367.627 Y-128.313 Z-2.000 F1200.000 
G1 X366.631 Y-128.228 Z-2.000 F1200.000 
G1 X365.698 Y-128.074 Z-2.000 F1200.000 
G1 X364.821 Y-127.853 Z-2.000 F1200.000 
G1 X363.996 Y-127.570 Z-2.000 F1200.000 
G1 X363.219 Y-127.224 Z-2.000 F1200.000 
G1 X362.720 Y-126.956 Z-2.000 F1200.000 
G1 X362.231 Y-126.655 Z-2.000 F1200.000 
G1 X360.769 Y-127.071 Z-2.000 F1200.000 
G1 X359.294 Y-127.415 Z-2.000 F1200.000 
G1 X357.814 Y-127.685 Z-2.000 F1200.000 
G1 X356.336 Y-127.881 Z-2.000 F1200.000 
G1 X354.865 Y-128.002 Z-2.000 F1200.000 
G1 X353.407 Y-128.048 Z-2.000 F1200.000 
G1 X351.968 Y-128.021 Z-2.000 F1200.000 
G1 X350.551 Y-127.921 Z-2.000 F1200.000 
G1 X349.161 Y-127.750 Z-2.000 F1200.000 
G1 X347.800 Y-127.508 Z-2.000 F1200.000 
G1 X347.053 Y-127.343 Z-2.000 F1200.000 
G1 X345.990 Y-127.040 Z-2.000 F1200.000 
G1 X345.142 Y-126.727 Z-2.000 F1200.000 
G1 X344.450 Y-126.394 Z-2.000 F1200.000 
G1 X343.882 Y-126.037 Z-2.000 F1200.000 
G1 X343.417 Y-125.657 Z-2.000 F1200.000 
G1 X343.043 Y-125.254 Z-2.000 F1200.000 
G1 X342.748 Y-124.826 Z-2.000 F1200.000 
G1 X342.525 Y-124.368 Z-2.000 F1200.000 
G1 X342.456 Y-124.180 Z-2.000 F1200.000 
G1 X342.396 Y-123.984 Z-2.000 F1200.000 
G1 X340.365 Y-124.457 Z-2.000 F1200.000 
G1 X338.476 Y-124.819 Z-2.000 F1200.000 
G1 X336.702 Y-125.082 Z-2.000 F1200.000 
G1 X335.026 Y-125.256 Z-2.000 F1200.000 
G1 X333.435 Y-125.345 Z-2.000 F1200.000 
G1 X331.921 Y-125.356 Z-2.000 F1200.000 
G1 X330.475 Y-125.292 Z-2.000 F1200.000 
G1 X329.093 Y-125.156 Z-2.000 F1200.000 
G1 X327.768 Y-124.952 Z-2.000 F1200.000 
G1 X326.496 Y-124.682 Z-2.000 F1200.000 
G1 X325.273 Y-124.346 Z-2.000 F1200.000 
G1 X324.962 Y-124.248 Z-2.000 F1200.000 
G1 X324.651 Y-124.145 Z-2.000 F1200.000 
G1 X324.005 Y-123.913 Z-2.000 F1200.000 
G1 X323.386 Y-123.614 Z-2.000 F1200.000 
G1 X322.807 Y-123.253 Z-2.000 F1200.000 
G1 X322.280 Y-122.839 Z-2.000 F1200.000 
G1 X321.813 Y-122.380 Z-2.000 F1200.000 
G1 X321.414 Y-121.884 Z-2.000 F1200.000 
G1 X321.086 Y-121.359 Z-2.000 F1200.000 
G1 X320.830 Y-120.811 Z-2.000 F1200.000 
G1 X320.647 Y-120.245 Z-2.000 F1200.000 
G1 X320.538 Y-119.664 Z-2.000 F1200.000 
G1 X320.502 Y-119.140 Z-2.000 F1200.000 
G1 X318.579 Y-119.369 Z-2.000 F1200.000 
G1 X316.825 Y-119.501 Z-2.000 F1200.000 
G1 X315.217 Y-119.546 Z-2.000 F1200.000 
G1 X313.725 Y-119.513 Z-2.000 F1200.000 
G1 X312.328 Y-119.407 Z-2.000 F1200.000 
G1 X311.015 Y-119.233 Z-2.000 F1200.000 
G1 X309.774 Y-118.994 Z-2.000 F1200.000 
G1 X308.597 Y-118.691 Z-2.000 F1200.000 
G1 X308.052 Y-118.524 Z-2.000 F1200.000 
G1 X307.511 Y-118.339 Z-2.000 F1200.000 
G1 X306.528 Y-117.923 Z-2.000 F1200.000 
G1 X305.627 Y-117.459 Z-2.000 F1200.000 
G1 X304.821 Y-116.959 Z-2.000 F1200.000 
G1 X304.114 Y-116.433 Z-2.000 F1200.000 
G1 X303.506 Y-115.886 Z-2.000 F1200.000 
G1 X302.990 Y-115.324 Z-2.000 F1200.000 
G1 X302.563 Y-114.747 Z-2.000 F1200.000 
G1 X302.218 Y-114.157 Z-2.000 F1200.000 
G1 X301.952 Y-113.554 Z-2.000 F1200.000 
G1 X301.760 Y-112.935 Z-2.000 F1200.000 
G1 X301.682 Y-112.572 Z-2.000 F1200.000 
G1 X306.175 Y-109.389 Z-2.000 F1200.000 
G1 X311.019 Y-106.044 Z-2.000 F1200.000 
G1 X316.322 Y-102.466 Z-2.000 F1200.000 
G1 X322.277 Y-98.530 Z-2.000 F1200.000 
G1 X331.583 Y-92.497 Z-2.000 F1200.000 
G1 X331.313 Y-92.169 Z-2.000 F1200.000 
G1 X331.105 Y-91.805 Z-2.000 F1200.000 
G1 X330.965 Y-91.415 Z-2.000 F1200.000 
G1 X330.894 Y-91.010 Z-2.000 F1200.000 
G1 X330.897 Y-90.604 Z-2.000 F1200.000 
G1 X330.971 Y-90.210 Z-2.000 F1200.000 
G1 X331.116 Y-89.839 Z-2.000 F1200.000 
G1 X331.326 Y-89.504 Z-2.000 F1200.000 
G1 X331.598 Y-89.210 Z-2.000 F1200.000 
G1 X331.979 Y-88.932 Z-2.000 F1200.000 
G1 X334.298 Y-87.316 Z-2.000 F1200.000 
G1 X337.021 Y-85.500 Z-2.000 F1200.000 
G1 X340.553 Y-83.217 Z-2.000 F1200.000 
G1 X346.185 Y-79.576 Z-2.000 F1200.000 
G1 X341.999 Y-81.038 Z-2.000 F1200.000 
G1 X339.378 Y-81.891 Z-2.000 F1200.000 
G1 X337.193 Y-82.528 Z-2.000 F1200.000 
G1 X335.254 Y-83.015 Z-2.000 F1200.000 
G1 X333.480 Y-83.383 Z-2.000 F1200.000 
G1 X331.837 Y-83.646 Z-2.000 F1200.000 
G1 X330.290 Y-83.818 Z-2.000 F1200.000 
G1 X328.817 Y-83.907 Z-2.000 F1200.000 
G1 X327.401 Y-83.917 Z-2.000 F1200.000 
G1 X326.489 Y-83.883 Z-2.000 F1200.000 
G1 X325.574 Y-83.815 Z-2.000 F1200.000 
G1 X324.677 Y-83.669 Z-2.000 F1200.000 
G1 X323.960 Y-83.484 Z-2.000 F1200.000 
G1 X323.380 Y-83.259 Z-2.000 F1200.000 
G1 X322.910 Y-82.997 Z-2.000 F1200.000 
G1 X322.530 Y-82.699 Z-2.000 F1200.000 
G1 X322.231 Y-82.369 Z-2.000 F1200.000 
G1 X322.059 Y-82.110 Z-2.000 F1200.000 
G1 X321.917 Y-81.822 Z-2.000 F1200.000 
G1 X321.821 Y-81.402 Z-2.000 F1200.000 
G1 X321.792 Y-80.962 Z-2.000 F1200.000 
G1 X321.830 Y-80.489 Z-2.000 F1200.000 
G1 X321.941 Y-79.963 Z-2.000 F1200.000 
G1 X322.138 Y-79.346 Z-2.000 F1200.000 
G1 X322.460 Y-78.522 Z-2.000 F1200.000 
G1 X322.713 Y-77.872 Z-2.000 F1200.000 
G1 X319.826 Y-78.778 Z-2.000 F1200.000 
G1 X317.464 Y-79.446 Z-2.000 F1200.000 
G1 X315.398 Y-79.954 Z-2.000 F1200.000 
G1 X313.518 Y-80.338 Z-2.000 F1200.000 
G1 X311.786 Y-80.615 Z-2.000 F1200.000 
G1 X310.161 Y-80.798 Z-2.000 F1200.000 
G1 X309.104 Y-80.875 Z-2.000 F1200.000 
G1 X308.043 Y-80.914 Z-2.000 F1200.000 
G1 X307.317 Y-80.871 Z-2.000 F1200.000 
G1 X306.283 Y-80.771 Z-2.000 F1200.000 
G1 X305.464 Y-80.625 Z-2.000 F1200.000 
G1 X304.797 Y-80.433 Z-2.000 F1200.000 
G1 X304.242 Y-80.195 Z-2.000 F1200.000 
G1 X303.777 Y-79.915 Z-2.000 F1200.000 
G1 X303.391 Y-79.594 Z-2.000 F1200.000 
G1 X303.070 Y-79.229 Z-2.000 F1200.000 
G1 X302.964 Y-79.078 Z-2.000 F1200.000 
G1 X302.864 Y-78.917 Z-2.000 F1200.000 
G1 X302.718 Y-78.472 Z-2.000 F1200.000 
G1 X302.643 Y-78.019 Z-2.000 F1200.000 
G1 X302.637 Y-77.552 Z-2.000 F1200.000 
G1 X302.701 Y-77.063 Z-2.000 F1200.000 
G1 X302.839 Y-76.543 Z-2.000 F1200.000 
G1 X303.061 Y-75.982 Z-2.000 F1200.000 
G1 X303.378 Y-75.361 Z-2.000 F1200.000 
G1 X303.816 Y-74.650 Z-2.000 F1200.000 
G1 X304.100 Y-74.229 Z-2.000 F1200.000 
G1 X304.382 Y-73.824 Z-2.000 F1200.000 
G1 X301.730 Y-74.430 Z-2.000 F1200.000 
G1 X298.760 Y-75.060 Z-2.000 F1200.000 
G1 X296.320 Y-75.506 Z-2.000 F1200.000 
G1 X294.177 Y-75.822 Z-2.000 F1200.000 
G1 X292.226 Y-76.033 Z-2.000 F1200.000 
G1 X290.430 Y-76.151 Z-2.000 F1200.000 
G1 X288.746 Y-76.186 Z-2.000 F1200.000 
G1 X287.018 Y-76.138 Z-2.000 F1200.000 
G1 X285.986 Y-76.015 Z-2.000 F1200.000 
G1 X285.126 Y-75.841 Z-2.000 F1200.000 
G1 X284.413 Y-75.623 Z-2.000 F1200.000 
G1 X283.823 Y-75.365 Z-2.000 F1200.000 
G1 X283.341 Y-75.074 Z-2.000 F1200.000 
G1 X282.954 Y-74.752 Z-2.000 F1200.000 
G1 X282.650 Y-74.401 Z-2.000 F1200.000 
G1 X282.419 Y-74.021 Z-2.000 F1200.000 
G1 X282.256 Y-73.607 Z-2.000 F1200.000 
G1 X282.175 Y-73.262 Z-2.000 F1200.000 
G1 X282.180 Y-72.708 Z-2.000 F1200.000 
G1 X282.255 Y-72.146 Z-2.000 F1200.000 
G1 X282.404 Y-71.567 Z-2.000 F1200.000 
G1 X282.631 Y-70.959 Z-2.000 F1200.000 
G1 X282.950 Y-70.304 Z-2.000 F1200.000 
G1 X283.382 Y-69.569 Z-2.000 F1200.000 
G1 X284.557 Y-67.842 Z-2.000 F1200.000 
G1 X280.453 Y-68.410 Z-2.000 F1200.000 
G1 X277.375 Y-68.802 Z-2.000 F1200.000 
G1 X274.878 Y-69.053 Z-2.000 F1200.000 
G1 X272.731 Y-69.196 Z-2.000 F1200.000 
G1 X270.799 Y-69.248 Z-2.000 F1200.000 
G1 X269.030 Y-69.220 Z-2.000 F1200.000 
G1 X267.090 Y-69.092 Z-2.000 F1200.000 
G1 X266.104 Y-68.926 Z-2.000 F1200.000 
G1 X265.304 Y-68.722 Z-2.000 F1200.000 
G1 X264.652 Y-68.481 Z-2.000 F1200.000 
G1 X264.121 Y-68.206 Z-2.000 F1200.000 
G1 X263.692 Y-67.900 Z-2.000 F1200.000 
G1 X263.354 Y-67.566 Z-2.000 F1200.000 
G1 X263.093 Y-67.204 Z-2.000 F1200.000 
G1 X262.903 Y-66.810 Z-2.000 F1200.000 
G1 X262.830 Y-66.593 Z-2.000 F1200.000 
G1 X262.775 Y-66.362 Z-2.000 F1200.000 
G1 X262.770 Y-65.816 Z-2.000 F1200.000 
G1 X262.836 Y-65.265 Z-2.000 F1200.000 
G1 X262.974 Y-64.703 Z-2.000 F1200.000 
G1 X263.190 Y-64.117 Z-2.000 F1200.000 
G1 X263.493 Y-63.494 Z-2.000 F1200.000 
G1 X263.902 Y-62.810 Z-2.000 F1200.000 
G1 X264.454 Y-62.010 Z-2.000 F1200.000 
G1 X265.465 Y-60.654 Z-2.000 F1200.000 
G1 X263.126 Y-61.105 Z-2.000 F1200.000 
G1 X260.884 Y-61.462 Z-2.000 F1200.000 
G1 X258.726 Y-61.730 Z-2.000 F1200.000 
G1 X256.644 Y-61.914 Z-2.000 F1200.000 
G1 X254.630 Y-62.018 Z-2.000 F1200.000 
G1 X252.678 Y-62.045 Z-2.000 F1200.000 
G1 X250.783 Y-61.997 Z-2.000 F1200.000 
G1 X249.404 Y-61.914 Z-2.000 F1200.000 
G1 X248.216 Y-61.751 Z-2.000 F1200.000 
G1 X247.053 Y-61.547 Z-2.000 F1200.000 
G1 X246.131 Y-61.314 Z-2.000 F1200.000 
G1 X245.356 Y-61.043 Z-2.000 F1200.000 
G1 X244.683 Y-60.727 Z-2.000 F1200.000 
G1 X244.459 Y-60.600 Z-2.000 F1200.000 
G1 X244.239 Y-60.463 Z-2.000 F1200.000 
G1 X243.887 Y-60.204 Z-2.000 F1200.000 
G1 X243.574 Y-59.884 Z-2.000 F1200.000 
G1 X243.315 Y-59.516 Z-2.000 F1200.000 
G1 X243.126 Y-59.120 Z-2.000 F1200.000 
G1 X243.012 Y-58.712 Z-2.000 F1200.000 
G1 X242.975 Y-58.307 Z-2.000 F1200.000 
G1 X243.014 Y-57.914 Z-2.000 F1200.000 
G1 X243.092 Y-57.631 Z-2.000 F1200.000 
G1 X243.312 Y-57.068 Z-2.000 F1200.000 
G1 X243.604 Y-56.512 Z-2.000 F1200.000 
G1 X243.978 Y-55.953 Z-2.000 F1200.000 
G1 X244.446 Y-55.375 Z-2.000 F1200.000 
G1 X245.037 Y-54.752 Z-2.000 F1200.000 
G1 X245.818 Y-54.022 Z-2.000 F1200.000 
G1 X246.958 Y-53.002 Z-2.000 F1200.000 
G1 X243.965 Y-53.467 Z-2.000 F1200.000 
G1 X241.307 Y-53.804 Z-2.000 F1200.000 
G1 X238.882 Y-54.035 Z-2.000 F1200.000 
G1 X236.642 Y-54.173 Z-2.000 F1200.000 
G1 X234.541 Y-54.227 Z-2.000 F1200.000 
G1 X232.551 Y-54.204 Z-2.000 F1200.000 
G1 X230.843 Y-54.120 Z-2.000 F1200.000 
G1 X229.708 Y-53.949 Z-2.000 F1200.000 
G1 X228.780 Y-53.758 Z-2.000 F1200.000 
G1 X228.053 Y-53.538 Z-2.000 F1200.000 
G1 X227.460 Y-53.282 Z-2.000 F1200.000 
G1 X226.967 Y-52.988 Z-2.000 F1200.000 
G1 X226.558 Y-52.655 Z-2.000 F1200.000 
G1 X226.325 Y-52.411 Z-2.000 F1200.000 
G1 X226.113 Y-52.138 Z-2.000 F1200.000 
G1 X226.006 Y-51.660 Z-2.000 F1200.000 
G1 X225.972 Y-51.193 Z-2.000 F1200.000 
G1 X226.010 Y-50.729 Z-2.000 F1200.000 
G1 X226.119 Y-50.262 Z-2.000 F1200.000 
G1 X226.302 Y-49.784 Z-2.000 F1200.000 
G1 X226.569 Y-49.285 Z-2.000 F1200.000 
G1 X226.932 Y-48.753 Z-2.000 F1200.000 
G1 X227.411 Y-48.172 Z-2.000 F1200.000 
G1 X228.048 Y-47.501 Z-2.000 F1200.000 
G1 X228.980 Y-46.593 Z-2.000 F1200.000 
G1 X229.481 Y-46.092 Z-2.000 F1200.000 
G1 X223.681 Y-46.659 Z-2.000 F1200.000 
G1 X219.679 Y-47.009 Z-2.000 F1200.000 
G1 X216.438 Y-47.224 Z-2.000 F1200.000 
G1 X213.628 Y-47.335 Z-2.000 F1200.000 
G1 X211.088 Y-47.360 Z-2.000 F1200.000 
G1 X208.763 Y-47.308 Z-2.000 F1200.000 
G1 X207.364 Y-47.236 Z-2.000 F1200.000 
G1 X205.966 Y-47.132 Z-2.000 F1200.000 
G1 X204.277 Y-46.895 Z-2.000 F1200.000 
G1 X203.173 Y-46.692 Z-2.000 F1200.000 
G1 X202.305 Y-46.463 Z-2.000 F1200.000 
G1 X201.588 Y-46.198 Z-2.000 F1200.000 
G1 X200.980 Y-45.893 Z-2.000 F1200.000 
G1 X200.462 Y-45.549 Z-2.000 F1200.000 
G1 X200.018 Y-45.163 Z-2.000 F1200.000 
G1 X199.712 Y-44.828 Z-2.000 F1200.000 
G1 X199.505 Y-44.432 Z-2.000 F1200.000 
G1 X199.373 Y-44.029 Z-2.000 F1200.000 
G1 X199.310 Y-43.615 Z-2.000 F1200.000 
G1 X199.316 Y-43.181 Z-2.000 F1200.000 
G1 X199.392 Y-42.719 Z-2.000 F1200.000 
G1 X199.546 Y-42.217 Z-2.000 F1200.000 
G1 X199.788 Y-41.661 Z-2.000 F1200.000 
G1 X200.137 Y-41.026 Z-2.000 F1200.000 
G1 X200.634 Y-40.248 Z-2.000 F1200.000 
G1 X201.060 Y-39.612 Z-2.000 F1200.000 
G1 X197.708 Y-39.823 Z-2.000 F1200.000 
G1 X194.163 Y-39.974 Z-2.000 F1200.000 
G1 X190.373 Y-40.066 Z-2.000 F1200.000 
G1 X186.257 Y-40.096 Z-2.000 F1200.000 
G1 X181.672 Y-40.062 Z-2.000 F1200.000 
G1 X180.145 Y-40.037 Z-2.000 F1200.000 
G1 X178.618 Y-40.008 Z-2.000 F1200.000 
G1 X174.401 Y-39.794 Z-2.000 F1200.000 
G1 X170.827 Y-39.540 Z-2.000 F1200.000 
G1 X167.642 Y-39.238 Z-2.000 F1200.000 
G1 X164.747 Y-38.888 Z-2.000 F1200.000 
G1 X162.075 Y-38.488 Z-2.000 F1200.000 
G1 X159.576 Y-38.039 Z-2.000 F1200.000 
G1 X157.217 Y-37.539 Z-2.000 F1200.000 
G1 X154.976 Y-36.988 Z-2.000 F1200.000 
G1 X154.397 Y-36.833 Z-2.000 F1200.000 
G1 X153.819 Y-36.673 Z-2.000 F1200.000 
G1 X151.782 Y-36.042 Z-2.000 F1200.000 
G1 X150.006 Y-35.413 Z-2.000 F1200.000 
G1 X148.421 Y-34.771 Z-2.000 F1200.000 
G1 X146.996 Y-34.113 Z-2.000 F1200.000 
G1 X145.702 Y-33.432 Z-2.000 F1200.000 
G1 X144.517 Y-32.725 Z-2.000 F1200.000 
G1 X143.428 Y-31.988 Z-2.000 F1200.000 
G1 X142.269 Y-31.091 Z-2.000 F1200.000 
G1 X141.777 Y-30.708 Z-2.000 F1200.000 
G1 X141.340 Y-30.445 Z-2.000 F1200.000 
G1 X140.938 Y-30.289 Z-2.000 F1200.000 
G1 X140.629 Y-30.227 Z-2.000 F1200.000 
G1 X137.916 Y-29.605 Z-2.000 F1200.000 
G1 X135.409 Y-28.954 Z-2.000 F1200.000 
G1 X133.071 Y-28.268 Z-2.000 F1200.000 
G1 X130.877 Y-27.547 Z-2.000 F1200.000 
G1 X128.810 Y-26.790 Z-2.000 F1200.000 
G1 X126.857 Y-25.995 Z-2.000 F1200.000 
G1 X125.007 Y-25.163 Z-2.000 F1200.000 
G1 X123.252 Y-24.292 Z-2.000 F1200.000 
G1 X121.586 Y-23.383 Z-2.000 F1200.000 
G1 X120.002 Y-22.435 Z-2.000 F1200.000 
G1 X118.496 Y-21.447 Z-2.000 F1200.000 
G1 X118.116 Y-21.183 Z-2.000 F1200.000 
G1 X117.738 Y-20.915 Z-2.000 F1200.000 
G1 X116.558 Y-20.021 Z-2.000 F1200.000 
G1 X115.436 Y-19.080 Z-2.000 F1200.000 
G1 X114.380 Y-18.098 Z-2.000 F1200.000 
G1 X113.395 Y-17.082 Z-2.000 F1200.000 
G1 X112.485 Y-16.037 Z-2.000 F1200.000 
G1 X111.651 Y-14.969 Z-2.000 F1200.000 
G1 X110.897 Y-13.883 Z-2.000 F1200.000 
G1 X110.221 Y-12.782 Z-2.000 F1200.000 
G1 X109.625 Y-11.669 Z-2.000 F1200.000 
G1 X109.107 Y-10.547 Z-2.000 F1200.000 
G1 X108.667 Y-9.418 Z-2.000 F1200.000 
G1 X108.303 Y-8.283 Z-2.000 F1200.000 
G1 X108.015 Y-7.143 Z-2.000 F1200.000 
G1 X107.838 Y-6.226 Z-2.000 F1200.000 
G1 X109.066 Y-7.162 Z-2.000 F1200.000 
G1 X110.357 Y-8.056 Z-2.000 F1200.000 
G1 X111.717 Y-8.911 Z-2.000 F1200.000 
G1 X113.150 Y-9.727 Z-2.000 F1200.000 
G1 X114.662 Y-10.505 Z-2.000 F1200.000 
G1 X116.259 Y-11.247 Z-2.000 F1200.000 
G1 X117.951 Y-11.955 Z-2.000 F1200.000 
G1 X119.748 Y-12.629 Z-2.000 F1200.000 
G1 X121.664 Y-13.273 Z-2.000 F1200.000 
G1 X123.717 Y-13.888 Z-2.000 F1200.000 
G1 X125.935 Y-14.479 Z-2.000 F1200.000 
G1 X128.356 Y-15.052 Z-2.000 F1200.000 
G1 X131.051 Y-15.620 Z-2.000 F1200.000 
G1 X133.013 Y-15.997 Z-2.000 F1200.000 
G1 X136.126 Y-16.517 Z-2.000 F1200.000 
G1 X139.357 Y-16.984 Z-2.000 F1200.000 
G1 X142.722 Y-17.398 Z-2.000 F1200.000 
G1 X146.243 Y-17.760 Z-2.000 F1200.000 
G1 X149.949 Y-18.069 Z-2.000 F1200.000 
G1 X153.881 Y-18.327 Z-2.000 F1200.000 
G1 X158.097 Y-18.533 Z-2.000 F1200.000 
G1 X162.694 Y-18.688 Z-2.000 F1200.000 
G1 X165.311 Y-18.750 Z-2.000 F1200.000 
G1 X167.927 Y-18.795 Z-2.000 F1200.000 
G1 X173.217 Y-18.804 Z-2.000 F1200.000 
G1 X178.662 Y-18.741 Z-2.000 F1200.000 
G1 X184.283 Y-18.604 Z-2.000 F1200.000 
G1 X190.103 Y-18.391 Z-2.000 F1200.000 
G1 X196.155 Y-18.099 Z-2.000 F1200.000 
G1 X202.479 Y-17.722 Z-2.000 F1200.000 
G1 X209.130 Y-17.254 Z-2.000 F1200.000 
G1 X216.188 Y-16.688 Z-2.000 F1200.000 
G1 X220.148 Y-16.342 Z-2.000 F1200.000 
G1 X224.107 Y-15.978 Z-2.000 F1200.000 
G1 X235.237 Y-14.964 Z-2.000 F1200.000 
G1 X244.649 Y-14.179 Z-2.000 F1200.000 
G1 X253.047 Y-13.555 Z-2.000 F1200.000 
G1 X260.711 Y-13.062 Z-2.000 F1200.000 
G1 X267.814 Y-12.680 Z-2.000 F1200.000 
G1 X274.493 Y-12.395 Z-2.000 F1200.000 
G1 X280.834 Y-12.200 Z-2.000 F1200.000 
G1 X286.895 Y-12.088 Z-2.000 F1200.000 
G1 X292.721 Y-12.054 Z-2.000 F1200.000 
G1 X298.343 Y-12.095 Z-2.000 F1200.000 
G1 X303.787 Y-12.209 Z-2.000 F1200.000 
G1 X309.072 Y-12.394 Z-2.000 F1200.000 
G1 X314.215 Y-12.647 Z-2.000 F1200.000 
G1 X319.230 Y-12.967 Z-2.000 F1200.000 
G1 X324.129 Y-13.354 Z-2.000 F1200.000 
G1 X328.921 Y-13.806 Z-2.000 F1200.000 
G1 X332.984 Y-14.249 Z-2.000 F1200.000 
G1 X338.389 Y-14.958 Z-2.000 F1200.000 
G1 X342.969 Y-15.632 Z-2.000 F1200.000 
G1 X347.049 Y-16.309 Z-2.000 F1200.000 
G1 X350.758 Y-17.001 Z-2.000 F1200.000 
G1 X354.179 Y-17.716 Z-2.000 F1200.000 
G1 X357.377 Y-18.461 Z-2.000 F1200.000 
G1 X360.395 Y-19.240 Z-2.000 F1200.000 
G1 X363.261 Y-20.057 Z-2.000 F1200.000 
G1 X365.995 Y-20.913 Z-2.000 F1200.000 
G1 X368.615 Y-21.812 Z-2.000 F1200.000 
G1 X371.052 Y-22.721 Z-2.000 F1200.000 
G1 X373.257 Y-23.613 Z-2.000 F1200.000 
G1 X375.387 Y-24.554 Z-2.000 F1200.000 
G1 X377.439 Y-25.541 Z-2.000 F1200.000 
G1 X379.412 Y-26.571 Z-2.000 F1200.000 
G1 X381.305 Y-27.643 Z-2.000 F1200.000 
G1 X383.118 Y-28.754 Z-2.000 F1200.000 
G1 X384.852 Y-29.903 Z-2.000 F1200.000 
G1 X386.507 Y-31.087 Z-2.000 F1200.000 
G1 X388.083 Y-32.305 Z-2.000 F1200.000 
G1 X389.582 Y-33.557 Z-2.000 F1200.000 
G1 X391.006 Y-34.841 Z-2.000 F1200.000 
G1 X392.354 Y-36.156 Z-2.000 F1200.000 
G1 X393.629 Y-37.502 Z-2.000 F1200.000 
G1 X394.831 Y-38.878 Z-2.000 F1200.000 
G1 X395.227 Y-39.357 Z-2.000 F1200.000 
G1 X395.617 Y-39.842 Z-2.000 F1200.000 
G1 X398.076 Y-39.331 Z-2.000 F1200.000 
G1 X400.667 Y-38.865 Z-2.000 F1200.000 
G1 X403.418 Y-38.442 Z-2.000 F1200.000 
G1 X406.371 Y-38.059 Z-2.000 F1200.000 
G1 X409.593 Y-37.711 Z-2.000 F1200.000 
G1 X413.198 Y-37.391 Z-2.000 F1200.000 
G1 X417.439 Y-37.080 Z-2.000 F1200.000 
G1 X422.237 Y-36.775 Z-2.000 F1200.000 
G1 X426.476 Y-36.616 Z-2.000 F1200.000 
G1 X430.441 Y-36.524 Z-2.000 F1200.000 
G1 X433.739 Y-36.518 Z-2.000 F1200.000 
G1 X435.718 Y-36.557 Z-2.000 F1200.000 
G1 X437.698 Y-36.634 Z-2.000 F1200.000 
G1 X437.092 Y-35.155 Z-2.000 F1200.000 
G1 X436.490 Y-33.505 Z-2.000 F1200.000 
G1 X436.258 Y-32.817 Z-2.000 F1200.000 
G1 X436.033 Y-32.126 Z-2.000 F1200.000 
G1 X437.791 Y-32.797 Z-2.000 F1200.000 
G1 X439.593 Y-33.408 Z-2.000 F1200.000 
G1 X441.439 Y-33.957 Z-2.000 F1200.000 
G1 X443.327 Y-34.444 Z-2.000 F1200.000 
G1 X445.253 Y-34.865 Z-2.000 F1200.000 
G1 X447.216 Y-35.221 Z-2.000 F1200.000 
G1 X449.212 Y-35.509 Z-2.000 F1200.000 
G1 X451.238 Y-35.728 Z-2.000 F1200.000 
G1 X452.132 Y-35.802 Z-2.000 F1200.000 
G1 X453.027 Y-35.862 Z-2.000 F1200.000 
G1 X455.211 Y-35.910 Z-2.000 F1200.000 
G1 X458.098 Y-36.016 Z-2.000 F1200.000 
G1 X460.430 Y-36.171 Z-2.000 F1200.000 
G1 X462.447 Y-36.379 Z-2.000 F1200.000 
G1 X464.260 Y-36.642 Z-2.000 F1200.000 
G1 X465.910 Y-36.958 Z-2.000 F1200.000 
G1 X467.652 Y-37.386 Z-2.000 F1200.000 
G1 X470.759 Y-36.744 Z-2.000 F1200.000 
G1 X473.966 Y-36.009 Z-2.000 F1200.000 
G1 X477.290 Y-35.174 Z-2.000 F1200.000 
G1 X480.760 Y-34.230 Z-2.000 F1200.000 
G1 X484.409 Y-33.164 Z-2.000 F1200.000 
G1 X488.289 Y-31.957 Z-2.000 F1200.000 
G1 X492.481 Y-30.579 Z-2.000 F1200.000 
G1 X497.128 Y-28.981 Z-2.000 F1200.000 
G1 X502.530 Y-27.053 Z-2.000 F1200.000 
G1 X510.085 Y-24.289 Z-2.000 F1200.000 
G1 X517.040 Y-21.762 Z-2.000 F1200.000 
G1 X520.915 Y-20.419 Z-2.000 F1200.000 
G1 X524.155 Y-19.371 Z-2.000 F1200.000 
G1 X527.040 Y-18.517 Z-2.000 F1200.000 
G1 X529.939 Y-17.750 Z-2.000 F1200.000 
G1 X533.096 Y-17.016 Z-2.000 F1200.000 
G1 X536.341 Y-16.334 Z-2.000 F1200.000 
G1 X539.681 Y-15.706 Z-2.000 F1200.000 
G1 X543.126 Y-15.131 Z-2.000 F1200.000 
G1 X546.686 Y-14.610 Z-2.000 F1200.000 
G1 X550.373 Y-14.142 Z-2.000 F1200.000 
G1 X554.202 Y-13.728 Z-2.000 F1200.000 
G1 X558.194 Y-13.368 Z-2.000 F1200.000 
G1 X562.373 Y-13.063 Z-2.000 F1200.000 
G1 X566.774 Y-12.812 Z-2.000 F1200.000 
G1 X572.136 Y-12.594 Z-2.000 F1200.000 
G1 X577.279 Y-12.477 Z-2.000 F1200.000 
G1 X582.622 Y-12.427 Z-2.000 F1200.000 
G1 X588.204 Y-12.446 Z-2.000 F1200.000 
G1 X594.072 Y-12.537 Z-2.000 F1200.000 
G1 X600.299 Y-12.704 Z-2.000 F1200.000 
G1 X606.989 Y-12.953 Z-2.000 F1200.000 
G1 X614.317 Y-13.295 Z-2.000 F1200.000 
G1 X622.609 Y-13.749 Z-2.000 F1200.000 
G1 X632.648 Y-14.364 Z-2.000 F1200.000 
G1 X648.605 Y-15.390 Z-2.000 F1200.000 
G1 X659.721 Y-16.064 Z-2.000 F1200.000 
G1 X668.717 Y-16.542 Z-2.000 F1200.000 
G1 X676.511 Y-16.881 Z-2.000 F1200.000 
G1 X685.867 Y-17.169 Z-2.000 F1200.000 
G1 X692.647 Y-17.221 Z-2.000 F1200.000 
G1 X698.203 Y-17.193 Z-2.000 F1200.000 
G1 X703.071 Y-17.094 Z-2.000 F1200.000 
G1 X707.483 Y-16.928 Z-2.000 F1200.000 
G1 X711.535 Y-16.701 Z-2.000 F1200.000 
G1 X715.319 Y-16.413 Z-2.000 F1200.000 
G1 X718.894 Y-16.066 Z-2.000 F1200.000 
G1 X722.297 Y-15.661 Z-2.000 F1200.000 
G1 X723.412 Y-15.511 Z-2.000 F1200.000 
G1 X724.525 Y-15.353 Z-2.000 F1200.000 
G1 X727.752 Y-14.840 Z-2.000 F1200.000 
G1 X730.748 Y-14.287 Z-2.000 F1200.000 
G1 X733.558 Y-13.693 Z-2.000 F1200.000 
G1 X736.210 Y-13.055 Z-2.000 F1200.000 
G1 X738.724 Y-12.375 Z-2.000 F1200.000 
G1 X741.117 Y-11.651 Z-2.000 F1200.000 
G1 X743.399 Y-10.882 Z-2.000 F1200.000 
G1 X745.581 Y-10.070 Z-2.000 F1200.000 
G1 X747.671 Y-9.213 Z-2.000 F1200.000 
G1 X749.674 Y-8.312 Z-2.000 F1200.000 
G1 X751.597 Y-7.366 Z-2.000 F1200.000 
G1 X752.905 Y-6.674 Z-2.000 F1200.000 
G1 X754.197 Y-5.948 Z-2.000 F1200.000 
G0 Z6.000 
G0 Z6.000 
G0 X275.160 Y-15.988 
G0 Z4.000 
G1 X275.160 Y-15.988 Z-2.000 F300.000 
G1 X282.640 Y-15.763 Z-2.000 F1200.000 
G1 X289.278 Y-15.640 Z-2.000 F1200.000 
G1 X295.323 Y-15.603 Z-2.000 F1200.000 
G1 X300.907 Y-15.645 Z-2.000 F1200.000 
G1 X306.143 Y-15.758 Z-2.000 F1200.000 
G1 X311.102 Y-15.941 Z-2.000 F1200.000 
G1 X315.834 Y-16.189 Z-2.000 F1200.000 
G1 X320.371 Y-16.502 Z-2.000 F1200.000 
G1 X324.741 Y-16.877 Z-2.000 F1200.000 
G1 X328.963 Y-17.314 Z-2.000 F1200.000 
G1 X333.055 Y-17.811 Z-2.000 F1200.000 
G1 X337.028 Y-18.368 Z-2.000 F1200.000 
G1 X340.895 Y-18.985 Z-2.000 F1200.000 
G1 X345.853 Y-19.889 Z-2.000 F1200.000 
G1 X349.920 Y-20.736 Z-2.000 F1200.000 
G1 X353.621 Y-21.585 Z-2.000 F1200.000 
G1 X357.041 Y-22.446 Z-2.000 F1200.000 
G1 X360.240 Y-23.329 Z-2.000 F1200.000 
G1 X363.258 Y-24.239 Z-2.000 F1200.000 
G1 X366.121 Y-25.180 Z-2.000 F1200.000 
G1 X368.849 Y-26.155 Z-2.000 F1200.000 
G1 X370.598 Y-26.823 Z-2.000 F1200.000 
G1 X372.295 Y-27.542 Z-2.000 F1200.000 
G1 X373.979 Y-28.335 Z-2.000 F1200.000 
G1 X375.651 Y-29.201 Z-2.000 F1200.000 
G1 X377.309 Y-30.141 Z-2.000 F1200.000 
G1 X378.950 Y-31.155 Z-2.000 F1200.000 
G1 X380.574 Y-32.243 Z-2.000 F1200.000 
G1 X382.179 Y-33.405 Z-2.000 F1200.000 
G1 X383.761 Y-34.641 Z-2.000 F1200.000 
G1 X385.319 Y-35.949 Z-2.000 F1200.000 
G1 X386.850 Y-37.328 Z-2.000 F1200.000 
G1 X388.350 Y-38.777 Z-2.000 F1200.000 
G1 X389.817 Y-40.294 Z-2.000 F1200.000 
G1 X391.247 Y-41.877 Z-2.000 F1200.000 
G1 X392.303 Y-43.118 Z-2.000 F1200.000 
G1 X393.644 Y-44.735 Z-2.000 F1200.000 
G1 X395.124 Y-46.624 Z-2.000 F1200.000 
G1 X396.915 Y-49.011 Z-2.000 F1200.000 
G1 X400.053 Y-53.238 Z-2.000 F1200.000 
G1 X401.767 Y-55.441 Z-2.000 F1200.000 
G1 X402.147 Y-55.910 Z-2.000 F1200.000 
G1 X402.530 Y-56.376 Z-2.000 F1200.000 
G1 X403.828 Y-57.831 Z-2.000 F1200.000 
G1 X404.931 Y-58.968 Z-2.000 F1200.000 
G1 X405.924 Y-59.885 Z-2.000 F1200.000 
G1 X406.859 Y-60.647 Z-2.000 F1200.000 
G1 X407.757 Y-61.281 Z-2.000 F1200.000 
G1 X408.632 Y-61.807 Z-2.000 F1200.000 
G1 X409.633 Y-62.300 Z-2.000 F1200.000 
G1 X410.343 Y-62.600 Z-2.000 F1200.000 
G1 X411.111 Y-62.849 Z-2.000 F1200.000 
G1 X411.949 Y-63.046 Z-2.000 F1200.000 
G1 X412.874 Y-63.193 Z-2.000 F1200.000 
G1 X413.914 Y-63.288 Z-2.000 F1200.000 
G1 X414.767 Y-63.325 Z-2.000 F1200.000 
G1 X415.618 Y-63.335 Z-2.000 F1200.000 
G1 X414.264 Y-62.677 Z-2.000 F1200.000 
G1 X413.156 Y-62.130 Z-2.000 F1200.000 
G1 X412.112 Y-61.556 Z-2.000 F1200.000 
G1 X411.283 Y-61.019 Z-2.000 F1200.000 
G1 X410.770 Y-60.629 Z-2.000 F1200.000 
G1 X411.993 Y-60.304 Z-2.000 F1200.000 
G1 X413.638 Y-59.926 Z-2.000 F1200.000 
G1 X414.957 Y-59.626 Z-2.000 F1200.000 
G1 X416.389 Y-59.252 Z-2.000 F1200.000 
G1 X417.535 Y-58.881 Z-2.000 F1200.000 
G1 X418.247 Y-58.602 Z-2.000 F1200.000 
G1 X418.947 Y-58.281 Z-2.000 F1200.000 
G1 X416.797 Y-58.454 Z-2.000 F1200.000 
G1 X414.986 Y-58.527 Z-2.000 F1200.000 
G1 X413.377 Y-58.517 Z-2.000 F1200.000 
G1 X411.915 Y-58.432 Z-2.000 F1200.000 
G1 X410.619 Y-58.286 Z-2.000 F1200.000 
G1 X410.045 Y-58.231 Z-2.000 F1200.000 
G1 X409.496 Y-58.108 Z-2.000 F1200.000 
G1 X408.964 Y-57.917 Z-2.000 F1200.000 
G1 X408.445 Y-57.655 Z-2.000 F1200.000 
G1 X407.932 Y-57.317 Z-2.000 F1200.000 
G1 X407.419 Y-56.896 Z-2.000 F1200.000 
G1 X406.900 Y-56.378 Z-2.000 F1200.000 
G1 X406.364 Y-55.746 Z-2.000 F1200.000 
G1 X405.793 Y-54.969 Z-2.000 F1200.000 
G1 X405.143 Y-53.976 Z-2.000 F1200.000 
G1 X404.399 Y-52.782 Z-2.000 F1200.000 
G1 X405.537 Y-53.021 Z-2.000 F1200.000 
G1 X406.708 Y-53.195 Z-2.000 F1200.000 
G1 X407.923 Y-53.304 Z-2.000 F1200.000 
G1 X409.194 Y-53.346 Z-2.000 F1200.000 
G1 X410.538 Y-53.321 Z-2.000 F1200.000 
G1 X411.979 Y-53.223 Z-2.000 F1200.000 
G1 X413.557 Y-53.048 Z-2.000 F1200.000 
G1 X415.343 Y-52.781 Z-2.000 F1200.000 
G1 X417.509 Y-52.392 Z-2.000 F1200.000 
G1 X420.966 Y-51.722 Z-2.000 F1200.000 
G1 X423.361 Y-51.300 Z-2.000 F1200.000 
G1 X425.301 Y-51.027 Z-2.000 F1200.000 
G1 X426.985 Y-50.864 Z-2.000 F1200.000 
G1 X428.745 Y-50.790 Z-2.000 F1200.000 
G1 X427.995 Y-50.420 Z-2.000 F1200.000 
G1 X427.199 Y-50.106 Z-2.000 F1200.000 
G1 X426.346 Y-49.845 Z-2.000 F1200.000 
G1 X425.425 Y-49.637 Z-2.000 F1200.000 
G1 X424.414 Y-49.480 Z-2.000 F1200.000 
G1 X423.285 Y-49.375 Z-2.000 F1200.000 
G1 X421.977 Y-49.320 Z-2.000 F1200.000 
G1 X420.344 Y-49.315 Z-2.000 F1200.000 
G1 X418.599 Y-49.336 Z-2.000 F1200.000 
G1 X416.877 Y-49.325 Z-2.000 F1200.000 
G1 X415.104 Y-49.449 Z-2.000 F1200.000 
G1 X413.295 Y-49.504 Z-2.000 F1200.000 
G1 X411.450 Y-49.488 Z-2.000 F1200.000 
G1 X409.572 Y-49.400 Z-2.000 F1200.000 
G1 X407.660 Y-49.238 Z-2.000 F1200.000 
G1 X406.927 Y-49.157 Z-2.000 F1200.000 
G1 X406.196 Y-49.066 Z-2.000 F1200.000 
G1 X405.378 Y-48.911 Z-2.000 F1200.000 
G1 X404.566 Y-48.683 Z-2.000 F1200.000 
G1 X403.764 Y-48.384 Z-2.000 F1200.000 
G1 X402.977 Y-48.013 Z-2.000 F1200.000 
G1 X402.212 Y-47.573 Z-2.000 F1200.000 
G1 X401.770 Y-47.280 Z-2.000 F1200.000 
G1 X401.343 Y-46.966 Z-2.000 F1200.000 
G1 X402.407 Y-46.729 Z-2.000 F1200.000 
G1 X403.712 Y-46.504 Z-2.000 F1200.000 
G1 X405.840 Y-46.184 Z-2.000 F1200.000 
G1 X406.726 Y-46.031 Z-2.000 F1200.000 
G1 X407.607 Y-45.848 Z-2.000 F1200.000 
G1 X410.310 Y-45.268 Z-2.000 F1200.000 
G1 X413.530 Y-44.511 Z-2.000 F1200.000 
G1 X418.117 Y-43.377 Z-2.000 F1200.000 
G1 X421.927 Y-42.458 Z-2.000 F1200.000 
G1 X425.120 Y-41.752 Z-2.000 F1200.000 
G1 X427.836 Y-41.226 Z-2.000 F1200.000 
G1 X430.273 Y-40.831 Z-2.000 F1200.000 
G1 X432.510 Y-40.545 Z-2.000 F1200.000 
G1 X434.597 Y-40.354 Z-2.000 F1200.000 
G1 X435.993 Y-40.271 Z-2.000 F1200.000 
G1 X437.395 Y-40.228 Z-2.000 F1200.000 
G1 X442.663 Y-40.257 Z-2.000 F1200.000 
G1 X441.633 Y-37.635 Z-2.000 F1200.000 
G1 X443.037 Y-38.001 Z-2.000 F1200.000 
G1 X444.531 Y-38.318 Z-2.000 F1200.000 
G1 X446.138 Y-38.588 Z-2.000 F1200.000 
G1 X447.898 Y-38.813 Z-2.000 F1200.000 
G1 X449.879 Y-38.997 Z-2.000 F1200.000 
G1 X452.232 Y-39.150 Z-2.000 F1200.000 
G1 X455.478 Y-39.305 Z-2.000 F1200.000 
G1 X458.182 Y-39.443 Z-2.000 F1200.000 
G1 X460.691 Y-39.627 Z-2.000 F1200.000 
G1 X462.766 Y-39.851 Z-2.000 F1200.000 
G1 X464.591 Y-40.123 Z-2.000 F1200.000 
G1 X466.240 Y-40.446 Z-2.000 F1200.000 
G1 X467.754 Y-40.819 Z-2.000 F1200.000 
G1 X469.117 Y-41.229 Z-2.000 F1200.000 
G1 X469.558 Y-41.449 Z-2.000 F1200.000 
G1 X469.960 Y-41.728 Z-2.000 F1200.000 
G1 X470.330 Y-42.070 Z-2.000 F1200.000 
G1 X470.672 Y-42.482 Z-2.000 F1200.000 
G1 X470.992 Y-42.976 Z-2.000 F1200.000 
G1 X471.294 Y-43.570 Z-2.000 F1200.000 
G1 X471.586 Y-44.292 Z-2.000 F1200.000 
G1 X472.075 Y-45.814 Z-2.000 F1200.000 
G1 X471.109 Y-44.812 Z-2.000 F1200.000 
G1 X470.267 Y-44.040 Z-2.000 F1200.000 
G1 X469.480 Y-43.419 Z-2.000 F1200.000 
G1 X468.770 Y-42.948 Z-2.000 F1200.000 
G1 X469.407 Y-44.158 Z-2.000 F1200.000 
G1 X469.893 Y-45.239 Z-2.000 F1200.000 
G1 X470.260 Y-46.242 Z-2.000 F1200.000 
G1 X470.525 Y-47.184 Z-2.000 F1200.000 
G1 X470.669 Y-47.894 Z-2.000 F1200.000 
G1 X471.241 Y-47.915 Z-2.000 F1200.000 
G1 X471.928 Y-48.004 Z-2.000 F1200.000 
G1 X473.010 Y-48.195 Z-2.000 F1200.000 
G1 X473.773 Y-48.290 Z-2.000 F1200.000 
G1 X474.394 Y-48.300 Z-2.000 F1200.000 
G1 X474.657 Y-48.277 Z-2.000 F1200.000 
G1 X474.921 Y-48.236 Z-2.000 F1200.000 
G1 X475.905 Y-48.081 Z-2.000 F1200.000 
G1 X476.935 Y-47.990 Z-2.000 F1200.000 
G1 X478.021 Y-47.965 Z-2.000 F1200.000 
G1 X479.175 Y-48.010 Z-2.000 F1200.000 
G1 X480.413 Y-48.127 Z-2.000 F1200.000 
G1 X481.761 Y-48.325 Z-2.000 F1200.000 
G1 X483.264 Y-48.614 Z-2.000 F1200.000 
G1 X485.192 Y-49.061 Z-2.000 F1200.000 
G1 X486.399 Y-49.459 Z-2.000 F1200.000 
G1 X487.390 Y-49.862 Z-2.000 F1200.000 
G1 X488.227 Y-50.283 Z-2.000 F1200.000 
G1 X488.940 Y-50.725 Z-2.000 F1200.000 
G1 X489.543 Y-51.188 Z-2.000 F1200.000 
G1 X490.052 Y-51.674 Z-2.000 F1200.000 
G1 X490.478 Y-52.184 Z-2.000 F1200.000 
G1 X490.830 Y-52.721 Z-2.000 F1200.000 
G1 X490.908 Y-52.862 Z-2.000 F1200.000 
G1 X490.982 Y-53.007 Z-2.000 F1200.000 
G1 X491.175 Y-53.472 Z-2.000 F1200.000 
G1 X491.307 Y-53.972 Z-2.000 F1200.000 
G1 X491.380 Y-54.520 Z-2.000 F1200.000 
G1 X491.392 Y-55.138 Z-2.000 F1200.000 
G1 X491.341 Y-55.866 Z-2.000 F1200.000 
G1 X491.214 Y-56.818 Z-2.000 F1200.000 
G1 X491.051 Y-58.017 Z-2.000 F1200.000 
G1 X490.677 Y-57.519 Z-2.000 F1200.000 
G1 X490.254 Y-57.073 Z-2.000 F1200.000 
G1 X489.783 Y-56.681 Z-2.000 F1200.000 
G1 X489.266 Y-56.344 Z-2.000 F1200.000 
G1 X488.706 Y-56.064 Z-2.000 F1200.000 
G1 X488.106 Y-55.844 Z-2.000 F1200.000 
G1 X487.472 Y-55.689 Z-2.000 F1200.000 
G1 X486.809 Y-55.600 Z-2.000 F1200.000 
G1 X486.127 Y-55.583 Z-2.000 F1200.000 
G1 X485.436 Y-55.637 Z-2.000 F1200.000 
G1 X484.746 Y-55.764 Z-2.000 F1200.000 
G1 X484.282 Y-55.893 Z-2.000 F1200.000 
G1 X483.826 Y-56.054 Z-2.000 F1200.000 
G1 X483.410 Y-56.256 Z-2.000 F1200.000 
G1 X482.976 Y-56.391 Z-2.000 F1200.000 
G1 X482.511 Y-56.462 Z-2.000 F1200.000 
G1 X481.996 Y-56.472 Z-2.000 F1200.000 
G1 X481.398 Y-56.415 Z-2.000 F1200.000 
G1 X480.632 Y-56.281 Z-2.000 F1200.000 
G1 X479.551 Y-56.074 Z-2.000 F1200.000 
G1 X478.829 Y-55.991 Z-2.000 F1200.000 
G1 X478.613 Y-55.984 Z-2.000 F1200.000 
G1 X478.397 Y-55.986 Z-2.000 F1200.000 
G1 X477.384 Y-56.012 Z-2.000 F1200.000 
G1 X476.359 Y-56.109 Z-2.000 F1200.000 
G1 X475.321 Y-56.281 Z-2.000 F1200.000 
G1 X474.267 Y-56.527 Z-2.000 F1200.000 
G1 X473.198 Y-56.850 Z-2.000 F1200.000 
G1 X472.114 Y-57.253 Z-2.000 F1200.000 
G1 X471.015 Y-57.737 Z-2.000 F1200.000 
G1 X469.901 Y-58.306 Z-2.000 F1200.000 
G1 X468.776 Y-58.961 Z-2.000 F1200.000 
G1 X467.641 Y-59.703 Z-2.000 F1200.000 
G1 X466.041 Y-60.893 Z-2.000 F1200.000 
G1 X465.760 Y-61.106 Z-2.000 F1200.000 
G1 X465.394 Y-61.302 Z-2.000 F1200.000 
G1 X464.867 Y-61.518 Z-2.000 F1200.000 
G1 X464.473 Y-61.681 Z-2.000 F1200.000 
G1 X464.067 Y-61.899 Z-2.000 F1200.000 
G1 X463.778 Y-62.133 Z-2.000 F1200.000 
G1 X463.567 Y-62.403 Z-2.000 F1200.000 
G1 X463.474 Y-62.583 Z-2.000 F1200.000 
G1 X463.692 Y-62.898 Z-2.000 F1200.000 
G1 X463.909 Y-63.094 Z-2.000 F1200.000 
G1 X464.129 Y-63.201 Z-2.000 F1200.000 
G1 X464.363 Y-63.237 Z-2.000 F1200.000 
G1 X464.624 Y-63.206 Z-2.000 F1200.000 
G1 X464.935 Y-63.100 Z-2.000 F1200.000 
G1 X465.334 Y-62.892 Z-2.000 F1200.000 
G1 X465.982 Y-62.493 Z-2.000 F1200.000 
G1 X466.494 Y-62.209 Z-2.000 F1200.000 
G1 X466.910 Y-62.048 Z-2.000 F1200.000 
G1 X467.259 Y-61.988 Z-2.000 F1200.000 
G1 X467.458 Y-61.993 Z-2.000 F1200.000 
G1 X467.657 Y-62.031 Z-2.000 F1200.000 
G1 X469.766 Y-62.187 Z-2.000 F1200.000 
G1 X472.784 Y-62.462 Z-2.000 F1200.000 
G1 X475.295 Y-62.671 Z-2.000 F1200.000 
G1 X477.392 Y-62.782 Z-2.000 F1200.000 
G1 X479.164 Y-62.803 Z-2.000 F1200.000 
G1 X480.743 Y-62.747 Z-2.000 F1200.000 
G1 X482.180 Y-62.620 Z-2.000 F1200.000 
G1 X483.510 Y-62.427 Z-2.000 F1200.000 
G1 X484.355 Y-62.261 Z-2.000 F1200.000 
G1 X485.197 Y-62.060 Z-2.000 F1200.000 
G1 X484.935 Y-62.616 Z-2.000 F1200.000 
G1 X484.610 Y-63.134 Z-2.000 F1200.000 
G1 X484.227 Y-63.610 Z-2.000 F1200.000 
G1 X483.791 Y-64.035 Z-2.000 F1200.000 
G1 X483.309 Y-64.404 Z-2.000 F1200.000 
G1 X482.787 Y-64.712 Z-2.000 F1200.000 
G1 X482.376 Y-64.898 Z-2.000 F1200.000 
G1 X481.946 Y-65.049 Z-2.000 F1200.000 
G1 X480.887 Y-65.411 Z-2.000 F1200.000 
G1 X479.781 Y-65.713 Z-2.000 F1200.000 
G1 X478.617 Y-65.959 Z-2.000 F1200.000 
G1 X477.380 Y-66.147 Z-2.000 F1200.000 
G1 X476.050 Y-66.280 Z-2.000 F1200.000 
G1 X474.594 Y-66.354 Z-2.000 F1200.000 
G1 X472.953 Y-66.370 Z-2.000 F1200.000 
G1 X471.002 Y-66.324 Z-2.000 F1200.000 
G1 X468.310 Y-66.204 Z-2.000 F1200.000 
G1 X466.068 Y-66.112 Z-2.000 F1200.000 
G1 X463.976 Y-66.082 Z-2.000 F1200.000 
G1 X462.245 Y-66.128 Z-2.000 F1200.000 
G1 X460.723 Y-66.244 Z-2.000 F1200.000 
G1 X458.968 Y-66.489 Z-2.000 F1200.000 
G1 X458.008 Y-66.724 Z-2.000 F1200.000 
G1 X457.038 Y-67.035 Z-2.000 F1200.000 
G1 X456.047 Y-67.427 Z-2.000 F1200.000 
G1 X455.020 Y-67.907 Z-2.000 F1200.000 
G1 X453.938 Y-68.491 Z-2.000 F1200.000 
G1 X452.767 Y-69.201 Z-2.000 F1200.000 
G1 X451.438 Y-70.084 Z-2.000 F1200.000 
G1 X449.760 Y-71.273 Z-2.000 F1200.000 
G1 X448.280 Y-72.336 Z-2.000 F1200.000 
G1 X446.793 Y-73.365 Z-2.000 F1200.000 
G1 X445.112 Y-74.520 Z-2.000 F1200.000 
G1 X443.611 Y-75.462 Z-2.000 F1200.000 
G1 X442.219 Y-76.247 Z-2.000 F1200.000 
G1 X440.912 Y-76.896 Z-2.000 F1200.000 
G1 X439.666 Y-77.431 Z-2.000 F1200.000 
G1 X438.463 Y-77.867 Z-2.000 F1200.000 
G1 X437.631 Y-78.120 Z-2.000 F1200.000 
G1 X436.785 Y-78.336 Z-2.000 F1200.000 
G1 X437.059 Y-77.944 Z-2.000 F1200.000 
G1 X437.482 Y-77.449 Z-2.000 F1200.000 
G1 X438.102 Y-76.749 Z-2.000 F1200.000 
G1 X438.460 Y-76.265 Z-2.000 F1200.000 
G1 X438.681 Y-75.851 Z-2.000 F1200.000 
G1 X438.802 Y-75.468 Z-2.000 F1200.000 
G1 X438.838 Y-75.099 Z-2.000 F1200.000 
G1 X438.816 Y-74.830 Z-2.000 F1200.000 
G1 X438.366 Y-74.741 Z-2.000 F1200.000 
G1 X437.894 Y-74.719 Z-2.000 F1200.000 
G1 X437.384 Y-74.764 Z-2.000 F1200.000 
G1 X436.815 Y-74.883 Z-2.000 F1200.000 
G1 X436.139 Y-75.090 Z-2.000 F1200.000 
G1 X435.504 Y-75.320 Z-2.000 F1200.000 
G1 X434.881 Y-75.548 Z-2.000 F1200.000 
G1 X433.942 Y-75.937 Z-2.000 F1200.000 
G1 X432.935 Y-76.429 Z-2.000 F1200.000 
G1 X431.797 Y-77.059 Z-2.000 F1200.000 
G1 X430.350 Y-77.928 Z-2.000 F1200.000 
G1 X428.081 Y-79.283 Z-2.000 F1200.000 
G1 X429.749 Y-77.517 Z-2.000 F1200.000 
G1 X431.339 Y-75.943 Z-2.000 F1200.000 
G1 X432.875 Y-74.529 Z-2.000 F1200.000 
G1 X434.371 Y-73.253 Z-2.000 F1200.000 
G1 X435.838 Y-72.100 Z-2.000 F1200.000 
G1 X437.282 Y-71.060 Z-2.000 F1200.000 
G1 X438.709 Y-70.123 Z-2.000 F1200.000 
G1 X440.122 Y-69.283 Z-2.000 F1200.000 
G1 X441.527 Y-68.535 Z-2.000 F1200.000 
G1 X442.843 Y-67.910 Z-2.000 F1200.000 
G1 X442.184 Y-67.829 Z-2.000 F1200.000 
G1 X441.501 Y-67.817 Z-2.000 F1200.000 
G1 X440.787 Y-67.874 Z-2.000 F1200.000 
G1 X440.034 Y-68.005 Z-2.000 F1200.000 
G1 X439.231 Y-68.216 Z-2.000 F1200.000 
G1 X438.359 Y-68.515 Z-2.000 F1200.000 
G1 X437.388 Y-68.920 Z-2.000 F1200.000 
G1 X436.448 Y-69.365 Z-2.000 F1200.000 
G1 X435.014 Y-70.126 Z-2.000 F1200.000 
G1 X433.377 Y-71.069 Z-2.000 F1200.000 
G1 X431.260 Y-72.356 Z-2.000 F1200.000 
G1 X429.426 Y-73.479 Z-2.000 F1200.000 
G1 X427.472 Y-74.623 Z-2.000 F1200.000 
G1 X425.851 Y-75.491 Z-2.000 F1200.000 
G1 X424.215 Y-76.265 Z-2.000 F1200.000 
G1 X423.060 Y-76.770 Z-2.000 F1200.000 
G1 X421.857 Y-77.217 Z-2.000 F1200.000 
G1 X420.605 Y-77.606 Z-2.000 F1200.000 
G1 X419.300 Y-77.936 Z-2.000 F1200.000 
G1 X417.940 Y-78.207 Z-2.000 F1200.000 
G1 X416.524 Y-78.415 Z-2.000 F1200.000 
G1 X415.049 Y-78.560 Z-2.000 F1200.000 
G1 X413.513 Y-78.639 Z-2.000 F1200.000 
G1 X411.914 Y-78.650 Z-2.000 F1200.000 
G1 X410.251 Y-78.591 Z-2.000 F1200.000 
G1 X408.525 Y-78.458 Z-2.000 F1200.000 
G1 X407.280 Y-78.221 Z-2.000 F1200.000 
G1 X406.278 Y-77.962 Z-2.000 F1200.000 
G1 X405.455 Y-77.675 Z-2.000 F1200.000 
G1 X404.763 Y-77.355 Z-2.000 F1200.000 
G1 X404.176 Y-77.001 Z-2.000 F1200.000 
G1 X403.682 Y-76.614 Z-2.000 F1200.000 
G1 X403.267 Y-76.194 Z-2.000 F1200.000 
G1 X402.920 Y-75.736 Z-2.000 F1200.000 
G1 X402.793 Y-75.532 Z-2.000 F1200.000 
G1 X402.676 Y-75.318 Z-2.000 F1200.000 
G1 X404.657 Y-75.623 Z-2.000 F1200.000 
G1 X406.555 Y-75.861 Z-2.000 F1200.000 
G1 X408.130 Y-75.986 Z-2.000 F1200.000 
G1 X409.517 Y-76.022 Z-2.000 F1200.000 
G1 X410.773 Y-75.978 Z-2.000 F1200.000 
G1 X411.923 Y-75.862 Z-2.000 F1200.000 
G1 X412.994 Y-75.679 Z-2.000 F1200.000 
G1 X414.002 Y-75.430 Z-2.000 F1200.000 
G1 X414.955 Y-75.137 Z-2.000 F1200.000 
G1 X415.903 Y-74.770 Z-2.000 F1200.000 
G1 X416.844 Y-74.329 Z-2.000 F1200.000 
G1 X417.773 Y-73.813 Z-2.000 F1200.000 
G1 X418.688 Y-73.224 Z-2.000 F1200.000 
G1 X419.584 Y-72.561 Z-2.000 F1200.000 
G1 X420.455 Y-71.828 Z-2.000 F1200.000 
G1 X421.294 Y-71.026 Z-2.000 F1200.000 
G1 X421.559 Y-70.753 Z-2.000 F1200.000 
G1 X421.818 Y-70.474 Z-2.000 F1200.000 
G1 X420.474 Y-71.131 Z-2.000 F1200.000 
G1 X419.129 Y-71.706 Z-2.000 F1200.000 
G1 X417.791 Y-72.198 Z-2.000 F1200.000 
G1 X416.471 Y-72.605 Z-2.000 F1200.000 
G1 X415.174 Y-72.927 Z-2.000 F1200.000 
G1 X413.905 Y-73.166 Z-2.000 F1200.000 
G1 X412.667 Y-73.325 Z-2.000 F1200.000 
G1 X411.462 Y-73.405 Z-2.000 F1200.000 
G1 X410.292 Y-73.409 Z-2.000 F1200.000 
G1 X409.155 Y-73.339 Z-2.000 F1200.000 
G1 X408.053 Y-73.197 Z-2.000 F1200.000 
G1 X406.984 Y-72.985 Z-2.000 F1200.000 
G1 X406.045 Y-72.735 Z-2.000 F1200.000 
G1 X407.681 Y-72.288 Z-2.000 F1200.000 
G1 X409.240 Y-71.787 Z-2.000 F1200.000 
G1 X410.724 Y-71.232 Z-2.000 F1200.000 
G1 X412.133 Y-70.625 Z-2.000 F1200.000 
G1 X413.471 Y-69.969 Z-2.000 F1200.000 
G1 X414.241 Y-69.553 Z-2.000 F1200.000 
G1 X414.998 Y-69.112 Z-2.000 F1200.000 
G1 X413.554 Y-69.115 Z-2.000 F1200.000 
G1 X412.094 Y-69.047 Z-2.000 F1200.000 
G1 X410.618 Y-68.905 Z-2.000 F1200.000 
G1 X409.127 Y-68.690 Z-2.000 F1200.000 
G1 X407.623 Y-68.400 Z-2.000 F1200.000 
G1 X406.107 Y-68.035 Z-2.000 F1200.000 
G1 X404.582 Y-67.593 Z-2.000 F1200.000 
G1 X403.052 Y-67.074 Z-2.000 F1200.000 
G1 X401.518 Y-66.478 Z-2.000 F1200.000 
G1 X399.986 Y-65.806 Z-2.000 F1200.000 
G1 X398.459 Y-65.057 Z-2.000 F1200.000 
G1 X396.944 Y-64.233 Z-2.000 F1200.000 
G1 X395.927 Y-63.634 Z-2.000 F1200.000 
G1 X394.929 Y-63.008 Z-2.000 F1200.000 
G1 X393.495 Y-62.059 Z-2.000 F1200.000 
G1 X392.030 Y-61.005 Z-2.000 F1200.000 
G1 X390.522 Y-59.833 Z-2.000 F1200.000 
G1 X388.949 Y-58.522 Z-2.000 F1200.000 
G1 X387.279 Y-57.041 Z-2.000 F1200.000 
G1 X386.116 Y-55.960 Z-2.000 F1200.000 
G1 X384.970 Y-54.862 Z-2.000 F1200.000 
G1 X383.151 Y-52.885 Z-2.000 F1200.000 
G1 X380.560 Y-50.040 Z-2.000 F1200.000 
G1 X378.827 Y-48.221 Z-2.000 F1200.000 
G1 X377.347 Y-46.771 Z-2.000 F1200.000 
G1 X375.990 Y-45.546 Z-2.000 F1200.000 
G1 X375.545 Y-45.169 Z-2.000 F1200.000 
G1 X375.094 Y-44.798 Z-2.000 F1200.000 
G1 X373.465 Y-43.501 Z-2.000 F1200.000 
G1 X371.763 Y-42.238 Z-2.000 F1200.000 
G1 X369.984 Y-41.008 Z-2.000 F1200.000 
G1 X368.126 Y-39.810 Z-2.000 F1200.000 
G1 X366.185 Y-38.643 Z-2.000 F1200.000 
G1 X364.155 Y-37.508 Z-2.000 F1200.000 
G1 X362.034 Y-36.403 Z-2.000 F1200.000 
G1 X359.814 Y-35.328 Z-2.000 F1200.000 
G1 X357.490 Y-34.282 Z-2.000 F1200.000 
G1 X355.054 Y-33.264 Z-2.000 F1200.000 
G1 X352.497 Y-32.272 Z-2.000 F1200.000 
G1 X349.808 Y-31.306 Z-2.000 F1200.000 
G1 X348.015 Y-30.700 Z-2.000 F1200.000 
G1 X344.964 Y-29.759 Z-2.000 F1200.000 
G1 X341.840 Y-28.871 Z-2.000 F1200.000 
G1 X338.638 Y-28.035 Z-2.000 F1200.000 
G1 X335.354 Y-27.252 Z-2.000 F1200.000 
G1 X331.981 Y-26.522 Z-2.000 F1200.000 
G1 X328.514 Y-25.845 Z-2.000 F1200.000 
G1 X324.944 Y-25.221 Z-2.000 F1200.000 
G1 X321.262 Y-24.651 Z-2.000 F1200.000 
G1 X317.458 Y-24.134 Z-2.000 F1200.000 
G1 X313.519 Y-23.670 Z-2.000 F1200.000 
G1 X309.429 Y-23.261 Z-2.000 F1200.000 
G1 X305.168 Y-22.907 Z-2.000 F1200.000 
G1 X300.711 Y-22.607 Z-2.000 F1200.000 
G1 X296.022 Y-22.363 Z-2.000 F1200.000 
G1 X291.055 Y-22.175 Z-2.000 F1200.000 
G1 X287.369 Y-22.077 Z-2.000 F1200.000 
G1 X282.896 Y-21.968 Z-2.000 F1200.000 
G1 X279.198 Y-21.949 Z-2.000 F1200.000 
G1 X275.945 Y-22.008 Z-2.000 F1200.000 
G1 X273.554 Y-22.106 Z-2.000 F1200.000 
G1 X269.360 Y-22.163 Z-2.000 F1200.000 
G1 X264.946 Y-22.294 Z-2.000 F1200.000 
G1 X260.254 Y-22.503 Z-2.000 F1200.000 
G1 X255.198 Y-22.798 Z-2.000 F1200.000 
G1 X249.631 Y-23.192 Z-2.000 F1200.000 
G1 X243.269 Y-23.710 Z-2.000 F1200.000 
G1 X235.365 Y-24.416 Z-2.000 F1200.000 
G1 X221.477 Y-25.684 Z-2.000 F1200.000 
G1 X219.372 Y-25.866 Z-2.000 F1200.000 
G1 X217.267 Y-26.042 Z-2.000 F1200.000 
G1 X209.240 Y-26.638 Z-2.000 F1200.000 
G1 X202.369 Y-27.075 Z-2.000 F1200.000 
G1 X196.200 Y-27.392 Z-2.000 F1200.000 
G1 X190.560 Y-27.605 Z-2.000 F1200.000 
G1 X185.317 Y-27.728 Z-2.000 F1200.000 
G1 X180.377 Y-27.769 Z-2.000 F1200.000 
G1 X175.680 Y-27.734 Z-2.000 F1200.000 
G1 X171.184 Y-27.626 Z-2.000 F1200.000 
G1 X169.812 Y-27.577 Z-2.000 F1200.000 
G1 X168.440 Y-27.522 Z-2.000 F1200.000 
G1 X163.650 Y-27.227 Z-2.000 F1200.000 
G1 X159.520 Y-26.899 Z-2.000 F1200.000 
G1 X155.807 Y-26.528 Z-2.000 F1200.000 
G1 X152.422 Y-26.114 Z-2.000 F1200.000 
G1 X149.286 Y-25.655 Z-2.000 F1200.000 
G1 X146.347 Y-25.149 Z-2.000 F1200.000 
G1 X143.569 Y-24.595 Z-2.000 F1200.000 
G1 X140.930 Y-23.993 Z-2.000 F1200.000 
G1 X138.411 Y-23.342 Z-2.000 F1200.000 
G1 X135.998 Y-22.642 Z-2.000 F1200.000 
G1 X133.680 Y-21.893 Z-2.000 F1200.000 
G1 X131.447 Y-21.094 Z-2.000 F1200.000 
G1 X129.117 Y-20.172 Z-2.000 F1200.000 
G1 X127.551 Y-19.495 Z-2.000 F1200.000 
G1 X126.390 Y-18.958 Z-2.000 F1200.000 
G1 X125.483 Y-18.465 Z-2.000 F1200.000 
G1 X124.741 Y-17.979 Z-2.000 F1200.000 
G1 X124.343 Y-17.672 Z-2.000 F1200.000 
G1 X127.160 Y-18.344 Z-2.000 F1200.000 
G1 X130.061 Y-18.963 Z-2.000 F1200.000 
G1 X133.055 Y-19.527 Z-2.000 F1200.000 
G1 X136.152 Y-20.039 Z-2.000 F1200.000 
G1 X139.365 Y-20.497 Z-2.000 F1200.000 
G1 X142.709 Y-20.902 Z-2.000 F1200.000 
G1 X146.205 Y-21.254 Z-2.000 F1200.000 
G1 X149.879 Y-21.552 Z-2.000 F1200.000 
G1 X153.767 Y-21.796 Z-2.000 F1200.000 
G1 X157.920 Y-21.987 Z-2.000 F1200.000 
G1 X162.421 Y-22.125 Z-2.000 F1200.000 
G1 X167.408 Y-22.208 Z-2.000 F1200.000 
G1 X173.761 Y-22.238 Z-2.000 F1200.000 
G1 X179.344 Y-22.170 Z-2.000 F1200.000 
G1 X185.154 Y-22.028 Z-2.000 F1200.000 
G1 X191.231 Y-21.809 Z-2.000 F1200.000 
G1 X197.633 Y-21.507 Z-2.000 F1200.000 
G1 X204.442 Y-21.115 Z-2.000 F1200.000 
G1 X211.781 Y-20.623 Z-2.000 F1200.000 
G1 X219.860 Y-20.012 Z-2.000 F1200.000 
G1 X226.484 Y-19.469 Z-2.000 F1200.000 
G1 X238.062 Y-18.413 Z-2.000 F1200.000 
G1 X246.865 Y-17.642 Z-2.000 F1200.000 
G1 X254.017 Y-17.081 Z-2.000 F1200.000 
G1 X260.155 Y-16.673 Z-2.000 F1200.000 
G1 X268.003 Y-16.285 Z-2.000 F1200.000 
G1 X269.646 Y-16.214 Z-2.000 F1200.000 
G1 X272.211 Y-16.154 Z-2.000 F1200.000 
G1 X274.077 Y-16.074 Z-2.000 F1200.000 
G1 X275.160 Y-15.988 Z-2.000 F1200.000 
G1 X275.160 Y-15.988 Z-2.000 F1200.000 
G0 Z6.000 
G0 Z6.000 
G0 X537.886 Y-19.450 
G0 Z4.000 
G1 X537.886 Y-19.450 Z-2.000 F300.000 
G1 X541.099 Y-18.857 Z-2.000 F1200.000 
G1 X544.422 Y-18.318 Z-2.000 F1200.000 
G1 X547.870 Y-17.830 Z-2.000 F1200.000 
G1 X551.459 Y-17.394 Z-2.000 F1200.000 
G1 X555.214 Y-17.010 Z-2.000 F1200.000 
G1 X559.164 Y-16.678 Z-2.000 F1200.000 
G1 X563.352 Y-16.395 Z-2.000 F1200.000 
G1 X567.840 Y-16.163 Z-2.000 F1200.000 
G1 X572.727 Y-15.980 Z-2.000 F1200.000 
G1 X579.962 Y-15.812 Z-2.000 F1200.000 
G1 X585.769 Y-15.833 Z-2.000 F1200.000 
G1 X591.874 Y-15.926 Z-2.000 F1200.000 
G1 X598.351 Y-16.095 Z-2.000 F1200.000 
G1 X605.308 Y-16.347 Z-2.000 F1200.000 
G1 X612.923 Y-16.692 Z-2.000 F1200.000 
G1 X621.530 Y-17.149 Z-2.000 F1200.000 
G1 X634.818 Y-17.946 Z-2.000 F1200.000 
G1 X646.433 Y-18.674 Z-2.000 F1200.000 
G1 X659.715 Y-19.411 Z-2.000 F1200.000 
G1 X668.803 Y-19.832 Z-2.000 F1200.000 
G1 X676.240 Y-20.107 Z-2.000 F1200.000 
G1 X682.751 Y-20.272 Z-2.000 F1200.000 
G1 X688.658 Y-20.347 Z-2.000 F1200.000 
G1 X694.083 Y-20.339 Z-2.000 F1200.000 
G1 X699.153 Y-20.258 Z-2.000 F1200.000 
G1 X703.947 Y-20.106 Z-2.000 F1200.000 
G1 X708.515 Y-19.886 Z-2.000 F1200.000 
G1 X712.894 Y-19.602 Z-2.000 F1200.000 
G1 X717.111 Y-19.253 Z-2.000 F1200.000 
G1 X719.614 Y-19.010 Z-2.000 F1200.000 
G1 X721.856 Y-18.766 Z-2.000 F1200.000 
G1 X724.377 Y-18.422 Z-2.000 F1200.000 
G1 X727.403 Y-17.945 Z-2.000 F1200.000 
G1 X732.082 Y-17.155 Z-2.000 F1200.000 
G1 X735.236 Y-16.652 Z-2.000 F1200.000 
G1 X733.483 Y-17.473 Z-2.000 F1200.000 
G1 X731.658 Y-18.249 Z-2.000 F1200.000 
G1 X729.755 Y-18.980 Z-2.000 F1200.000 
G1 X727.765 Y-19.668 Z-2.000 F1200.000 
G1 X725.680 Y-20.314 Z-2.000 F1200.000 
G1 X723.485 Y-20.919 Z-2.000 F1200.000 
G1 X721.166 Y-21.484 Z-2.000 F1200.000 
G1 X718.699 Y-22.013 Z-2.000 F1200.000 
G1 X716.055 Y-22.508 Z-2.000 F1200.000 
G1 X713.185 Y-22.975 Z-2.000 F1200.000 
G1 X710.013 Y-23.420 Z-2.000 F1200.000 
G1 X707.311 Y-23.755 Z-2.000 F1200.000 
G1 X704.613 Y-24.059 Z-2.000 F1200.000 
G1 X700.602 Y-24.424 Z-2.000 F1200.000 
G1 X696.427 Y-24.733 Z-2.000 F1200.000 
G1 X692.059 Y-24.984 Z-2.000 F1200.000 
G1 X687.460 Y-25.178 Z-2.000 F1200.000 
G1 X682.575 Y-25.314 Z-2.000 F1200.000 
G1 X677.321 Y-25.390 Z-2.000 F1200.000 
G1 X673.317 Y-25.406 Z-2.000 F1200.000 
G1 X669.313 Y-25.392 Z-2.000 F1200.000 
G1 X663.699 Y-25.382 Z-2.000 F1200.000 
G1 X657.495 Y-25.302 Z-2.000 F1200.000 
G1 X650.358 Y-25.142 Z-2.000 F1200.000 
G1 X641.346 Y-24.879 Z-2.000 F1200.000 
G1 X628.472 Y-24.486 Z-2.000 F1200.000 
G1 X620.042 Y-24.284 Z-2.000 F1200.000 
G1 X613.083 Y-24.189 Z-2.000 F1200.000 
G1 X606.952 Y-24.180 Z-2.000 F1200.000 
G1 X601.380 Y-24.248 Z-2.000 F1200.000 
G1 X596.244 Y-24.386 Z-2.000 F1200.000 
G1 X592.830 Y-24.523 Z-2.000 F1200.000 
G1 X587.567 Y-24.819 Z-2.000 F1200.000 
G1 X582.670 Y-25.169 Z-2.000 F1200.000 
G1 X578.058 Y-25.574 Z-2.000 F1200.000 
G1 X573.677 Y-26.033 Z-2.000 F1200.000 
G1 X569.491 Y-26.546 Z-2.000 F1200.000 
G1 X565.473 Y-27.114 Z-2.000 F1200.000 
G1 X561.601 Y-27.735 Z-2.000 F1200.000 
G1 X556.456 Y-28.684 Z-2.000 F1200.000 
G1 X553.268 Y-29.321 Z-2.000 F1200.000 
G1 X549.957 Y-30.056 Z-2.000 F1200.000 
G1 X546.495 Y-30.896 Z-2.000 F1200.000 
G1 X542.847 Y-31.855 Z-2.000 F1200.000 
G1 X538.956 Y-32.949 Z-2.000 F1200.000 
G1 X534.735 Y-34.209 Z-2.000 F1200.000 
G1 X530.025 Y-35.685 Z-2.000 F1200.000 
G1 X525.023 Y-37.312 Z-2.000 F1200.000 
G1 X515.216 Y-40.949 Z-2.000 F1200.000 
G1 X508.876 Y-43.248 Z-2.000 F1200.000 
G1 X503.682 Y-45.057 Z-2.000 F1200.000 
G1 X499.121 Y-46.566 Z-2.000 F1200.000 
G1 X494.961 Y-47.863 Z-2.000 F1200.000 
G1 X493.683 Y-48.244 Z-2.000 F1200.000 
G1 X492.403 Y-48.617 Z-2.000 F1200.000 
G1 X491.578 Y-47.988 Z-2.000 F1200.000 
G1 X490.702 Y-47.410 Z-2.000 F1200.000 
G1 X489.769 Y-46.881 Z-2.000 F1200.000 
G1 X488.774 Y-46.397 Z-2.000 F1200.000 
G1 X487.708 Y-45.958 Z-2.000 F1200.000 
G1 X486.562 Y-45.563 Z-2.000 F1200.000 
G1 X485.322 Y-45.211 Z-2.000 F1200.000 
G1 X483.970 Y-44.899 Z-2.000 F1200.000 
G1 X482.478 Y-44.626 Z-2.000 F1200.000 
G1 X480.796 Y-44.388 Z-2.000 F1200.000 
G1 X478.827 Y-44.177 Z-2.000 F1200.000 
G1 X477.143 Y-44.031 Z-2.000 F1200.000 
G1 X475.478 Y-43.900 Z-2.000 F1200.000 
G1 X474.961 Y-42.608 Z-2.000 F1200.000 
G1 X474.384 Y-41.360 Z-2.000 F1200.000 
G1 X474.103 Y-40.810 Z-2.000 F1200.000 
G1 X473.808 Y-40.267 Z-2.000 F1200.000 
G1 X476.411 Y-39.605 Z-2.000 F1200.000 
G1 X479.156 Y-38.835 Z-2.000 F1200.000 
G1 X482.091 Y-37.939 Z-2.000 F1200.000 
G1 X485.296 Y-36.888 Z-2.000 F1200.000 
G1 X488.920 Y-35.629 Z-2.000 F1200.000 
G1 X493.340 Y-34.027 Z-2.000 F1200.000 
G1 X500.843 Y-31.262 Z-2.000 F1200.000 
G1 X506.451 Y-29.183 Z-2.000 F1200.000 
G1 X510.345 Y-27.732 Z-2.000 F1200.000 
G1 X515.619 Y-25.809 Z-2.000 F1200.000 
G1 X519.903 Y-24.319 Z-2.000 F1200.000 
G1 X523.624 Y-23.103 Z-2.000 F1200.000 
G1 X527.002 Y-22.078 Z-2.000 F1200.000 
G1 X530.114 Y-21.214 Z-2.000 F1200.000 
G1 X533.036 Y-20.480 Z-2.000 F1200.000 
G1 X535.814 Y-19.860 Z-2.000 F1200.000 
G1 X537.886 Y-19.450 Z-2.000 F1200.000 
G0 Z6.000 
G0 Z6.000 
G0 X262.917 Y-28.034 
G0 Z4.000 
G1 X262.917 Y-28.034 Z-2.000 F300.000 
G1 X265.657 Y-27.429 Z-2.000 F1200.000 
G1 X268.052 Y-26.977 Z-2.000 F1200.000 
G1 X270.227 Y-26.643 Z-2.000 F1200.000 
G1 X272.225 Y-26.412 Z-2.000 F1200.000 
G1 X274.092 Y-26.273 Z-2.000 F1200.000 
G1 X275.855 Y-26.216 Z-2.000 F1200.000 
G1 X277.811 Y-26.247 Z-2.000 F1200.000 
G1 X276.959 Y-26.848 Z-2.000 F1200.000 
G1 X276.027 Y-27.419 Z-2.000 F1200.000 
G1 X275.000 Y-27.966 Z-2.000 F1200.000 
G1 X273.856 Y-28.496 Z-2.000 F1200.000 
G1 X272.558 Y-29.022 Z-2.000 F1200.000 
G1 X271.030 Y-29.569 Z-2.000 F1200.000 
G1 X268.618 Y-30.349 Z-2.000 F1200.000 
G1 X266.727 Y-30.839 Z-2.000 F1200.000 
G1 X265.081 Y-31.190 Z-2.000 F1200.000 
G1 X263.596 Y-31.429 Z-2.000 F1200.000 
G1 X262.238 Y-31.571 Z-2.000 F1200.000 
G1 X260.984 Y-31.627 Z-2.000 F1200.000 
G1 X259.816 Y-31.603 Z-2.000 F1200.000 
G1 X258.719 Y-31.507 Z-2.000 F1200.000 
G1 X257.683 Y-31.341 Z-2.000 F1200.000 
G1 X256.701 Y-31.109 Z-2.000 F1200.000 
G1 X255.766 Y-30.811 Z-2.000 F1200.000 
G1 X255.076 Y-30.539 Z-2.000 F1200.000 
G1 X256.107 Y-30.080 Z-2.000 F1200.000 
G1 X257.259 Y-29.643 Z-2.000 F1200.000 
G1 X258.587 Y-29.211 Z-2.000 F1200.000 
G1 X260.216 Y-28.748 Z-2.000 F1200.000 
G1 X262.917 Y-28.034 Z-2.000 F1200.000 
G0 Z6.000 
G0 Z6.000 
G0 X287.150 Y-27.556 
G0 Z4.000 
G1 X287.150 Y-27.556 Z-2.000 F300.000 
G1 X288.185 Y-27.241 Z-2.000 F1200.000 
G1 X289.269 Y-26.986 Z-2.000 F1200.000 
G1 X290.411 Y-26.789 Z-2.000 F1200.000 
G1 X291.628 Y-26.651 Z-2.000 F1200.000 
G1 X292.941 Y-26.573 Z-2.000 F1200.000 
G1 X294.384 Y-26.556 Z-2.000 F1200.000 
G1 X296.019 Y-26.605 Z-2.000 F1200.000 
G1 X297.990 Y-26.729 Z-2.000 F1200.000 
G1 X301.009 Y-26.971 Z-2.000 F1200.000 
G1 X303.913 Y-27.150 Z-2.000 F1200.000 
G1 X302.447 Y-27.713 Z-2.000 F1200.000 
G1 X300.975 Y-28.199 Z-2.000 F1200.000 
G1 X299.506 Y-28.607 Z-2.000 F1200.000 
G1 X298.048 Y-28.936 Z-2.000 F1200.000 
G1 X296.604 Y-29.186 Z-2.000 F1200.000 
G1 X295.181 Y-29.358 Z-2.000 F1200.000 
G1 X293.782 Y-29.454 Z-2.000 F1200.000 
G1 X292.925 Y-29.475 Z-2.000 F1200.000 
G1 X291.684 Y-29.350 Z-2.000 F1200.000 
G1 X290.653 Y-29.175 Z-2.000 F1200.000 
G1 X289.764 Y-28.947 Z-2.000 F1200.000 
G1 X288.984 Y-28.670 Z-2.000 F1200.000 
G1 X288.300 Y-28.346 Z-2.000 F1200.000 
G1 X287.694 Y-27.977 Z-2.000 F1200.000 
G1 X287.150 Y-27.556 Z-2.000 F1200.000 
G0 Z6.000 
G0 Z6.000 
G0 X220.108 Y-30.056 
G0 Z4.000 
G1 X220.108 Y-30.056 Z-2.000 F300.000 
G1 X226.445 Y-29.531 Z-2.000 F1200.000 
G1 X235.429 Y-28.733 Z-2.000 F1200.000 
G1 X242.935 Y-28.086 Z-2.000 F1200.000 
G1 X246.993 Y-27.768 Z-2.000 F1200.000 
G1 X251.054 Y-27.482 Z-2.000 F1200.000 
G1 X250.027 Y-27.834 Z-2.000 F1200.000 
G1 X248.843 Y-28.167 Z-2.000 F1200.000 
G1 X247.384 Y-28.512 Z-2.000 F1200.000 
G1 X244.673 Y-29.104 Z-2.000 F1200.000 
G1 X240.237 Y-30.014 Z-2.000 F1200.000 
G1 X235.705 Y-30.871 Z-2.000 F1200.000 
G1 X231.072 Y-31.674 Z-2.000 F1200.000 
G1 X226.331 Y-32.422 Z-2.000 F1200.000 
G1 X221.476 Y-33.115 Z-2.000 F1200.000 
G1 X216.498 Y-33.754 Z-2.000 F1200.000 
G1 X211.388 Y-34.337 Z-2.000 F1200.000 
G1 X206.059 Y-34.871 Z-2.000 F1200.000 
G1 X200.544 Y-35.300 Z-2.000 F1200.000 
G1 X195.628 Y-35.607 Z-2.000 F1200.000 
G1 X191.145 Y-35.811 Z-2.000 F1200.000 
G1 X186.993 Y-35.925 Z-2.000 F1200.000 
G1 X183.094 Y-35.956 Z-2.000 F1200.000 
G1 X179.395 Y-35.912 Z-2.000 F1200.000 
G1 X175.862 Y-35.795 Z-2.000 F1200.000 
G1 X172.470 Y-35.609 Z-2.000 F1200.000 
G1 X170.354 Y-35.453 Z-2.000 F1200.000 
G1 X168.240 Y-35.266 Z-2.000 F1200.000 
G1 X164.623 Y-34.852 Z-2.000 F1200.000 
G1 X161.614 Y-34.435 Z-2.000 F1200.000 
G1 X158.966 Y-33.992 Z-2.000 F1200.000 
G1 X156.574 Y-33.516 Z-2.000 F1200.000 
G1 X154.388 Y-33.003 Z-2.000 F1200.000 
G1 X152.360 Y-32.451 Z-2.000 F1200.000 
G1 X150.463 Y-31.856 Z-2.000 F1200.000 
G1 X148.675 Y-31.218 Z-2.000 F1200.000 
G1 X147.773 Y-30.865 Z-2.000 F1200.000 
G1 X146.877 Y-30.491 Z-2.000 F1200.000 
G1 X151.254 Y-30.975 Z-2.000 F1200.000 
G1 X155.209 Y-31.337 Z-2.000 F1200.000 
G1 X158.833 Y-31.592 Z-2.000 F1200.000 
G1 X162.214 Y-31.755 Z-2.000 F1200.000 
G1 X165.406 Y-31.833 Z-2.000 F1200.000 
G1 X166.183 Y-31.841 Z-2.000 F1200.000 
G1 X166.961 Y-31.843 Z-2.000 F1200.000 
G1 X172.703 Y-31.941 Z-2.000 F1200.000 
G1 X178.473 Y-31.967 Z-2.000 F1200.000 
G1 X184.269 Y-31.921 Z-2.000 F1200.000 
G1 X190.091 Y-31.802 Z-2.000 F1200.000 
G1 X195.939 Y-31.610 Z-2.000 F1200.000 
G1 X201.812 Y-31.344 Z-2.000 F1200.000 
G1 X207.709 Y-31.005 Z-2.000 F1200.000 
G1 X213.628 Y-30.591 Z-2.000 F1200.000 
G1 X216.869 Y-30.334 Z-2.000 F1200.000 
G1 X220.108 Y-30.056 Z-2.000 F1200.000 
G0 Z6.000 
G0 Z6.000 
G0 X302.127 Y-31.916 
G0 Z4.000 
G1 X302.127 Y-31.916 Z-2.000 F300.000 
G1 X305.216 Y-30.890 Z-2.000 F1200.000 
G1 X307.845 Y-30.080 Z-2.000 F1200.000 
G1 X310.084 Y-29.467 Z-2.000 F1200.000 
G1 X312.099 Y-28.994 Z-2.000 F1200.000 
G1 X314.341 Y-28.571 Z-2.000 F1200.000 
G1 X315.612 Y-28.527 Z-2.000 F1200.000 
G1 X316.963 Y-28.550 Z-2.000 F1200.000 
G1 X318.422 Y-28.645 Z-2.000 F1200.000 
G1 X320.039 Y-28.818 Z-2.000 F1200.000 
G1 X321.912 Y-29.086 Z-2.000 F1200.000 
G1 X324.336 Y-29.493 Z-2.000 F1200.000 
G1 X328.064 Y-30.115 Z-2.000 F1200.000 
G1 X326.034 Y-30.828 Z-2.000 F1200.000 
G1 X322.892 Y-31.988 Z-2.000 F1200.000 
G1 X320.533 Y-32.823 Z-2.000 F1200.000 
G1 X318.609 Y-33.434 Z-2.000 F1200.000 
G1 X316.944 Y-33.886 Z-2.000 F1200.000 
G1 X315.434 Y-34.218 Z-2.000 F1200.000 
G1 X314.039 Y-34.447 Z-2.000 F1200.000 
G1 X312.727 Y-34.585 Z-2.000 F1200.000 
G1 X311.475 Y-34.642 Z-2.000 F1200.000 
G1 X310.470 Y-34.631 Z-2.000 F1200.000 
G1 X309.494 Y-34.586 Z-2.000 F1200.000 
G1 X308.508 Y-34.468 Z-2.000 F1200.000 
G1 X307.515 Y-34.277 Z-2.000 F1200.000 
G1 X306.519 Y-34.012 Z-2.000 F1200.000 
G1 X305.522 Y-33.672 Z-2.000 F1200.000 
G1 X304.529 Y-33.258 Z-2.000 F1200.000 
G1 X303.548 Y-32.771 Z-2.000 F1200.000 
G1 X302.584 Y-32.212 Z-2.000 F1200.000 
G1 X302.354 Y-32.066 Z-2.000 F1200.000 
G1 X302.127 Y-31.916 Z-2.000 F1200.000 
G0 Z6.000 
G0 Z6.000 
G0 X596.384 Y-28.728 
G0 Z4.000 
G1 X596.384 Y-28.728 Z-2.000 F300.000 
G1 X600.019 Y-28.537 Z-2.000 F1200.000 
G1 X602.990 Y-28.432 Z-2.000 F1200.000 
G1 X605.416 Y-28.416 Z-2.000 F1200.000 
G1 X607.531 Y-28.476 Z-2.000 F1200.000 
G1 X609.441 Y-28.607 Z-2.000 F1200.000 
G1 X611.186 Y-28.802 Z-2.000 F1200.000 
G1 X612.808 Y-29.059 Z-2.000 F1200.000 
G1 X614.333 Y-29.376 Z-2.000 F1200.000 
G1 X614.840 Y-29.499 Z-2.000 F1200.000 
G1 X615.345 Y-29.631 Z-2.000 F1200.000 
G1 X617.793 Y-30.271 Z-2.000 F1200.000 
G1 X619.158 Y-30.666 Z-2.000 F1200.000 
G1 X618.555 Y-30.970 Z-2.000 F1200.000 
G1 X617.907 Y-31.217 Z-2.000 F1200.000 
G1 X617.203 Y-31.411 Z-2.000 F1200.000 
G1 X616.427 Y-31.552 Z-2.000 F1200.000 
G1 X615.555 Y-31.641 Z-2.000 F1200.000 
G1 X614.540 Y-31.677 Z-2.000 F1200.000 
G1 X613.270 Y-31.658 Z-2.000 F1200.000 
G1 X611.156 Y-31.599 Z-2.000 F1200.000 
G1 X608.089 Y-31.306 Z-2.000 F1200.000 
G1 X605.612 Y-31.002 Z-2.000 F1200.000 
G1 X603.492 Y-30.667 Z-2.000 F1200.000 
G1 X601.601 Y-30.293 Z-2.000 F1200.000 
G1 X599.891 Y-29.876 Z-2.000 F1200.000 
G1 X598.322 Y-29.417 Z-2.000 F1200.000 
G1 X597.348 Y-29.089 Z-2.000 F1200.000 
G1 X596.384 Y-28.728 Z-2.000 F1200.000 
G0 Z6.000 
G0 Z6.000 
G0 X621.769 Y-28.689 
G0 Z4.000 
G1 X621.769 Y-28.689 Z-2.000 F300.000 
G1 X627.264 Y-28.782 Z-2.000 F1200.000 
G1 X633.917 Y-28.960 Z-2.000 F1200.000 
G1 X644.469 Y-29.291 Z-2.000 F1200.000 
G1 X649.573 Y-29.431 Z-2.000 F1200.000 
G1 X654.677 Y-29.533 Z-2.000 F1200.000 
G1 X658.077 Y-29.712 Z-2.000 F1200.000 
G1 X662.073 Y-29.856 Z-2.000 F1200.000 
G1 X667.451 Y-29.992 Z-2.000 F1200.000 
G1 X673.051 Y-30.142 Z-2.000 F1200.000 
G1 X676.596 Y-30.281 Z-2.000 F1200.000 
G1 X684.563 Y-30.281 Z-2.000 F1200.000 
G1 X689.959 Y-30.237 Z-2.000 F1200.000 
G1 X694.335 Y-30.132 Z-2.000 F1200.000 
G1 X698.139 Y-29.966 Z-2.000 F1200.000 
G1 X701.579 Y-29.740 Z-2.000 F1200.000 
G1 X704.727 Y-29.457 Z-2.000 F1200.000 
G1 X706.829 Y-29.223 Z-2.000 F1200.000 
G1 X708.928 Y-28.947 Z-2.000 F1200.000 
G1 X707.780 Y-29.508 Z-2.000 F1200.000 
G1 X706.557 Y-30.026 Z-2.000 F1200.000 
G1 X705.247 Y-30.504 Z-2.000 F1200.000 
G1 X703.834 Y-30.945 Z-2.000 F1200.000 
G1 X702.292 Y-31.352 Z-2.000 F1200.000 
G1 X700.584 Y-31.733 Z-2.000 F1200.000 
G1 X698.636 Y-32.096 Z-2.000 F1200.000 
G1 X693.619 Y-32.854 Z-2.000 F1200.000 
G1 X690.468 Y-33.181 Z-2.000 F1200.000 
G1 X687.201 Y-33.449 Z-2.000 F1200.000 
G1 X683.799 Y-33.656 Z-2.000 F1200.000 
G1 X680.239 Y-33.802 Z-2.000 F1200.000 
G1 X676.488 Y-33.884 Z-2.000 F1200.000 
G1 X672.504 Y-33.901 Z-2.000 F1200.000 
G1 X668.219 Y-33.850 Z-2.000 F1200.000 
G1 X663.523 Y-33.725 Z-2.000 F1200.000 
G1 X658.209 Y-33.515 Z-2.000 F1200.000 
G1 X655.566 Y-33.391 Z-2.000 F1200.000 
G1 X650.643 Y-33.030 Z-2.000 F1200.000 
G1 X647.020 Y-32.770 Z-2.000 F1200.000 
G1 X642.397 Y-32.399 Z-2.000 F1200.000 
G1 X638.667 Y-32.032 Z-2.000 F1200.000 
G1 X635.454 Y-31.641 Z-2.000 F1200.000 
G1 X632.568 Y-31.213 Z-2.000 F1200.000 
G1 X629.941 Y-30.748 Z-2.000 F1200.000 
G1 X627.508 Y-30.240 Z-2.000 F1200.000 
G1 X625.226 Y-29.687 Z-2.000 F1200.000 
G1 X623.067 Y-29.088 Z-2.000 F1200.000 
G1 X621.769 Y-28.689 Z-2.000 F1200.000 
G0 Z6.000 
G0 Z6.000 
G0 X266.417 Y-36.653 
G0 Z4.000 
G1 X266.417 Y-36.653 Z-2.000 F300.000 
G1 X269.281 Y-35.318 Z-2.000 F1200.000 
G1 X273.955 Y-33.098 Z-2.000 F1200.000 
G1 X276.886 Y-31.763 Z-2.000 F1200.000 
G1 X279.312 Y-30.736 Z-2.000 F1200.000 
G1 X281.466 Y-29.904 Z-2.000 F1200.000 
G1 X282.180 Y-29.648 Z-2.000 F1200.000 
G1 X282.898 Y-29.402 Z-2.000 F1200.000 
G1 X283.409 Y-29.882 Z-2.000 F1200.000 
G1 X283.973 Y-30.315 Z-2.000 F1200.000 
G1 X284.595 Y-30.702 Z-2.000 F1200.000 
G1 X285.277 Y-31.044 Z-2.000 F1200.000 
G1 X286.028 Y-31.341 Z-2.000 F1200.000 
G1 X286.851 Y-31.590 Z-2.000 F1200.000 
G1 X287.756 Y-31.791 Z-2.000 F1200.000 
G1 X288.752 Y-31.941 Z-2.000 F1200.000 
G1 X289.404 Y-32.006 Z-2.000 F1200.000 
G1 X290.054 Y-32.048 Z-2.000 F1200.000 
G1 X286.925 Y-33.334 Z-2.000 F1200.000 
G1 X284.268 Y-34.410 Z-2.000 F1200.000 
G1 X281.937 Y-35.290 Z-2.000 F1200.000 
G1 X279.961 Y-35.958 Z-2.000 F1200.000 
G1 X278.186 Y-36.480 Z-2.000 F1200.000 
G1 X276.550 Y-36.881 Z-2.000 F1200.000 
G1 X275.018 Y-37.179 Z-2.000 F1200.000 
G1 X272.958 Y-37.449 Z-2.000 F1200.000 
G1 X272.006 Y-37.518 Z-2.000 F1200.000 
G1 X271.026 Y-37.518 Z-2.000 F1200.000 
G1 X270.017 Y-37.446 Z-2.000 F1200.000 
G1 X268.978 Y-37.301 Z-2.000 F1200.000 
G1 X267.910 Y-37.079 Z-2.000 F1200.000 
G1 X267.159 Y-36.882 Z-2.000 F1200.000 
G1 X266.417 Y-36.653 Z-2.000 F1200.000 
G0 Z6.000 
G0 Z6.000 
G0 X578.951 Y-29.895 
G0 Z4.000 
G1 X578.951 Y-29.895 Z-2.000 F300.000 
G1 X580.340 Y-29.726 Z-2.000 F1200.000 
G1 X582.431 Y-29.510 Z-2.000 F1200.000 
G1 X584.125 Y-29.401 Z-2.000 F1200.000 
G1 X585.579 Y-29.382 Z-2.000 F1200.000 
G1 X586.876 Y-29.441 Z-2.000 F1200.000 
G1 X588.052 Y-29.569 Z-2.000 F1200.000 
G1 X589.132 Y-29.763 Z-2.000 F1200.000 
G1 X590.138 Y-30.020 Z-2.000 F1200.000 
G1 X590.770 Y-30.224 Z-2.000 F1200.000 
G1 X591.395 Y-30.461 Z-2.000 F1200.000 
G1 X595.730 Y-32.135 Z-2.000 F1200.000 
G1 X598.215 Y-33.155 Z-2.000 F1200.000 
G1 X599.320 Y-33.641 Z-2.000 F1200.000 
G1 X600.416 Y-34.148 Z-2.000 F1200.000 
G1 X600.382 Y-34.431 Z-2.000 F1200.000 
G1 X599.533 Y-34.655 Z-2.000 F1200.000 
G1 X598.643 Y-34.817 Z-2.000 F1200.000 
G1 X597.702 Y-34.916 Z-2.000 F1200.000 
G1 X596.698 Y-34.950 Z-2.000 F1200.000 
G1 X595.613 Y-34.918 Z-2.000 F1200.000 
G1 X594.419 Y-34.813 Z-2.000 F1200.000 
G1 X593.067 Y-34.627 Z-2.000 F1200.000 
G1 X589.940 Y-34.041 Z-2.000 F1200.000 
G1 X588.222 Y-33.567 Z-2.000 F1200.000 
G1 X586.454 Y-33.006 Z-2.000 F1200.000 
G1 X584.625 Y-32.352 Z-2.000 F1200.000 
G1 X582.722 Y-31.595 Z-2.000 F1200.000 
G1 X580.725 Y-30.726 Z-2.000 F1200.000 
G1 X579.835 Y-30.315 Z-2.000 F1200.000 
G1 X578.951 Y-29.895 Z-2.000 F1200.000 
G1 X578.951 Y-29.895 Z-2.000 F1200.000 
G0 Z6.000 
G0 Z6.000 
G0 X562.832 Y-32.092 
G0 Z4.000 
G1 X562.832 Y-32.092 Z-2.000 F300.000 
G1 X564.199 Y-31.880 Z-2.000 F1200.000 
G1 X566.150 Y-31.615 Z-2.000 F1200.000 
G1 X567.732 Y-31.468 Z-2.000 F1200.000 
G1 X569.091 Y-31.415 Z-2.000 F1200.000 
G1 X570.306 Y-31.444 Z-2.000 F1200.000 
G1 X571.407 Y-31.545 Z-2.000 F1200.000 
G1 X572.420 Y-31.714 Z-2.000 F1200.000 
G1 X573.363 Y-31.947 Z-2.000 F1200.000 
G1 X573.946 Y-32.133 Z-2.000 F1200.000 
G1 X574.524 Y-32.351 Z-2.000 F1200.000 
G1 X577.743 Y-33.747 Z-2.000 F1200.000 
G1 X580.893 Y-35.192 Z-2.000 F1200.000 
G1 X583.973 Y-36.687 Z-2.000 F1200.000 
G1 X587.451 Y-38.475 Z-2.000 F1200.000 
G1 X586.867 Y-38.702 Z-2.000 F1200.000 
G1 X586.235 Y-38.873 Z-2.000 F1200.000 
G1 X585.540 Y-38.990 Z-2.000 F1200.000 
G1 X584.762 Y-39.050 Z-2.000 F1200.000 
G1 X583.861 Y-39.052 Z-2.000 F1200.000 
G1 X582.743 Y-38.993 Z-2.000 F1200.000 
G1 X581.841 Y-38.924 Z-2.000 F1200.000 
G1 X580.224 Y-38.699 Z-2.000 F1200.000 
G1 X578.584 Y-38.399 Z-2.000 F1200.000 
G1 X576.921 Y-38.022 Z-2.000 F1200.000 
G1 X575.232 Y-37.565 Z-2.000 F1200.000 
G1 X573.515 Y-37.027 Z-2.000 F1200.000 
G1 X571.769 Y-36.404 Z-2.000 F1200.000 
G1 X569.993 Y-35.694 Z-2.000 F1200.000 
G1 X568.183 Y-34.894 Z-2.000 F1200.000 
G1 X566.339 Y-34.001 Z-2.000 F1200.000 
G1 X564.457 Y-33.010 Z-2.000 F1200.000 
G1 X562.832 Y-32.092 Z-2.000 F1200.000 
G0 Z6.000 
G0 Z6.000 
G0 X204.492 Y-41.712 
G0 Z4.000 
G1 X204.492 Y-41.712 Z-2.000 F300.000 
G1 X208.036 Y-41.340 Z-2.000 F1200.000 
G1 X211.613 Y-40.892 Z-2.000 F1200.000 
G1 X215.224 Y-40.368 Z-2.000 F1200.000 
G1 X218.868 Y-39.765 Z-2.000 F1200.000 
G1 X222.548 Y-39.083 Z-2.000 F1200.000 
G1 X226.264 Y-38.321 Z-2.000 F1200.000 
G1 X230.016 Y-37.477 Z-2.000 F1200.000 
G1 X233.807 Y-36.552 Z-2.000 F1200.000 
G1 X237.636 Y-35.542 Z-2.000 F1200.000 
G1 X241.505 Y-34.447 Z-2.000 F1200.000 
G1 X245.415 Y-33.266 Z-2.000 F1200.000 
G1 X246.490 Y-32.928 Z-2.000 F1200.000 
G1 X247.563 Y-32.585 Z-2.000 F1200.000 
G1 X247.809 Y-32.472 Z-2.000 F1200.000 
G1 X248.047 Y-32.437 Z-2.000 F1200.000 
G1 X248.290 Y-32.470 Z-2.000 F1200.000 
G1 X248.559 Y-32.575 Z-2.000 F1200.000 
G1 X248.889 Y-32.772 Z-2.000 F1200.000 
G1 X249.226 Y-33.001 Z-2.000 F1200.000 
G1 X249.560 Y-33.196 Z-2.000 F1200.000 
G1 X250.242 Y-33.602 Z-2.000 F1200.000 
G1 X250.989 Y-33.964 Z-2.000 F1200.000 
G1 X251.815 Y-34.287 Z-2.000 F1200.000 
G1 X252.740 Y-34.574 Z-2.000 F1200.000 
G1 X253.801 Y-34.833 Z-2.000 F1200.000 
G1 X255.078 Y-35.076 Z-2.000 F1200.000 
G1 X256.829 Y-35.354 Z-2.000 F1200.000 
G1 X255.219 Y-35.985 Z-2.000 F1200.000 
G1 X253.439 Y-36.607 Z-2.000 F1200.000 
G1 X251.416 Y-37.244 Z-2.000 F1200.000 
G1 X248.981 Y-37.941 Z-2.000 F1200.000 
G1 X245.308 Y-38.934 Z-2.000 F1200.000 
G1 X240.832 Y-39.988 Z-2.000 F1200.000 
G1 X236.732 Y-40.876 Z-2.000 F1200.000 
G1 X232.922 Y-41.624 Z-2.000 F1200.000 
G1 X229.331 Y-42.253 Z-2.000 F1200.000 
G1 X225.915 Y-42.776 Z-2.000 F1200.000 
G1 X222.643 Y-43.201 Z-2.000 F1200.000 
G1 X219.492 Y-43.536 Z-2.000 F1200.000 
G1 X216.446 Y-43.785 Z-2.000 F1200.000 
G1 X213.492 Y-43.952 Z-2.000 F1200.000 
G1 X211.468 Y-44.023 Z-2.000 F1200.000 
G1 X209.442 Y-44.056 Z-2.000 F1200.000 
G1 X208.336 Y-43.985 Z-2.000 F1200.000 
G1 X206.843 Y-43.947 Z-2.000 F1200.000 
G1 X205.527 Y-43.911 Z-2.000 F1200.000 
G1 X204.298 Y-43.824 Z-2.000 F1200.000 
G1 X203.232 Y-43.670 Z-2.000 F1200.000 
G1 X203.057 Y-43.458 Z-2.000 F1200.000 
G1 X202.959 Y-43.234 Z-2.000 F1200.000 
G1 X202.932 Y-42.997 Z-2.000 F1200.000 
G1 X202.973 Y-42.747 Z-2.000 F1200.000 
G1 X203.088 Y-42.488 Z-2.000 F1200.000 
G1 X203.278 Y-42.231 Z-2.000 F1200.000 
G1 X203.539 Y-42.001 Z-2.000 F1200.000 
G1 X203.846 Y-41.825 Z-2.000 F1200.000 
G1 X204.165 Y-41.726 Z-2.000 F1200.000 
G1 X204.492 Y-41.712 Z-2.000 F1200.000 
G0 Z6.000 
G0 Z6.000 
G0 X318.393 Y-38.484 
G0 Z4.000 
G1 X318.393 Y-38.484 Z-2.000 F300.000 
G1 X320.619 Y-37.503 Z-2.000 F1200.000 
G1 X322.892 Y-36.580 Z-2.000 F1200.000 
G1 X325.211 Y-35.716 Z-2.000 F1200.000 
G1 X327.572 Y-34.914 Z-2.000 F1200.000 
G1 X329.974 Y-34.175 Z-2.000 F1200.000 
G1 X331.429 Y-33.763 Z-2.000 F1200.000 
G1 X332.892 Y-33.376 Z-2.000 F1200.000 
G1 X334.106 Y-33.247 Z-2.000 F1200.000 
G1 X335.363 Y-33.185 Z-2.000 F1200.000 
G1 X336.666 Y-33.193 Z-2.000 F1200.000 
G1 X338.020 Y-33.272 Z-2.000 F1200.000 
G1 X339.431 Y-33.425 Z-2.000 F1200.000 
G1 X340.906 Y-33.656 Z-2.000 F1200.000 
G1 X342.453 Y-33.971 Z-2.000 F1200.000 
G1 X344.578 Y-34.509 Z-2.000 F1200.000 
G1 X341.820 Y-35.756 Z-2.000 F1200.000 
G1 X338.752 Y-37.155 Z-2.000 F1200.000 
G1 X336.149 Y-38.288 Z-2.000 F1200.000 
G1 X334.001 Y-39.147 Z-2.000 F1200.000 
G1 X332.099 Y-39.828 Z-2.000 F1200.000 
G1 X330.349 Y-40.373 Z-2.000 F1200.000 
G1 X329.245 Y-40.672 Z-2.000 F1200.000 
G1 X327.643 Y-40.893 Z-2.000 F1200.000 
G1 X326.273 Y-41.010 Z-2.000 F1200.000 
G1 X325.064 Y-41.038 Z-2.000 F1200.000 
G1 X323.981 Y-40.987 Z-2.000 F1200.000 
G1 X323.008 Y-40.867 Z-2.000 F1200.000 
G1 X322.132 Y-40.682 Z-2.000 F1200.000 
G1 X321.339 Y-40.439 Z-2.000 F1200.000 
G1 X320.619 Y-40.141 Z-2.000 F1200.000 
G1 X319.963 Y-39.788 Z-2.000 F1200.000 
G1 X319.365 Y-39.382 Z-2.000 F1200.000 
G1 X318.820 Y-38.922 Z-2.000 F1200.000 
G1 X318.603 Y-38.709 Z-2.000 F1200.000 
G1 X318.393 Y-38.484 Z-2.000 F1200.000 
G0 Z6.000 
G0 Z6.000 
G0 X279.207 Y-42.928 
G0 Z4.000 
G1 X279.207 Y-42.928 Z-2.000 F300.000 
G1 X285.484 Y-39.758 Z-2.000 F1200.000 
G1 X291.352 Y-36.804 Z-2.000 F1200.000 
G1 X294.528 Y-35.237 Z-2.000 F1200.000 
G1 X297.719 Y-33.699 Z-2.000 F1200.000 
G1 X298.579 Y-34.397 Z-2.000 F1200.000 
G1 X299.482 Y-35.037 Z-2.000 F1200.000 
G1 X300.424 Y-35.616 Z-2.000 F1200.000 
G1 X301.399 Y-36.130 Z-2.000 F1200.000 
G1 X302.403 Y-36.576 Z-2.000 F1200.000 
G1 X303.430 Y-36.953 Z-2.000 F1200.000 
G1 X304.475 Y-37.259 Z-2.000 F1200.000 
G1 X305.533 Y-37.493 Z-2.000 F1200.000 
G1 X306.599 Y-37.654 Z-2.000 F1200.000 
G1 X307.794 Y-37.747 Z-2.000 F1200.000 
G1 X306.197 Y-38.593 Z-2.000 F1200.000 
G1 X304.515 Y-39.402 Z-2.000 F1200.000 
G1 X302.742 Y-40.177 Z-2.000 F1200.000 
G1 X300.870 Y-40.917 Z-2.000 F1200.000 
G1 X298.887 Y-41.624 Z-2.000 F1200.000 
G1 X296.782 Y-42.299 Z-2.000 F1200.000 
G1 X295.109 Y-42.788 Z-2.000 F1200.000 
G1 X293.427 Y-43.240 Z-2.000 F1200.000 
G1 X291.223 Y-43.693 Z-2.000 F1200.000 
G1 X289.414 Y-43.995 Z-2.000 F1200.000 
G1 X287.845 Y-44.182 Z-2.000 F1200.000 
G1 X286.437 Y-44.274 Z-2.000 F1200.000 
G1 X285.156 Y-44.282 Z-2.000 F1200.000 
G1 X283.978 Y-44.214 Z-2.000 F1200.000 
G1 X282.883 Y-44.076 Z-2.000 F1200.000 
G1 X281.858 Y-43.872 Z-2.000 F1200.000 
G1 X280.891 Y-43.603 Z-2.000 F1200.000 
G1 X279.976 Y-43.272 Z-2.000 F1200.000 
G1 X279.207 Y-42.928 Z-2.000 F1200.000 
G0 Z6.000 
G0 Z6.000 
G0 X549.070 Y-34.934 
G0 Z4.000 
G1 X549.070 Y-34.934 Z-2.000 F300.000 
G1 X550.732 Y-34.604 Z-2.000 F1200.000 
G1 X552.260 Y-34.378 Z-2.000 F1200.000 
G1 X553.669 Y-34.246 Z-2.000 F1200.000 
G1 X554.973 Y-34.200 Z-2.000 F1200.000 
G1 X556.187 Y-34.232 Z-2.000 F1200.000 
G1 X557.319 Y-34.337 Z-2.000 F1200.000 
G1 X558.380 Y-34.509 Z-2.000 F1200.000 
G1 X559.374 Y-34.746 Z-2.000 F1200.000 
G1 X560.309 Y-35.045 Z-2.000 F1200.000 
G1 X561.189 Y-35.405 Z-2.000 F1200.000 
G1 X562.019 Y-35.824 Z-2.000 F1200.000 
G1 X562.236 Y-35.948 Z-2.000 F1200.000 
G1 X562.451 Y-36.077 Z-2.000 F1200.000 
G1 X564.775 Y-37.345 Z-2.000 F1200.000 
G1 X566.587 Y-38.336 Z-2.000 F1200.000 
G1 X568.524 Y-39.450 Z-2.000 F1200.000 
G1 X570.071 Y-40.421 Z-2.000 F1200.000 
G1 X571.800 Y-41.644 Z-2.000 F1200.000 
G1 X570.306 Y-41.932 Z-2.000 F1200.000 
G1 X569.170 Y-42.099 Z-2.000 F1200.000 
G1 X568.238 Y-42.164 Z-2.000 F1200.000 
G1 X567.421 Y-42.147 Z-2.000 F1200.000 
G1 X566.845 Y-42.083 Z-2.000 F1200.000 
G1 X565.430 Y-41.908 Z-2.000 F1200.000 
G1 X564.000 Y-41.659 Z-2.000 F1200.000 
G1 X562.555 Y-41.334 Z-2.000 F1200.000 
G1 X561.093 Y-40.932 Z-2.000 F1200.000 
G1 X559.611 Y-40.450 Z-2.000 F1200.000 
G1 X558.111 Y-39.887 Z-2.000 F1200.000 
G1 X556.589 Y-39.239 Z-2.000 F1200.000 
G1 X555.046 Y-38.504 Z-2.000 F1200.000 
G1 X553.481 Y-37.680 Z-2.000 F1200.000 
G1 X551.893 Y-36.763 Z-2.000 F1200.000 
G1 X550.283 Y-35.751 Z-2.000 F1200.000 
G1 X549.673 Y-35.346 Z-2.000 F1200.000 
G1 X549.070 Y-34.934 Z-2.000 F1200.000 
G0 Z6.000 
G0 Z6.000 
G0 X614.159 Y-34.905 
G0 Z4.000 
G1 X614.159 Y-34.905 Z-2.000 F300.000 
G1 X615.035 Y-34.657 Z-2.000 F1200.000 
G1 X615.980 Y-34.463 Z-2.000 F1200.000 
G1 X617.015 Y-34.320 Z-2.000 F1200.000 
G1 X618.182 Y-34.229 Z-2.000 F1200.000 
G1 X619.562 Y-34.187 Z-2.000 F1200.000 
G1 X621.419 Y-34.188 Z-2.000 F1200.000 
G1 X623.410 Y-34.182 Z-2.000 F1200.000 
G1 X624.516 Y-34.186 Z-2.000 F1200.000 
G1 X625.691 Y-34.260 Z-2.000 F1200.000 
G1 X626.965 Y-34.409 Z-2.000 F1200.000 
G1 X628.393 Y-34.644 Z-2.000 F1200.000 
G1 X630.100 Y-34.992 Z-2.000 F1200.000 
G1 X632.710 Y-35.577 Z-2.000 F1200.000 
G1 X634.157 Y-35.884 Z-2.000 F1200.000 
G1 X635.609 Y-36.150 Z-2.000 F1200.000 
G1 X638.741 Y-36.719 Z-2.000 F1200.000 
G1 X642.025 Y-37.243 Z-2.000 F1200.000 
G1 X645.489 Y-37.724 Z-2.000 F1200.000 
G1 X649.174 Y-38.164 Z-2.000 F1200.000 
G1 X653.140 Y-38.568 Z-2.000 F1200.000 
G1 X655.329 Y-38.764 Z-2.000 F1200.000 
G1 X657.518 Y-38.943 Z-2.000 F1200.000 
G1 X658.647 Y-39.064 Z-2.000 F1200.000 
G1 X660.093 Y-39.156 Z-2.000 F1200.000 
G1 X661.946 Y-39.259 Z-2.000 F1200.000 
G1 X663.296 Y-39.387 Z-2.000 F1200.000 
G1 X664.394 Y-39.562 Z-2.000 F1200.000 
G1 X664.937 Y-39.682 Z-2.000 F1200.000 
G1 X665.476 Y-39.827 Z-2.000 F1200.000 
G1 X664.251 Y-40.154 Z-2.000 F1200.000 
G1 X662.961 Y-40.424 Z-2.000 F1200.000 
G1 X661.590 Y-40.640 Z-2.000 F1200.000 
G1 X660.118 Y-40.800 Z-2.000 F1200.000 
G1 X658.515 Y-40.905 Z-2.000 F1200.000 
G1 X656.729 Y-40.953 Z-2.000 F1200.000 
G1 X654.655 Y-40.942 Z-2.000 F1200.000 
G1 X650.713 Y-40.823 Z-2.000 F1200.000 
G1 X647.005 Y-40.561 Z-2.000 F1200.000 
G1 X643.256 Y-40.223 Z-2.000 F1200.000 
G1 X639.463 Y-39.809 Z-2.000 F1200.000 
G1 X635.626 Y-39.317 Z-2.000 F1200.000 
G1 X631.745 Y-38.747 Z-2.000 F1200.000 
G1 X628.828 Y-38.271 Z-2.000 F1200.000 
G1 X625.919 Y-37.757 Z-2.000 F1200.000 
G1 X621.898 Y-36.955 Z-2.000 F1200.000 
G1 X619.273 Y-36.374 Z-2.000 F1200.000 
G1 X617.126 Y-35.827 Z-2.000 F1200.000 
G1 X615.256 Y-35.272 Z-2.000 F1200.000 
G1 X614.159 Y-34.905 Z-2.000 F1200.000 
G0 Z6.000 
G0 Z6.000 
G0 X606.074 Y-37.439 
G0 Z4.000 
G1 X606.074 Y-37.439 Z-2.000 F300.000 
G1 X606.382 Y-37.366 Z-2.000 F1200.000 
G1 X606.712 Y-37.357 Z-2.000 F1200.000 
G1 X607.090 Y-37.414 Z-2.000 F1200.000 
G1 X607.574 Y-37.549 Z-2.000 F1200.000 
G1 X608.354 Y-37.776 Z-2.000 F1200.000 
G1 X612.172 Y-38.931 Z-2.000 F1200.000 
G1 X616.633 Y-40.211 Z-2.000 F1200.000 
G1 X622.480 Y-41.826 Z-2.000 F1200.000 
G1 X627.871 Y-43.309 Z-2.000 F1200.000 
G1 X626.869 Y-43.622 Z-2.000 F1200.000 
G1 X625.814 Y-43.877 Z-2.000 F1200.000 
G1 X624.698 Y-44.073 Z-2.000 F1200.000 
G1 X623.509 Y-44.211 Z-2.000 F1200.000 
G1 X622.233 Y-44.288 Z-2.000 F1200.000 
G1 X620.848 Y-44.302 Z-2.000 F1200.000 
G1 X619.318 Y-44.248 Z-2.000 F1200.000 
G1 X617.575 Y-44.120 Z-2.000 F1200.000 
G1 X616.571 Y-44.023 Z-2.000 F1200.000 
G1 X615.574 Y-43.914 Z-2.000 F1200.000 
G1 X613.783 Y-43.651 Z-2.000 F1200.000 
G1 X611.935 Y-43.308 Z-2.000 F1200.000 
G1 X610.017 Y-42.879 Z-2.000 F1200.000 
G1 X608.014 Y-42.359 Z-2.000 F1200.000 
G1 X605.902 Y-41.738 Z-2.000 F1200.000 
G1 X603.649 Y-41.003 Z-2.000 F1200.000 
G1 X601.199 Y-40.130 Z-2.000 F1200.000 
G1 X596.907 Y-38.465 Z-2.000 F1200.000 
G1 X598.020 Y-38.559 Z-2.000 F1200.000 
G1 X599.167 Y-38.585 Z-2.000 F1200.000 
G1 X600.352 Y-38.539 Z-2.000 F1200.000 
G1 X601.577 Y-38.421 Z-2.000 F1200.000 
G1 X602.847 Y-38.228 Z-2.000 F1200.000 
G1 X604.165 Y-37.955 Z-2.000 F1200.000 
G1 X605.124 Y-37.713 Z-2.000 F1200.000 
G1 X606.074 Y-37.439 Z-2.000 F1200.000 
G0 Z6.000 
G0 Z6.000 
G0 X535.470 Y-38.748 
G0 Z4.000 
G1 X535.470 Y-38.748 Z-2.000 F300.000 
G1 X536.710 Y-38.360 Z-2.000 F1200.000 
