(Exported by FreeCAD)
(Post Processor: linuxcnc_post)
(Output Time:2022-04-16 15:02:34.311331)
(begin preamble)
G17 G54 G40 G49 G80 G90
G21
(begin operation: Fixture)
(machine units: mm/min)
G54 
(finish operation: Fixture)
(begin operation: 60 Deg. V-Bit001)
(machine units: mm/min)
(60 Deg. V-Bit001) 
M5
M6 T2 
G43 H2 
M3 S15000 
(finish operation: 60 Deg. V-Bit001)
(begin operation: Engrave)
(machine units: mm/min)
(Engrave) 
G0 Z6.000 
G0 Z6.000 
G0 X94.242 Y-47.412 
G0 Z4.000 
G1 X94.242 Y-47.412 Z-1.000 F300.000 
G1 X94.953 Y-47.310 Z-1.000 F600.000 
G1 X95.681 Y-47.278 Z-1.000 F600.000 
G1 X96.417 Y-47.318 Z-1.000 F600.000 
G1 X97.152 Y-47.431 Z-1.000 F600.000 
G1 X97.874 Y-47.614 Z-1.000 F600.000 
G1 X98.574 Y-47.868 Z-1.000 F600.000 
G1 X99.006 Y-48.065 Z-1.000 F600.000 
G1 X99.425 Y-48.290 Z-1.000 F600.000 
G1 X100.048 Y-48.684 Z-1.000 F600.000 
G1 X100.637 Y-49.142 Z-1.000 F600.000 
G1 X101.183 Y-49.659 Z-1.000 F600.000 
G1 X101.677 Y-50.227 Z-1.000 F600.000 
G1 X102.112 Y-50.837 Z-1.000 F600.000 
G1 X102.481 Y-51.480 Z-1.000 F600.000 
G1 X102.778 Y-52.147 Z-1.000 F600.000 
G1 X103.003 Y-52.829 Z-1.000 F600.000 
G1 X103.116 Y-53.315 Z-1.000 F600.000 
G1 X103.193 Y-53.810 Z-1.000 F600.000 
G1 X103.236 Y-54.601 Z-1.000 F600.000 
G1 X103.206 Y-55.400 Z-1.000 F600.000 
G1 X103.104 Y-56.198 Z-1.000 F600.000 
G1 X102.931 Y-56.983 Z-1.000 F600.000 
G1 X102.688 Y-57.745 Z-1.000 F600.000 
G1 X102.378 Y-58.475 Z-1.000 F600.000 
G1 X102.007 Y-59.165 Z-1.000 F600.000 
G1 X101.498 Y-59.913 Z-1.000 F600.000 
G1 X101.030 Y-60.474 Z-1.000 F600.000 
G1 X100.505 Y-60.992 Z-1.000 F600.000 
G1 X99.928 Y-61.457 Z-1.000 F600.000 
G1 X99.310 Y-61.864 Z-1.000 F600.000 
G1 X98.658 Y-62.205 Z-1.000 F600.000 
G1 X97.984 Y-62.476 Z-1.000 F600.000 
G1 X97.474 Y-62.629 Z-1.000 F600.000 
G1 X96.954 Y-62.743 Z-1.000 F600.000 
G1 X96.266 Y-62.841 Z-1.000 F600.000 
G1 X95.560 Y-62.869 Z-1.000 F600.000 
G1 X94.844 Y-62.825 Z-1.000 F600.000 
G1 X94.128 Y-62.708 Z-1.000 F600.000 
G1 X93.422 Y-62.520 Z-1.000 F600.000 
G1 X92.736 Y-62.262 Z-1.000 F600.000 
G1 X92.082 Y-61.939 Z-1.000 F600.000 
G1 X91.470 Y-61.554 Z-1.000 F600.000 
G1 X91.296 Y-61.428 Z-1.000 F600.000 
G1 X91.126 Y-61.297 Z-1.000 F600.000 
G1 X90.578 Y-60.824 Z-1.000 F600.000 
G1 X90.070 Y-60.291 Z-1.000 F600.000 
G1 X89.607 Y-59.700 Z-1.000 F600.000 
G1 X89.192 Y-59.056 Z-1.000 F600.000 
G1 X88.833 Y-58.364 Z-1.000 F600.000 
G1 X88.534 Y-57.631 Z-1.000 F600.000 
G1 X88.301 Y-56.867 Z-1.000 F600.000 
G1 X88.137 Y-56.083 Z-1.000 F600.000 
G1 X88.070 Y-55.582 Z-1.000 F600.000 
G1 X88.033 Y-55.080 Z-1.000 F600.000 
G1 X88.020 Y-54.409 Z-1.000 F600.000 
G1 X88.078 Y-53.735 Z-1.000 F600.000 
G1 X88.209 Y-53.061 Z-1.000 F600.000 
G1 X88.411 Y-52.392 Z-1.000 F600.000 
G1 X88.686 Y-51.732 Z-1.000 F600.000 
G1 X89.032 Y-51.089 Z-1.000 F600.000 
G1 X89.446 Y-50.470 Z-1.000 F600.000 
G1 X89.926 Y-49.883 Z-1.000 F600.000 
G1 X90.465 Y-49.339 Z-1.000 F600.000 
G1 X91.055 Y-48.846 Z-1.000 F600.000 
G1 X91.688 Y-48.412 Z-1.000 F600.000 
G1 X92.353 Y-48.044 Z-1.000 F600.000 
G1 X93.041 Y-47.747 Z-1.000 F600.000 
G1 X93.742 Y-47.524 Z-1.000 F600.000 
G1 X93.991 Y-47.464 Z-1.000 F600.000 
G1 X94.242 Y-47.412 Z-1.000 F600.000 
G0 Z6.000 
G0 Z6.000 
G0 X0.000 Y0.000 
G0 Z4.000 
G1 X0.000 Y0.000 Z-1.000 F300.000 
G1 X244.231 Y0.000 Z-1.000 F600.000 
G1 X244.231 Y-70.098 Z-1.000 F600.000 
G1 X0.000 Y-70.098 Z-1.000 F600.000 
G1 X0.000 Y0.000 Z-1.000 F600.000 
G0 Z6.000 
G0 Z6.000 
G0 X214.874 Y-1.694 
G0 Z4.000 
G1 X214.874 Y-1.694 Z-1.000 F300.000 
G1 X214.523 Y-2.274 Z-1.000 F600.000 
G1 X214.102 Y-2.831 Z-1.000 F600.000 
G1 X213.609 Y-3.367 Z-1.000 F600.000 
G1 X213.037 Y-3.883 Z-1.000 F600.000 
G1 X212.383 Y-4.380 Z-1.000 F600.000 
G1 X211.637 Y-4.857 Z-1.000 F600.000 
G1 X210.793 Y-5.315 Z-1.000 F600.000 
G1 X209.885 Y-5.734 Z-1.000 F600.000 
G1 X208.763 Y-6.170 Z-1.000 F600.000 
G1 X207.548 Y-6.567 Z-1.000 F600.000 
G1 X206.219 Y-6.927 Z-1.000 F600.000 
G1 X204.744 Y-7.255 Z-1.000 F600.000 
G1 X203.798 Y-7.434 Z-1.000 F600.000 
G1 X203.796 Y-7.758 Z-1.000 F600.000 
G1 X203.724 Y-8.074 Z-1.000 F600.000 
G1 X203.584 Y-8.360 Z-1.000 F600.000 
G1 X203.384 Y-8.601 Z-1.000 F600.000 
G1 X203.207 Y-8.741 Z-1.000 F600.000 
G1 X202.705 Y-9.056 Z-1.000 F600.000 
G1 X202.131 Y-9.335 Z-1.000 F600.000 
G1 X201.462 Y-9.583 Z-1.000 F600.000 
G1 X200.655 Y-9.812 Z-1.000 F600.000 
G1 X199.439 Y-10.086 Z-1.000 F600.000 
G1 X197.867 Y-10.343 Z-1.000 F600.000 
G1 X196.243 Y-10.536 Z-1.000 F600.000 
G1 X194.566 Y-10.662 Z-1.000 F600.000 
G1 X192.833 Y-10.722 Z-1.000 F600.000 
G1 X191.043 Y-10.711 Z-1.000 F600.000 
G1 X190.596 Y-10.698 Z-1.000 F600.000 
G1 X190.150 Y-10.680 Z-1.000 F600.000 
G1 X190.336 Y-11.019 Z-1.000 F600.000 
G1 X190.422 Y-11.319 Z-1.000 F600.000 
G1 X190.421 Y-11.568 Z-1.000 F600.000 
G1 X190.346 Y-11.774 Z-1.000 F600.000 
G1 X190.223 Y-11.924 Z-1.000 F600.000 
G1 X189.914 Y-12.122 Z-1.000 F600.000 
G1 X189.546 Y-12.277 Z-1.000 F600.000 
G1 X189.096 Y-12.393 Z-1.000 F600.000 
G1 X188.179 Y-12.519 Z-1.000 F600.000 
G1 X186.949 Y-12.570 Z-1.000 F600.000 
G1 X185.611 Y-12.557 Z-1.000 F600.000 
G1 X184.115 Y-12.474 Z-1.000 F600.000 
G1 X182.351 Y-12.310 Z-1.000 F600.000 
G1 X180.380 Y-12.082 Z-1.000 F600.000 
G1 X180.213 Y-12.385 Z-1.000 F600.000 
G1 X179.985 Y-12.652 Z-1.000 F600.000 
G1 X179.695 Y-12.885 Z-1.000 F600.000 
G1 X179.339 Y-13.080 Z-1.000 F600.000 
G1 X178.919 Y-13.233 Z-1.000 F600.000 
G1 X178.688 Y-13.289 Z-1.000 F600.000 
G1 X178.457 Y-13.330 Z-1.000 F600.000 
G1 X177.662 Y-13.411 Z-1.000 F600.000 
G1 X176.781 Y-13.432 Z-1.000 F600.000 
G1 X175.771 Y-13.389 Z-1.000 F600.000 
G1 X174.713 Y-13.294 Z-1.000 F600.000 
G1 X174.758 Y-13.751 Z-1.000 F600.000 
G1 X174.736 Y-14.025 Z-1.000 F600.000 
G1 X174.651 Y-14.227 Z-1.000 F600.000 
G1 X174.561 Y-14.333 Z-1.000 F600.000 
G1 X174.312 Y-14.528 Z-1.000 F600.000 
G1 X174.004 Y-14.683 Z-1.000 F600.000 
G1 X173.622 Y-14.800 Z-1.000 F600.000 
G1 X173.005 Y-14.900 Z-1.000 F600.000 
G1 X172.086 Y-14.925 Z-1.000 F600.000 
G1 X171.244 Y-14.872 Z-1.000 F600.000 
G1 X170.472 Y-14.748 Z-1.000 F600.000 
G1 X169.600 Y-14.504 Z-1.000 F600.000 
G1 X169.747 Y-14.911 Z-1.000 F600.000 
G1 X169.795 Y-15.195 Z-1.000 F600.000 
G1 X169.764 Y-15.419 Z-1.000 F600.000 
G1 X169.688 Y-15.570 Z-1.000 F600.000 
G1 X169.510 Y-15.769 Z-1.000 F600.000 
G1 X169.275 Y-15.929 Z-1.000 F600.000 
G1 X168.969 Y-16.056 Z-1.000 F600.000 
G1 X168.563 Y-16.156 Z-1.000 F600.000 
G1 X168.284 Y-16.205 Z-1.000 F600.000 
G1 X167.442 Y-16.250 Z-1.000 F600.000 
G1 X166.618 Y-16.220 Z-1.000 F600.000 
G1 X166.060 Y-16.157 Z-1.000 F600.000 
G1 X165.507 Y-16.057 Z-1.000 F600.000 
G1 X165.751 Y-16.473 Z-1.000 F600.000 
G1 X165.874 Y-16.782 Z-1.000 F600.000 
G1 X165.904 Y-17.047 Z-1.000 F600.000 
G1 X165.874 Y-17.232 Z-1.000 F600.000 
G1 X165.778 Y-17.453 Z-1.000 F600.000 
G1 X165.620 Y-17.644 Z-1.000 F600.000 
G1 X165.393 Y-17.813 Z-1.000 F600.000 
G1 X165.083 Y-17.960 Z-1.000 F600.000 
G1 X164.783 Y-18.059 Z-1.000 F600.000 
G1 X164.190 Y-18.165 Z-1.000 F600.000 
G1 X163.550 Y-18.208 Z-1.000 F600.000 
G1 X162.856 Y-18.184 Z-1.000 F600.000 
G1 X162.096 Y-18.090 Z-1.000 F600.000 
G1 X161.625 Y-18.002 Z-1.000 F600.000 
G1 X161.827 Y-18.388 Z-1.000 F600.000 
G1 X161.933 Y-18.721 Z-1.000 F600.000 
G1 X161.949 Y-19.002 Z-1.000 F600.000 
G1 X161.868 Y-19.292 Z-1.000 F600.000 
G1 X161.691 Y-19.520 Z-1.000 F600.000 
G1 X161.452 Y-19.715 Z-1.000 F600.000 
G1 X161.146 Y-19.875 Z-1.000 F600.000 
G1 X160.639 Y-20.027 Z-1.000 F600.000 
G1 X159.998 Y-20.119 Z-1.000 F600.000 
G1 X159.336 Y-20.143 Z-1.000 F600.000 
G1 X158.662 Y-20.094 Z-1.000 F600.000 
G1 X157.986 Y-19.974 Z-1.000 F600.000 
G1 X157.451 Y-19.825 Z-1.000 F600.000 
G1 X157.738 Y-20.371 Z-1.000 F600.000 
G1 X157.848 Y-20.706 Z-1.000 F600.000 
G1 X157.869 Y-20.997 Z-1.000 F600.000 
G1 X157.845 Y-21.155 Z-1.000 F600.000 
G1 X157.742 Y-21.388 Z-1.000 F600.000 
G1 X157.576 Y-21.595 Z-1.000 F600.000 
G1 X157.341 Y-21.779 Z-1.000 F600.000 
G1 X157.032 Y-21.935 Z-1.000 F600.000 
G1 X156.728 Y-22.034 Z-1.000 F600.000 
G1 X156.158 Y-22.139 Z-1.000 F600.000 
G1 X155.550 Y-22.180 Z-1.000 F600.000 
G1 X154.899 Y-22.153 Z-1.000 F600.000 
G1 X154.202 Y-22.055 Z-1.000 F600.000 
G1 X153.431 Y-21.874 Z-1.000 F600.000 
G1 X153.614 Y-22.217 Z-1.000 F600.000 
G1 X153.736 Y-22.558 Z-1.000 F600.000 
G1 X153.764 Y-22.839 Z-1.000 F600.000 
G1 X153.737 Y-23.012 Z-1.000 F600.000 
G1 X153.666 Y-23.182 Z-1.000 F600.000 
G1 X153.480 Y-23.383 Z-1.000 F600.000 
G1 X153.235 Y-23.546 Z-1.000 F600.000 
G1 X152.922 Y-23.673 Z-1.000 F600.000 
G1 X152.447 Y-23.776 Z-1.000 F600.000 
G1 X151.800 Y-23.819 Z-1.000 F600.000 
G1 X151.126 Y-23.793 Z-1.000 F600.000 
G1 X150.424 Y-23.695 Z-1.000 F600.000 
G1 X149.700 Y-23.522 Z-1.000 F600.000 
G1 X148.903 Y-23.251 Z-1.000 F600.000 
G1 X149.005 Y-23.702 Z-1.000 F600.000 
G1 X149.048 Y-24.101 Z-1.000 F600.000 
G1 X149.013 Y-24.416 Z-1.000 F600.000 
G1 X148.907 Y-24.683 Z-1.000 F600.000 
G1 X148.739 Y-24.891 Z-1.000 F600.000 
G1 X148.515 Y-25.060 Z-1.000 F600.000 
G1 X148.227 Y-25.190 Z-1.000 F600.000 
G1 X147.869 Y-25.278 Z-1.000 F600.000 
G1 X147.573 Y-25.312 Z-1.000 F600.000 
G1 X146.986 Y-25.300 Z-1.000 F600.000 
G1 X146.389 Y-25.216 Z-1.000 F600.000 
G1 X145.792 Y-25.060 Z-1.000 F600.000 
G1 X145.207 Y-24.833 Z-1.000 F600.000 
G1 X144.648 Y-24.537 Z-1.000 F600.000 
G1 X144.510 Y-24.452 Z-1.000 F600.000 
G1 X144.376 Y-24.362 Z-1.000 F600.000 
G1 X144.365 Y-24.822 Z-1.000 F600.000 
G1 X144.307 Y-25.146 Z-1.000 F600.000 
G1 X144.232 Y-25.324 Z-1.000 F600.000 
G1 X144.114 Y-25.486 Z-1.000 F600.000 
G1 X143.902 Y-25.665 Z-1.000 F600.000 
G1 X143.641 Y-25.794 Z-1.000 F600.000 
G1 X143.323 Y-25.875 Z-1.000 F600.000 
G1 X142.940 Y-25.905 Z-1.000 F600.000 
G1 X142.568 Y-25.886 Z-1.000 F600.000 
G1 X142.030 Y-25.796 Z-1.000 F600.000 
G1 X141.489 Y-25.633 Z-1.000 F600.000 
G1 X140.948 Y-25.397 Z-1.000 F600.000 
G1 X140.413 Y-25.085 Z-1.000 F600.000 
G1 X140.134 Y-24.889 Z-1.000 F600.000 
G1 X139.996 Y-25.194 Z-1.000 F600.000 
G1 X139.802 Y-25.447 Z-1.000 F600.000 
G1 X139.573 Y-25.623 Z-1.000 F600.000 
G1 X139.409 Y-25.696 Z-1.000 F600.000 
G1 X139.230 Y-25.737 Z-1.000 F600.000 
G1 X138.789 Y-25.764 Z-1.000 F600.000 
G1 X138.336 Y-25.720 Z-1.000 F600.000 
G1 X137.874 Y-25.604 Z-1.000 F600.000 
G1 X137.411 Y-25.414 Z-1.000 F600.000 
G1 X136.958 Y-25.152 Z-1.000 F600.000 
G1 X136.530 Y-24.822 Z-1.000 F600.000 
G1 X136.255 Y-24.555 Z-1.000 F600.000 
G1 X136.138 Y-24.843 Z-1.000 F600.000 
G1 X135.964 Y-25.077 Z-1.000 F600.000 
G1 X135.759 Y-25.230 Z-1.000 F600.000 
G1 X135.484 Y-25.309 Z-1.000 F600.000 
G1 X135.087 Y-25.306 Z-1.000 F600.000 
G1 X134.683 Y-25.233 Z-1.000 F600.000 
G1 X134.269 Y-25.087 Z-1.000 F600.000 
G1 X133.846 Y-24.863 Z-1.000 F600.000 
G1 X133.418 Y-24.559 Z-1.000 F600.000 
G1 X133.137 Y-24.313 Z-1.000 F600.000 
G1 X132.879 Y-24.052 Z-1.000 F600.000 
G1 X132.707 Y-24.349 Z-1.000 F600.000 
G1 X132.512 Y-24.547 Z-1.000 F600.000 
G1 X132.302 Y-24.657 Z-1.000 F600.000 
G1 X132.134 Y-24.687 Z-1.000 F600.000 
G1 X131.773 Y-24.682 Z-1.000 F600.000 
G1 X131.408 Y-24.607 Z-1.000 F600.000 
G1 X131.046 Y-24.460 Z-1.000 F600.000 
G1 X130.698 Y-24.242 Z-1.000 F600.000 
G1 X130.381 Y-23.960 Z-1.000 F600.000 
G1 X130.252 Y-23.812 Z-1.000 F600.000 
G1 X130.135 Y-23.655 Z-1.000 F600.000 
G1 X129.899 Y-23.947 Z-1.000 F600.000 
G1 X129.618 Y-24.179 Z-1.000 F600.000 
G1 X129.313 Y-24.334 Z-1.000 F600.000 
G1 X129.001 Y-24.410 Z-1.000 F600.000 
G1 X128.804 Y-24.418 Z-1.000 F600.000 
G1 X128.466 Y-24.386 Z-1.000 F600.000 
G1 X128.129 Y-24.285 Z-1.000 F600.000 
G1 X127.782 Y-24.110 Z-1.000 F600.000 
G1 X127.412 Y-23.848 Z-1.000 F600.000 
G1 X126.924 Y-23.408 Z-1.000 F600.000 
G1 X126.760 Y-23.288 Z-1.000 F600.000 
G1 X126.589 Y-23.247 Z-1.000 F600.000 
G1 X126.405 Y-23.272 Z-1.000 F600.000 
G1 X126.196 Y-23.370 Z-1.000 F600.000 
G1 X125.964 Y-23.554 Z-1.000 F600.000 
G1 X125.801 Y-23.727 Z-1.000 F600.000 
G1 X125.670 Y-23.897 Z-1.000 F600.000 
G1 X126.217 Y-24.137 Z-1.000 F600.000 
G1 X126.813 Y-24.391 Z-1.000 F600.000 
G1 X127.130 Y-24.556 Z-1.000 F600.000 
G1 X127.430 Y-24.754 Z-1.000 F600.000 
G1 X127.747 Y-25.049 Z-1.000 F600.000 
G1 X128.020 Y-25.399 Z-1.000 F600.000 
G1 X128.235 Y-25.794 Z-1.000 F600.000 
G1 X128.383 Y-26.217 Z-1.000 F600.000 
G1 X128.458 Y-26.652 Z-1.000 F600.000 
G1 X128.467 Y-26.876 Z-1.000 F600.000 
G1 X128.456 Y-27.100 Z-1.000 F600.000 
G1 X128.394 Y-27.539 Z-1.000 F600.000 
G1 X128.260 Y-27.974 Z-1.000 F600.000 
G1 X128.054 Y-28.401 Z-1.000 F600.000 
G1 X127.778 Y-28.812 Z-1.000 F600.000 
G1 X127.434 Y-29.196 Z-1.000 F600.000 
G1 X127.159 Y-29.439 Z-1.000 F600.000 
G1 X126.864 Y-29.654 Z-1.000 F600.000 
G1 X126.353 Y-29.959 Z-1.000 F600.000 
G1 X125.787 Y-30.216 Z-1.000 F600.000 
G1 X125.158 Y-30.424 Z-1.000 F600.000 
G1 X124.455 Y-30.584 Z-1.000 F600.000 
G1 X123.664 Y-30.693 Z-1.000 F600.000 
G1 X123.162 Y-30.731 Z-1.000 F600.000 
G1 X122.662 Y-30.751 Z-1.000 F600.000 
G1 X122.452 Y-30.794 Z-1.000 F600.000 
G1 X122.253 Y-30.907 Z-1.000 F600.000 
G1 X122.142 Y-31.048 Z-1.000 F600.000 
G1 X122.113 Y-31.157 Z-1.000 F600.000 
G1 X122.128 Y-31.279 Z-1.000 F600.000 
G1 X122.279 Y-31.453 Z-1.000 F600.000 
G1 X122.502 Y-31.614 Z-1.000 F600.000 
G1 X122.793 Y-31.776 Z-1.000 F600.000 
G1 X123.068 Y-31.957 Z-1.000 F600.000 
G1 X123.332 Y-31.708 Z-1.000 F600.000 
G1 X123.629 Y-31.496 Z-1.000 F600.000 
G1 X123.901 Y-31.387 Z-1.000 F600.000 
G1 X124.071 Y-31.362 Z-1.000 F600.000 
G1 X124.358 Y-31.358 Z-1.000 F600.000 
G1 X124.657 Y-31.423 Z-1.000 F600.000 
G1 X124.978 Y-31.562 Z-1.000 F600.000 
G1 X125.403 Y-31.838 Z-1.000 F600.000 
G1 X125.620 Y-31.602 Z-1.000 F600.000 
G1 X125.884 Y-31.418 Z-1.000 F600.000 
G1 X126.189 Y-31.291 Z-1.000 F600.000 
G1 X126.526 Y-31.228 Z-1.000 F600.000 
G1 X126.876 Y-31.236 Z-1.000 F600.000 
G1 X127.221 Y-31.316 Z-1.000 F600.000 
G1 X127.526 Y-31.458 Z-1.000 F600.000 
G1 X128.196 Y-31.911 Z-1.000 F600.000 
G1 X128.722 Y-32.355 Z-1.000 F600.000 
G1 X129.135 Y-32.800 Z-1.000 F600.000 
G1 X129.403 Y-33.176 Z-1.000 F600.000 
G1 X129.546 Y-33.555 Z-1.000 F600.000 
G1 X129.620 Y-33.951 Z-1.000 F600.000 
G1 X129.624 Y-34.362 Z-1.000 F600.000 
G1 X129.558 Y-34.785 Z-1.000 F600.000 
G1 X129.419 Y-35.214 Z-1.000 F600.000 
G1 X129.205 Y-35.639 Z-1.000 F600.000 
G1 X128.921 Y-36.046 Z-1.000 F600.000 
G1 X128.575 Y-36.417 Z-1.000 F600.000 
G1 X128.181 Y-36.733 Z-1.000 F600.000 
G1 X127.757 Y-36.980 Z-1.000 F600.000 
G1 X127.534 Y-37.077 Z-1.000 F600.000 
G1 X127.341 Y-37.128 Z-1.000 F600.000 
G1 X127.133 Y-37.111 Z-1.000 F600.000 
G1 X126.981 Y-37.029 Z-1.000 F600.000 
G1 X126.917 Y-36.949 Z-1.000 F600.000 
G1 X126.880 Y-36.843 Z-1.000 F600.000 
G1 X126.922 Y-36.401 Z-1.000 F600.000 
G1 X127.035 Y-35.780 Z-1.000 F600.000 
G1 X127.077 Y-35.537 Z-1.000 F600.000 
G1 X127.107 Y-35.292 Z-1.000 F600.000 
G1 X126.701 Y-35.927 Z-1.000 F600.000 
G1 X126.301 Y-36.418 Z-1.000 F600.000 
G1 X125.898 Y-36.795 Z-1.000 F600.000 
G1 X125.486 Y-37.077 Z-1.000 F600.000 
G1 X125.250 Y-37.198 Z-1.000 F600.000 
G1 X125.073 Y-37.252 Z-1.000 F600.000 
G1 X124.871 Y-37.241 Z-1.000 F600.000 
G1 X124.679 Y-37.161 Z-1.000 F600.000 
G1 X124.540 Y-37.025 Z-1.000 F600.000 
G1 X124.475 Y-36.858 Z-1.000 F600.000 
G1 X124.470 Y-36.789 Z-1.000 F600.000 
G1 X124.477 Y-36.715 Z-1.000 F600.000 
G1 X124.600 Y-36.129 Z-1.000 F600.000 
G1 X124.726 Y-35.444 Z-1.000 F600.000 
G1 X124.324 Y-36.037 Z-1.000 F600.000 
G1 X123.923 Y-36.498 Z-1.000 F600.000 
G1 X123.514 Y-36.854 Z-1.000 F600.000 
G1 X123.065 Y-37.134 Z-1.000 F600.000 
G1 X122.841 Y-37.204 Z-1.000 F600.000 
G1 X122.588 Y-37.207 Z-1.000 F600.000 
G1 X122.378 Y-37.140 Z-1.000 F600.000 
G1 X122.235 Y-37.018 Z-1.000 F600.000 
G1 X122.156 Y-36.846 Z-1.000 F600.000 
G1 X122.145 Y-36.557 Z-1.000 F600.000 
G1 X122.194 Y-36.196 Z-1.000 F600.000 
G1 X122.277 Y-35.704 Z-1.000 F600.000 
G1 X122.279 Y-35.367 Z-1.000 F600.000 
G1 X122.245 Y-35.191 Z-1.000 F600.000 
G1 X122.144 Y-35.017 Z-1.000 F600.000 
G1 X121.777 Y-34.665 Z-1.000 F600.000 
G1 X121.637 Y-35.138 Z-1.000 F600.000 
G1 X121.427 Y-35.595 Z-1.000 F600.000 
G1 X121.150 Y-36.022 Z-1.000 F600.000 
G1 X120.815 Y-36.408 Z-1.000 F600.000 
G1 X120.432 Y-36.738 Z-1.000 F600.000 
G1 X120.139 Y-36.932 Z-1.000 F600.000 
G1 X119.827 Y-37.094 Z-1.000 F600.000 
G1 X119.625 Y-37.149 Z-1.000 F600.000 
G1 X119.165 Y-37.166 Z-1.000 F600.000 
G1 X119.094 Y-36.897 Z-1.000 F600.000 
G1 X119.084 Y-36.596 Z-1.000 F600.000 
G1 X119.135 Y-36.223 Z-1.000 F600.000 
G1 X119.229 Y-35.780 Z-1.000 F600.000 
G1 X119.291 Y-35.338 Z-1.000 F600.000 
G1 X118.905 Y-35.956 Z-1.000 F600.000 
G1 X118.504 Y-36.458 Z-1.000 F600.000 
G1 X118.088 Y-36.859 Z-1.000 F600.000 
G1 X117.816 Y-37.066 Z-1.000 F600.000 
G1 X117.523 Y-37.245 Z-1.000 F600.000 
G1 X117.323 Y-37.314 Z-1.000 F600.000 
G1 X117.097 Y-37.318 Z-1.000 F600.000 
G1 X116.891 Y-37.250 Z-1.000 F600.000 
G1 X116.746 Y-37.127 Z-1.000 F600.000 
G1 X116.669 Y-36.963 Z-1.000 F600.000 
G1 X116.660 Y-36.910 Z-1.000 F600.000 
G1 X116.656 Y-36.854 Z-1.000 F600.000 
G1 X116.790 Y-36.178 Z-1.000 F600.000 
G1 X116.896 Y-35.487 Z-1.000 F600.000 
G1 X116.589 Y-36.004 Z-1.000 F600.000 
G1 X116.234 Y-36.456 Z-1.000 F600.000 
G1 X115.841 Y-36.837 Z-1.000 F600.000 
G1 X115.325 Y-37.198 Z-1.000 F600.000 
G1 X115.101 Y-37.288 Z-1.000 F600.000 
G1 X114.846 Y-37.313 Z-1.000 F600.000 
G1 X114.621 Y-37.263 Z-1.000 F600.000 
G1 X114.455 Y-37.152 Z-1.000 F600.000 
G1 X114.349 Y-36.988 Z-1.000 F600.000 
G1 X114.323 Y-36.726 Z-1.000 F600.000 
G1 X114.355 Y-36.405 Z-1.000 F600.000 
G1 X114.450 Y-35.893 Z-1.000 F600.000 
G1 X114.467 Y-35.557 Z-1.000 F600.000 
G1 X114.411 Y-35.289 Z-1.000 F600.000 
G1 X114.387 Y-35.229 Z-1.000 F600.000 
G1 X114.357 Y-35.170 Z-1.000 F600.000 
G1 X114.019 Y-34.846 Z-1.000 F600.000 
G1 X113.549 Y-34.483 Z-1.000 F600.000 
G1 X112.739 Y-33.885 Z-1.000 F600.000 
G1 X112.343 Y-33.515 Z-1.000 F600.000 
G1 X111.996 Y-33.042 Z-1.000 F600.000 
G1 X111.576 Y-33.617 Z-1.000 F600.000 
G1 X111.190 Y-34.264 Z-1.000 F600.000 
G1 X110.841 Y-34.988 Z-1.000 F600.000 
G1 X110.651 Y-35.457 Z-1.000 F600.000 
G1 X110.570 Y-35.641 Z-1.000 F600.000 
G1 X110.432 Y-35.786 Z-1.000 F600.000 
G1 X110.240 Y-35.887 Z-1.000 F600.000 
G1 X110.000 Y-35.935 Z-1.000 F600.000 
G1 X109.739 Y-35.915 Z-1.000 F600.000 
G1 X109.501 Y-35.824 Z-1.000 F600.000 
G1 X109.322 Y-35.678 Z-1.000 F600.000 
G1 X109.204 Y-35.461 Z-1.000 F600.000 
G1 X109.089 Y-34.771 Z-1.000 F600.000 
G1 X108.266 Y-35.442 Z-1.000 F600.000 
G1 X107.722 Y-35.821 Z-1.000 F600.000 
G1 X107.241 Y-36.071 Z-1.000 F600.000 
G1 X106.940 Y-36.181 Z-1.000 F600.000 
G1 X106.151 Y-36.402 Z-1.000 F600.000 
G1 X105.460 Y-36.521 Z-1.000 F600.000 
G1 X104.851 Y-36.550 Z-1.000 F600.000 
G1 X104.311 Y-36.501 Z-1.000 F600.000 
G1 X103.834 Y-36.382 Z-1.000 F600.000 
G1 X103.410 Y-36.199 Z-1.000 F600.000 
G1 X103.201 Y-36.074 Z-1.000 F600.000 
G1 X102.416 Y-36.280 Z-1.000 F600.000 
G1 X101.623 Y-36.412 Z-1.000 F600.000 
G1 X100.836 Y-36.469 Z-1.000 F600.000 
G1 X100.064 Y-36.451 Z-1.000 F600.000 
G1 X99.317 Y-36.360 Z-1.000 F600.000 
G1 X99.097 Y-36.319 Z-1.000 F600.000 
G1 X98.877 Y-36.270 Z-1.000 F600.000 
G1 X98.398 Y-36.121 Z-1.000 F600.000 
G1 X98.042 Y-35.944 Z-1.000 F600.000 
G1 X97.793 Y-35.742 Z-1.000 F600.000 
G1 X97.628 Y-35.511 Z-1.000 F600.000 
G1 X97.550 Y-35.313 Z-1.000 F600.000 
G1 X96.500 Y-35.540 Z-1.000 F600.000 
G1 X95.557 Y-35.666 Z-1.000 F600.000 
G1 X94.699 Y-35.705 Z-1.000 F600.000 
G1 X93.918 Y-35.665 Z-1.000 F600.000 
G1 X93.201 Y-35.553 Z-1.000 F600.000 
G1 X92.846 Y-35.467 Z-1.000 F600.000 
G1 X92.495 Y-35.359 Z-1.000 F600.000 
G1 X92.157 Y-35.220 Z-1.000 F600.000 
G1 X91.855 Y-35.018 Z-1.000 F600.000 
G1 X91.611 Y-34.766 Z-1.000 F600.000 
G1 X91.437 Y-34.482 Z-1.000 F600.000 
G1 X91.338 Y-34.177 Z-1.000 F600.000 
G1 X91.320 Y-34.057 Z-1.000 F600.000 
G1 X91.313 Y-33.934 Z-1.000 F600.000 
G1 X90.334 Y-34.033 Z-1.000 F600.000 
G1 X89.489 Y-34.044 Z-1.000 F600.000 
G1 X88.738 Y-33.980 Z-1.000 F600.000 
G1 X88.066 Y-33.846 Z-1.000 F600.000 
G1 X87.612 Y-33.706 Z-1.000 F600.000 
G1 X87.101 Y-33.470 Z-1.000 F600.000 
G1 X86.685 Y-33.196 Z-1.000 F600.000 
G1 X86.367 Y-32.898 Z-1.000 F600.000 
G1 X86.140 Y-32.583 Z-1.000 F600.000 
G1 X85.998 Y-32.255 Z-1.000 F600.000 
G1 X85.971 Y-32.160 Z-1.000 F600.000 
G1 X85.951 Y-32.063 Z-1.000 F600.000 
G1 X88.358 Y-30.377 Z-1.000 F600.000 
G1 X91.147 Y-28.504 Z-1.000 F600.000 
G1 X92.806 Y-27.420 Z-1.000 F600.000 
G1 X94.470 Y-26.345 Z-1.000 F600.000 
G1 X94.341 Y-26.163 Z-1.000 F600.000 
G1 X94.277 Y-25.954 Z-1.000 F600.000 
G1 X94.284 Y-25.738 Z-1.000 F600.000 
G1 X94.364 Y-25.540 Z-1.000 F600.000 
G1 X94.582 Y-25.330 Z-1.000 F600.000 
G1 X95.828 Y-24.478 Z-1.000 F600.000 
G1 X97.579 Y-23.347 Z-1.000 F600.000 
G1 X98.106 Y-23.008 Z-1.000 F600.000 
G1 X98.630 Y-22.665 Z-1.000 F600.000 
G1 X97.171 Y-23.170 Z-1.000 F600.000 
G1 X95.988 Y-23.527 Z-1.000 F600.000 
G1 X95.010 Y-23.749 Z-1.000 F600.000 
G1 X94.146 Y-23.869 Z-1.000 F600.000 
G1 X93.354 Y-23.903 Z-1.000 F600.000 
G1 X93.056 Y-23.894 Z-1.000 F600.000 
G1 X92.758 Y-23.872 Z-1.000 F600.000 
G1 X92.354 Y-23.795 Z-1.000 F600.000 
G1 X92.056 Y-23.675 Z-1.000 F600.000 
G1 X91.853 Y-23.517 Z-1.000 F600.000 
G1 X91.716 Y-23.305 Z-1.000 F600.000 
G1 X91.680 Y-23.081 Z-1.000 F600.000 
G1 X91.708 Y-22.833 Z-1.000 F600.000 
G1 X91.806 Y-22.527 Z-1.000 F600.000 
G1 X91.943 Y-22.180 Z-1.000 F600.000 
G1 X90.636 Y-22.577 Z-1.000 F600.000 
G1 X89.557 Y-22.837 Z-1.000 F600.000 
G1 X88.625 Y-22.987 Z-1.000 F600.000 
G1 X87.763 Y-23.046 Z-1.000 F600.000 
G1 X87.396 Y-23.021 Z-1.000 F600.000 
G1 X86.969 Y-22.949 Z-1.000 F600.000 
G1 X86.660 Y-22.831 Z-1.000 F600.000 
G1 X86.435 Y-22.668 Z-1.000 F600.000 
G1 X86.287 Y-22.477 Z-1.000 F600.000 
G1 X86.226 Y-22.240 Z-1.000 F600.000 
G1 X86.233 Y-21.993 Z-1.000 F600.000 
G1 X86.308 Y-21.724 Z-1.000 F600.000 
G1 X86.463 Y-21.415 Z-1.000 F600.000 
G1 X86.720 Y-21.027 Z-1.000 F600.000 
G1 X85.556 Y-21.289 Z-1.000 F600.000 
G1 X84.259 Y-21.532 Z-1.000 F600.000 
G1 X83.193 Y-21.661 Z-1.000 F600.000 
G1 X82.257 Y-21.700 Z-1.000 F600.000 
G1 X81.773 Y-21.686 Z-1.000 F600.000 
G1 X81.292 Y-21.615 Z-1.000 F600.000 
G1 X80.928 Y-21.497 Z-1.000 F600.000 
G1 X80.672 Y-21.342 Z-1.000 F600.000 
G1 X80.503 Y-21.155 Z-1.000 F600.000 
G1 X80.393 Y-20.867 Z-1.000 F600.000 
G1 X80.411 Y-20.575 Z-1.000 F600.000 
G1 X80.498 Y-20.271 Z-1.000 F600.000 
G1 X80.663 Y-19.936 Z-1.000 F600.000 
G1 X81.072 Y-19.323 Z-1.000 F600.000 
G1 X78.979 Y-19.602 Z-1.000 F600.000 
G1 X77.770 Y-19.705 Z-1.000 F600.000 
G1 X76.770 Y-19.719 Z-1.000 F600.000 
G1 X76.095 Y-19.679 Z-1.000 F600.000 
G1 X75.650 Y-19.592 Z-1.000 F600.000 
G1 X75.315 Y-19.464 Z-1.000 F600.000 
G1 X75.085 Y-19.302 Z-1.000 F600.000 
G1 X74.938 Y-19.108 Z-1.000 F600.000 
G1 X74.866 Y-18.901 Z-1.000 F600.000 
G1 X74.879 Y-18.614 Z-1.000 F600.000 
G1 X74.961 Y-18.319 Z-1.000 F600.000 
G1 X75.119 Y-17.998 Z-1.000 F600.000 
G1 X75.378 Y-17.616 Z-1.000 F600.000 
G1 X75.632 Y-17.276 Z-1.000 F600.000 
G1 X74.380 Y-17.498 Z-1.000 F600.000 
G1 X73.223 Y-17.627 Z-1.000 F600.000 
G1 X72.141 Y-17.672 Z-1.000 F600.000 
G1 X71.056 Y-17.634 Z-1.000 F600.000 
G1 X70.534 Y-17.558 Z-1.000 F600.000 
G1 X70.049 Y-17.440 Z-1.000 F600.000 
G1 X69.810 Y-17.346 Z-1.000 F600.000 
G1 X69.585 Y-17.221 Z-1.000 F600.000 
G1 X69.407 Y-17.070 Z-1.000 F600.000 
G1 X69.280 Y-16.869 Z-1.000 F600.000 
G1 X69.226 Y-16.648 Z-1.000 F600.000 
G1 X69.258 Y-16.415 Z-1.000 F600.000 
G1 X69.389 Y-16.122 Z-1.000 F600.000 
G1 X69.592 Y-15.832 Z-1.000 F600.000 
G1 X69.891 Y-15.519 Z-1.000 F600.000 
G1 X70.360 Y-15.096 Z-1.000 F600.000 
G1 X68.863 Y-15.312 Z-1.000 F600.000 
G1 X67.595 Y-15.421 Z-1.000 F600.000 
G1 X66.464 Y-15.443 Z-1.000 F600.000 
G1 X65.768 Y-15.415 Z-1.000 F600.000 
G1 X65.354 Y-15.349 Z-1.000 F600.000 
G1 X64.956 Y-15.242 Z-1.000 F600.000 
G1 X64.671 Y-15.096 Z-1.000 F600.000 
G1 X64.536 Y-14.986 Z-1.000 F600.000 
G1 X64.421 Y-14.850 Z-1.000 F600.000 
G1 X64.381 Y-14.599 Z-1.000 F600.000 
G1 X64.411 Y-14.355 Z-1.000 F600.000 
G1 X64.511 Y-14.106 Z-1.000 F600.000 
G1 X64.693 Y-13.836 Z-1.000 F600.000 
G1 X65.380 Y-13.128 Z-1.000 F600.000 
G1 X62.425 Y-13.402 Z-1.000 F600.000 
G1 X60.864 Y-13.482 Z-1.000 F600.000 
G1 X59.560 Y-13.477 Z-1.000 F600.000 
G1 X58.681 Y-13.424 Z-1.000 F600.000 
G1 X57.860 Y-13.293 Z-1.000 F600.000 
G1 X57.448 Y-13.164 Z-1.000 F600.000 
G1 X57.141 Y-12.995 Z-1.000 F600.000 
G1 X56.899 Y-12.768 Z-1.000 F600.000 
G1 X56.806 Y-12.556 Z-1.000 F600.000 
G1 X56.784 Y-12.336 Z-1.000 F600.000 
G1 X56.828 Y-12.095 Z-1.000 F600.000 
G1 X56.946 Y-11.816 Z-1.000 F600.000 
G1 X57.283 Y-11.282 Z-1.000 F600.000 
G1 X55.493 Y-11.379 Z-1.000 F600.000 
G1 X53.494 Y-11.419 Z-1.000 F600.000 
G1 X52.192 Y-11.416 Z-1.000 F600.000 
G1 X50.889 Y-11.395 Z-1.000 F600.000 
G1 X48.856 Y-11.277 Z-1.000 F600.000 
G1 X47.202 Y-11.111 Z-1.000 F600.000 
G1 X45.767 Y-10.892 Z-1.000 F600.000 
G1 X44.481 Y-10.618 Z-1.000 F600.000 
G1 X43.824 Y-10.445 Z-1.000 F600.000 
G1 X42.813 Y-10.115 Z-1.000 F600.000 
G1 X41.992 Y-9.770 Z-1.000 F600.000 
G1 X41.299 Y-9.399 Z-1.000 F600.000 
G1 X40.907 Y-9.142 Z-1.000 F600.000 
G1 X40.533 Y-8.855 Z-1.000 F600.000 
G1 X40.314 Y-8.696 Z-1.000 F600.000 
G1 X40.066 Y-8.609 Z-1.000 F600.000 
G1 X38.657 Y-8.268 Z-1.000 F600.000 
G1 X37.412 Y-7.889 Z-1.000 F600.000 
G1 X36.302 Y-7.472 Z-1.000 F600.000 
G1 X35.307 Y-7.017 Z-1.000 F600.000 
G1 X34.408 Y-6.524 Z-1.000 F600.000 
G1 X33.971 Y-6.250 Z-1.000 F600.000 
G1 X33.544 Y-5.957 Z-1.000 F600.000 
G1 X32.924 Y-5.466 Z-1.000 F600.000 
G1 X32.368 Y-4.931 Z-1.000 F600.000 
G1 X31.887 Y-4.366 Z-1.000 F600.000 
G1 X31.485 Y-3.780 Z-1.000 F600.000 
G1 X31.164 Y-3.180 Z-1.000 F600.000 
G1 X30.922 Y-2.573 Z-1.000 F600.000 
G1 X30.808 Y-2.178 Z-1.000 F600.000 
G1 X30.724 Y-1.773 Z-1.000 F600.000 
G1 X31.387 Y-2.259 Z-1.000 F600.000 
G1 X32.115 Y-2.703 Z-1.000 F600.000 
G1 X32.917 Y-3.110 Z-1.000 F600.000 
G1 X33.803 Y-3.482 Z-1.000 F600.000 
G1 X34.793 Y-3.821 Z-1.000 F600.000 
G1 X35.912 Y-4.132 Z-1.000 F600.000 
G1 X37.212 Y-4.424 Z-1.000 F600.000 
G1 X37.896 Y-4.556 Z-1.000 F600.000 
G1 X39.560 Y-4.818 Z-1.000 F600.000 
G1 X41.347 Y-5.028 Z-1.000 F600.000 
G1 X43.294 Y-5.186 Z-1.000 F600.000 
G1 X45.467 Y-5.295 Z-1.000 F600.000 
G1 X47.843 Y-5.353 Z-1.000 F600.000 
G1 X50.667 Y-5.342 Z-1.000 F600.000 
G1 X53.652 Y-5.259 Z-1.000 F600.000 
G1 X56.843 Y-5.100 Z-1.000 F600.000 
G1 X60.307 Y-4.859 Z-1.000 F600.000 
G1 X63.849 Y-4.551 Z-1.000 F600.000 
G1 X69.197 Y-4.079 Z-1.000 F600.000 
G1 X73.564 Y-3.764 Z-1.000 F600.000 
G1 X77.380 Y-3.563 Z-1.000 F600.000 
G1 X80.840 Y-3.457 Z-1.000 F600.000 
G1 X84.014 Y-3.435 Z-1.000 F600.000 
G1 X86.977 Y-3.490 Z-1.000 F600.000 
G1 X89.776 Y-3.617 Z-1.000 F600.000 
G1 X92.441 Y-3.812 Z-1.000 F600.000 
G1 X93.655 Y-3.927 Z-1.000 F600.000 
G1 X94.869 Y-4.058 Z-1.000 F600.000 
G1 X97.476 Y-4.416 Z-1.000 F600.000 
G1 X99.595 Y-4.777 Z-1.000 F600.000 
G1 X101.431 Y-5.165 Z-1.000 F600.000 
G1 X103.077 Y-5.591 Z-1.000 F600.000 
G1 X104.567 Y-6.054 Z-1.000 F600.000 
G1 X105.143 Y-6.257 Z-1.000 F600.000 
G1 X105.715 Y-6.472 Z-1.000 F600.000 
G1 X106.886 Y-6.964 Z-1.000 F600.000 
G1 X107.978 Y-7.504 Z-1.000 F600.000 
G1 X108.989 Y-8.087 Z-1.000 F600.000 
G1 X109.918 Y-8.708 Z-1.000 F600.000 
G1 X110.766 Y-9.364 Z-1.000 F600.000 
G1 X111.536 Y-10.053 Z-1.000 F600.000 
G1 X112.230 Y-10.773 Z-1.000 F600.000 
G1 X112.713 Y-11.348 Z-1.000 F600.000 
G1 X114.028 Y-11.091 Z-1.000 F600.000 
G1 X115.484 Y-10.876 Z-1.000 F600.000 
G1 X117.152 Y-10.698 Z-1.000 F600.000 
G1 X120.298 Y-10.474 Z-1.000 F600.000 
G1 X122.276 Y-10.409 Z-1.000 F600.000 
G1 X123.992 Y-10.408 Z-1.000 F600.000 
G1 X124.347 Y-10.419 Z-1.000 F600.000 
G1 X124.702 Y-10.434 Z-1.000 F600.000 
G1 X124.392 Y-9.640 Z-1.000 F600.000 
G1 X124.228 Y-9.150 Z-1.000 F600.000 
G1 X125.172 Y-9.493 Z-1.000 F600.000 
G1 X126.159 Y-9.774 Z-1.000 F600.000 
G1 X127.185 Y-9.993 Z-1.000 F600.000 
G1 X128.246 Y-10.145 Z-1.000 F600.000 
G1 X129.070 Y-10.214 Z-1.000 F600.000 
G1 X130.231 Y-10.245 Z-1.000 F600.000 
G1 X131.438 Y-10.326 Z-1.000 F600.000 
G1 X132.414 Y-10.462 Z-1.000 F600.000 
G1 X133.237 Y-10.648 Z-1.000 F600.000 
G1 X134.891 Y-10.291 Z-1.000 F600.000 
G1 X136.652 Y-9.839 Z-1.000 F600.000 
G1 X138.563 Y-9.277 Z-1.000 F600.000 
G1 X140.708 Y-8.575 Z-1.000 F600.000 
G1 X145.326 Y-6.918 Z-1.000 F600.000 
G1 X147.859 Y-6.005 Z-1.000 F600.000 
G1 X149.583 Y-5.441 Z-1.000 F600.000 
G1 X150.280 Y-5.240 Z-1.000 F600.000 
G1 X150.982 Y-5.056 Z-1.000 F600.000 
G1 X152.671 Y-4.679 Z-1.000 F600.000 
G1 X154.449 Y-4.356 Z-1.000 F600.000 
G1 X156.333 Y-4.085 Z-1.000 F600.000 
G1 X158.344 Y-3.867 Z-1.000 F600.000 
G1 X160.515 Y-3.702 Z-1.000 F600.000 
G1 X161.760 Y-3.636 Z-1.000 F600.000 
G1 X163.005 Y-3.587 Z-1.000 F600.000 
G1 X165.749 Y-3.541 Z-1.000 F600.000 
G1 X168.707 Y-3.560 Z-1.000 F600.000 
G1 X171.964 Y-3.651 Z-1.000 F600.000 
G1 X175.691 Y-3.821 Z-1.000 F600.000 
G1 X180.331 Y-4.097 Z-1.000 F600.000 
G1 X188.616 Y-4.612 Z-1.000 F600.000 
G1 X192.905 Y-4.814 Z-1.000 F600.000 
G1 X195.407 Y-4.890 Z-1.000 F600.000 
G1 X198.542 Y-4.901 Z-1.000 F600.000 
G1 X201.077 Y-4.843 Z-1.000 F600.000 
G1 X203.255 Y-4.719 Z-1.000 F600.000 
G1 X205.211 Y-4.532 Z-1.000 F600.000 
G1 X206.421 Y-4.373 Z-1.000 F600.000 
G1 X208.103 Y-4.087 Z-1.000 F600.000 
G1 X209.603 Y-3.756 Z-1.000 F600.000 
G1 X210.954 Y-3.379 Z-1.000 F600.000 
G1 X212.183 Y-2.959 Z-1.000 F600.000 
G1 X213.310 Y-2.495 Z-1.000 F600.000 
G1 X214.350 Y-1.985 Z-1.000 F600.000 
G1 X214.874 Y-1.694 Z-1.000 F600.000 
G0 Z6.000 
G0 Z6.000 
G0 X78.394 Y-4.554 
G0 Z4.000 
G1 X78.394 Y-4.554 Z-1.000 F300.000 
G1 X82.135 Y-4.458 Z-1.000 F600.000 
G1 X85.300 Y-4.451 Z-1.000 F600.000 
G1 X88.120 Y-4.519 Z-1.000 F600.000 
G1 X90.687 Y-4.657 Z-1.000 F600.000 
G1 X93.058 Y-4.860 Z-1.000 F600.000 
G1 X95.278 Y-5.125 Z-1.000 F600.000 
G1 X97.377 Y-5.451 Z-1.000 F600.000 
G1 X98.535 Y-5.665 Z-1.000 F600.000 
G1 X100.615 Y-6.116 Z-1.000 F600.000 
G1 X102.429 Y-6.586 Z-1.000 F600.000 
G1 X104.055 Y-7.086 Z-1.000 F600.000 
G1 X105.585 Y-7.640 Z-1.000 F600.000 
G1 X106.484 Y-8.038 Z-1.000 F600.000 
G1 X107.369 Y-8.510 Z-1.000 F600.000 
G1 X108.239 Y-9.054 Z-1.000 F600.000 
G1 X109.090 Y-9.672 Z-1.000 F600.000 
G1 X109.919 Y-10.361 Z-1.000 F600.000 
G1 X110.719 Y-11.121 Z-1.000 F600.000 
G1 X111.257 Y-11.690 Z-1.000 F600.000 
G1 X111.769 Y-12.281 Z-1.000 F600.000 
G1 X112.474 Y-13.152 Z-1.000 F600.000 
G1 X113.373 Y-14.352 Z-1.000 F600.000 
G1 X114.016 Y-15.214 Z-1.000 F600.000 
G1 X114.683 Y-16.057 Z-1.000 F600.000 
G1 X115.255 Y-16.684 Z-1.000 F600.000 
G1 X115.777 Y-17.164 Z-1.000 F600.000 
G1 X116.259 Y-17.509 Z-1.000 F600.000 
G1 X116.706 Y-17.744 Z-1.000 F600.000 
G1 X117.090 Y-17.890 Z-1.000 F600.000 
G1 X117.534 Y-17.986 Z-1.000 F600.000 
G1 X118.067 Y-18.033 Z-1.000 F600.000 
G1 X118.412 Y-18.039 Z-1.000 F600.000 
G1 X117.656 Y-17.668 Z-1.000 F600.000 
G1 X117.030 Y-17.269 Z-1.000 F600.000 
G1 X117.686 Y-17.104 Z-1.000 F600.000 
G1 X118.456 Y-16.925 Z-1.000 F600.000 
G1 X119.059 Y-16.732 Z-1.000 F600.000 
G1 X119.360 Y-16.600 Z-1.000 F600.000 
G1 X118.331 Y-16.668 Z-1.000 F600.000 
G1 X117.495 Y-16.653 Z-1.000 F600.000 
G1 X117.241 Y-16.632 Z-1.000 F600.000 
G1 X116.987 Y-16.601 Z-1.000 F600.000 
G1 X116.689 Y-16.557 Z-1.000 F600.000 
G1 X116.411 Y-16.446 Z-1.000 F600.000 
G1 X116.145 Y-16.265 Z-1.000 F600.000 
G1 X115.878 Y-16.002 Z-1.000 F600.000 
G1 X115.596 Y-15.632 Z-1.000 F600.000 
G1 X115.399 Y-15.329 Z-1.000 F600.000 
G1 X115.215 Y-15.034 Z-1.000 F600.000 
G1 X115.822 Y-15.145 Z-1.000 F600.000 
G1 X116.466 Y-15.192 Z-1.000 F600.000 
G1 X117.170 Y-15.175 Z-1.000 F600.000 
G1 X117.972 Y-15.089 Z-1.000 F600.000 
G1 X118.973 Y-14.918 Z-1.000 F600.000 
G1 X120.774 Y-14.587 Z-1.000 F600.000 
G1 X121.461 Y-14.503 Z-1.000 F600.000 
G1 X122.152 Y-14.466 Z-1.000 F600.000 
G1 X121.747 Y-14.284 Z-1.000 F600.000 
G1 X121.294 Y-14.155 Z-1.000 F600.000 
G1 X120.768 Y-14.077 Z-1.000 F600.000 
G1 X120.123 Y-14.046 Z-1.000 F600.000 
G1 X118.770 Y-14.049 Z-1.000 F600.000 
G1 X117.823 Y-14.099 Z-1.000 F600.000 
G1 X116.842 Y-14.079 Z-1.000 F600.000 
G1 X116.283 Y-14.038 Z-1.000 F600.000 
G1 X115.727 Y-13.975 Z-1.000 F600.000 
G1 X115.295 Y-13.876 Z-1.000 F600.000 
G1 X114.872 Y-13.707 Z-1.000 F600.000 
G1 X114.600 Y-13.555 Z-1.000 F600.000 
G1 X114.345 Y-13.377 Z-1.000 F600.000 
G1 X114.915 Y-13.262 Z-1.000 F600.000 
G1 X116.129 Y-13.059 Z-1.000 F600.000 
G1 X117.571 Y-12.737 Z-1.000 F600.000 
G1 X119.843 Y-12.179 Z-1.000 F600.000 
G1 X121.454 Y-11.824 Z-1.000 F600.000 
G1 X122.766 Y-11.604 Z-1.000 F600.000 
G1 X123.914 Y-11.487 Z-1.000 F600.000 
G1 X124.264 Y-11.468 Z-1.000 F600.000 
G1 X124.616 Y-11.458 Z-1.000 F600.000 
G1 X126.117 Y-11.466 Z-1.000 F600.000 
G1 X125.823 Y-10.719 Z-1.000 F600.000 
G1 X126.575 Y-10.900 Z-1.000 F600.000 
G1 X127.424 Y-11.033 Z-1.000 F600.000 
G1 X128.435 Y-11.126 Z-1.000 F600.000 
G1 X129.830 Y-11.198 Z-1.000 F600.000 
G1 X130.980 Y-11.264 Z-1.000 F600.000 
G1 X132.069 Y-11.381 Z-1.000 F600.000 
G1 X132.962 Y-11.549 Z-1.000 F600.000 
G1 X133.654 Y-11.743 Z-1.000 F600.000 
G1 X133.877 Y-11.872 Z-1.000 F600.000 
G1 X134.066 Y-12.060 Z-1.000 F600.000 
G1 X134.230 Y-12.318 Z-1.000 F600.000 
G1 X134.377 Y-12.670 Z-1.000 F600.000 
G1 X134.497 Y-13.049 Z-1.000 F600.000 
G1 X134.037 Y-12.591 Z-1.000 F600.000 
G1 X133.555 Y-12.232 Z-1.000 F600.000 
G1 X133.854 Y-12.835 Z-1.000 F600.000 
G1 X134.035 Y-13.360 Z-1.000 F600.000 
G1 X134.069 Y-13.500 Z-1.000 F600.000 
G1 X134.096 Y-13.641 Z-1.000 F600.000 
G1 X134.401 Y-13.664 Z-1.000 F600.000 
G1 X134.898 Y-13.746 Z-1.000 F600.000 
G1 X135.102 Y-13.758 Z-1.000 F600.000 
G1 X135.307 Y-13.739 Z-1.000 F600.000 
G1 X135.834 Y-13.671 Z-1.000 F600.000 
G1 X136.409 Y-13.668 Z-1.000 F600.000 
G1 X137.053 Y-13.732 Z-1.000 F600.000 
G1 X137.805 Y-13.873 Z-1.000 F600.000 
G1 X138.234 Y-13.974 Z-1.000 F600.000 
G1 X138.805 Y-14.178 Z-1.000 F600.000 
G1 X139.233 Y-14.402 Z-1.000 F600.000 
G1 X139.552 Y-14.651 Z-1.000 F600.000 
G1 X139.786 Y-14.928 Z-1.000 F600.000 
G1 X139.883 Y-15.098 Z-1.000 F600.000 
G1 X139.971 Y-15.348 Z-1.000 F600.000 
G1 X140.001 Y-15.637 Z-1.000 F600.000 
G1 X139.975 Y-16.002 Z-1.000 F600.000 
G1 X139.903 Y-16.525 Z-1.000 F600.000 
G1 X139.693 Y-16.272 Z-1.000 F600.000 
G1 X139.437 Y-16.073 Z-1.000 F600.000 
G1 X139.137 Y-15.930 Z-1.000 F600.000 
G1 X138.801 Y-15.848 Z-1.000 F600.000 
G1 X138.441 Y-15.834 Z-1.000 F600.000 
G1 X138.073 Y-15.891 Z-1.000 F600.000 
G1 X137.844 Y-15.965 Z-1.000 F600.000 
G1 X137.622 Y-16.057 Z-1.000 F600.000 
G1 X137.375 Y-16.085 Z-1.000 F600.000 
G1 X137.074 Y-16.056 Z-1.000 F600.000 
G1 X136.589 Y-15.965 Z-1.000 F600.000 
G1 X136.298 Y-15.946 Z-1.000 F600.000 
G1 X135.760 Y-15.976 Z-1.000 F600.000 
G1 X135.209 Y-16.077 Z-1.000 F600.000 
G1 X134.646 Y-16.253 Z-1.000 F600.000 
G1 X134.068 Y-16.507 Z-1.000 F600.000 
G1 X133.479 Y-16.842 Z-1.000 F600.000 
G1 X133.120 Y-17.084 Z-1.000 F600.000 
G1 X132.778 Y-17.344 Z-1.000 F600.000 
G1 X132.621 Y-17.447 Z-1.000 F600.000 
G1 X132.354 Y-17.558 Z-1.000 F600.000 
G1 X132.168 Y-17.664 Z-1.000 F600.000 
G1 X132.046 Y-17.825 Z-1.000 F600.000 
G1 X132.164 Y-17.966 Z-1.000 F600.000 
G1 X132.284 Y-18.011 Z-1.000 F600.000 
G1 X132.421 Y-17.989 Z-1.000 F600.000 
G1 X132.612 Y-17.892 Z-1.000 F600.000 
G1 X132.934 Y-17.706 Z-1.000 F600.000 
G1 X133.127 Y-17.655 Z-1.000 F600.000 
G1 X133.238 Y-17.668 Z-1.000 F600.000 
G1 X134.365 Y-17.760 Z-1.000 F600.000 
G1 X135.307 Y-17.842 Z-1.000 F600.000 
G1 X136.338 Y-17.888 Z-1.000 F600.000 
G1 X137.171 Y-17.856 Z-1.000 F600.000 
G1 X137.895 Y-17.754 Z-1.000 F600.000 
G1 X138.065 Y-17.718 Z-1.000 F600.000 
G1 X138.235 Y-17.676 Z-1.000 F600.000 
G1 X138.081 Y-17.963 Z-1.000 F600.000 
G1 X137.868 Y-18.208 Z-1.000 F600.000 
G1 X137.606 Y-18.400 Z-1.000 F600.000 
G1 X137.309 Y-18.527 Z-1.000 F600.000 
G1 X136.742 Y-18.704 Z-1.000 F600.000 
G1 X136.124 Y-18.825 Z-1.000 F600.000 
G1 X135.430 Y-18.890 Z-1.000 F600.000 
G1 X134.607 Y-18.902 Z-1.000 F600.000 
G1 X133.496 Y-18.860 Z-1.000 F600.000 
G1 X132.503 Y-18.823 Z-1.000 F600.000 
G1 X131.577 Y-18.842 Z-1.000 F600.000 
G1 X130.762 Y-18.938 Z-1.000 F600.000 
G1 X130.257 Y-19.078 Z-1.000 F600.000 
G1 X129.736 Y-19.293 Z-1.000 F600.000 
G1 X129.176 Y-19.598 Z-1.000 F600.000 
G1 X128.523 Y-20.027 Z-1.000 F600.000 
G1 X127.293 Y-20.896 Z-1.000 F600.000 
G1 X126.457 Y-21.452 Z-1.000 F600.000 
G1 X125.728 Y-21.850 Z-1.000 F600.000 
G1 X125.057 Y-22.132 Z-1.000 F600.000 
G1 X124.442 Y-22.312 Z-1.000 F600.000 
G1 X124.600 Y-22.105 Z-1.000 F600.000 
G1 X124.913 Y-21.733 Z-1.000 F600.000 
G1 X125.010 Y-21.522 Z-1.000 F600.000 
G1 X125.021 Y-21.313 Z-1.000 F600.000 
G1 X124.782 Y-21.281 Z-1.000 F600.000 
G1 X124.514 Y-21.313 Z-1.000 F600.000 
G1 X124.182 Y-21.414 Z-1.000 F600.000 
G1 X123.900 Y-21.518 Z-1.000 F600.000 
G1 X123.405 Y-21.738 Z-1.000 F600.000 
G1 X122.821 Y-22.066 Z-1.000 F600.000 
G1 X122.394 Y-22.327 Z-1.000 F600.000 
G1 X121.962 Y-22.582 Z-1.000 F600.000 
G1 X122.834 Y-21.684 Z-1.000 F600.000 
G1 X123.660 Y-20.942 Z-1.000 F600.000 
G1 X124.457 Y-20.328 Z-1.000 F600.000 
G1 X125.231 Y-19.827 Z-1.000 F600.000 
G1 X126.168 Y-19.342 Z-1.000 F600.000 
G1 X125.817 Y-19.315 Z-1.000 F600.000 
G1 X125.440 Y-19.355 Z-1.000 F600.000 
G1 X125.024 Y-19.466 Z-1.000 F600.000 
G1 X124.346 Y-19.757 Z-1.000 F600.000 
G1 X123.587 Y-20.174 Z-1.000 F600.000 
G1 X122.547 Y-20.806 Z-1.000 F600.000 
G1 X121.632 Y-21.341 Z-1.000 F600.000 
G1 X120.861 Y-21.722 Z-1.000 F600.000 
G1 X120.240 Y-21.976 Z-1.000 F600.000 
G1 X119.571 Y-22.172 Z-1.000 F600.000 
G1 X118.850 Y-22.310 Z-1.000 F600.000 
G1 X118.075 Y-22.387 Z-1.000 F600.000 
G1 X117.241 Y-22.399 Z-1.000 F600.000 
G1 X116.815 Y-22.380 Z-1.000 F600.000 
G1 X116.391 Y-22.347 Z-1.000 F600.000 
G1 X115.853 Y-22.234 Z-1.000 F600.000 
G1 X115.422 Y-22.083 Z-1.000 F600.000 
G1 X115.104 Y-21.897 Z-1.000 F600.000 
G1 X114.869 Y-21.673 Z-1.000 F600.000 
G1 X114.724 Y-21.452 Z-1.000 F600.000 
G1 X115.517 Y-21.570 Z-1.000 F600.000 
G1 X116.364 Y-21.647 Z-1.000 F600.000 
G1 X117.055 Y-21.638 Z-1.000 F600.000 
G1 X117.655 Y-21.557 Z-1.000 F600.000 
G1 X117.951 Y-21.484 Z-1.000 F600.000 
G1 X118.454 Y-21.312 Z-1.000 F600.000 
G1 X118.950 Y-21.068 Z-1.000 F600.000 
G1 X119.432 Y-20.751 Z-1.000 F600.000 
G1 X119.892 Y-20.364 Z-1.000 F600.000 
G1 X120.178 Y-20.073 Z-1.000 F600.000 
G1 X119.451 Y-20.408 Z-1.000 F600.000 
G1 X118.730 Y-20.658 Z-1.000 F600.000 
G1 X118.032 Y-20.821 Z-1.000 F600.000 
G1 X117.364 Y-20.901 Z-1.000 F600.000 
G1 X116.732 Y-20.901 Z-1.000 F600.000 
G1 X116.136 Y-20.827 Z-1.000 F600.000 
G1 X115.684 Y-20.716 Z-1.000 F600.000 
G1 X116.553 Y-20.461 Z-1.000 F600.000 
G1 X117.342 Y-20.151 Z-1.000 F600.000 
G1 X117.795 Y-19.931 Z-1.000 F600.000 
G1 X118.235 Y-19.684 Z-1.000 F600.000 
G1 X117.465 Y-19.670 Z-1.000 F600.000 
G1 X116.681 Y-19.584 Z-1.000 F600.000 
G1 X115.883 Y-19.424 Z-1.000 F600.000 
G1 X115.075 Y-19.189 Z-1.000 F600.000 
G1 X114.262 Y-18.879 Z-1.000 F600.000 
G1 X113.452 Y-18.493 Z-1.000 F600.000 
G1 X112.517 Y-17.946 Z-1.000 F600.000 
G1 X111.761 Y-17.427 Z-1.000 F600.000 
G1 X110.969 Y-16.801 Z-1.000 F600.000 
G1 X110.107 Y-16.033 Z-1.000 F600.000 
G1 X109.680 Y-15.626 Z-1.000 F600.000 
G1 X108.712 Y-14.567 Z-1.000 F600.000 
G1 X107.888 Y-13.692 Z-1.000 F600.000 
G1 X107.390 Y-13.212 Z-1.000 F600.000 
G1 X106.866 Y-12.760 Z-1.000 F600.000 
G1 X105.987 Y-12.081 Z-1.000 F600.000 
G1 X105.035 Y-11.435 Z-1.000 F600.000 
G1 X104.003 Y-10.822 Z-1.000 F600.000 
G1 X102.885 Y-10.240 Z-1.000 F600.000 
G1 X101.670 Y-9.687 Z-1.000 F600.000 
G1 X100.348 Y-9.162 Z-1.000 F600.000 
G1 X99.151 Y-8.744 Z-1.000 F600.000 
G1 X97.518 Y-8.258 Z-1.000 F600.000 
G1 X95.812 Y-7.824 Z-1.000 F600.000 
G1 X94.022 Y-7.442 Z-1.000 F600.000 
G1 X92.137 Y-7.113 Z-1.000 F600.000 
G1 X90.142 Y-6.836 Z-1.000 F600.000 
G1 X88.016 Y-6.613 Z-1.000 F600.000 
G1 X85.729 Y-6.442 Z-1.000 F600.000 
G1 X81.873 Y-6.288 Z-1.000 F600.000 
G1 X79.777 Y-6.251 Z-1.000 F600.000 
G1 X77.937 Y-6.296 Z-1.000 F600.000 
G1 X75.699 Y-6.342 Z-1.000 F600.000 
G1 X73.222 Y-6.461 Z-1.000 F600.000 
G1 X70.358 Y-6.666 Z-1.000 F600.000 
G1 X66.679 Y-6.989 Z-1.000 F600.000 
G1 X61.901 Y-7.417 Z-1.000 F600.000 
G1 X57.998 Y-7.692 Z-1.000 F600.000 
G1 X54.789 Y-7.846 Z-1.000 F600.000 
G1 X51.971 Y-7.907 Z-1.000 F600.000 
G1 X49.413 Y-7.887 Z-1.000 F600.000 
G1 X47.989 Y-7.839 Z-1.000 F600.000 
G1 X45.646 Y-7.679 Z-1.000 F600.000 
G1 X43.716 Y-7.476 Z-1.000 F600.000 
G1 X42.033 Y-7.224 Z-1.000 F600.000 
G1 X40.521 Y-6.921 Z-1.000 F600.000 
G1 X39.150 Y-6.569 Z-1.000 F600.000 
G1 X37.888 Y-6.167 Z-1.000 F600.000 
G1 X36.786 Y-5.746 Z-1.000 F600.000 
G1 X35.993 Y-5.391 Z-1.000 F600.000 
G1 X35.426 Y-5.033 Z-1.000 F600.000 
G1 X36.932 Y-5.376 Z-1.000 F600.000 
G1 X38.526 Y-5.666 Z-1.000 F600.000 
G1 X40.224 Y-5.903 Z-1.000 F600.000 
G1 X42.054 Y-6.088 Z-1.000 F600.000 
G1 X44.058 Y-6.221 Z-1.000 F600.000 
G1 X46.312 Y-6.302 Z-1.000 F600.000 
G1 X49.505 Y-6.334 Z-1.000 F600.000 
G1 X52.486 Y-6.282 Z-1.000 F600.000 
G1 X55.705 Y-6.156 Z-1.000 F600.000 
G1 X59.263 Y-5.948 Z-1.000 F600.000 
G1 X64.526 Y-5.545 Z-1.000 F600.000 
G1 X70.420 Y-5.017 Z-1.000 F600.000 
G1 X73.887 Y-4.763 Z-1.000 F600.000 
G1 X75.121 Y-4.694 Z-1.000 F600.000 
G1 X76.355 Y-4.638 Z-1.000 F600.000 
G1 X77.233 Y-4.608 Z-1.000 F600.000 
G1 X78.394 Y-4.554 Z-1.000 F600.000 
G0 Z6.000 
G0 Z6.000 
G0 X153.246 Y-5.540 
G0 Z4.000 
G1 X153.246 Y-5.540 Z-1.000 F300.000 
G1 X154.964 Y-5.239 Z-1.000 F600.000 
G1 X156.796 Y-4.991 Z-1.000 F600.000 
G1 X158.773 Y-4.793 Z-1.000 F600.000 
G1 X160.947 Y-4.645 Z-1.000 F600.000 
G1 X163.412 Y-4.544 Z-1.000 F600.000 
G1 X164.323 Y-4.521 Z-1.000 F600.000 
G1 X165.234 Y-4.504 Z-1.000 F600.000 
G1 X168.334 Y-4.530 Z-1.000 F600.000 
G1 X171.755 Y-4.629 Z-1.000 F600.000 
G1 X175.684 Y-4.808 Z-1.000 F600.000 
G1 X180.863 Y-5.111 Z-1.000 F600.000 
G1 X187.956 Y-5.529 Z-1.000 F600.000 
G1 X192.145 Y-5.710 Z-1.000 F600.000 
G1 X195.537 Y-5.790 Z-1.000 F600.000 
G1 X198.454 Y-5.784 Z-1.000 F600.000 
G1 X201.078 Y-5.704 Z-1.000 F600.000 
G1 X203.473 Y-5.555 Z-1.000 F600.000 
G1 X204.248 Y-5.489 Z-1.000 F600.000 
G1 X205.022 Y-5.415 Z-1.000 F600.000 
G1 X206.217 Y-5.271 Z-1.000 F600.000 
G1 X207.755 Y-5.025 Z-1.000 F600.000 
G1 X208.614 Y-4.880 Z-1.000 F600.000 
G1 X209.472 Y-4.743 Z-1.000 F600.000 
G1 X208.531 Y-5.166 Z-1.000 F600.000 
G1 X207.516 Y-5.545 Z-1.000 F600.000 
G1 X206.414 Y-5.881 Z-1.000 F600.000 
G1 X205.203 Y-6.177 Z-1.000 F600.000 
G1 X203.850 Y-6.438 Z-1.000 F600.000 
G1 X202.288 Y-6.670 Z-1.000 F600.000 
G1 X200.748 Y-6.853 Z-1.000 F600.000 
G1 X198.606 Y-7.032 Z-1.000 F600.000 
G1 X196.290 Y-7.155 Z-1.000 F600.000 
G1 X193.735 Y-7.223 Z-1.000 F600.000 
G1 X190.691 Y-7.232 Z-1.000 F600.000 
G1 X187.694 Y-7.213 Z-1.000 F600.000 
G1 X184.007 Y-7.125 Z-1.000 F600.000 
G1 X177.920 Y-6.944 Z-1.000 F600.000 
G1 X174.202 Y-6.887 Z-1.000 F600.000 
G1 X171.151 Y-6.910 Z-1.000 F600.000 
G1 X170.026 Y-6.941 Z-1.000 F600.000 
G1 X168.900 Y-6.985 Z-1.000 F600.000 
G1 X166.154 Y-7.157 Z-1.000 F600.000 
G1 X163.684 Y-7.388 Z-1.000 F600.000 
G1 X161.433 Y-7.674 Z-1.000 F600.000 
G1 X159.982 Y-7.903 Z-1.000 F600.000 
G1 X158.537 Y-8.170 Z-1.000 F600.000 
G1 X156.839 Y-8.525 Z-1.000 F600.000 
G1 X155.008 Y-8.979 Z-1.000 F600.000 
G1 X152.982 Y-9.552 Z-1.000 F600.000 
G1 X151.277 Y-10.078 Z-1.000 F600.000 
G1 X149.582 Y-10.627 Z-1.000 F600.000 
G1 X145.132 Y-12.264 Z-1.000 F600.000 
G1 X142.529 Y-13.157 Z-1.000 F600.000 
G1 X141.412 Y-13.512 Z-1.000 F600.000 
G1 X140.288 Y-13.847 Z-1.000 F600.000 
G1 X139.841 Y-13.527 Z-1.000 F600.000 
G1 X139.341 Y-13.255 Z-1.000 F600.000 
G1 X138.778 Y-13.028 Z-1.000 F600.000 
G1 X138.135 Y-12.843 Z-1.000 F600.000 
G1 X137.384 Y-12.699 Z-1.000 F600.000 
G1 X136.465 Y-12.587 Z-1.000 F600.000 
G1 X135.466 Y-12.504 Z-1.000 F600.000 
G1 X135.175 Y-11.821 Z-1.000 F600.000 
G1 X134.990 Y-11.469 Z-1.000 F600.000 
G1 X136.376 Y-11.101 Z-1.000 F600.000 
G1 X137.919 Y-10.622 Z-1.000 F600.000 
G1 X139.754 Y-9.984 Z-1.000 F600.000 
G1 X142.693 Y-8.904 Z-1.000 F600.000 
G1 X145.834 Y-7.739 Z-1.000 F600.000 
G1 X148.140 Y-6.921 Z-1.000 F600.000 
G1 X150.024 Y-6.324 Z-1.000 F600.000 
G1 X151.668 Y-5.881 Z-1.000 F600.000 
G1 X153.246 Y-5.540 Z-1.000 F600.000 
G0 Z6.000 
G0 Z6.000 
G0 X74.906 Y-7.985 
G0 Z4.000 
G1 X74.906 Y-7.985 Z-1.000 F300.000 
G1 X76.259 Y-7.703 Z-1.000 F600.000 
G1 X77.391 Y-7.540 Z-1.000 F600.000 
G1 X78.394 Y-7.471 Z-1.000 F600.000 
G1 X79.150 Y-7.476 Z-1.000 F600.000 
G1 X78.687 Y-7.783 Z-1.000 F600.000 
G1 X78.141 Y-8.064 Z-1.000 F600.000 
G1 X77.475 Y-8.332 Z-1.000 F600.000 
G1 X76.531 Y-8.644 Z-1.000 F600.000 
G1 X75.604 Y-8.868 Z-1.000 F600.000 
G1 X74.833 Y-8.982 Z-1.000 F600.000 
G1 X74.163 Y-9.007 Z-1.000 F600.000 
G1 X73.566 Y-8.954 Z-1.000 F600.000 
G1 X73.030 Y-8.830 Z-1.000 F600.000 
G1 X72.850 Y-8.769 Z-1.000 F600.000 
G1 X72.673 Y-8.698 Z-1.000 F600.000 
G1 X73.228 Y-8.467 Z-1.000 F600.000 
G1 X74.906 Y-7.985 Z-1.000 F600.000 
G0 Z6.000 
G0 Z6.000 
G0 X81.810 Y-7.848 
G0 Z4.000 
G1 X81.810 Y-7.848 Z-1.000 F300.000 
G1 X82.365 Y-7.696 Z-1.000 F600.000 
G1 X82.971 Y-7.602 Z-1.000 F600.000 
G1 X83.655 Y-7.564 Z-1.000 F600.000 
G1 X84.470 Y-7.585 Z-1.000 F600.000 
G1 X85.596 Y-7.669 Z-1.000 F600.000 
G1 X86.093 Y-7.706 Z-1.000 F600.000 
G1 X86.586 Y-7.733 Z-1.000 F600.000 
G1 X85.797 Y-8.017 Z-1.000 F600.000 
G1 X85.008 Y-8.223 Z-1.000 F600.000 
G1 X84.233 Y-8.348 Z-1.000 F600.000 
G1 X83.456 Y-8.395 Z-1.000 F600.000 
G1 X82.865 Y-8.321 Z-1.000 F600.000 
G1 X82.408 Y-8.195 Z-1.000 F600.000 
G1 X82.043 Y-8.019 Z-1.000 F600.000 
G1 X81.810 Y-7.848 Z-1.000 F600.000 
G0 Z6.000 
G0 Z6.000 
G0 X62.710 Y-8.561 
G0 Z4.000 
G1 X62.710 Y-8.561 Z-1.000 F300.000 
G1 X66.092 Y-8.272 Z-1.000 F600.000 
G1 X71.527 Y-7.828 Z-1.000 F600.000 
G1 X70.974 Y-8.002 Z-1.000 F600.000 
G1 X69.709 Y-8.289 Z-1.000 F600.000 
G1 X67.337 Y-8.759 Z-1.000 F600.000 
G1 X64.869 Y-9.176 Z-1.000 F600.000 
G1 X62.293 Y-9.538 Z-1.000 F600.000 
G1 X60.501 Y-9.750 Z-1.000 F600.000 
G1 X58.707 Y-9.932 Z-1.000 F600.000 
G1 X55.941 Y-10.130 Z-1.000 F600.000 
G1 X53.590 Y-10.226 Z-1.000 F600.000 
G1 X51.488 Y-10.236 Z-1.000 F600.000 
G1 X49.572 Y-10.169 Z-1.000 F600.000 
G1 X47.932 Y-10.045 Z-1.000 F600.000 
G1 X46.221 Y-9.834 Z-1.000 F600.000 
G1 X44.847 Y-9.596 Z-1.000 F600.000 
G1 X43.674 Y-9.318 Z-1.000 F600.000 
G1 X42.638 Y-8.994 Z-1.000 F600.000 
G1 X41.846 Y-8.684 Z-1.000 F600.000 
G1 X44.061 Y-8.912 Z-1.000 F600.000 
G1 X45.972 Y-9.035 Z-1.000 F600.000 
G1 X46.770 Y-9.061 Z-1.000 F600.000 
G1 X47.568 Y-9.070 Z-1.000 F600.000 
G1 X50.634 Y-9.105 Z-1.000 F600.000 
G1 X53.726 Y-9.069 Z-1.000 F600.000 
G1 X56.844 Y-8.959 Z-1.000 F600.000 
G1 X59.986 Y-8.777 Z-1.000 F600.000 
G1 X62.710 Y-8.561 Z-1.000 F600.000 
G0 Z6.000 
G0 Z6.000 
G0 X86.077 Y-9.091 
G0 Z4.000 
G1 X86.077 Y-9.091 Z-1.000 F300.000 
G1 X87.366 Y-8.669 Z-1.000 F600.000 
G1 X88.554 Y-8.341 Z-1.000 F600.000 
G1 X89.054 Y-8.230 Z-1.000 F600.000 
G1 X89.557 Y-8.138 Z-1.000 F600.000 
G1 X90.235 Y-8.129 Z-1.000 F600.000 
G1 X91.002 Y-8.187 Z-1.000 F600.000 
G1 X91.940 Y-8.321 Z-1.000 F600.000 
G1 X93.467 Y-8.577 Z-1.000 F600.000 
G1 X92.383 Y-8.967 Z-1.000 F600.000 
G1 X91.064 Y-9.433 Z-1.000 F600.000 
G1 X90.172 Y-9.682 Z-1.000 F600.000 
G1 X89.409 Y-9.819 Z-1.000 F600.000 
G1 X88.454 Y-9.864 Z-1.000 F600.000 
G1 X87.935 Y-9.823 Z-1.000 F600.000 
G1 X87.409 Y-9.711 Z-1.000 F600.000 
G1 X86.882 Y-9.526 Z-1.000 F600.000 
G1 X86.363 Y-9.267 Z-1.000 F600.000 
G1 X86.077 Y-9.091 Z-1.000 F600.000 
G0 Z6.000 
G0 Z6.000 
G0 X169.913 Y-8.182 
G0 Z4.000 
G1 X169.913 Y-8.182 Z-1.000 F300.000 
G1 X171.262 Y-8.115 Z-1.000 F600.000 
G1 X172.572 Y-8.095 Z-1.000 F600.000 
G1 X173.630 Y-8.148 Z-1.000 F600.000 
G1 X174.542 Y-8.268 Z-1.000 F600.000 
G1 X175.315 Y-8.440 Z-1.000 F600.000 
G1 X176.401 Y-8.734 Z-1.000 F600.000 
G1 X176.075 Y-8.881 Z-1.000 F600.000 
G1 X175.701 Y-8.975 Z-1.000 F600.000 
G1 X175.252 Y-9.018 Z-1.000 F600.000 
G1 X174.122 Y-9.000 Z-1.000 F600.000 
G1 X172.767 Y-8.860 Z-1.000 F600.000 
G1 X171.657 Y-8.682 Z-1.000 F600.000 
G1 X170.735 Y-8.460 Z-1.000 F600.000 
G1 X169.913 Y-8.182 Z-1.000 F600.000 
G0 Z6.000 
G0 Z6.000 
G0 X177.145 Y-8.171 
G0 Z4.000 
G1 X177.145 Y-8.171 Z-1.000 F300.000 
G1 X180.079 Y-8.233 Z-1.000 F600.000 
G1 X184.688 Y-8.373 Z-1.000 F600.000 
G1 X185.605 Y-8.395 Z-1.000 F600.000 
G1 X186.521 Y-8.412 Z-1.000 F600.000 
G1 X188.336 Y-8.495 Z-1.000 F600.000 
G1 X191.076 Y-8.565 Z-1.000 F600.000 
G1 X191.921 Y-8.591 Z-1.000 F600.000 
G1 X192.766 Y-8.625 Z-1.000 F600.000 
G1 X196.680 Y-8.610 Z-1.000 F600.000 
G1 X198.815 Y-8.540 Z-1.000 F600.000 
G1 X200.594 Y-8.409 Z-1.000 F600.000 
G1 X201.977 Y-8.245 Z-1.000 F600.000 
G1 X201.359 Y-8.529 Z-1.000 F600.000 
G1 X200.662 Y-8.773 Z-1.000 F600.000 
G1 X199.860 Y-8.983 Z-1.000 F600.000 
G1 X198.890 Y-9.168 Z-1.000 F600.000 
G1 X197.616 Y-9.358 Z-1.000 F600.000 
G1 X195.933 Y-9.516 Z-1.000 F600.000 
G1 X194.127 Y-9.616 Z-1.000 F600.000 
G1 X192.159 Y-9.656 Z-1.000 F600.000 
G1 X189.955 Y-9.632 Z-1.000 F600.000 
G1 X186.774 Y-9.511 Z-1.000 F600.000 
G1 X184.014 Y-9.309 Z-1.000 F600.000 
G1 X181.987 Y-9.126 Z-1.000 F600.000 
G1 X180.360 Y-8.912 Z-1.000 F600.000 
G1 X178.974 Y-8.656 Z-1.000 F600.000 
G1 X177.741 Y-8.350 Z-1.000 F600.000 
G1 X177.443 Y-8.263 Z-1.000 F600.000 
G1 X177.145 Y-8.171 Z-1.000 F600.000 
G0 Z6.000 
G0 Z6.000 
G0 X75.903 Y-10.440 
G0 Z4.000 
G1 X75.903 Y-10.440 Z-1.000 F300.000 
G1 X77.430 Y-9.721 Z-1.000 F600.000 
G1 X78.799 Y-9.085 Z-1.000 F600.000 
G1 X79.690 Y-8.709 Z-1.000 F600.000 
G1 X80.599 Y-8.374 Z-1.000 F600.000 
G1 X80.880 Y-8.617 Z-1.000 F600.000 
G1 X81.215 Y-8.813 Z-1.000 F600.000 
G1 X81.610 Y-8.965 Z-1.000 F600.000 
G1 X82.076 Y-9.071 Z-1.000 F600.000 
G1 X82.638 Y-9.128 Z-1.000 F600.000 
G1 X80.963 Y-9.811 Z-1.000 F600.000 
G1 X79.851 Y-10.213 Z-1.000 F600.000 
G1 X78.929 Y-10.473 Z-1.000 F600.000 
G1 X78.353 Y-10.590 Z-1.000 F600.000 
G1 X77.767 Y-10.666 Z-1.000 F600.000 
G1 X77.259 Y-10.687 Z-1.000 F600.000 
G1 X76.724 Y-10.639 Z-1.000 F600.000 
G1 X76.310 Y-10.556 Z-1.000 F600.000 
G1 X75.903 Y-10.440 Z-1.000 F600.000 
G0 Z6.000 
G0 Z6.000 
G0 X164.946 Y-8.515 
G0 Z4.000 
G1 X164.946 Y-8.515 Z-1.000 F300.000 
G1 X165.691 Y-8.428 Z-1.000 F600.000 
G1 X166.570 Y-8.370 Z-1.000 F600.000 
G1 X167.275 Y-8.391 Z-1.000 F600.000 
G1 X167.875 Y-8.483 Z-1.000 F600.000 
G1 X168.491 Y-8.676 Z-1.000 F600.000 
G1 X170.159 Y-9.328 Z-1.000 F600.000 
G1 X171.062 Y-9.726 Z-1.000 F600.000 
G1 X171.052 Y-9.807 Z-1.000 F600.000 
G1 X170.597 Y-9.910 Z-1.000 F600.000 
G1 X170.099 Y-9.953 Z-1.000 F600.000 
G1 X169.534 Y-9.934 Z-1.000 F600.000 
G1 X168.862 Y-9.845 Z-1.000 F600.000 
G1 X168.077 Y-9.696 Z-1.000 F600.000 
G1 X167.164 Y-9.428 Z-1.000 F600.000 
G1 X166.199 Y-9.072 Z-1.000 F600.000 
G1 X165.568 Y-8.804 Z-1.000 F600.000 
G1 X164.946 Y-8.515 Z-1.000 F600.000 
G0 Z6.000 
G0 Z6.000 
G0 X160.354 Y-9.141 
G0 Z4.000 
G1 X160.354 Y-9.141 Z-1.000 F300.000 
G1 X161.050 Y-9.036 Z-1.000 F600.000 
G1 X161.875 Y-8.955 Z-1.000 F600.000 
G1 X162.537 Y-8.959 Z-1.000 F600.000 
G1 X163.101 Y-9.036 Z-1.000 F600.000 
G1 X163.685 Y-9.214 Z-1.000 F600.000 
G1 X165.397 Y-9.975 Z-1.000 F600.000 
G1 X167.368 Y-10.958 Z-1.000 F600.000 
G1 X167.053 Y-11.065 Z-1.000 F600.000 
G1 X166.686 Y-11.118 Z-1.000 F600.000 
G1 X166.232 Y-11.119 Z-1.000 F600.000 
G1 X165.770 Y-11.086 Z-1.000 F600.000 
G1 X164.909 Y-10.951 Z-1.000 F600.000 
G1 X164.027 Y-10.740 Z-1.000 F600.000 
G1 X163.120 Y-10.450 Z-1.000 F600.000 
G1 X162.184 Y-10.076 Z-1.000 F600.000 
G1 X161.218 Y-9.615 Z-1.000 F600.000 
G1 X160.782 Y-9.383 Z-1.000 F600.000 
G1 X160.354 Y-9.141 Z-1.000 F600.000 
G0 Z6.000 
G0 Z6.000 
G0 X58.261 Y-11.881 
G0 Z4.000 
G1 X58.261 Y-11.881 Z-1.000 F300.000 
G1 X60.151 Y-11.666 Z-1.000 F600.000 
G1 X62.073 Y-11.375 Z-1.000 F600.000 
G1 X64.029 Y-11.006 Z-1.000 F600.000 
G1 X66.021 Y-10.558 Z-1.000 F600.000 
G1 X68.050 Y-10.028 Z-1.000 F600.000 
G1 X69.295 Y-9.666 Z-1.000 F600.000 
G1 X70.532 Y-9.281 Z-1.000 F600.000 
G1 X70.661 Y-9.239 Z-1.000 F600.000 
G1 X70.788 Y-9.265 Z-1.000 F600.000 
G1 X70.948 Y-9.360 Z-1.000 F600.000 
G1 X71.101 Y-9.455 Z-1.000 F600.000 
G1 X71.471 Y-9.657 Z-1.000 F600.000 
G1 X71.909 Y-9.819 Z-1.000 F600.000 
G1 X72.451 Y-9.950 Z-1.000 F600.000 
G1 X73.172 Y-10.070 Z-1.000 F600.000 
G1 X72.308 Y-10.393 Z-1.000 F600.000 
G1 X71.253 Y-10.718 Z-1.000 F600.000 
G1 X70.572 Y-10.906 Z-1.000 F600.000 
G1 X69.889 Y-11.089 Z-1.000 F600.000 
G1 X67.598 Y-11.611 Z-1.000 F600.000 
G1 X65.575 Y-11.995 Z-1.000 F600.000 
G1 X63.729 Y-12.268 Z-1.000 F600.000 
G1 X62.025 Y-12.444 Z-1.000 F600.000 
G1 X60.427 Y-12.534 Z-1.000 F600.000 
G1 X60.049 Y-12.543 Z-1.000 F600.000 
G1 X59.671 Y-12.548 Z-1.000 F600.000 
G1 X59.080 Y-12.520 Z-1.000 F600.000 
G1 X58.325 Y-12.493 Z-1.000 F600.000 
G1 X58.113 Y-12.471 Z-1.000 F600.000 
G1 X57.902 Y-12.438 Z-1.000 F600.000 
G1 X57.826 Y-12.322 Z-1.000 F600.000 
G1 X57.823 Y-12.196 Z-1.000 F600.000 
G1 X57.886 Y-12.063 Z-1.000 F600.000 
G1 X58.020 Y-11.942 Z-1.000 F600.000 
G1 X58.261 Y-11.881 Z-1.000 F600.000 
G0 Z6.000 
G0 Z6.000 
G0 X90.712 Y-10.961 
G0 Z4.000 
G1 X90.712 Y-10.961 Z-1.000 F300.000 
G1 X91.907 Y-10.453 Z-1.000 F600.000 
G1 X93.147 Y-10.003 Z-1.000 F600.000 
G1 X93.991 Y-9.740 Z-1.000 F600.000 
G1 X94.842 Y-9.506 Z-1.000 F600.000 
G1 X95.492 Y-9.453 Z-1.000 F600.000 
G1 X96.183 Y-9.467 Z-1.000 F600.000 
G1 X96.925 Y-9.552 Z-1.000 F600.000 
G1 X97.729 Y-9.714 Z-1.000 F600.000 
G1 X98.172 Y-9.829 Z-1.000 F600.000 
G1 X96.627 Y-10.531 Z-1.000 F600.000 
G1 X95.417 Y-11.050 Z-1.000 F600.000 
G1 X94.408 Y-11.412 Z-1.000 F600.000 
G1 X93.804 Y-11.584 Z-1.000 F600.000 
G1 X93.036 Y-11.676 Z-1.000 F600.000 
G1 X92.411 Y-11.682 Z-1.000 F600.000 
G1 X91.895 Y-11.615 Z-1.000 F600.000 
G1 X91.464 Y-11.485 Z-1.000 F600.000 
G1 X91.102 Y-11.296 Z-1.000 F600.000 
G1 X90.899 Y-11.144 Z-1.000 F600.000 
G1 X90.712 Y-10.961 Z-1.000 F600.000 
G0 Z6.000 
G0 Z6.000 
G0 X79.547 Y-12.227 
G0 Z4.000 
G1 X79.547 Y-12.227 Z-1.000 F300.000 
G1 X83.064 Y-10.455 Z-1.000 F600.000 
G1 X84.822 Y-9.598 Z-1.000 F600.000 
G1 X85.290 Y-9.957 Z-1.000 F600.000 
G1 X85.799 Y-10.255 Z-1.000 F600.000 
G1 X86.338 Y-10.487 Z-1.000 F600.000 
G1 X86.897 Y-10.648 Z-1.000 F600.000 
G1 X87.692 Y-10.751 Z-1.000 F600.000 
G1 X86.832 Y-11.188 Z-1.000 F600.000 
G1 X85.887 Y-11.590 Z-1.000 F600.000 
G1 X84.842 Y-11.958 Z-1.000 F600.000 
G1 X83.599 Y-12.316 Z-1.000 F600.000 
G1 X82.613 Y-12.507 Z-1.000 F600.000 
G1 X81.794 Y-12.601 Z-1.000 F600.000 
G1 X81.106 Y-12.607 Z-1.000 F600.000 
G1 X80.505 Y-12.538 Z-1.000 F600.000 
G1 X79.971 Y-12.401 Z-1.000 F600.000 
G1 X79.758 Y-12.321 Z-1.000 F600.000 
G1 X79.547 Y-12.227 Z-1.000 F600.000 
G0 Z6.000 
G0 Z6.000 
G0 X156.433 Y-9.950 
G0 Z4.000 
G1 X156.433 Y-9.950 Z-1.000 F300.000 
G1 X157.281 Y-9.799 Z-1.000 F600.000 
G1 X158.019 Y-9.742 Z-1.000 F600.000 
G1 X158.668 Y-9.767 Z-1.000 F600.000 
G1 X159.243 Y-9.864 Z-1.000 F600.000 
G1 X159.751 Y-10.026 Z-1.000 F600.000 
G1 X160.002 Y-10.140 Z-1.000 F600.000 
G1 X160.245 Y-10.275 Z-1.000 F600.000 
G1 X161.546 Y-10.988 Z-1.000 F600.000 
G1 X162.408 Y-11.508 Z-1.000 F600.000 
G1 X162.661 Y-11.680 Z-1.000 F600.000 
G1 X162.909 Y-11.861 Z-1.000 F600.000 
G1 X162.343 Y-11.966 Z-1.000 F600.000 
G1 X161.844 Y-12.010 Z-1.000 F600.000 
G1 X161.670 Y-12.005 Z-1.000 F600.000 
G1 X161.497 Y-11.986 Z-1.000 F600.000 
G1 X160.745 Y-11.877 Z-1.000 F600.000 
G1 X159.979 Y-11.694 Z-1.000 F600.000 
G1 X159.196 Y-11.434 Z-1.000 F600.000 
G1 X158.395 Y-11.093 Z-1.000 F600.000 
G1 X157.573 Y-10.667 Z-1.000 F600.000 
G1 X156.994 Y-10.321 Z-1.000 F600.000 
G1 X156.433 Y-9.950 Z-1.000 F600.000 
G0 Z6.000 
G0 Z6.000 
G0 X174.977 Y-9.942 
G0 Z4.000 
G1 X174.977 Y-9.942 Z-1.000 F300.000 
G1 X175.447 Y-9.824 Z-1.000 F600.000 
G1 X175.992 Y-9.757 Z-1.000 F600.000 
G1 X176.679 Y-9.736 Z-1.000 F600.000 
G1 X177.613 Y-9.736 Z-1.000 F600.000 
G1 X178.201 Y-9.753 Z-1.000 F600.000 
G1 X178.869 Y-9.838 Z-1.000 F600.000 
G1 X179.708 Y-10.008 Z-1.000 F600.000 
G1 X181.088 Y-10.296 Z-1.000 F600.000 
G1 X182.763 Y-10.584 Z-1.000 F600.000 
G1 X184.597 Y-10.830 Z-1.000 F600.000 
G1 X185.963 Y-10.974 Z-1.000 F600.000 
G1 X187.330 Y-11.092 Z-1.000 F600.000 
G1 X187.934 Y-11.145 Z-1.000 F600.000 
G1 X188.920 Y-11.212 Z-1.000 F600.000 
G1 X189.261 Y-11.263 Z-1.000 F600.000 
G1 X189.597 Y-11.344 Z-1.000 F600.000 
G1 X188.942 Y-11.502 Z-1.000 F600.000 
G1 X188.215 Y-11.607 Z-1.000 F600.000 
G1 X187.384 Y-11.659 Z-1.000 F600.000 
G1 X186.368 Y-11.658 Z-1.000 F600.000 
G1 X185.391 Y-11.627 Z-1.000 F600.000 
G1 X183.413 Y-11.471 Z-1.000 F600.000 
G1 X181.394 Y-11.239 Z-1.000 F600.000 
G1 X179.858 Y-11.016 Z-1.000 F600.000 
G1 X178.327 Y-10.754 Z-1.000 F600.000 
G1 X176.906 Y-10.467 Z-1.000 F600.000 
G1 X175.740 Y-10.181 Z-1.000 F600.000 
G1 X175.357 Y-10.068 Z-1.000 F600.000 
G1 X174.977 Y-9.942 Z-1.000 F600.000 
G0 Z6.000 
G0 Z6.000 
G0 X172.674 Y-10.664 
G0 Z4.000 
G1 X172.674 Y-10.664 Z-1.000 F300.000 
G1 X172.837 Y-10.639 Z-1.000 F600.000 
G1 X173.033 Y-10.674 Z-1.000 F600.000 
G1 X173.178 Y-10.720 Z-1.000 F600.000 
G1 X173.323 Y-10.760 Z-1.000 F600.000 
G1 X175.364 Y-11.363 Z-1.000 F600.000 
G1 X178.884 Y-12.335 Z-1.000 F600.000 
G1 X178.346 Y-12.487 Z-1.000 F600.000 
G1 X177.753 Y-12.581 Z-1.000 F600.000 
G1 X177.086 Y-12.618 Z-1.000 F600.000 
G1 X176.312 Y-12.595 Z-1.000 F600.000 
G1 X175.380 Y-12.508 Z-1.000 F600.000 
G1 X174.427 Y-12.352 Z-1.000 F600.000 
G1 X173.413 Y-12.116 Z-1.000 F600.000 
G1 X172.310 Y-11.788 Z-1.000 F600.000 
G1 X171.064 Y-11.348 Z-1.000 F600.000 
G1 X170.062 Y-10.956 Z-1.000 F600.000 
G1 X170.656 Y-10.990 Z-1.000 F600.000 
G1 X171.284 Y-10.956 Z-1.000 F600.000 
G1 X171.953 Y-10.849 Z-1.000 F600.000 
G1 X172.674 Y-10.664 Z-1.000 F600.000 
G0 Z6.000 
G0 Z6.000 
G0 X152.558 Y-11.036 
G0 Z4.000 
G1 X152.558 Y-11.036 Z-1.000 F300.000 
G1 X153.228 Y-10.845 Z-1.000 F600.000 
G1 X153.886 Y-10.736 Z-1.000 F600.000 
G1 X154.507 Y-10.708 Z-1.000 F600.000 
G1 X155.079 Y-10.758 Z-1.000 F600.000 
G1 X155.597 Y-10.878 Z-1.000 F600.000 
G1 X156.064 Y-11.063 Z-1.000 F600.000 
G1 X156.452 Y-11.288 Z-1.000 F600.000 
G1 X157.994 Y-12.360 Z-1.000 F600.000 
G1 X158.981 Y-13.156 Z-1.000 F600.000 
G1 X158.549 Y-13.301 Z-1.000 F600.000 
G1 X158.091 Y-13.381 Z-1.000 F600.000 
G1 X157.603 Y-13.394 Z-1.000 F600.000 
G1 X157.080 Y-13.339 Z-1.000 F600.000 
G1 X156.520 Y-13.209 Z-1.000 F600.000 
G1 X155.921 Y-13.000 Z-1.000 F600.000 
G1 X155.213 Y-12.668 Z-1.000 F600.000 
G1 X154.090 Y-11.993 Z-1.000 F600.000 
G1 X152.558 Y-11.036 Z-1.000 F600.000 
G0 Z6.000 
G0 Z6.000 
G0 X66.184 Y-13.935 
G0 Z4.000 
G1 X66.184 Y-13.935 Z-1.000 F300.000 
G1 X67.835 Y-13.494 Z-1.000 F600.000 
G1 X69.491 Y-12.977 Z-1.000 F600.000 
G1 X71.148 Y-12.384 Z-1.000 F600.000 
G1 X72.806 Y-11.714 Z-1.000 F600.000 
G1 X74.208 Y-11.086 Z-1.000 F600.000 
G1 X74.552 Y-11.338 Z-1.000 F600.000 
G1 X74.951 Y-11.543 Z-1.000 F600.000 
G1 X75.414 Y-11.703 Z-1.000 F600.000 
G1 X75.950 Y-11.815 Z-1.000 F600.000 
G1 X76.933 Y-11.887 Z-1.000 F600.000 
G1 X75.463 Y-12.536 Z-1.000 F600.000 
G1 X74.024 Y-13.089 Z-1.000 F600.000 
G1 X72.617 Y-13.551 Z-1.000 F600.000 
G1 X71.241 Y-13.925 Z-1.000 F600.000 
G1 X69.896 Y-14.214 Z-1.000 F600.000 
G1 X68.580 Y-14.420 Z-1.000 F600.000 
G1 X67.464 Y-14.536 Z-1.000 F600.000 
G1 X66.386 Y-14.585 Z-1.000 F600.000 
G1 X65.758 Y-14.558 Z-1.000 F600.000 
G1 X65.572 Y-14.533 Z-1.000 F600.000 
G1 X65.386 Y-14.498 Z-1.000 F600.000 
G1 X65.544 Y-14.273 Z-1.000 F600.000 
G1 X65.753 Y-14.097 Z-1.000 F600.000 
G1 X66.007 Y-13.978 Z-1.000 F600.000 
G1 X66.184 Y-13.935 Z-1.000 F600.000 
G0 Z6.000 
G0 Z6.000 
G0 X97.919 Y-11.613 
G0 Z4.000 
G1 X97.919 Y-11.613 Z-1.000 F300.000 
G1 X98.566 Y-11.363 Z-1.000 F600.000 
G1 X99.109 Y-11.175 Z-1.000 F600.000 
G1 X99.573 Y-11.080 Z-1.000 F600.000 
G1 X100.002 Y-11.074 Z-1.000 F600.000 
G1 X100.581 Y-11.150 Z-1.000 F600.000 
G1 X101.190 Y-11.301 Z-1.000 F600.000 
G1 X101.844 Y-11.533 Z-1.000 F600.000 
G1 X102.687 Y-11.924 Z-1.000 F600.000 
G1 X100.271 Y-12.898 Z-1.000 F600.000 
G1 X98.806 Y-13.425 Z-1.000 F600.000 
G1 X98.502 Y-13.524 Z-1.000 F600.000 
G1 X98.196 Y-13.618 Z-1.000 F600.000 
G1 X97.335 Y-13.763 Z-1.000 F600.000 
G1 X96.627 Y-13.813 Z-1.000 F600.000 
G1 X96.029 Y-13.783 Z-1.000 F600.000 
G1 X95.514 Y-13.682 Z-1.000 F600.000 
G1 X95.069 Y-13.518 Z-1.000 F600.000 
G1 X94.790 Y-13.367 Z-1.000 F600.000 
G1 X94.527 Y-13.177 Z-1.000 F600.000 
G1 X95.297 Y-12.751 Z-1.000 F600.000 
G1 X96.223 Y-12.316 Z-1.000 F600.000 
G1 X97.069 Y-11.958 Z-1.000 F600.000 
G1 X97.919 Y-11.613 Z-1.000 F600.000 
G0 Z6.000 
G0 Z6.000 
G0 X83.961 Y-14.381 
G0 Z4.000 
G1 X83.961 Y-14.381 Z-1.000 F300.000 
G1 X86.538 Y-13.045 Z-1.000 F600.000 
G1 X89.123 Y-11.723 Z-1.000 F600.000 
G1 X89.527 Y-12.038 Z-1.000 F600.000 
G1 X89.984 Y-12.305 Z-1.000 F600.000 
G1 X90.499 Y-12.525 Z-1.000 F600.000 
G1 X91.077 Y-12.695 Z-1.000 F600.000 
G1 X92.057 Y-12.847 Z-1.000 F600.000 
G1 X90.606 Y-13.516 Z-1.000 F600.000 
G1 X89.406 Y-13.994 Z-1.000 F600.000 
G1 X88.347 Y-14.337 Z-1.000 F600.000 
G1 X87.371 Y-14.573 Z-1.000 F600.000 
G1 X86.523 Y-14.708 Z-1.000 F600.000 
G1 X85.883 Y-14.744 Z-1.000 F600.000 
G1 X85.212 Y-14.731 Z-1.000 F600.000 
G1 X84.676 Y-14.652 Z-1.000 F600.000 
G1 X84.226 Y-14.510 Z-1.000 F600.000 
G1 X83.961 Y-14.381 Z-1.000 F600.000 
G0 Z6.000 
G0 Z6.000 
G0 X165.927 Y-12.059 
G0 Z4.000 
G1 X165.927 Y-12.059 Z-1.000 F300.000 
G1 X166.722 Y-12.126 Z-1.000 F600.000 
G1 X167.449 Y-12.112 Z-1.000 F600.000 
G1 X168.115 Y-12.024 Z-1.000 F600.000 
G1 X168.846 Y-11.826 Z-1.000 F600.000 
G1 X170.978 Y-12.696 Z-1.000 F600.000 
G1 X172.772 Y-13.455 Z-1.000 F600.000 
G1 X173.315 Y-13.701 Z-1.000 F600.000 
G1 X173.853 Y-13.957 Z-1.000 F600.000 
G1 X173.182 Y-14.077 Z-1.000 F600.000 
G1 X172.479 Y-14.130 Z-1.000 F600.000 
G1 X171.747 Y-14.114 Z-1.000 F600.000 
G1 X170.986 Y-14.026 Z-1.000 F600.000 
G1 X170.202 Y-13.864 Z-1.000 F600.000 
G1 X169.401 Y-13.626 Z-1.000 F600.000 
G1 X168.765 Y-13.385 Z-1.000 F600.000 
G1 X167.708 Y-12.897 Z-1.000 F600.000 
G1 X165.927 Y-12.059 Z-1.000 F600.000 
G0 Z6.000 
G0 Z6.000 
G0 X148.665 Y-12.291 
G0 Z4.000 
G1 X148.665 Y-12.291 Z-1.000 F300.000 
G1 X149.541 Y-12.122 Z-1.000 F600.000 
G1 X150.290 Y-12.051 Z-1.000 F600.000 
G1 X150.947 Y-12.063 Z-1.000 F600.000 
G1 X151.530 Y-12.149 Z-1.000 F600.000 
G1 X152.046 Y-12.302 Z-1.000 F600.000 
G1 X152.301 Y-12.410 Z-1.000 F600.000 
G1 X152.550 Y-12.541 Z-1.000 F600.000 
G1 X153.935 Y-13.568 Z-1.000 F600.000 
G1 X155.171 Y-14.593 Z-1.000 F600.000 
G1 X154.689 Y-14.722 Z-1.000 F600.000 
G1 X154.177 Y-14.786 Z-1.000 F600.000 
G1 X153.640 Y-14.782 Z-1.000 F600.000 
G1 X153.084 Y-14.706 Z-1.000 F600.000 
G1 X152.518 Y-14.558 Z-1.000 F600.000 
G1 X152.297 Y-14.479 Z-1.000 F600.000 
G1 X152.080 Y-14.391 Z-1.000 F600.000 
G1 X151.338 Y-14.034 Z-1.000 F600.000 
G1 X150.541 Y-13.575 Z-1.000 F600.000 
G1 X149.626 Y-12.972 Z-1.000 F600.000 
G1 X148.665 Y-12.291 Z-1.000 F600.000 
G0 Z6.000 
G0 Z6.000 
G0 X161.329 Y-13.004 
G0 Z4.000 
G1 X161.329 Y-13.004 Z-1.000 F300.000 
G1 X161.801 Y-13.069 Z-1.000 F600.000 
G1 X162.321 Y-13.072 Z-1.000 F600.000 
G1 X162.922 Y-13.009 Z-1.000 F600.000 
G1 X164.233 Y-12.751 Z-1.000 F600.000 
G1 X165.822 Y-13.495 Z-1.000 F600.000 
G1 X167.284 Y-14.240 Z-1.000 F600.000 
G1 X168.099 Y-14.701 Z-1.000 F600.000 
G1 X168.895 Y-15.196 Z-1.000 F600.000 
G1 X168.348 Y-15.333 Z-1.000 F600.000 
G1 X167.776 Y-15.403 Z-1.000 F600.000 
G1 X167.173 Y-15.405 Z-1.000 F600.000 
G1 X166.536 Y-15.338 Z-1.000 F600.000 
G1 X165.862 Y-15.195 Z-1.000 F600.000 
G1 X165.150 Y-14.973 Z-1.000 F600.000 
G1 X164.400 Y-14.666 Z-1.000 F600.000 
G1 X163.818 Y-14.381 Z-1.000 F600.000 
G1 X162.731 Y-13.805 Z-1.000 F600.000 
G1 X161.698 Y-13.234 Z-1.000 F600.000 
G1 X161.512 Y-13.121 Z-1.000 F600.000 
G1 X161.329 Y-13.004 Z-1.000 F600.000 
G0 Z6.000 
G0 Z6.000 
G0 X132.946 Y-12.857 
G0 Z4.000 
G1 X132.946 Y-12.857 Z-1.000 F300.000 
G1 X133.174 Y-13.021 Z-1.000 F600.000 
G1 X133.345 Y-13.231 Z-1.000 F600.000 
G1 X133.458 Y-13.482 Z-1.000 F600.000 
G1 X133.501 Y-13.687 Z-1.000 F600.000 
G1 X133.156 Y-13.856 Z-1.000 F600.000 
G1 X133.163 Y-13.581 Z-1.000 F600.000 
G1 X133.105 Y-13.281 Z-1.000 F600.000 
G1 X133.032 Y-13.066 Z-1.000 F600.000 
G1 X132.946 Y-12.857 Z-1.000 F600.000 
G0 Z6.000 
G0 Z6.000 
G0 X70.958 Y-16.013 
G0 Z4.000 
G1 X70.958 Y-16.013 Z-1.000 F300.000 
G1 X72.331 Y-15.583 Z-1.000 F600.000 
G1 X73.781 Y-15.055 Z-1.000 F600.000 
G1 X75.339 Y-14.415 Z-1.000 F600.000 
G1 X77.068 Y-13.631 Z-1.000 F600.000 
G1 X78.232 Y-13.070 Z-1.000 F600.000 
G1 X78.641 Y-13.342 Z-1.000 F600.000 
G1 X79.107 Y-13.568 Z-1.000 F600.000 
G1 X79.637 Y-13.747 Z-1.000 F600.000 
G1 X80.239 Y-13.877 Z-1.000 F600.000 
G1 X80.924 Y-13.955 Z-1.000 F600.000 
G1 X81.300 Y-13.974 Z-1.000 F600.000 
G1 X81.673 Y-13.978 Z-1.000 F600.000 
G1 X80.545 Y-14.523 Z-1.000 F600.000 
G1 X79.353 Y-15.020 Z-1.000 F600.000 
G1 X78.092 Y-15.467 Z-1.000 F600.000 
G1 X76.761 Y-15.865 Z-1.000 F600.000 
G1 X75.355 Y-16.210 Z-1.000 F600.000 
G1 X74.320 Y-16.421 Z-1.000 F600.000 
G1 X73.280 Y-16.598 Z-1.000 F600.000 
G1 X71.959 Y-16.743 Z-1.000 F600.000 
G1 X71.150 Y-16.779 Z-1.000 F600.000 
G1 X70.738 Y-16.763 Z-1.000 F600.000 
G1 X70.328 Y-16.715 Z-1.000 F600.000 
G1 X70.437 Y-16.418 Z-1.000 F600.000 
G1 X70.591 Y-16.204 Z-1.000 F600.000 
G1 X70.780 Y-16.069 Z-1.000 F600.000 
G1 X70.958 Y-16.013 Z-1.000 F600.000 
G0 Z6.000 
G0 Z6.000 
G0 X102.925 Y-13.480 
G0 Z4.000 
G1 X102.925 Y-13.480 Z-1.000 F300.000 
G1 X103.305 Y-13.346 Z-1.000 F600.000 
G1 X103.707 Y-13.278 Z-1.000 F600.000 
G1 X104.134 Y-13.277 Z-1.000 F600.000 
G1 X104.583 Y-13.347 Z-1.000 F600.000 
G1 X105.051 Y-13.491 Z-1.000 F600.000 
G1 X105.528 Y-13.712 Z-1.000 F600.000 
G1 X105.854 Y-13.907 Z-1.000 F600.000 
G1 X106.157 Y-14.127 Z-1.000 F600.000 
G1 X104.183 Y-15.089 Z-1.000 F600.000 
G1 X102.471 Y-15.840 Z-1.000 F600.000 
G1 X101.779 Y-15.999 Z-1.000 F600.000 
G1 X101.127 Y-16.071 Z-1.000 F600.000 
G1 X100.534 Y-16.061 Z-1.000 F600.000 
G1 X100.007 Y-15.976 Z-1.000 F600.000 
G1 X99.544 Y-15.826 Z-1.000 F600.000 
G1 X99.140 Y-15.616 Z-1.000 F600.000 
G1 X98.838 Y-15.392 Z-1.000 F600.000 
G1 X99.548 Y-14.966 Z-1.000 F600.000 
G1 X100.384 Y-14.543 Z-1.000 F600.000 
G1 X101.428 Y-14.086 Z-1.000 F600.000 
G1 X102.925 Y-13.480 Z-1.000 F600.000 
G0 Z6.000 
G0 Z6.000 
G0 X128.647 Y-13.273 
G0 Z4.000 
G1 X128.647 Y-13.273 Z-1.000 F300.000 
G1 X129.431 Y-13.215 Z-1.000 F600.000 
G1 X130.275 Y-13.223 Z-1.000 F600.000 
G1 X131.192 Y-13.301 Z-1.000 F600.000 
G1 X132.114 Y-13.440 Z-1.000 F600.000 
G1 X132.321 Y-13.489 Z-1.000 F600.000 
G1 X132.478 Y-13.594 Z-1.000 F600.000 
G1 X132.595 Y-13.755 Z-1.000 F600.000 
G1 X132.670 Y-13.977 Z-1.000 F600.000 
G1 X132.694 Y-14.260 Z-1.000 F600.000 
G1 X132.683 Y-14.419 Z-1.000 F600.000 
G1 X132.657 Y-14.569 Z-1.000 F600.000 
G1 X132.149 Y-14.550 Z-1.000 F600.000 
G1 X131.776 Y-15.007 Z-1.000 F600.000 
G1 X131.369 Y-15.425 Z-1.000 F600.000 
G1 X130.993 Y-15.710 Z-1.000 F600.000 
G1 X130.624 Y-15.897 Z-1.000 F600.000 
G1 X130.373 Y-15.975 Z-1.000 F600.000 
G1 X130.404 Y-15.822 Z-1.000 F600.000 
G1 X130.478 Y-15.551 Z-1.000 F600.000 
G1 X130.470 Y-15.406 Z-1.000 F600.000 
G1 X130.399 Y-15.317 Z-1.000 F600.000 
G1 X130.309 Y-15.283 Z-1.000 F600.000 
G1 X129.898 Y-15.248 Z-1.000 F600.000 
G1 X129.473 Y-15.285 Z-1.000 F600.000 
G1 X129.212 Y-15.346 Z-1.000 F600.000 
G1 X128.964 Y-15.435 Z-1.000 F600.000 
G1 X129.064 Y-15.308 Z-1.000 F600.000 
G1 X129.231 Y-15.197 Z-1.000 F600.000 
G1 X129.377 Y-15.121 Z-1.000 F600.000 
G1 X129.513 Y-15.034 Z-1.000 F600.000 
G1 X129.703 Y-14.894 Z-1.000 F600.000 
G1 X129.860 Y-14.696 Z-1.000 F600.000 
G1 X129.997 Y-14.417 Z-1.000 F600.000 
G1 X130.136 Y-14.022 Z-1.000 F600.000 
G1 X130.028 Y-13.800 Z-1.000 F600.000 
G1 X129.868 Y-13.627 Z-1.000 F600.000 
G1 X129.650 Y-13.492 Z-1.000 F600.000 
G1 X129.358 Y-13.390 Z-1.000 F600.000 
G1 X128.647 Y-13.273 Z-1.000 F600.000 
G0 Z6.000 
G0 Z6.000 
G0 X145.056 Y-13.750 
G0 Z4.000 
G1 X145.056 Y-13.750 Z-1.000 F300.000 
G1 X145.876 Y-13.568 Z-1.000 F600.000 
G1 X146.555 Y-13.484 Z-1.000 F600.000 
G1 X147.120 Y-13.487 Z-1.000 F600.000 
G1 X147.604 Y-13.563 Z-1.000 F600.000 
G1 X148.025 Y-13.705 Z-1.000 F600.000 
G1 X148.255 Y-13.823 Z-1.000 F600.000 
G1 X148.475 Y-13.970 Z-1.000 F600.000 
G1 X149.615 Y-14.950 Z-1.000 F600.000 
G1 X150.761 Y-16.075 Z-1.000 F600.000 
G1 X150.725 Y-16.178 Z-1.000 F600.000 
G1 X150.638 Y-16.228 Z-1.000 F600.000 
G1 X150.477 Y-16.246 Z-1.000 F600.000 
G1 X150.234 Y-16.267 Z-1.000 F600.000 
G1 X149.701 Y-16.278 Z-1.000 F600.000 
G1 X149.168 Y-16.219 Z-1.000 F600.000 
G1 X148.627 Y-16.088 Z-1.000 F600.000 
G1 X148.070 Y-15.880 Z-1.000 F600.000 
G1 X147.488 Y-15.590 Z-1.000 F600.000 
G1 X146.866 Y-15.202 Z-1.000 F600.000 
G1 X146.178 Y-14.695 Z-1.000 F600.000 
G1 X145.056 Y-13.750 Z-1.000 F600.000 
G0 Z6.000 
G0 Z6.000 
G0 X130.534 Y-15.070 
G0 Z4.000 
G1 X130.534 Y-15.070 Z-1.000 F300.000 
G1 X130.400 Y-14.898 Z-1.000 F600.000 
G1 X130.325 Y-14.691 Z-1.000 F600.000 
G1 X130.310 Y-14.445 Z-1.000 F600.000 
G1 X130.360 Y-14.162 Z-1.000 F600.000 
G1 X130.540 Y-13.761 Z-1.000 F600.000 
G1 X131.145 Y-13.779 Z-1.000 F600.000 
G1 X131.092 Y-13.992 Z-1.000 F600.000 
G1 X131.039 Y-14.216 Z-1.000 F600.000 
G1 X131.037 Y-14.309 Z-1.000 F600.000 
G1 X131.057 Y-14.402 Z-1.000 F600.000 
G1 X131.114 Y-14.562 Z-1.000 F600.000 
G1 X131.230 Y-14.692 Z-1.000 F600.000 
G1 X131.427 Y-14.819 Z-1.000 F600.000 
G1 X131.694 Y-14.977 Z-1.000 F600.000 
G1 X131.380 Y-15.115 Z-1.000 F600.000 
G1 X131.069 Y-15.205 Z-1.000 F600.000 
G1 X130.826 Y-15.207 Z-1.000 F600.000 
G1 X130.676 Y-15.162 Z-1.000 F600.000 
G1 X130.534 Y-15.070 Z-1.000 F600.000 
G0 Z6.000 
G0 Z6.000 
G0 X88.542 Y-16.673 
G0 Z4.000 
G1 X88.542 Y-16.673 Z-1.000 F300.000 
G1 X90.656 Y-15.396 Z-1.000 F600.000 
G1 X93.044 Y-13.960 Z-1.000 F600.000 
G1 X93.495 Y-14.298 Z-1.000 F600.000 
G1 X93.998 Y-14.586 Z-1.000 F600.000 
G1 X94.549 Y-14.820 Z-1.000 F600.000 
G1 X95.141 Y-14.992 Z-1.000 F600.000 
G1 X95.836 Y-15.107 Z-1.000 F600.000 
G1 X94.665 Y-15.733 Z-1.000 F600.000 
G1 X93.643 Y-16.198 Z-1.000 F600.000 
G1 X92.712 Y-16.538 Z-1.000 F600.000 
G1 X91.848 Y-16.774 Z-1.000 F600.000 
G1 X91.040 Y-16.916 Z-1.000 F600.000 
G1 X90.275 Y-16.975 Z-1.000 F600.000 
G1 X89.560 Y-16.957 Z-1.000 F600.000 
G1 X89.232 Y-16.911 Z-1.000 F600.000 
G1 X88.542 Y-16.673 Z-1.000 F600.000 
G0 Z6.000 
G0 Z6.000 
G0 X157.384 Y-14.413 
G0 Z4.000 
G1 X157.384 Y-14.413 Z-1.000 F300.000 
G1 X157.889 Y-14.487 Z-1.000 F600.000 
G1 X158.441 Y-14.497 Z-1.000 F600.000 
G1 X159.069 Y-14.442 Z-1.000 F600.000 
G1 X159.837 Y-14.311 Z-1.000 F600.000 
G1 X160.327 Y-14.210 Z-1.000 F600.000 
G1 X161.998 Y-15.130 Z-1.000 F600.000 
G1 X163.173 Y-15.838 Z-1.000 F600.000 
G1 X164.097 Y-16.477 Z-1.000 F600.000 
G1 X164.803 Y-17.045 Z-1.000 F600.000 
G1 X164.788 Y-17.170 Z-1.000 F600.000 
G1 X164.320 Y-17.281 Z-1.000 F600.000 
G1 X163.821 Y-17.328 Z-1.000 F600.000 
G1 X163.281 Y-17.308 Z-1.000 F600.000 
G1 X162.694 Y-17.217 Z-1.000 F600.000 
G1 X162.047 Y-17.049 Z-1.000 F600.000 
G1 X161.792 Y-16.965 Z-1.000 F600.000 
G1 X161.540 Y-16.875 Z-1.000 F600.000 
G1 X160.992 Y-16.645 Z-1.000 F600.000 
G1 X160.379 Y-16.315 Z-1.000 F600.000 
G1 X159.576 Y-15.819 Z-1.000 F600.000 
G1 X159.135 Y-15.545 Z-1.000 F600.000 
G1 X158.296 Y-15.024 Z-1.000 F600.000 
G1 X157.384 Y-14.413 Z-1.000 F600.000 
G0 Z6.000 
G0 Z6.000 
G0 X141.463 Y-15.120 
G0 Z4.000 
G1 X141.463 Y-15.120 Z-1.000 F300.000 
G1 X142.510 Y-15.024 Z-1.000 F600.000 
G1 X143.218 Y-15.014 Z-1.000 F600.000 
G1 X143.783 Y-15.076 Z-1.000 F600.000 
G1 X144.257 Y-15.202 Z-1.000 F600.000 
G1 X144.665 Y-15.389 Z-1.000 F600.000 
G1 X144.757 Y-15.444 Z-1.000 F600.000 
G1 X144.847 Y-15.504 Z-1.000 F600.000 
G1 X145.769 Y-16.353 Z-1.000 F600.000 
G1 X146.925 Y-17.541 Z-1.000 F600.000 
G1 X146.395 Y-17.608 Z-1.000 F600.000 
G1 X145.861 Y-17.604 Z-1.000 F600.000 
G1 X145.319 Y-17.529 Z-1.000 F600.000 
G1 X144.765 Y-17.381 Z-1.000 F600.000 
G1 X144.196 Y-17.156 Z-1.000 F600.000 
G1 X143.606 Y-16.848 Z-1.000 F600.000 
G1 X142.994 Y-16.449 Z-1.000 F600.000 
G1 X142.358 Y-15.952 Z-1.000 F600.000 
G1 X141.897 Y-15.542 Z-1.000 F600.000 
G1 X141.463 Y-15.120 Z-1.000 F600.000 
G0 Z6.000 
G0 Z6.000 
G0 X76.369 Y-18.128 
G0 Z4.000 
G1 X76.369 Y-18.128 Z-1.000 F300.000 
G1 X77.799 Y-17.572 Z-1.000 F600.000 
G1 X79.457 Y-16.858 Z-1.000 F600.000 
G1 X81.680 Y-15.837 Z-1.000 F600.000 
G1 X82.845 Y-15.301 Z-1.000 F600.000 
G1 X83.354 Y-15.559 Z-1.000 F600.000 
G1 X83.924 Y-15.770 Z-1.000 F600.000 
G1 X84.563 Y-15.932 Z-1.000 F600.000 
G1 X85.283 Y-16.043 Z-1.000 F600.000 
G1 X86.424 Y-16.109 Z-1.000 F600.000 
G1 X85.382 Y-16.626 Z-1.000 F600.000 
G1 X84.259 Y-17.104 Z-1.000 F600.000 
G1 X83.043 Y-17.545 Z-1.000 F600.000 
G1 X81.721 Y-17.950 Z-1.000 F600.000 
G1 X79.566 Y-18.480 Z-1.000 F600.000 
G1 X78.303 Y-18.696 Z-1.000 F600.000 
G1 X77.230 Y-18.806 Z-1.000 F600.000 
G1 X76.554 Y-18.831 Z-1.000 F600.000 
G1 X75.877 Y-18.814 Z-1.000 F600.000 
G1 X75.902 Y-18.595 Z-1.000 F600.000 
G1 X75.995 Y-18.395 Z-1.000 F600.000 
G1 X76.149 Y-18.235 Z-1.000 F600.000 
G1 X76.369 Y-18.128 Z-1.000 F600.000 
G0 Z6.000 
G0 Z6.000 
G0 X153.251 Y-15.861 
G0 Z4.000 
G1 X153.251 Y-15.861 Z-1.000 F300.000 
G1 X153.801 Y-15.947 Z-1.000 F600.000 
G1 X154.382 Y-15.966 Z-1.000 F600.000 
G1 X155.000 Y-15.917 Z-1.000 F600.000 
G1 X155.658 Y-15.794 Z-1.000 F600.000 
G1 X156.192 Y-15.647 Z-1.000 F600.000 
G1 X157.486 Y-16.455 Z-1.000 F600.000 
G1 X158.834 Y-17.354 Z-1.000 F600.000 
G1 X159.892 Y-18.143 Z-1.000 F600.000 
G1 X160.906 Y-19.017 Z-1.000 F600.000 
G1 X160.434 Y-19.167 Z-1.000 F600.000 
G1 X159.932 Y-19.253 Z-1.000 F600.000 
G1 X159.399 Y-19.272 Z-1.000 F600.000 
G1 X158.835 Y-19.222 Z-1.000 F600.000 
G1 X158.243 Y-19.098 Z-1.000 F600.000 
G1 X157.633 Y-18.898 Z-1.000 F600.000 
G1 X157.228 Y-18.726 Z-1.000 F600.000 
G1 X156.840 Y-18.530 Z-1.000 F600.000 
G1 X156.081 Y-18.026 Z-1.000 F600.000 
G1 X155.189 Y-17.358 Z-1.000 F600.000 
G1 X154.227 Y-16.599 Z-1.000 F600.000 
G1 X153.251 Y-15.861 Z-1.000 F600.000 
G0 Z6.000 
G0 Z6.000 
G0 X106.086 Y-16.241 
G0 Z4.000 
G1 X106.086 Y-16.241 Z-1.000 F300.000 
G1 X106.439 Y-16.111 Z-1.000 F600.000 
G1 X106.819 Y-16.047 Z-1.000 F600.000 
G1 X107.223 Y-16.050 Z-1.000 F600.000 
G1 X107.644 Y-16.124 Z-1.000 F600.000 
G1 X108.067 Y-16.271 Z-1.000 F600.000 
G1 X108.475 Y-16.488 Z-1.000 F600.000 
G1 X108.866 Y-16.786 Z-1.000 F600.000 
G1 X108.107 Y-17.173 Z-1.000 F600.000 
G1 X107.158 Y-17.611 Z-1.000 F600.000 
G1 X106.372 Y-17.900 Z-1.000 F600.000 
G1 X105.676 Y-18.076 Z-1.000 F600.000 
G1 X105.032 Y-18.161 Z-1.000 F600.000 
G1 X104.812 Y-18.171 Z-1.000 F600.000 
G1 X104.591 Y-18.171 Z-1.000 F600.000 
G1 X104.167 Y-18.143 Z-1.000 F600.000 
G1 X103.728 Y-18.043 Z-1.000 F600.000 
G1 X103.275 Y-17.868 Z-1.000 F600.000 
G1 X102.962 Y-17.705 Z-1.000 F600.000 
G1 X103.919 Y-17.209 Z-1.000 F600.000 
G1 X106.086 Y-16.241 Z-1.000 F600.000 
G0 Z6.000 
G0 Z6.000 
G0 X93.084 Y-18.746 
G0 Z4.000 
G1 X93.084 Y-18.746 Z-1.000 F300.000 
G1 X95.559 Y-17.244 Z-1.000 F600.000 
G1 X97.249 Y-16.256 Z-1.000 F600.000 
G1 X97.692 Y-16.586 Z-1.000 F600.000 
G1 X98.188 Y-16.866 Z-1.000 F600.000 
G1 X98.735 Y-17.093 Z-1.000 F600.000 
G1 X99.331 Y-17.264 Z-1.000 F600.000 
G1 X99.990 Y-17.376 Z-1.000 F600.000 
G1 X99.146 Y-17.802 Z-1.000 F600.000 
G1 X98.239 Y-18.180 Z-1.000 F600.000 
G1 X97.270 Y-18.507 Z-1.000 F600.000 
G1 X95.957 Y-18.843 Z-1.000 F600.000 
G1 X95.360 Y-18.945 Z-1.000 F600.000 
G1 X94.648 Y-19.021 Z-1.000 F600.000 
G1 X94.077 Y-19.013 Z-1.000 F600.000 
G1 X93.593 Y-18.933 Z-1.000 F600.000 
G1 X93.084 Y-18.746 Z-1.000 F600.000 
G0 Z6.000 
G0 Z6.000 
G0 X149.548 Y-17.477 
G0 Z4.000 
G1 X149.548 Y-17.477 Z-1.000 F300.000 
G1 X150.002 Y-17.548 Z-1.000 F600.000 
G1 X150.500 Y-17.556 Z-1.000 F600.000 
G1 X151.072 Y-17.499 Z-1.000 F600.000 
G1 X152.159 Y-17.283 Z-1.000 F600.000 
G1 X153.602 Y-18.288 Z-1.000 F600.000 
G1 X154.926 Y-19.302 Z-1.000 F600.000 
G1 X156.138 Y-20.323 Z-1.000 F600.000 
G1 X156.992 Y-21.109 Z-1.000 F600.000 
G1 X156.356 Y-21.218 Z-1.000 F600.000 
G1 X155.716 Y-21.255 Z-1.000 F600.000 
G1 X155.086 Y-21.217 Z-1.000 F600.000 
G1 X154.480 Y-21.107 Z-1.000 F600.000 
G1 X153.907 Y-20.929 Z-1.000 F600.000 
G1 X153.711 Y-20.849 Z-1.000 F600.000 
G1 X153.518 Y-20.760 Z-1.000 F600.000 
G1 X152.909 Y-20.433 Z-1.000 F600.000 
G1 X152.284 Y-20.019 Z-1.000 F600.000 
G1 X151.613 Y-19.494 Z-1.000 F600.000 
G1 X150.831 Y-18.801 Z-1.000 F600.000 
G1 X149.541 Y-17.600 Z-1.000 F600.000 
G1 X149.548 Y-17.477 Z-1.000 F600.000 
G0 Z6.000 
G0 Z6.000 
G0 X81.789 Y-20.199 
G0 Z4.000 
G1 X81.789 Y-20.199 Z-1.000 F300.000 
G1 X83.272 Y-19.548 Z-1.000 F600.000 
G1 X85.097 Y-18.678 Z-1.000 F600.000 
G1 X86.282 Y-18.097 Z-1.000 F600.000 
G1 X87.468 Y-17.520 Z-1.000 F600.000 
G1 X87.909 Y-17.783 Z-1.000 F600.000 
G1 X88.404 Y-17.997 Z-1.000 F600.000 
G1 X88.964 Y-18.163 Z-1.000 F600.000 
G1 X89.599 Y-18.280 Z-1.000 F600.000 
G1 X90.731 Y-18.356 Z-1.000 F600.000 
G1 X89.701 Y-18.873 Z-1.000 F600.000 
G1 X88.610 Y-19.341 Z-1.000 F600.000 
G1 X87.454 Y-19.758 Z-1.000 F600.000 
G1 X86.234 Y-20.123 Z-1.000 F600.000 
G1 X84.947 Y-20.433 Z-1.000 F600.000 
G1 X84.349 Y-20.554 Z-1.000 F600.000 
G1 X83.749 Y-20.661 Z-1.000 F600.000 
G1 X82.815 Y-20.780 Z-1.000 F600.000 
G1 X81.974 Y-20.837 Z-1.000 F600.000 
G1 X81.669 Y-20.836 Z-1.000 F600.000 
G1 X81.364 Y-20.819 Z-1.000 F600.000 
G1 X81.435 Y-20.539 Z-1.000 F600.000 
G1 X81.555 Y-20.346 Z-1.000 F600.000 
G1 X81.658 Y-20.258 Z-1.000 F600.000 
G1 X81.789 Y-20.199 Z-1.000 F600.000 
G0 Z6.000 
G0 Z6.000 
G0 X109.309 Y-18.296 
G0 Z4.000 
G1 X109.309 Y-18.296 Z-1.000 F300.000 
G1 X109.629 Y-18.174 Z-1.000 F600.000 
G1 X109.980 Y-18.115 Z-1.000 F600.000 
G1 X110.360 Y-18.121 Z-1.000 F600.000 
G1 X110.766 Y-18.199 Z-1.000 F600.000 
G1 X111.378 Y-18.444 Z-1.000 F600.000 
G1 X111.367 Y-18.559 Z-1.000 F600.000 
G1 X110.604 Y-19.030 Z-1.000 F600.000 
G1 X109.925 Y-19.365 Z-1.000 F600.000 
G1 X109.311 Y-19.585 Z-1.000 F600.000 
G1 X108.753 Y-19.707 Z-1.000 F600.000 
G1 X108.240 Y-19.741 Z-1.000 F600.000 
G1 X107.769 Y-19.698 Z-1.000 F600.000 
G1 X107.330 Y-19.581 Z-1.000 F600.000 
G1 X107.022 Y-19.449 Z-1.000 F600.000 
G1 X107.539 Y-19.132 Z-1.000 F600.000 
G1 X108.198 Y-18.802 Z-1.000 F600.000 
G1 X108.755 Y-18.551 Z-1.000 F600.000 
G1 X109.309 Y-18.296 Z-1.000 F600.000 
G0 Z6.000 
G0 Z6.000 
G0 X97.720 Y-20.516 
G0 Z4.000 
G1 X97.720 Y-20.516 Z-1.000 F300.000 
G1 X99.289 Y-19.630 Z-1.000 F600.000 
G1 X100.721 Y-18.848 Z-1.000 F600.000 
G1 X101.053 Y-18.679 Z-1.000 F600.000 
G1 X101.388 Y-18.516 Z-1.000 F600.000 
G1 X102.033 Y-18.872 Z-1.000 F600.000 
G1 X102.674 Y-19.139 Z-1.000 F600.000 
G1 X103.305 Y-19.322 Z-1.000 F600.000 
G1 X103.902 Y-19.422 Z-1.000 F600.000 
G1 X102.891 Y-19.875 Z-1.000 F600.000 
G1 X101.888 Y-20.243 Z-1.000 F600.000 
G1 X100.898 Y-20.527 Z-1.000 F600.000 
G1 X100.402 Y-20.640 Z-1.000 F600.000 
G1 X99.602 Y-20.753 Z-1.000 F600.000 
G1 X98.956 Y-20.777 Z-1.000 F600.000 
G1 X98.412 Y-20.724 Z-1.000 F600.000 
G1 X98.061 Y-20.642 Z-1.000 F600.000 
G1 X97.720 Y-20.516 Z-1.000 F600.000 
G0 Z6.000 
G0 Z6.000 
G0 X145.335 Y-18.529 
G0 Z4.000 
G1 X145.335 Y-18.529 Z-1.000 F300.000 
G1 X145.904 Y-18.697 Z-1.000 F600.000 
G1 X146.501 Y-18.799 Z-1.000 F600.000 
G1 X147.118 Y-18.832 Z-1.000 F600.000 
G1 X147.745 Y-18.793 Z-1.000 F600.000 
G1 X148.170 Y-18.725 Z-1.000 F600.000 
G1 X149.989 Y-20.205 Z-1.000 F600.000 
G1 X151.149 Y-21.210 Z-1.000 F600.000 
G1 X152.044 Y-22.077 Z-1.000 F600.000 
G1 X152.860 Y-22.993 Z-1.000 F600.000 
G1 X152.109 Y-23.078 Z-1.000 F600.000 
G1 X151.399 Y-23.082 Z-1.000 F600.000 
G1 X150.743 Y-23.012 Z-1.000 F600.000 
G1 X150.149 Y-22.872 Z-1.000 F600.000 
G1 X149.616 Y-22.670 Z-1.000 F600.000 
G1 X149.141 Y-22.411 Z-1.000 F600.000 
G1 X148.780 Y-22.146 Z-1.000 F600.000 
G1 X148.109 Y-21.541 Z-1.000 F600.000 
G1 X147.372 Y-20.787 Z-1.000 F600.000 
G1 X146.439 Y-19.750 Z-1.000 F600.000 
G1 X145.335 Y-18.529 Z-1.000 F600.000 
G0 Z6.000 
G0 Z6.000 
G0 X142.059 Y-18.936 
G0 Z4.000 
G1 X142.059 Y-18.936 Z-1.000 F300.000 
G1 X142.845 Y-19.118 Z-1.000 F600.000 
G1 X143.625 Y-19.223 Z-1.000 F600.000 
G1 X143.900 Y-19.242 Z-1.000 F600.000 
G1 X144.175 Y-19.252 Z-1.000 F600.000 
G1 X145.871 Y-21.238 Z-1.000 F600.000 
G1 X146.926 Y-22.548 Z-1.000 F600.000 
G1 X147.728 Y-23.657 Z-1.000 F600.000 
G1 X148.216 Y-24.413 Z-1.000 F600.000 
G1 X147.633 Y-24.465 Z-1.000 F600.000 
G1 X147.060 Y-24.442 Z-1.000 F600.000 
G1 X146.519 Y-24.346 Z-1.000 F600.000 
G1 X146.023 Y-24.183 Z-1.000 F600.000 
G1 X145.580 Y-23.959 Z-1.000 F600.000 
G1 X145.295 Y-23.763 Z-1.000 F600.000 
G1 X145.031 Y-23.533 Z-1.000 F600.000 
G1 X144.554 Y-23.031 Z-1.000 F600.000 
G1 X144.090 Y-22.442 Z-1.000 F600.000 
G1 X143.620 Y-21.735 Z-1.000 F600.000 
G1 X143.100 Y-20.839 Z-1.000 F600.000 
G1 X142.059 Y-18.936 Z-1.000 F600.000 
G0 Z6.000 
G0 Z6.000 
G0 X138.932 Y-19.206 
G0 Z4.000 
G1 X138.932 Y-19.206 Z-1.000 F300.000 
G1 X139.692 Y-19.420 Z-1.000 F600.000 
G1 X140.712 Y-19.622 Z-1.000 F600.000 
G1 X141.982 Y-21.967 Z-1.000 F600.000 
G1 X142.678 Y-23.379 Z-1.000 F600.000 
G1 X143.035 Y-24.192 Z-1.000 F600.000 
G1 X143.356 Y-25.021 Z-1.000 F600.000 
G1 X142.906 Y-25.004 Z-1.000 F600.000 
G1 X142.455 Y-24.916 Z-1.000 F600.000 
G1 X142.018 Y-24.757 Z-1.000 F600.000 
G1 X141.610 Y-24.531 Z-1.000 F600.000 
G1 X141.245 Y-24.246 Z-1.000 F600.000 
G1 X140.935 Y-23.911 Z-1.000 F600.000 
G1 X140.750 Y-23.644 Z-1.000 F600.000 
G1 X140.379 Y-22.993 Z-1.000 F600.000 
G1 X140.025 Y-22.235 Z-1.000 F600.000 
G1 X139.663 Y-21.305 Z-1.000 F600.000 
G1 X139.205 Y-19.978 Z-1.000 F600.000 
G1 X138.932 Y-19.206 Z-1.000 F600.000 
G0 Z6.000 
G0 Z6.000 
G0 X87.495 Y-21.737 
G0 Z4.000 
G1 X87.495 Y-21.737 Z-1.000 F300.000 
G1 X89.355 Y-20.836 Z-1.000 F600.000 
G1 X91.905 Y-19.526 Z-1.000 F600.000 
G1 X92.285 Y-19.738 Z-1.000 F600.000 
G1 X92.727 Y-19.907 Z-1.000 F600.000 
G1 X93.262 Y-20.039 Z-1.000 F600.000 
G1 X94.421 Y-20.209 Z-1.000 F600.000 
G1 X93.269 Y-20.750 Z-1.000 F600.000 
G1 X92.114 Y-21.212 Z-1.000 F600.000 
G1 X90.962 Y-21.593 Z-1.000 F600.000 
G1 X89.818 Y-21.894 Z-1.000 F600.000 
G1 X88.193 Y-22.189 Z-1.000 F600.000 
G1 X87.677 Y-22.232 Z-1.000 F600.000 
G1 X87.251 Y-22.205 Z-1.000 F600.000 
G1 X87.205 Y-22.092 Z-1.000 F600.000 
G1 X87.231 Y-21.982 Z-1.000 F600.000 
G1 X87.326 Y-21.861 Z-1.000 F600.000 
G1 X87.495 Y-21.737 Z-1.000 F600.000 
G0 Z6.000 
G0 Z6.000 
G0 X112.494 Y-19.719 
G0 Z4.000 
G1 X112.494 Y-19.719 Z-1.000 F300.000 
G1 X112.845 Y-19.654 Z-1.000 F600.000 
G1 X113.231 Y-19.652 Z-1.000 F600.000 
G1 X113.661 Y-19.718 Z-1.000 F600.000 
G1 X114.336 Y-19.928 Z-1.000 F600.000 
G1 X113.729 Y-20.325 Z-1.000 F600.000 
G1 X113.173 Y-20.602 Z-1.000 F600.000 
G1 X112.672 Y-20.770 Z-1.000 F600.000 
G1 X112.221 Y-20.843 Z-1.000 F600.000 
G1 X111.813 Y-20.834 Z-1.000 F600.000 
G1 X111.445 Y-20.750 Z-1.000 F600.000 
G1 X111.220 Y-20.656 Z-1.000 F600.000 
G1 X111.001 Y-20.529 Z-1.000 F600.000 
G1 X111.716 Y-20.094 Z-1.000 F600.000 
G1 X112.494 Y-19.719 Z-1.000 F600.000 
G0 Z6.000 
G0 Z6.000 
G0 X136.294 Y-20.109 
G0 Z4.000 
G1 X136.294 Y-20.109 Z-1.000 F300.000 
G1 X137.002 Y-19.971 Z-1.000 F600.000 
G1 X137.519 Y-19.837 Z-1.000 F600.000 
G1 X138.148 Y-22.001 Z-1.000 F600.000 
G1 X138.965 Y-24.785 Z-1.000 F600.000 
G1 X138.485 Y-24.658 Z-1.000 F600.000 
G1 X138.058 Y-24.468 Z-1.000 F600.000 
G1 X137.704 Y-24.228 Z-1.000 F600.000 
G1 X137.426 Y-23.949 Z-1.000 F600.000 
G1 X137.200 Y-23.594 Z-1.000 F600.000 
G1 X136.967 Y-23.046 Z-1.000 F600.000 
G1 X136.767 Y-22.404 Z-1.000 F600.000 
G1 X136.585 Y-21.604 Z-1.000 F600.000 
G1 X136.294 Y-20.109 Z-1.000 F600.000 
G0 Z6.000 
G0 Z6.000 
G0 X130.376 Y-20.404 
G0 Z4.000 
G1 X130.376 Y-20.404 Z-1.000 F300.000 
G1 X130.637 Y-23.934 Z-1.000 F600.000 
G1 X130.227 Y-23.709 Z-1.000 F600.000 
G1 X129.870 Y-23.429 Z-1.000 F600.000 
G1 X129.584 Y-23.110 Z-1.000 F600.000 
G1 X129.433 Y-22.879 Z-1.000 F600.000 
G1 X129.314 Y-22.629 Z-1.000 F600.000 
G1 X129.181 Y-22.205 Z-1.000 F600.000 
G1 X129.099 Y-21.717 Z-1.000 F600.000 
G1 X129.067 Y-21.130 Z-1.000 F600.000 
G1 X129.071 Y-20.654 Z-1.000 F600.000 
G1 X130.376 Y-20.404 Z-1.000 F600.000 
G0 Z6.000 
G0 Z6.000 
G0 X133.388 Y-20.169 
G0 Z4.000 
G1 X133.388 Y-20.169 Z-1.000 F300.000 
G1 X134.595 Y-20.202 Z-1.000 F600.000 
G1 X134.984 Y-22.360 Z-1.000 F600.000 
G1 X135.337 Y-24.452 Z-1.000 F600.000 
G1 X134.802 Y-24.167 Z-1.000 F600.000 
G1 X134.399 Y-23.872 Z-1.000 F600.000 
G1 X134.101 Y-23.561 Z-1.000 F600.000 
G1 X133.942 Y-23.330 Z-1.000 F600.000 
G1 X133.818 Y-23.073 Z-1.000 F600.000 
G1 X133.653 Y-22.558 Z-1.000 F600.000 
G1 X133.533 Y-21.963 Z-1.000 F600.000 
G1 X133.453 Y-21.237 Z-1.000 F600.000 
G1 X133.388 Y-20.169 Z-1.000 F600.000 
G0 Z6.000 
G0 Z6.000 
G0 X102.360 Y-22.141 
G0 Z4.000 
G1 X102.360 Y-22.141 Z-1.000 F300.000 
G1 X103.938 Y-21.158 Z-1.000 F600.000 
G1 X105.538 Y-20.209 Z-1.000 F600.000 
G1 X106.019 Y-20.462 Z-1.000 F600.000 
G1 X106.560 Y-20.668 Z-1.000 F600.000 
G1 X107.169 Y-20.826 Z-1.000 F600.000 
G1 X107.950 Y-20.943 Z-1.000 F600.000 
G1 X106.827 Y-21.467 Z-1.000 F600.000 
G1 X105.886 Y-21.830 Z-1.000 F600.000 
G1 X105.056 Y-22.071 Z-1.000 F600.000 
G1 X104.302 Y-22.212 Z-1.000 F600.000 
G1 X103.607 Y-22.265 Z-1.000 F600.000 
G1 X102.961 Y-22.238 Z-1.000 F600.000 
G1 X102.360 Y-22.141 Z-1.000 F600.000 
G0 Z6.000 
G0 Z6.000 
G0 X93.022 Y-22.657 
G0 Z4.000 
G1 X93.022 Y-22.657 Z-1.000 F300.000 
G1 X94.172 Y-22.189 Z-1.000 F600.000 
G1 X96.511 Y-21.169 Z-1.000 F600.000 
G1 X97.014 Y-21.404 Z-1.000 F600.000 
G1 X97.570 Y-21.586 Z-1.000 F600.000 
G1 X98.016 Y-21.686 Z-1.000 F600.000 
G1 X98.470 Y-21.753 Z-1.000 F600.000 
G1 X97.369 Y-22.208 Z-1.000 F600.000 
G1 X96.321 Y-22.560 Z-1.000 F600.000 
G1 X95.320 Y-22.817 Z-1.000 F600.000 
G1 X94.364 Y-22.986 Z-1.000 F600.000 
G1 X93.448 Y-23.072 Z-1.000 F600.000 
G1 X93.062 Y-23.084 Z-1.000 F600.000 
G1 X92.676 Y-23.082 Z-1.000 F600.000 
G1 X92.751 Y-22.859 Z-1.000 F600.000 
G1 X92.868 Y-22.722 Z-1.000 F600.000 
G1 X92.939 Y-22.682 Z-1.000 F600.000 
G1 X93.022 Y-22.657 Z-1.000 F600.000 
G0 Z6.000 
G0 Z6.000 
G0 X127.417 Y-22.379 
G0 Z4.000 
G1 X127.417 Y-22.379 Z-1.000 F300.000 
G1 X128.898 Y-21.360 Z-1.000 F600.000 
G1 X128.950 Y-22.551 Z-1.000 F600.000 
G1 X128.990 Y-23.783 Z-1.000 F600.000 
G1 X128.397 Y-23.386 Z-1.000 F600.000 
G1 X127.922 Y-22.979 Z-1.000 F600.000 
G1 X127.655 Y-22.692 Z-1.000 F600.000 
G1 X127.417 Y-22.379 Z-1.000 F600.000 
G0 Z6.000 
G0 Z6.000 
G0 X106.787 Y-23.494 
G0 Z4.000 
G1 X106.787 Y-23.494 Z-1.000 F300.000 
G1 X108.186 Y-22.506 Z-1.000 F600.000 
G1 X109.619 Y-21.569 Z-1.000 F600.000 
G1 X110.489 Y-21.845 Z-1.000 F600.000 
G1 X111.070 Y-21.980 Z-1.000 F600.000 
G1 X111.400 Y-22.016 Z-1.000 F600.000 
G1 X111.737 Y-22.014 Z-1.000 F600.000 
G1 X110.786 Y-22.562 Z-1.000 F600.000 
G1 X109.928 Y-22.971 Z-1.000 F600.000 
G1 X109.129 Y-23.268 Z-1.000 F600.000 
G1 X108.379 Y-23.467 Z-1.000 F600.000 
G1 X107.780 Y-23.565 Z-1.000 F600.000 
G1 X107.458 Y-23.583 Z-1.000 F600.000 
G1 X106.787 Y-23.494 Z-1.000 F600.000 
G0 Z6.000 
G0 Z6.000 
G0 X111.425 Y-24.394 
G0 Z4.000 
G1 X111.425 Y-24.394 Z-1.000 F300.000 
G1 X112.414 Y-23.596 Z-1.000 F600.000 
G1 X113.608 Y-22.703 Z-1.000 F600.000 
G1 X114.074 Y-22.923 Z-1.000 F600.000 
G1 X114.588 Y-23.088 Z-1.000 F600.000 
G1 X114.964 Y-23.166 Z-1.000 F600.000 
G1 X115.345 Y-23.214 Z-1.000 F600.000 
G1 X114.509 Y-23.706 Z-1.000 F600.000 
G1 X113.791 Y-24.047 Z-1.000 F600.000 
G1 X113.146 Y-24.272 Z-1.000 F600.000 
G1 X112.553 Y-24.399 Z-1.000 F600.000 
G1 X112.002 Y-24.440 Z-1.000 F600.000 
G1 X111.715 Y-24.429 Z-1.000 F600.000 
G1 X111.425 Y-24.394 Z-1.000 F600.000 
G0 Z6.000 
G0 Z6.000 
G0 X96.541 Y-26.191 
G0 Z4.000 
G1 X96.541 Y-26.191 Z-1.000 F300.000 
G1 X98.494 Y-24.860 Z-1.000 F600.000 
G1 X101.293 Y-22.925 Z-1.000 F600.000 
G1 X101.978 Y-23.169 Z-1.000 F600.000 
G1 X102.705 Y-23.351 Z-1.000 F600.000 
G1 X103.470 Y-23.470 Z-1.000 F600.000 
G1 X104.345 Y-23.522 Z-1.000 F600.000 
G1 X103.213 Y-24.295 Z-1.000 F600.000 
G1 X102.175 Y-24.913 Z-1.000 F600.000 
G1 X101.198 Y-25.407 Z-1.000 F600.000 
G1 X100.272 Y-25.790 Z-1.000 F600.000 
G1 X99.036 Y-26.167 Z-1.000 F600.000 
G1 X98.338 Y-26.295 Z-1.000 F600.000 
G1 X97.691 Y-26.336 Z-1.000 F600.000 
G1 X97.092 Y-26.299 Z-1.000 F600.000 
G1 X96.541 Y-26.191 Z-1.000 F600.000 
G0 Z6.000 
G0 Z6.000 
G0 X115.527 Y-25.811 
G0 Z4.000 
G1 X115.527 Y-25.811 Z-1.000 F300.000 
G1 X116.205 Y-25.264 Z-1.000 F600.000 
G1 X116.883 Y-24.813 Z-1.000 F600.000 
G1 X117.551 Y-24.459 Z-1.000 F600.000 
G1 X118.203 Y-24.199 Z-1.000 F600.000 
G1 X118.837 Y-24.026 Z-1.000 F600.000 
G1 X119.453 Y-23.935 Z-1.000 F600.000 
G1 X120.025 Y-23.921 Z-1.000 F600.000 
G1 X120.681 Y-23.963 Z-1.000 F600.000 
G1 X121.229 Y-24.070 Z-1.000 F600.000 
G1 X121.679 Y-24.233 Z-1.000 F600.000 
G1 X122.042 Y-24.443 Z-1.000 F600.000 
G1 X122.330 Y-24.697 Z-1.000 F600.000 
G1 X122.421 Y-24.804 Z-1.000 F600.000 
G1 X122.505 Y-24.921 Z-1.000 F600.000 
G1 X122.708 Y-25.285 Z-1.000 F600.000 
G1 X122.852 Y-25.686 Z-1.000 F600.000 
G1 X122.932 Y-26.120 Z-1.000 F600.000 
G1 X122.943 Y-26.577 Z-1.000 F600.000 
G1 X122.883 Y-27.045 Z-1.000 F600.000 
G1 X122.751 Y-27.505 Z-1.000 F600.000 
G1 X122.551 Y-27.938 Z-1.000 F600.000 
G1 X122.291 Y-28.328 Z-1.000 F600.000 
G1 X122.176 Y-28.466 Z-1.000 F600.000 
G1 X122.051 Y-28.596 Z-1.000 F600.000 
G1 X121.708 Y-28.895 Z-1.000 F600.000 
G1 X121.308 Y-29.150 Z-1.000 F600.000 
G1 X120.853 Y-29.355 Z-1.000 F600.000 
G1 X120.348 Y-29.506 Z-1.000 F600.000 
G1 X119.802 Y-29.595 Z-1.000 F600.000 
G1 X119.644 Y-29.608 Z-1.000 F600.000 
G1 X119.487 Y-29.615 Z-1.000 F600.000 
G1 X118.334 Y-29.661 Z-1.000 F600.000 
G1 X117.240 Y-29.754 Z-1.000 F600.000 
G1 X116.358 Y-29.900 Z-1.000 F600.000 
G1 X115.602 Y-30.100 Z-1.000 F600.000 
G1 X115.093 Y-30.287 Z-1.000 F600.000 
G1 X115.004 Y-29.957 Z-1.000 F600.000 
G1 X114.034 Y-30.460 Z-1.000 F600.000 
G1 X113.210 Y-30.972 Z-1.000 F600.000 
G1 X112.508 Y-31.498 Z-1.000 F600.000 
G1 X111.916 Y-32.035 Z-1.000 F600.000 
G1 X111.421 Y-32.586 Z-1.000 F600.000 
G1 X111.012 Y-33.152 Z-1.000 F600.000 
G1 X110.765 Y-33.576 Z-1.000 F600.000 
G1 X110.579 Y-33.943 Z-1.000 F600.000 
G1 X110.376 Y-34.470 Z-1.000 F600.000 
G1 X110.163 Y-34.978 Z-1.000 F600.000 
G1 X110.021 Y-35.227 Z-1.000 F600.000 
G1 X109.899 Y-35.027 Z-1.000 F600.000 
G1 X109.841 Y-34.800 Z-1.000 F600.000 
G1 X109.839 Y-34.526 Z-1.000 F600.000 
G1 X109.897 Y-34.159 Z-1.000 F600.000 
G1 X109.973 Y-33.733 Z-1.000 F600.000 
G1 X110.126 Y-33.107 Z-1.000 F600.000 
G1 X110.352 Y-32.475 Z-1.000 F600.000 
G1 X110.657 Y-31.832 Z-1.000 F600.000 
G1 X111.048 Y-31.172 Z-1.000 F600.000 
G1 X111.535 Y-30.485 Z-1.000 F600.000 
G1 X111.947 Y-29.975 Z-1.000 F600.000 
G1 X112.378 Y-29.486 Z-1.000 F600.000 
G1 X113.179 Y-28.690 Z-1.000 F600.000 
G1 X113.991 Y-27.989 Z-1.000 F600.000 
G1 X114.808 Y-27.381 Z-1.000 F600.000 
G1 X115.630 Y-26.862 Z-1.000 F600.000 
G1 X116.795 Y-26.276 Z-1.000 F600.000 
G1 X115.527 Y-25.811 Z-1.000 F600.000 
G0 Z6.000 
G0 Z6.000 
G0 X105.729 Y-24.260 
G0 Z4.000 
G1 X105.729 Y-24.260 Z-1.000 F300.000 
G1 X106.098 Y-24.419 Z-1.000 F600.000 
G1 X106.508 Y-24.520 Z-1.000 F600.000 
G1 X106.979 Y-24.567 Z-1.000 F600.000 
G1 X107.557 Y-24.558 Z-1.000 F600.000 
G1 X108.448 Y-24.493 Z-1.000 F600.000 
G1 X108.644 Y-24.481 Z-1.000 F600.000 
G1 X108.838 Y-24.475 Z-1.000 F600.000 
G1 X107.775 Y-25.334 Z-1.000 F600.000 
G1 X106.840 Y-25.996 Z-1.000 F600.000 
G1 X105.977 Y-26.516 Z-1.000 F600.000 
G1 X105.158 Y-26.921 Z-1.000 F600.000 
G1 X104.373 Y-27.224 Z-1.000 F600.000 
G1 X104.140 Y-27.299 Z-1.000 F600.000 
G1 X103.904 Y-27.366 Z-1.000 F600.000 
G1 X103.419 Y-27.476 Z-1.000 F600.000 
G1 X102.862 Y-27.533 Z-1.000 F600.000 
G1 X102.172 Y-27.539 Z-1.000 F600.000 
G1 X101.491 Y-27.518 Z-1.000 F600.000 
G1 X102.467 Y-26.800 Z-1.000 F600.000 
G1 X103.735 Y-25.795 Z-1.000 F600.000 
G1 X104.720 Y-25.012 Z-1.000 F600.000 
G1 X105.729 Y-24.260 Z-1.000 F600.000 
G0 Z6.000 
G0 Z6.000 
G0 X123.670 Y-24.815 
G0 Z4.000 
G1 X123.670 Y-24.815 Z-1.000 F300.000 
G1 X124.185 Y-24.708 Z-1.000 F600.000 
G1 X124.710 Y-24.674 Z-1.000 F600.000 
G1 X125.226 Y-24.713 Z-1.000 F600.000 
G1 X125.715 Y-24.823 Z-1.000 F600.000 
G1 X126.166 Y-25.000 Z-1.000 F600.000 
G1 X126.395 Y-25.125 Z-1.000 F600.000 
G1 X126.613 Y-25.270 Z-1.000 F600.000 
G1 X126.903 Y-25.518 Z-1.000 F600.000 
G1 X127.150 Y-25.823 Z-1.000 F600.000 
G1 X127.339 Y-26.170 Z-1.000 F600.000 
G1 X127.456 Y-26.540 Z-1.000 F600.000 
G1 X127.498 Y-26.912 Z-1.000 F600.000 
G1 X127.488 Y-27.119 Z-1.000 F600.000 
G1 X127.452 Y-27.324 Z-1.000 F600.000 
G1 X127.327 Y-27.698 Z-1.000 F600.000 
G1 X127.133 Y-28.060 Z-1.000 F600.000 
G1 X126.867 Y-28.406 Z-1.000 F600.000 
G1 X126.528 Y-28.732 Z-1.000 F600.000 
G1 X126.121 Y-29.026 Z-1.000 F600.000 
G1 X125.993 Y-29.103 Z-1.000 F600.000 
G1 X125.862 Y-29.174 Z-1.000 F600.000 
G1 X125.313 Y-29.427 Z-1.000 F600.000 
G1 X124.710 Y-29.627 Z-1.000 F600.000 
G1 X124.044 Y-29.774 Z-1.000 F600.000 
G1 X123.302 Y-29.867 Z-1.000 F600.000 
G1 X122.463 Y-29.904 Z-1.000 F600.000 
G1 X122.057 Y-29.901 Z-1.000 F600.000 
G1 X121.654 Y-29.888 Z-1.000 F600.000 
G1 X122.158 Y-29.607 Z-1.000 F600.000 
G1 X122.586 Y-29.349 Z-1.000 F600.000 
G1 X122.767 Y-29.213 Z-1.000 F600.000 
G1 X122.935 Y-29.057 Z-1.000 F600.000 
G1 X123.261 Y-28.676 Z-1.000 F600.000 
G1 X123.539 Y-28.240 Z-1.000 F600.000 
G1 X123.760 Y-27.760 Z-1.000 F600.000 
G1 X123.917 Y-27.247 Z-1.000 F600.000 
G1 X124.003 Y-26.717 Z-1.000 F600.000 
G1 X124.016 Y-26.187 Z-1.000 F600.000 
G1 X123.956 Y-25.670 Z-1.000 F600.000 
G1 X123.824 Y-25.181 Z-1.000 F600.000 
G1 X123.753 Y-24.996 Z-1.000 F600.000 
G1 X123.670 Y-24.815 Z-1.000 F600.000 
G0 Z6.000 
G0 Z6.000 
G0 X106.635 Y-28.505 
G0 Z4.000 
G1 X106.635 Y-28.505 Z-1.000 F300.000 
G1 X107.541 Y-27.805 Z-1.000 F600.000 
G1 X108.696 Y-26.839 Z-1.000 F600.000 
G1 X109.618 Y-26.060 Z-1.000 F600.000 
G1 X110.562 Y-25.308 Z-1.000 F600.000 
G1 X111.163 Y-25.499 Z-1.000 F600.000 
G1 X111.670 Y-25.587 Z-1.000 F600.000 
G1 X112.091 Y-25.571 Z-1.000 F600.000 
G1 X112.665 Y-25.492 Z-1.000 F600.000 
G1 X113.089 Y-25.439 Z-1.000 F600.000 
G1 X113.514 Y-25.430 Z-1.000 F600.000 
G1 X112.571 Y-26.251 Z-1.000 F600.000 
G1 X111.702 Y-26.909 Z-1.000 F600.000 
G1 X110.877 Y-27.439 Z-1.000 F600.000 
G1 X110.088 Y-27.856 Z-1.000 F600.000 
G1 X108.980 Y-28.291 Z-1.000 F600.000 
G1 X108.509 Y-28.417 Z-1.000 F600.000 
G1 X107.970 Y-28.491 Z-1.000 F600.000 
G1 X107.314 Y-28.516 Z-1.000 F600.000 
G1 X106.635 Y-28.505 Z-1.000 F600.000 
G0 Z6.000 
G0 Z6.000 
G0 X87.631 Y-32.256 
G0 Z4.000 
G1 X87.631 Y-32.256 Z-1.000 F300.000 
G1 X95.175 Y-27.194 Z-1.000 F600.000 
G1 X95.573 Y-27.391 Z-1.000 F600.000 
G1 X96.011 Y-27.530 Z-1.000 F600.000 
G1 X96.503 Y-27.614 Z-1.000 F600.000 
G1 X97.066 Y-27.641 Z-1.000 F600.000 
G1 X97.733 Y-27.606 Z-1.000 F600.000 
G1 X98.335 Y-27.536 Z-1.000 F600.000 
G1 X98.923 Y-27.454 Z-1.000 F600.000 
G1 X97.319 Y-28.675 Z-1.000 F600.000 
G1 X95.586 Y-29.906 Z-1.000 F600.000 
G1 X93.704 Y-31.156 Z-1.000 F600.000 
G1 X92.349 Y-32.010 Z-1.000 F600.000 
G1 X91.827 Y-32.304 Z-1.000 F600.000 
G1 X91.260 Y-32.540 Z-1.000 F600.000 
G1 X90.669 Y-32.708 Z-1.000 F600.000 
G1 X90.074 Y-32.800 Z-1.000 F600.000 
G1 X89.492 Y-32.816 Z-1.000 F600.000 
G1 X88.938 Y-32.758 Z-1.000 F600.000 
G1 X88.420 Y-32.629 Z-1.000 F600.000 
G1 X87.945 Y-32.434 Z-1.000 F600.000 
G1 X87.786 Y-32.350 Z-1.000 F600.000 
G1 X87.631 Y-32.256 Z-1.000 F600.000 
G0 Z6.000 
G0 Z6.000 
G0 X92.610 Y-34.228 
G0 Z4.000 
G1 X92.610 Y-34.228 Z-1.000 F300.000 
G1 X94.071 Y-33.272 Z-1.000 F600.000 
G1 X95.633 Y-32.168 Z-1.000 F600.000 
G1 X97.365 Y-30.860 Z-1.000 F600.000 
G1 X100.371 Y-28.457 Z-1.000 F600.000 
G1 X100.830 Y-28.655 Z-1.000 F600.000 
G1 X101.332 Y-28.795 Z-1.000 F600.000 
G1 X101.883 Y-28.876 Z-1.000 F600.000 
G1 X102.490 Y-28.895 Z-1.000 F600.000 
G1 X103.163 Y-28.847 Z-1.000 F600.000 
G1 X103.628 Y-28.780 Z-1.000 F600.000 
G1 X104.085 Y-28.692 Z-1.000 F600.000 
G1 X103.647 Y-29.119 Z-1.000 F600.000 
G1 X103.032 Y-29.636 Z-1.000 F600.000 
G1 X102.733 Y-29.881 Z-1.000 F600.000 
G1 X102.438 Y-30.131 Z-1.000 F600.000 
G1 X100.684 Y-31.562 Z-1.000 F600.000 
G1 X99.497 Y-32.473 Z-1.000 F600.000 
G1 X98.497 Y-33.153 Z-1.000 F600.000 
G1 X97.589 Y-33.681 Z-1.000 F600.000 
G1 X96.606 Y-34.145 Z-1.000 F600.000 
G1 X95.904 Y-34.393 Z-1.000 F600.000 
G1 X95.226 Y-34.553 Z-1.000 F600.000 
G1 X94.588 Y-34.626 Z-1.000 F600.000 
G1 X93.997 Y-34.619 Z-1.000 F600.000 
G1 X93.455 Y-34.537 Z-1.000 F600.000 
G1 X92.958 Y-34.386 Z-1.000 F600.000 
G1 X92.610 Y-34.228 Z-1.000 F600.000 
G0 Z6.000 
G0 Z6.000 
G0 X98.868 Y-35.089 
G0 Z4.000 
G1 X98.868 Y-35.089 Z-1.000 F300.000 
G1 X101.747 Y-32.751 Z-1.000 F600.000 
G1 X104.262 Y-30.636 Z-1.000 F600.000 
G1 X104.910 Y-30.073 Z-1.000 F600.000 
G1 X105.553 Y-29.504 Z-1.000 F600.000 
G1 X106.023 Y-29.664 Z-1.000 F600.000 
G1 X106.536 Y-29.765 Z-1.000 F600.000 
G1 X107.106 Y-29.807 Z-1.000 F600.000 
G1 X107.757 Y-29.787 Z-1.000 F600.000 
G1 X109.023 Y-29.625 Z-1.000 F600.000 
G1 X106.812 Y-31.656 Z-1.000 F600.000 
G1 X105.196 Y-33.145 Z-1.000 F600.000 
G1 X104.596 Y-33.665 Z-1.000 F600.000 
G1 X103.955 Y-34.125 Z-1.000 F600.000 
G1 X103.283 Y-34.517 Z-1.000 F600.000 
G1 X102.590 Y-34.836 Z-1.000 F600.000 
G1 X101.883 Y-35.081 Z-1.000 F600.000 
G1 X101.514 Y-35.178 Z-1.000 F600.000 
G1 X101.140 Y-35.255 Z-1.000 F600.000 
G1 X100.402 Y-35.327 Z-1.000 F600.000 
G1 X99.805 Y-35.317 Z-1.000 F600.000 
G1 X99.300 Y-35.234 Z-1.000 F600.000 
G1 X98.868 Y-35.089 Z-1.000 F600.000 
G0 Z6.000 
G0 Z6.000 
G0 X104.456 Y-35.650 
G0 Z4.000 
G1 X104.456 Y-35.650 Z-1.000 F300.000 
G1 X107.540 Y-32.747 Z-1.000 F600.000 
G1 X110.649 Y-29.871 Z-1.000 F600.000 
G1 X110.165 Y-30.850 Z-1.000 F600.000 
G1 X109.715 Y-31.863 Z-1.000 F600.000 
G1 X109.415 Y-32.710 Z-1.000 F600.000 
G1 X109.250 Y-33.341 Z-1.000 F600.000 
G1 X108.622 Y-33.948 Z-1.000 F600.000 
G1 X108.083 Y-34.448 Z-1.000 F600.000 
G1 X107.753 Y-34.711 Z-1.000 F600.000 
G1 X107.400 Y-34.946 Z-1.000 F600.000 
G1 X106.905 Y-35.208 Z-1.000 F600.000 
G1 X106.362 Y-35.413 Z-1.000 F600.000 
G1 X105.777 Y-35.559 Z-1.000 F600.000 
G1 X105.156 Y-35.640 Z-1.000 F600.000 
G1 X104.456 Y-35.650 Z-1.000 F600.000 
G0 Z6.000 
G0 Z6.000 
G0 X126.274 Y-33.102 
G0 Z4.000 
G1 X126.274 Y-33.102 Z-1.000 F300.000 
G1 X126.191 Y-32.946 Z-1.000 F600.000 
G1 X126.172 Y-32.767 Z-1.000 F600.000 
G1 X126.221 Y-32.572 Z-1.000 F600.000 
G1 X126.340 Y-32.384 Z-1.000 F600.000 
G1 X126.514 Y-32.242 Z-1.000 F600.000 
G1 X126.707 Y-32.178 Z-1.000 F600.000 
G1 X126.910 Y-32.199 Z-1.000 F600.000 
G1 X127.216 Y-32.381 Z-1.000 F600.000 
G1 X127.547 Y-32.651 Z-1.000 F600.000 
G1 X127.803 Y-32.895 Z-1.000 F600.000 
G1 X128.058 Y-33.139 Z-1.000 F600.000 
G1 X128.460 Y-33.575 Z-1.000 F600.000 
G1 X128.665 Y-33.872 Z-1.000 F600.000 
G1 X128.769 Y-34.142 Z-1.000 F600.000 
G1 X128.791 Y-34.351 Z-1.000 F600.000 
G1 X128.781 Y-34.663 Z-1.000 F600.000 
G1 X128.702 Y-34.970 Z-1.000 F600.000 
G1 X128.551 Y-35.277 Z-1.000 F600.000 
G1 X128.323 Y-35.583 Z-1.000 F600.000 
G1 X128.014 Y-35.884 Z-1.000 F600.000 
G1 X127.898 Y-35.977 Z-1.000 F600.000 
G1 X127.780 Y-36.064 Z-1.000 F600.000 
G1 X127.855 Y-35.557 Z-1.000 F600.000 
G1 X127.857 Y-35.131 Z-1.000 F600.000 
G1 X127.787 Y-34.789 Z-1.000 F600.000 
G1 X127.663 Y-34.522 Z-1.000 F600.000 
G1 X127.432 Y-34.218 Z-1.000 F600.000 
G1 X127.102 Y-33.890 Z-1.000 F600.000 
G1 X126.537 Y-33.383 Z-1.000 F600.000 
G1 X126.274 Y-33.102 Z-1.000 F600.000 
G0 Z6.000 
G0 Z6.000 
G0 X118.420 Y-33.341 
G0 Z4.000 
G1 X118.420 Y-33.341 Z-1.000 F300.000 
G1 X118.338 Y-33.176 Z-1.000 F600.000 
G1 X118.324 Y-32.995 Z-1.000 F600.000 
G1 X118.377 Y-32.804 Z-1.000 F600.000 
G1 X118.500 Y-32.623 Z-1.000 F600.000 
G1 X118.677 Y-32.487 Z-1.000 F600.000 
G1 X118.875 Y-32.426 Z-1.000 F600.000 
G1 X119.064 Y-32.446 Z-1.000 F600.000 
G1 X119.214 Y-32.526 Z-1.000 F600.000 
G1 X119.793 Y-32.987 Z-1.000 F600.000 
G1 X120.314 Y-33.495 Z-1.000 F600.000 
G1 X120.582 Y-33.803 Z-1.000 F600.000 
G1 X120.829 Y-34.127 Z-1.000 F600.000 
G1 X120.926 Y-34.414 Z-1.000 F600.000 
G1 X120.953 Y-34.712 Z-1.000 F600.000 
G1 X120.911 Y-35.023 Z-1.000 F600.000 
G1 X120.797 Y-35.346 Z-1.000 F600.000 
G1 X120.607 Y-35.674 Z-1.000 F600.000 
G1 X120.343 Y-35.990 Z-1.000 F600.000 
G1 X119.928 Y-36.331 Z-1.000 F600.000 
G1 X120.010 Y-35.850 Z-1.000 F600.000 
G1 X120.008 Y-35.421 Z-1.000 F600.000 
