(Exported by FreeCAD)
(Post Processor: linuxcnc_post)
(Output Time:2022-04-16 14:45:29.803521)
(begin preamble)
G17 G54 G40 G49 G80 G90
G21
(begin operation: Fixture)
(machine units: mm/min)
G54 
(finish operation: Fixture)
(begin operation: 60 Deg. V-Bit001)
(machine units: mm/min)
(60 Deg. V-Bit001) 
M5
M6 T2 
G43 H2 
M3 S15000 
(finish operation: 60 Deg. V-Bit001)
(begin operation: Vcarve)
(machine units: mm/min)
(starting) 
G0 Z3.000 
G0 X30.723 Y-1.773 Z3.000 
G1 X30.723 Y-1.773 Z0.866 F300.000 
G1 X30.906 Y-2.065 Z0.654 F689.888 
G1 X31.004 Y-2.212 Z0.555 F703.991 
G1 X31.010 Y-2.219 Z0.550 F699.831 
G1 X31.093 Y-2.337 Z0.462 F692.256 
G1 X31.319 Y-2.629 Z0.265 F712.942 
G1 X31.330 Y-2.643 Z0.256 F708.417 
G1 X31.492 Y-2.842 Z0.109 F701.415 
G1 X31.662 Y-3.028 Z-0.012 F729.468 
G1 X31.678 Y-3.045 Z-0.024 F724.304 
G1 X31.912 Y-3.291 Z-0.199 F717.880 
G1 X32.032 Y-3.404 Z-0.270 F744.706 
G1 X32.064 Y-3.433 Z-0.289 F737.770 
G1 X32.355 Y-3.692 Z-0.476 F728.664 
G1 X32.810 Y-4.058 Z-0.710 F754.471 
G1 X32.831 Y-4.074 Z-0.719 F779.558 
G1 X32.887 Y-4.113 Z-0.743 F769.483 
G1 X33.287 Y-4.386 Z-0.931 F759.183 
G1 X33.717 Y-4.653 Z-1.091 F782.819 
G1 X33.771 Y-4.686 Z-1.112 F775.433 
G1 X33.777 Y-4.689 Z-1.114 F788.446 
G1 X34.204 Y-4.915 Z-1.259 F788.581 
G1 X34.238 Y-4.991 Z-1.193 F639.301 
G1 X34.461 Y-5.348 Z-0.971 F714.384 
G1 X34.764 Y-5.668 Z-0.722 F703.484 
G1 X34.910 Y-5.770 Z-0.692 F836.982 
G1 X35.236 Y-5.976 Z-0.661 F869.785 
G1 X35.329 Y-6.031 Z-0.658 F889.452 
G1 X35.464 Y-6.105 Z-0.662 F891.793 
G1 X35.670 Y-6.210 Z-0.654 F887.117 
G1 X35.726 Y-6.238 Z-0.654 F899.391 
G1 X36.215 Y-6.464 Z-0.672 F887.095 
G1 X36.428 Y-6.556 Z-0.669 F894.406 
G1 X36.460 Y-6.570 Z-0.669 F900.000 
G1 X36.989 Y-6.785 Z-0.679 F893.056 
G1 X37.125 Y-6.837 Z-0.675 F890.279 
G1 X37.155 Y-6.848 Z-0.675 F895.133 
G1 X37.783 Y-7.072 Z-0.677 F899.026 
G1 X37.830 Y-7.088 Z-0.675 F886.157 
G1 X37.855 Y-7.097 Z-0.674 F891.559 
G1 X38.538 Y-7.312 Z-0.669 F897.277 
G1 X38.565 Y-7.320 Z-0.669 F897.297 
G1 X38.593 Y-7.329 Z-0.670 F893.538 
G1 X39.253 Y-7.512 Z-0.659 F893.868 
G1 X39.289 Y-7.521 Z-0.659 F898.965 
G1 X39.417 Y-7.554 Z-0.662 F891.927 
G1 X40.263 Y-7.754 Z-0.654 F896.658 
G1 X40.267 Y-7.755 Z-0.655 F891.680 
G1 X40.398 Y-7.786 Z-0.654 F898.298 
G1 X40.488 Y-7.810 Z-0.663 F867.617 
G1 X40.577 Y-7.839 Z-0.671 F867.696 
G1 X40.674 Y-7.873 Z-0.688 F832.710 
G1 X40.703 Y-7.883 Z-0.694 F827.585 
G1 X40.717 Y-7.888 Z-0.698 F817.129 
G1 X40.864 Y-7.944 Z-0.746 F786.133 
G1 X41.095 Y-8.044 Z-0.842 F761.513 
G1 X41.099 Y-8.077 Z-0.801 F555.647 
G1 X41.104 Y-8.113 Z-0.756 F558.888 
G1 X41.182 Y-8.475 Z-0.381 F597.760 
G1 X41.247 Y-8.646 Z-0.175 F576.614 
G1 X41.408 Y-8.892 Z-0.012 F707.373 
G1 X41.519 Y-9.000 Z0.079 F696.504 
G1 X41.598 Y-9.055 Z0.085 F875.357 
G1 X41.682 Y-9.101 Z0.091 F875.254 
G1 X41.899 Y-9.204 Z0.062 F853.820 
G1 X42.296 Y-9.380 Z0.031 F872.918 
G1 X42.396 Y-9.421 Z0.028 F889.808 
G1 X42.423 Y-9.432 Z0.027 F880.934 
G1 X42.704 Y-9.538 Z0.004 F870.702 
G1 X43.116 Y-9.684 Z-0.013 F885.414 
G1 X43.157 Y-9.697 Z-0.013 F898.256 
G1 X43.182 Y-9.705 Z-0.013 F894.102 
G1 X43.932 Y-9.928 Z-0.044 F884.863 
G1 X43.954 Y-9.934 Z-0.045 F877.430 
G1 X43.970 Y-9.939 Z-0.047 F871.332 
G1 X44.715 Y-10.118 Z-0.066 F890.083 
G1 X44.734 Y-10.123 Z-0.067 F886.628 
G1 X44.813 Y-10.140 Z-0.072 F877.279 
G1 X45.503 Y-10.278 Z-0.087 F891.861 
G1 X45.520 Y-10.281 Z-0.088 F887.035 
G1 X45.667 Y-10.308 Z-0.095 F882.133 
G1 X46.293 Y-10.410 Z-0.103 F894.816 
G1 X46.311 Y-10.413 Z-0.104 F889.420 
G1 X46.529 Y-10.444 Z-0.113 F883.535 
G1 X47.397 Y-10.557 Z-0.126 F894.415 
G1 X47.864 Y-10.610 Z-0.120 F895.529 
G1 X47.887 Y-10.612 Z-0.121 F898.367 
G1 X48.269 Y-10.648 Z-0.130 F890.758 
G1 X49.146 Y-10.719 Z-0.133 F898.697 
G1 X49.231 Y-10.725 Z-0.131 F892.851 
G1 X49.250 Y-10.727 Z-0.131 F895.845 
G1 X50.596 Y-10.796 Z-0.141 F897.139 
G1 X50.613 Y-10.797 Z-0.141 F893.194 
G1 X50.910 Y-10.808 Z-0.151 F887.773 
G1 X51.961 Y-10.825 Z-0.147 F898.474 
G1 X51.976 Y-10.825 Z-0.147 F897.413 
G1 X52.491 Y-10.827 Z-0.156 F892.960 
G1 X53.324 Y-10.823 Z-0.159 F898.761 
G1 X53.338 Y-10.823 Z-0.159 F894.389 
G1 X54.078 Y-10.811 Z-0.176 F891.443 
G1 X54.687 Y-10.794 Z-0.178 F898.933 
G1 X54.699 Y-10.794 Z-0.178 F893.459 
G1 X55.661 Y-10.758 Z-0.197 F892.385 
G1 X56.046 Y-10.737 Z-0.194 F897.425 
G1 X56.060 Y-10.737 Z-0.194 F900.000 
G1 X57.247 Y-10.660 Z-0.211 F894.797 
G1 X57.550 Y-10.678 Z-0.405 F684.487 
G1 X57.861 Y-10.769 Z-0.599 F694.088 
G1 X58.015 Y-10.839 Z-0.694 F705.462 
G1 X58.170 Y-10.928 Z-0.788 F713.929 
G1 X58.106 Y-11.024 Z-0.629 F538.979 
G1 X57.934 Y-11.273 Z-0.264 F563.895 
G1 X57.856 Y-11.376 Z-0.139 F611.077 
G1 X57.767 Y-11.483 Z-0.044 F666.335 
G1 X57.699 Y-11.558 Z0.002 F744.024 
G1 X57.690 Y-11.566 Z0.003 F772.781 
G1 X57.616 Y-11.650 Z0.032 F804.047 
G1 X57.547 Y-11.736 Z0.049 F841.133 
G1 X57.479 Y-11.834 Z0.055 F882.426 
G1 X57.462 Y-11.860 Z0.053 F877.647 
G1 X57.427 Y-11.924 Z0.055 F889.626 
G1 X57.366 Y-12.061 Z0.038 F856.791 
G1 X57.333 Y-12.155 Z0.014 F809.208 
G1 X57.324 Y-12.182 Z0.006 F798.041 
G1 X56.864 Y-11.991 Z0.865 F500.936 
G0 Z3.000 
G0 X56.804 Y-12.183 Z3.000 
G1 X56.804 Y-12.183 Z0.865 F300.000 
G1 X57.306 Y-12.289 Z-0.019 F500.983 
G1 X57.307 Y-12.350 Z-0.032 F820.201 
G1 X57.308 Y-12.369 Z-0.038 F798.215 
G1 X56.782 Y-12.378 Z0.865 F501.801 
G0 Z3.000 
G0 X56.811 Y-12.573 Z3.000 
G1 X56.811 Y-12.573 Z0.866 F300.000 
G1 X57.317 Y-12.424 Z-0.039 F501.695 
G1 X57.308 Y-12.369 Z-0.036 F881.529 
G0 Z3.000 
G0 X57.317 Y-12.424 Z3.000 
G1 X57.317 Y-12.424 Z-0.040 F300.000 
G1 X57.325 Y-12.447 Z-0.036 F827.323 
G1 X57.332 Y-12.468 Z-0.032 F830.904 
G1 X56.899 Y-12.767 Z0.865 F502.743 
G0 Z3.000 
G0 X57.072 Y-12.941 Z3.000 
G1 X57.072 Y-12.941 Z0.866 F300.000 
G1 X57.390 Y-12.560 Z0.011 F500.725 
G1 X57.332 Y-12.468 Z-0.032 F760.782 
G0 Z3.000 
G0 X57.390 Y-12.560 Z3.000 
G1 X57.390 Y-12.560 Z0.010 F300.000 
G1 X57.451 Y-12.625 Z0.043 F763.385 
G1 X57.502 Y-12.675 Z0.064 F790.882 
G1 X57.535 Y-12.703 Z0.083 F746.093 
G1 X57.647 Y-12.782 Z0.124 F787.856 
G1 X57.826 Y-12.851 Z0.139 F869.650 
G1 X57.848 Y-12.855 Z0.138 F886.375 
G1 X58.275 Y-12.926 Z0.110 F874.948 
G1 X58.286 Y-12.927 Z0.110 F893.331 
G1 X58.321 Y-12.931 Z0.108 F882.859 
G1 X58.726 Y-12.969 Z0.074 F868.311 
G1 X58.763 Y-12.971 Z0.074 F894.898 
G1 X58.766 Y-12.971 Z0.074 F900.000 
G1 X59.537 Y-13.009 Z0.059 F892.624 
G1 X59.653 Y-13.012 Z0.061 F892.769 
G1 X59.684 Y-13.013 Z0.061 F896.273 
G1 X60.356 Y-13.009 Z0.035 F885.341 
G1 X60.977 Y-12.994 Z0.032 F897.911 
G1 X60.996 Y-12.993 Z0.031 F891.982 
G1 X61.178 Y-12.985 Z0.024 F884.692 
G1 X62.001 Y-12.936 Z0.013 F894.672 
G1 X62.287 Y-12.915 Z0.016 F895.202 
G1 X62.305 Y-12.913 Z0.016 F897.872 
G1 X63.591 Y-12.794 Z-0.008 F892.935 
G1 X63.607 Y-12.792 Z-0.008 F888.162 
G1 X63.664 Y-12.786 Z-0.011 F881.792 
G1 X64.892 Y-12.642 Z-0.053 F887.124 
G1 X64.907 Y-12.640 Z-0.054 F880.619 
G1 X65.327 Y-12.585 Z-0.078 F877.729 
G1 X65.613 Y-12.584 Z-0.291 F656.690 
G1 X65.914 Y-12.656 Z-0.505 F669.170 
G1 X66.079 Y-12.724 Z-0.619 F683.553 
G1 X66.248 Y-12.814 Z-0.732 F694.633 
G1 X66.275 Y-12.829 Z-0.766 F577.295 
G1 X66.339 Y-12.868 Z-0.854 F571.476 
G1 X66.184 Y-13.103 Z-0.565 F595.082 
G1 X66.019 Y-13.295 Z-0.277 F575.399 
G1 X66.010 Y-13.304 Z-0.268 F628.200 
G1 X65.794 Y-13.479 Z-0.073 F668.682 
G1 X65.751 Y-13.506 Z-0.053 F743.260 
G1 X65.694 Y-13.545 Z-0.032 F788.099 
G1 X65.490 Y-13.695 Z0.029 F809.236 
G1 X65.402 Y-13.769 Z0.046 F845.945 
G1 X65.352 Y-13.815 Z0.049 F882.660 
G1 X65.223 Y-13.944 Z0.067 F862.759 
G1 X65.151 Y-14.024 Z0.065 F895.391 
G1 X65.029 Y-14.178 Z0.042 F855.515 
G1 X64.995 Y-14.228 Z0.044 F891.150 
G1 X64.961 Y-14.231 Z0.770 F366.816 
G0 Z3.000 
G0 X64.894 Y-14.468 Z3.000 
G1 X64.894 Y-14.468 Z0.015 F300.000 
G1 X64.938 Y-14.329 Z0.038 F840.749 
G1 X64.510 Y-14.106 Z0.864 F501.467 
G0 Z3.000 
G0 X64.415 Y-14.338 Z3.000 
G1 X64.415 Y-14.338 Z0.865 F300.000 
G1 X64.894 Y-14.468 Z0.015 F501.863 
G1 X64.889 Y-14.583 Z0.514 F345.544 
G1 X64.380 Y-14.586 Z0.865 F502.203 
G0 Z3.000 
G0 X64.420 Y-14.849 Z3.000 
G1 X64.420 Y-14.849 Z0.865 F300.000 
G1 X64.890 Y-14.634 Z0.007 F506.966 
G1 X64.544 Y-14.994 Z0.866 F500.761 
G0 Z3.000 
G0 X64.890 Y-14.634 Z3.000 
G1 X64.890 Y-14.634 Z0.007 F300.000 
G1 X64.897 Y-14.630 Z-0.008 F511.923 
G1 X64.890 Y-14.583 Z-0.005 F878.102 
G0 Z3.000 
G0 X64.860 Y-14.780 Z3.000 
G1 X64.860 Y-14.780 Z0.440 F300.000 
G1 X64.921 Y-14.849 Z0.330 F566.487 
G1 X65.025 Y-14.864 Z0.230 F619.800 
G1 X65.090 Y-14.861 Z0.197 F741.654 
G1 X65.152 Y-14.872 Z0.164 F713.286 
G1 X65.327 Y-14.914 Z0.148 F866.101 
G1 X65.481 Y-14.940 Z0.131 F867.978 
G1 X65.810 Y-14.988 Z0.127 F896.218 
G1 X65.842 Y-14.991 Z0.130 F869.106 
G1 X65.890 Y-14.995 Z0.132 F887.135 
G1 X66.355 Y-15.011 Z0.124 F893.360 
G1 X66.409 Y-15.012 Z0.124 F893.672 
G1 X66.441 Y-15.012 Z0.124 F893.969 
G1 X66.912 Y-15.003 Z0.102 F882.574 
G1 X67.484 Y-14.976 Z0.103 F899.466 
G1 X67.509 Y-14.974 Z0.103 F892.581 
G1 X68.037 Y-14.934 Z0.076 F880.956 
G1 X68.741 Y-14.859 Z0.077 F899.730 
G1 X68.765 Y-14.856 Z0.076 F890.595 
G1 X69.160 Y-14.803 Z0.058 F882.543 
G1 X69.986 Y-14.675 Z0.051 F896.667 
G1 X70.010 Y-14.671 Z0.050 F888.889 
G1 X70.288 Y-14.621 Z0.035 F880.116 
G1 X70.556 Y-14.610 Z-0.202 F623.921 
G1 X70.842 Y-14.670 Z-0.442 F638.293 
G1 X71.068 Y-14.764 Z-0.622 F657.513 
G1 X71.302 Y-14.899 Z-0.802 F675.770 
G1 X71.083 Y-15.209 Z-0.487 F635.197 
G1 X70.799 Y-15.463 Z-0.124 F609.363 
G1 X70.734 Y-15.501 Z-0.089 F732.395 
G1 X70.690 Y-15.525 Z-0.070 F748.917 
G1 X70.602 Y-15.580 Z-0.035 F776.557 
G1 X70.498 Y-15.651 Z-0.004 F806.501 
G1 X70.425 Y-15.707 Z0.012 F834.743 
G1 X70.331 Y-15.784 Z0.023 F866.687 
G1 X70.269 Y-15.841 Z0.024 F893.211 
G1 X70.181 Y-15.927 Z0.018 F879.121 
G1 X70.112 Y-16.004 Z0.002 F842.976 
G1 X70.089 Y-16.032 Z-0.007 F811.233 
G1 X69.966 Y-16.206 Z-0.031 F856.715 
G1 X69.905 Y-16.305 Z-0.055 F820.494 
G1 X69.891 Y-16.329 Z-0.064 F786.892 
G1 X69.835 Y-16.454 Z-0.087 F835.597 
G1 X69.804 Y-16.538 Z-0.092 F880.077 
G1 X69.788 Y-16.584 Z-0.096 F865.576 
G1 X69.783 Y-16.605 Z-0.096 F894.680 
G0 Z3.000 
G0 X69.782 Y-16.615 Z3.000 
G1 X69.782 Y-16.615 Z-0.095 F300.000 
G1 X69.783 Y-16.605 Z-0.096 F850.664 
G1 X69.230 Y-16.530 Z0.866 F500.895 
G0 Z3.000 
G0 X69.226 Y-16.647 Z3.000 
G1 X69.226 Y-16.647 Z0.866 F300.000 
G1 X69.782 Y-16.615 Z-0.094 F500.705 
G1 X69.782 Y-16.629 Z-0.091 F796.428 
G1 X69.782 Y-16.630 Z-0.091 F748.632 
G1 X69.281 Y-16.871 Z0.866 F501.148 
G0 Z3.000 
G0 X69.406 Y-17.069 Z3.000 
G1 X69.406 Y-17.069 Z0.866 F300.000 
G1 X69.805 Y-16.723 Z-0.038 F502.022 
G1 X69.782 Y-16.630 Z-0.091 F711.050 
G0 Z3.000 
G0 X69.805 Y-16.723 Z3.000 
G1 X69.805 Y-16.723 Z-0.039 F300.000 
G1 X69.855 Y-16.816 Z0.028 F683.336 
G1 X69.584 Y-17.221 Z0.866 F501.225 
G0 Z3.000 
G0 X69.854 Y-16.816 Z3.000 
G1 X69.854 Y-16.816 Z0.028 F300.000 
G1 X70.077 Y-17.025 Z0.175 F728.155 
G1 X70.281 Y-17.100 Z0.195 F865.568 
G1 X70.385 Y-17.122 Z0.179 F841.854 
G1 X70.647 Y-17.159 Z0.169 F886.305 
G1 X70.675 Y-17.162 Z0.167 F875.834 
G1 X71.044 Y-17.201 Z0.132 F863.259 
G1 X71.078 Y-17.204 Z0.127 F850.133 
G1 X71.103 Y-17.206 Z0.123 F836.060 
G1 X71.646 Y-17.213 Z0.083 F871.777 
G1 X71.819 Y-17.211 Z0.077 F886.097 
G1 X71.853 Y-17.210 Z0.074 F873.761 
G1 X72.201 Y-17.193 Z0.039 F861.649 
G1 X72.757 Y-17.155 Z0.002 F874.731 
G1 X73.308 Y-17.108 Z-0.017 F886.811 
G1 X73.334 Y-17.105 Z-0.017 F895.612 
G1 X73.367 Y-17.101 Z-0.017 F894.179 
G1 X74.419 Y-16.948 Z-0.064 F883.172 
G1 X74.458 Y-16.941 Z-0.064 F897.097 
G1 X74.475 Y-16.938 Z-0.064 F897.795 
G1 X75.534 Y-16.733 Z-0.086 F891.996 
G1 X75.559 Y-16.729 Z-0.089 F884.890 
G1 X75.578 Y-16.725 Z-0.089 F867.283 
G1 X75.867 Y-16.714 Z-0.334 F632.796 
G1 X76.177 Y-16.774 Z-0.581 F646.966 
G1 X76.383 Y-16.850 Z-0.737 F663.589 
G1 X76.596 Y-16.955 Z-0.893 F677.744 
G1 X76.402 Y-17.293 Z-0.547 F622.436 
G1 X76.156 Y-17.567 Z-0.172 F596.516 
G1 X76.120 Y-17.599 Z-0.148 F713.600 
G1 X76.095 Y-17.620 Z-0.132 F739.741 
G1 X75.936 Y-17.749 Z-0.048 F747.884 
G1 X75.810 Y-17.872 Z0.001 F796.893 
G1 X75.762 Y-17.927 Z0.010 F852.533 
G1 X75.666 Y-18.044 Z0.036 F835.300 
G1 X75.618 Y-18.108 Z0.039 F888.077 
G1 X75.575 Y-18.176 Z0.041 F888.063 
G1 X75.517 Y-18.276 Z0.028 F856.763 
G1 X75.469 Y-18.373 Z0.026 F893.323 
G1 X75.442 Y-18.431 Z0.021 F870.754 
G1 X75.415 Y-18.525 Z0.010 F856.976 
G1 X75.400 Y-18.585 Z-0.002 F825.259 
G1 X75.377 Y-18.727 Z-0.012 F872.775 
G0 Z3.000 
G0 X75.372 Y-18.824 Z3.000 
G1 X75.372 Y-18.824 Z-0.009 F300.000 
G1 X75.381 Y-18.870 Z0.002 F814.970 
G1 X74.930 Y-19.093 Z0.866 F501.611 
G0 Z3.000 
G0 X75.036 Y-19.251 Z3.000 
G1 X75.036 Y-19.251 Z0.865 F300.000 
G1 X75.406 Y-18.930 Z0.026 F501.585 
G1 X75.381 Y-18.870 Z0.002 F768.954 
G0 Z3.000 
G0 X75.406 Y-18.930 Z3.000 
G1 X75.406 Y-18.930 Z0.025 F300.000 
G1 X75.453 Y-19.003 Z0.063 F743.016 
G1 X75.176 Y-19.377 Z0.865 F500.745 
G0 Z3.000 
G0 X75.454 Y-19.003 Z3.000 
G1 X75.454 Y-19.003 Z0.063 F300.000 
G1 X75.537 Y-19.086 Z0.112 F749.682 
G1 X75.661 Y-19.164 Z0.154 F792.960 
G1 X75.808 Y-19.214 Z0.164 F875.967 
G1 X75.862 Y-19.221 Z0.160 F875.301 
G1 X76.147 Y-19.252 Z0.124 F852.225 
G1 X76.325 Y-19.261 Z0.120 F890.385 
G1 X76.345 Y-19.261 Z0.119 F886.313 
G1 X76.735 Y-19.272 Z0.095 F876.546 
G1 X76.809 Y-19.272 Z0.094 F895.865 
G1 X76.835 Y-19.271 Z0.093 F885.310 
G1 X77.335 Y-19.256 Z0.063 F876.752 
G1 X77.762 Y-19.232 Z0.055 F892.681 
G1 X77.792 Y-19.230 Z0.053 F881.877 
G1 X77.938 Y-19.217 Z0.042 F871.220 
G1 X78.541 Y-19.154 Z0.017 F883.933 
G1 X78.716 Y-19.132 Z0.015 F896.531 
G1 X78.739 Y-19.128 Z0.014 F888.731 
G1 X79.657 Y-18.991 Z-0.033 F880.425 
G1 X79.680 Y-18.987 Z-0.035 F874.015 
G1 X79.766 Y-18.973 Z-0.043 F865.909 
G1 X80.576 Y-18.825 Z-0.103 F871.885 
G1 X80.589 Y-18.823 Z-0.104 F867.173 
G1 X80.991 Y-18.744 Z-0.143 F863.716 
G1 X81.287 Y-18.724 Z-0.282 F735.733 
G1 X81.510 Y-18.753 Z-0.379 F743.735 
G1 X81.532 Y-18.758 Z-0.396 F647.653 
G1 X81.870 Y-18.862 Z-0.763 F593.119 
G1 X82.047 Y-18.942 Z-0.947 F610.796 
G1 X81.866 Y-19.297 Z-0.614 F633.953 
G1 X81.560 Y-19.655 Z-0.156 F605.142 
G1 X81.557 Y-19.657 Z-0.154 F719.115 
G1 X81.482 Y-19.716 Z-0.109 F724.279 
G1 X81.397 Y-19.792 Z-0.061 F749.353 
G1 X81.324 Y-19.863 Z-0.028 F779.841 
G1 X81.248 Y-19.947 Z-0.002 F811.950 
G1 X81.230 Y-19.971 Z0.003 F838.598 
G1 X81.117 Y-20.128 Z0.029 F848.416 
G1 X81.042 Y-20.248 Z0.031 F895.687 
G1 X81.028 Y-20.276 Z0.027 F856.072 
G1 X80.961 Y-20.424 Z0.023 F890.111 
G1 X80.959 Y-20.428 Z0.024 F877.742 
G1 X80.929 Y-20.520 Z0.022 F893.693 
G1 X80.915 Y-20.569 Z0.016 F857.310 
G1 X80.887 Y-20.705 Z0.018 F896.974 
G1 X80.886 Y-20.717 Z0.019 F843.903 
G1 X80.880 Y-20.799 Z0.026 F868.685 
G0 Z3.000 
G0 X80.892 Y-20.871 Z3.000 
G1 X80.892 Y-20.871 Z0.044 F300.000 
G1 X80.924 Y-20.947 Z0.072 F772.817 
G1 X80.579 Y-21.254 Z0.866 F501.605 
G0 Z3.000 
G0 X80.736 Y-21.390 Z3.000 
G1 X80.736 Y-21.390 Z0.866 F300.000 
G1 X80.987 Y-21.034 Z0.116 F500.898 
G1 X80.924 Y-20.948 Z0.072 F756.113 
G0 Z3.000 
G0 X80.987 Y-21.034 Z3.000 
G1 X80.987 Y-21.034 Z0.114 F300.000 
G1 X81.095 Y-21.125 Z0.161 F778.791 
G1 X81.247 Y-21.196 Z0.184 F847.488 
G1 X81.352 Y-21.217 Z0.177 F873.521 
G1 X81.425 Y-21.227 Z0.163 F828.760 
G1 X81.805 Y-21.259 Z0.128 F865.202 
G1 X81.950 Y-21.262 Z0.129 F897.093 
G1 X81.985 Y-21.262 Z0.128 F889.082 
G1 X82.395 Y-21.256 Z0.102 F875.435 
G1 X82.583 Y-21.247 Z0.099 F895.535 
G1 X82.612 Y-21.245 Z0.098 F884.583 
G1 X82.994 Y-21.214 Z0.072 F873.493 
G1 X83.593 Y-21.151 Z0.056 F890.363 
G1 X83.805 Y-21.123 Z0.059 F894.824 
G1 X83.834 Y-21.119 Z0.059 F896.019 
G1 X84.190 Y-21.062 Z0.045 F884.769 
G1 X84.742 Y-20.959 Z0.046 F899.047 
G1 X84.758 Y-20.956 Z0.046 F895.410 
G1 X85.400 Y-20.825 Z0.028 F889.627 
G1 X85.662 Y-20.767 Z0.029 F898.862 
G1 X85.680 Y-20.763 Z0.029 F895.717 
G1 X86.578 Y-20.546 Z0.002 F889.045 
G1 X86.596 Y-20.541 Z0.001 F882.131 
G1 X86.610 Y-20.537 Z0.000 F876.733 
G1 X86.882 Y-20.504 Z-0.224 F640.421 
G1 X87.179 Y-20.541 Z-0.448 F654.287 
G1 X87.370 Y-20.599 Z-0.584 F670.956 
G1 X87.569 Y-20.682 Z-0.720 F684.831 
G1 X87.409 Y-21.013 Z-0.388 F619.260 
G1 X87.247 Y-21.230 Z-0.111 F595.825 
G1 X87.192 Y-21.289 Z-0.071 F717.027 
G1 X87.160 Y-21.323 Z-0.052 F765.669 
G1 X87.085 Y-21.397 Z-0.020 F780.215 
G1 X87.019 Y-21.471 Z0.004 F807.809 
G1 X86.918 Y-21.593 Z0.030 F839.257 
G1 X86.913 Y-21.600 Z0.031 F840.742 
G1 X86.825 Y-21.751 Z0.046 F866.674 
G1 X86.764 Y-21.880 Z0.036 F873.356 
G1 X86.756 Y-21.897 Z0.035 F866.386 
G1 X86.724 Y-22.010 Z0.026 F872.741 
G1 X86.716 Y-22.114 Z0.013 F850.624 
G1 X86.222 Y-22.087 Z0.865 F501.388 
G0 Z3.000 
G0 X86.231 Y-22.281 Z3.000 
G1 X86.231 Y-22.281 Z0.865 F300.000 
G1 X86.723 Y-22.200 Z0.010 F501.682 
G1 X86.722 Y-22.190 Z0.009 F874.705 
G1 X86.716 Y-22.121 Z0.015 F877.494 
G1 X86.716 Y-22.114 Z0.013 F877.059 
G0 Z3.000 
G0 X86.723 Y-22.200 Z3.000 
G1 X86.723 Y-22.200 Z0.009 F300.000 
G1 X86.736 Y-22.254 Z0.013 F870.217 
G1 X86.287 Y-22.477 Z0.866 F502.881 
G0 Z3.000 
G0 X86.414 Y-22.646 Z3.000 
G1 X86.414 Y-22.646 Z0.866 F300.000 
G1 X86.766 Y-22.313 Z0.032 F501.076 
G1 X86.736 Y-22.254 Z0.013 F793.388 
G0 Z3.000 
G0 X86.766 Y-22.313 Z3.000 
G1 X86.766 Y-22.313 Z0.032 F300.000 
G1 X86.798 Y-22.355 Z0.052 F762.682 
G1 X86.829 Y-22.393 Z0.068 F780.857 
G1 X86.568 Y-22.776 Z0.866 F500.982 
G0 Z3.000 
G0 X86.829 Y-22.393 Z3.000 
G1 X86.829 Y-22.393 Z0.068 F300.000 
G1 X86.853 Y-22.417 Z0.084 F724.497 
G1 X86.921 Y-22.479 Z0.123 F748.931 
G1 X87.044 Y-22.550 Z0.168 F781.787 
G1 X87.209 Y-22.593 Z0.190 F851.446 
G1 X87.403 Y-22.621 Z0.178 F875.825 
G1 X87.443 Y-22.624 Z0.179 F889.447 
G1 X87.483 Y-22.627 Z0.178 F896.238 
G1 X87.719 Y-22.636 Z0.164 F876.575 
G1 X87.756 Y-22.636 Z0.160 F863.070 
G1 X87.767 Y-22.636 Z0.159 F847.622 
G1 X88.228 Y-22.604 Z0.145 F888.512 
G1 X88.257 Y-22.602 Z0.143 F878.985 
G1 X88.264 Y-22.601 Z0.143 F863.776 
G1 X88.772 Y-22.533 Z0.122 F884.433 
G1 X89.071 Y-22.486 Z0.123 F898.736 
G1 X89.090 Y-22.482 Z0.122 F894.222 
G1 X89.280 Y-22.448 Z0.115 F885.902 
G1 X89.783 Y-22.344 Z0.116 F899.777 
G1 X89.895 Y-22.318 Z0.121 F882.306 
G1 X89.914 Y-22.314 Z0.121 F890.211 
G1 X90.708 Y-22.110 Z0.127 F897.159 
G1 X90.726 Y-22.105 Z0.127 F895.839 
G1 X90.802 Y-22.083 Z0.125 F888.490 
G1 X91.511 Y-21.867 Z0.131 F896.597 
G1 X91.527 Y-21.862 Z0.131 F897.805 
G1 X91.815 Y-21.768 Z0.123 F889.259 
G1 X92.065 Y-21.725 Z-0.017 F711.039 
G1 X92.358 Y-21.755 Z-0.163 F724.102 
G1 X92.387 Y-21.761 Z-0.190 F611.741 
G1 X92.722 Y-21.874 Z-0.583 F579.819 
G1 X92.714 Y-21.891 Z-0.561 F563.262 
G1 X92.624 Y-22.071 Z-0.330 F573.320 
G1 X92.486 Y-22.313 Z-0.107 F640.970 
G1 X92.452 Y-22.371 Z-0.076 F747.622 
G1 X92.410 Y-22.436 Z-0.049 F761.804 
G1 X92.334 Y-22.575 Z-0.011 F809.657 
G1 X92.275 Y-22.706 Z0.004 F860.845 
G1 X92.235 Y-22.808 Z0.005 F894.418 
G1 X92.217 Y-22.864 Z0.001 F869.465 
G1 X92.197 Y-22.953 Z0.007 F873.498 
G1 X92.179 Y-22.959 Z0.818 F340.933 
G0 Z3.000 
G0 X92.179 Y-23.256 Z3.000 
G1 X92.179 Y-23.256 Z0.833 F300.000 
G1 X92.183 Y-23.257 Z0.784 F331.176 
G1 X91.715 Y-23.304 Z0.865 F502.112 
G0 Z3.000 
G0 X91.685 Y-23.159 Z3.000 
G1 X91.685 Y-23.159 Z0.866 F300.000 
G1 X92.179 Y-23.101 Z0.008 F500.840 
G1 X92.179 Y-23.055 Z0.007 F890.207 
G1 X91.681 Y-23.015 Z0.865 F501.352 
G0 Z3.000 
G0 X91.793 Y-23.444 Z3.000 
G1 X91.793 Y-23.444 Z0.866 F300.000 
G1 X92.193 Y-23.160 Z0.021 F501.011 
G1 X92.183 Y-23.130 Z0.011 F781.109 
G0 Z3.000 
G0 X92.193 Y-23.416 Z3.000 
G1 X92.193 Y-23.416 Z0.731 F300.000 
G1 X92.218 Y-23.432 Z0.647 F429.422 
G1 X91.894 Y-23.558 Z0.866 F500.797 
G0 Z3.000 
G0 X92.151 Y-23.722 Z3.000 
G1 X92.151 Y-23.722 Z0.866 F300.000 
G1 X92.319 Y-23.324 Z0.120 F500.634 
G1 X92.260 Y-23.266 Z0.080 F725.905 
G1 X92.218 Y-23.209 Z0.045 F724.318 
G0 Z3.000 
G0 X92.319 Y-23.578 Z3.000 
G1 X92.319 Y-23.578 Z0.447 F300.000 
G1 X92.405 Y-23.467 Z0.368 F703.336 
G1 X92.479 Y-23.457 Z0.299 F616.292 
G1 X92.512 Y-23.477 Z0.269 F646.746 
G1 X92.544 Y-23.513 Z0.239 F687.426 
G1 X92.680 Y-23.482 Z0.199 F792.129 
G1 X92.804 Y-23.477 Z0.179 F839.634 
G1 X93.154 Y-23.486 Z0.156 F874.413 
G1 X93.430 Y-23.486 Z0.150 F891.540 
G1 X93.458 Y-23.486 Z0.148 F881.504 
G1 X93.507 Y-23.484 Z0.144 F868.048 
G1 X94.205 Y-23.434 Z0.129 F891.868 
G1 X94.225 Y-23.433 Z0.128 F884.813 
G1 X94.234 Y-23.432 Z0.128 F895.545 
G1 X94.937 Y-23.327 Z0.127 F899.086 
G1 X94.974 Y-23.320 Z0.129 F878.896 
G1 X94.999 Y-23.316 Z0.130 F887.973 
G1 X95.649 Y-23.175 Z0.132 F898.679 
G1 X95.731 Y-23.155 Z0.136 F881.056 
G1 X95.754 Y-23.150 Z0.137 F888.437 
G1 X96.361 Y-22.984 Z0.137 F899.636 
G1 X96.476 Y-22.950 Z0.142 F886.379 
G1 X96.497 Y-22.944 Z0.142 F894.768 
G1 X97.070 Y-22.759 Z0.138 F897.145 
G1 X97.212 Y-22.711 Z0.140 F893.860 
G1 X97.230 Y-22.705 Z0.140 F897.968 
G1 X97.934 Y-22.450 Z0.120 F890.115 
G1 X97.952 Y-22.443 Z0.120 F883.967 
G1 X98.481 Y-22.238 Z0.085 F876.801 
G1 X98.567 Y-22.210 Z0.062 F812.660 
G1 X98.657 Y-22.190 Z0.041 F813.729 
G1 X99.703 Y-22.006 Z-1.315 F553.571 
G1 X99.474 Y-21.770 Z-0.873 F544.726 
G1 X99.411 Y-21.711 Z-0.766 F557.564 
G1 X99.063 Y-21.446 Z-0.290 F584.368 
G1 X99.015 Y-21.418 Z-0.242 F627.815 
G1 X98.681 Y-21.280 Z-0.031 F698.300 
G1 X98.636 Y-21.269 Z-0.020 F809.289 
G1 X98.545 Y-21.252 Z-0.012 F866.640 
G1 X98.301 Y-21.216 Z-0.009 F895.356 
G1 X98.250 Y-21.207 Z-0.009 F886.724 
G1 X98.058 Y-21.170 Z-0.026 F870.855 
G1 X97.918 Y-21.136 Z-0.026 F899.204 
G1 X97.859 Y-21.120 Z-0.029 F877.845 
G1 X97.610 Y-21.044 Z-0.057 F859.537 
G1 X97.533 Y-21.016 Z-0.059 F891.226 
G1 X97.363 Y-20.938 Z-0.118 F780.877 
G1 X97.204 Y-20.829 Z-0.179 F784.340 
G1 X96.998 Y-20.594 Z-0.436 F636.577 
G1 X96.876 Y-20.397 Z-0.611 F653.352 
G1 X96.631 Y-19.944 Z-1.266 F554.840 
G1 X96.243 Y-20.004 Z-1.205 F841.663 
G1 X96.153 Y-20.025 Z-1.210 F879.331 
G1 X96.027 Y-20.058 Z-1.232 F836.706 
G1 X95.676 Y-20.163 Z-1.310 F819.905 
G0 Z3.000 
G0 X96.631 Y-19.944 Z3.000 
G1 X96.631 Y-19.944 Z-1.265 F300.000 
G1 X96.986 Y-19.711 Z-1.062 F729.313 
G1 X97.207 Y-19.609 Z-0.940 F723.366 
G1 X97.249 Y-19.591 Z-0.928 F812.186 
G1 X97.313 Y-19.565 Z-0.914 F821.571 
G1 X98.305 Y-19.132 Z-0.722 F832.953 
G1 X98.353 Y-19.111 Z-0.714 F841.178 
G1 X98.841 Y-18.881 Z-0.643 F849.778 
G1 X98.869 Y-18.868 Z-0.639 F856.307 
G1 X99.119 Y-18.744 Z-0.612 F863.169 
G1 X99.129 Y-18.740 Z-0.614 F862.483 
G1 X99.354 Y-18.630 Z-0.590 F867.399 
G1 X99.385 Y-18.616 Z-0.587 F873.290 
G1 X99.865 Y-18.371 Z-0.560 F880.451 
G1 X99.897 Y-18.354 Z-0.559 F887.363 
G1 X100.060 Y-18.266 Z-0.555 F893.624 
G1 X100.086 Y-18.253 Z-0.558 F900.000 
G1 X100.373 Y-18.104 Z-0.560 F895.053 
G1 X100.664 Y-17.914 Z-0.696 F757.571 
G1 X100.942 Y-17.634 Z-0.843 F763.471 
G1 X101.218 Y-17.296 Z-1.265 F606.132 
G1 X101.160 Y-17.248 Z-1.172 F562.027 
G1 X101.040 Y-17.149 Z-0.994 F574.447 
G1 X100.803 Y-16.976 Z-0.741 F628.180 
G1 X100.565 Y-16.846 Z-0.488 F612.879 
G1 X100.478 Y-16.807 Z-0.433 F697.730 
G1 X100.086 Y-16.693 Z-0.330 F805.756 
G1 X100.016 Y-16.682 Z-0.329 F897.320 
G1 X99.920 Y-16.665 Z-0.333 F877.964 
G1 X99.739 Y-16.627 Z-0.356 F856.256 
G1 X99.461 Y-16.558 Z-0.374 F876.294 
G1 X99.419 Y-16.547 Z-0.376 F866.566 
G1 X99.382 Y-16.535 Z-0.379 F868.485 
G1 X99.159 Y-16.458 Z-0.405 F860.532 
G1 X99.110 Y-16.440 Z-0.412 F848.641 
G1 X99.095 Y-16.434 Z-0.414 F857.162 
G1 X98.878 Y-16.339 Z-0.443 F852.495 
G1 X98.819 Y-16.311 Z-0.452 F838.816 
G1 X98.816 Y-16.310 Z-0.455 F825.194 
G1 X98.608 Y-16.198 Z-0.487 F848.956 
G1 X98.545 Y-16.162 Z-0.497 F833.193 
G1 X98.537 Y-16.157 Z-0.501 F820.217 
G1 X98.341 Y-16.030 Z-0.535 F844.133 
G1 X98.276 Y-15.985 Z-0.550 F829.042 
G1 X98.051 Y-15.773 Z-0.648 F783.231 
G1 X97.853 Y-15.475 Z-0.845 F707.213 
G1 X97.607 Y-15.021 Z-1.361 F600.150 
G1 X97.431 Y-15.015 Z-1.307 F787.073 
G1 X97.351 Y-15.014 Z-1.292 F827.721 
G1 X97.072 Y-15.030 Z-1.281 F884.843 
G0 Z3.000 
G0 X97.607 Y-15.021 Z3.000 
G1 X97.607 Y-15.021 Z-1.360 F300.000 
G1 X97.888 Y-14.809 Z-1.064 F633.222 
G1 X97.937 Y-14.777 Z-1.023 F666.605 
G1 X98.331 Y-14.573 Z-0.802 F723.318 
G1 X98.374 Y-14.556 Z-0.788 F782.821 
G1 X98.487 Y-14.508 Z-0.755 F802.107 
G1 X98.850 Y-14.339 Z-0.673 F822.759 
G1 X98.893 Y-14.320 Z-0.668 F831.150 
G1 X99.412 Y-14.094 Z-0.574 F839.491 
G1 X99.456 Y-14.076 Z-0.570 F848.012 
G1 X99.590 Y-14.023 Z-0.552 F858.175 
G1 X99.621 Y-14.010 Z-0.549 F863.832 
G1 X100.499 Y-13.638 Z-0.477 F871.125 
G1 X100.538 Y-13.623 Z-0.478 F879.884 
G1 X100.730 Y-13.547 Z-0.468 F888.918 
G1 X100.750 Y-13.540 Z-0.468 F894.566 
G1 X102.633 Y-12.771 Z-0.459 F898.254 
G1 X102.641 Y-12.768 Z-0.462 F900.000 
G1 X102.847 Y-12.685 Z-0.460 F898.105 
G1 X102.915 Y-12.659 Z-0.467 F882.167 
G1 X102.976 Y-12.638 Z-0.469 F866.848 
G1 X103.118 Y-12.581 Z-0.495 F835.030 
G1 X103.220 Y-12.534 Z-0.537 F763.694 
G1 X103.420 Y-12.425 Z-0.699 F663.981 
G1 X103.616 Y-12.285 Z-0.862 F673.414 
G1 X103.787 Y-12.150 Z-1.079 F600.702 
G1 X103.850 Y-12.098 Z-1.171 F577.320 
G1 X103.670 Y-11.776 Z-0.855 F629.580 
G1 X103.421 Y-11.485 Z-0.708 F760.014 
G1 X103.027 Y-11.205 Z-0.511 F751.791 
G1 X102.836 Y-11.109 Z-0.520 F884.309 
G1 X102.391 Y-10.896 Z-0.520 F899.536 
G1 X102.336 Y-10.871 Z-0.522 F886.662 
G1 X101.873 Y-10.671 Z-0.556 F874.620 
G1 X101.682 Y-10.594 Z-0.562 F888.650 
G1 X101.606 Y-10.565 Z-0.568 F871.945 
G1 X100.937 Y-10.331 Z-0.651 F855.398 
G1 X100.873 Y-10.310 Z-0.661 F843.446 
G1 X100.858 Y-10.305 Z-0.664 F840.213 
G1 X100.516 Y-10.210 Z-0.721 F838.783 
G1 X100.456 Y-10.195 Z-0.733 F827.359 
G1 X100.108 Y-10.110 Z-0.813 F815.840 
G1 X100.023 Y-10.091 Z-0.836 F802.378 
G1 X99.835 Y-10.054 Z-0.893 F789.357 
G1 X99.751 Y-10.039 Z-0.916 F799.801 
G1 X99.615 Y-10.019 Z-0.961 F780.132 
G1 X99.340 Y-9.988 Z-1.064 F763.528 
G1 X99.288 Y-9.983 Z-1.085 F755.197 
G0 Z3.000 
G0 X94.474 Y-8.562 Z3.000 
G1 X94.474 Y-8.562 Z-0.879 F300.000 
G1 X94.578 Y-8.559 Z-0.837 F753.486 
G1 X94.720 Y-8.559 Z-0.789 F773.405 
G1 X94.747 Y-8.560 Z-0.782 F792.796 
G1 X95.173 Y-8.586 Z-0.662 F796.586 
G1 X95.232 Y-8.591 Z-0.649 F806.214 
G1 X95.654 Y-8.630 Z-0.554 F817.202 
G1 X95.704 Y-8.636 Z-0.546 F826.590 
G1 X95.800 Y-8.648 Z-0.528 F836.627 
G1 X96.123 Y-8.692 Z-0.467 F829.200 
G1 X96.165 Y-8.699 Z-0.461 F837.047 
G1 X96.582 Y-8.768 Z-0.400 F846.780 
G1 X96.635 Y-8.778 Z-0.397 F858.511 
G1 X96.864 Y-8.824 Z-0.377 F870.925 
G1 X97.461 Y-8.954 Z-0.317 F862.623 
G1 X97.516 Y-8.968 Z-0.316 F875.647 
G1 X97.914 Y-9.071 Z-0.302 F889.789 
G1 X98.329 Y-9.185 Z-0.281 F881.223 
G1 X98.618 Y-9.303 Z-0.396 F765.189 
G1 X98.903 Y-9.505 Z-0.519 F771.038 
G1 X99.147 Y-9.776 Z-0.866 F609.494 
G1 X99.288 Y-9.983 Z-1.084 F626.202 
G1 X99.238 Y-10.034 Z-1.014 F600.498 
G1 X99.005 Y-10.241 Z-0.744 F627.663 
G1 X98.940 Y-10.291 Z-0.689 F668.449 
G1 X98.704 Y-10.447 Z-0.545 F722.834 
G1 X98.650 Y-10.476 Z-0.528 F788.774 
G1 X98.497 Y-10.550 Z-0.502 F844.904 
G1 X97.649 Y-10.900 Z-0.454 F879.661 
G1 X97.628 Y-10.910 Z-0.454 F885.258 
G1 X96.326 Y-11.472 Z-0.416 F889.847 
G1 X96.296 Y-11.485 Z-0.414 F897.620 
G1 X95.907 Y-11.643 Z-0.420 F895.821 
G1 X95.875 Y-11.656 Z-0.421 F887.687 
G1 X95.211 Y-11.945 Z-0.459 F880.332 
G1 X95.173 Y-11.961 Z-0.460 F871.074 
G1 X95.016 Y-12.024 Z-0.479 F862.200 
G1 X94.970 Y-12.043 Z-0.485 F851.729 
G1 X94.629 Y-12.193 Z-0.542 F841.703 
G1 X94.593 Y-12.208 Z-0.547 F834.025 
G1 X94.104 Y-12.409 Z-0.652 F826.218 
G1 X94.044 Y-12.434 Z-0.667 F814.710 
G1 X93.929 Y-12.487 Z-0.715 F762.456 
G1 X93.553 Y-12.709 Z-1.006 F675.830 
G1 X93.504 Y-12.744 Z-1.057 F630.015 
G1 X93.395 Y-12.829 Z-1.185 F614.133 
G0 Z3.000 
G0 X93.210 Y-12.817 Z3.000 
G1 X93.210 Y-12.817 Z-1.134 F300.000 
G1 X93.395 Y-12.829 Z-1.185 F798.961 
G1 X93.610 Y-13.237 Z-0.724 F600.446 
G1 X93.814 Y-13.544 Z-0.523 F708.683 
G1 X94.052 Y-13.759 Z-0.436 F798.444 
G1 X94.078 Y-13.777 Z-0.431 F845.225 
G1 X94.285 Y-13.909 Z-0.401 F853.462 
G1 X94.326 Y-13.934 Z-0.396 F863.450 
G1 X94.344 Y-13.944 Z-0.394 F852.083 
G1 X94.558 Y-14.056 Z-0.368 F859.179 
G1 X94.617 Y-14.085 Z-0.363 F873.692 
G1 X94.618 Y-14.086 Z-0.363 F863.847 
G1 X94.835 Y-14.177 Z-0.341 F864.659 
G1 X94.889 Y-14.199 Z-0.338 F877.723 
G1 X94.924 Y-14.212 Z-0.337 F893.744 
G1 X95.113 Y-14.275 Z-0.322 F870.564 
G1 X95.192 Y-14.298 Z-0.319 F887.931 
G1 X95.242 Y-14.312 Z-0.320 F891.924 
G1 X95.570 Y-14.387 Z-0.307 F884.355 
G1 X95.652 Y-14.403 Z-0.299 F862.826 
G1 X95.740 Y-14.417 Z-0.295 F883.761 
G1 X95.926 Y-14.441 Z-0.298 F892.694 
G1 X96.210 Y-14.508 Z-0.358 F824.215 
G1 X96.286 Y-14.535 Z-0.396 F731.413 
G1 X96.598 Y-14.682 Z-0.682 F635.546 
G1 X96.767 Y-14.792 Z-0.837 F650.068 
G1 X96.853 Y-14.855 Z-0.949 F588.169 
G1 X97.072 Y-15.029 Z-1.280 F568.626 
G1 X96.755 Y-15.419 Z-0.818 F615.204 
G1 X96.492 Y-15.686 Z-0.704 F789.177 
G1 X96.246 Y-15.856 Z-0.612 F785.799 
G1 X95.527 Y-16.263 Z-0.635 F889.826 
G1 X95.499 Y-16.279 Z-0.634 F883.278 
G1 X94.768 Y-16.677 Z-0.685 F877.687 
G1 X94.728 Y-16.698 Z-0.687 F869.352 
G1 X94.701 Y-16.712 Z-0.692 F861.079 
G1 X94.690 Y-16.717 Z-0.693 F857.942 
G1 X93.987 Y-17.084 Z-0.783 F856.949 
G1 X93.936 Y-17.109 Z-0.789 F846.820 
G1 X93.182 Y-17.473 Z-0.929 F837.420 
G1 X93.113 Y-17.505 Z-0.943 F825.153 
G1 X92.496 Y-17.776 Z-1.098 F814.261 
G1 X92.349 Y-17.847 Z-1.145 F792.737 
G1 X92.255 Y-17.896 Z-1.190 F747.326 
G1 X91.989 Y-18.057 Z-1.375 F695.212 
G0 Z3.000 
G0 X91.948 Y-18.308 Z3.000 
G1 X91.948 Y-18.308 Z-1.242 F300.000 
G1 X91.989 Y-18.057 Z-1.373 F718.446 
G1 X91.605 Y-17.846 Z-0.929 F597.456 
G1 X91.387 Y-17.761 Z-0.668 F579.431 
G1 X91.321 Y-17.739 Z-0.614 F643.108 
G1 X90.895 Y-17.656 Z-0.380 F711.548 
G1 X90.854 Y-17.654 Z-0.370 F804.200 
G1 X90.767 Y-17.652 Z-0.356 F841.105 
G1 X90.439 Y-17.654 Z-0.322 F860.546 
G1 X90.403 Y-17.654 Z-0.318 F869.728 
G1 X89.988 Y-17.646 Z-0.295 F878.041 
G1 X89.948 Y-17.645 Z-0.294 F887.629 
G1 X89.938 Y-17.645 Z-0.294 F900.000 
G1 X89.555 Y-17.612 Z-0.268 F874.365 
G1 X89.530 Y-17.609 Z-0.265 F853.122 
G1 X89.479 Y-17.602 Z-0.259 F866.681 
G1 X89.216 Y-17.561 Z-0.246 F879.070 
G1 X89.174 Y-17.554 Z-0.244 F892.050 
G1 X89.134 Y-17.544 Z-0.242 F887.755 
G1 X88.878 Y-17.476 Z-0.242 F898.706 
G1 X88.817 Y-17.458 Z-0.243 F884.328 
G1 X88.810 Y-17.456 Z-0.245 F871.304 
G1 X88.465 Y-17.330 Z-0.249 F896.467 
G1 X88.321 Y-17.270 Z-0.237 F870.833 
G1 X88.228 Y-17.227 Z-0.243 F874.282 
G1 X88.140 Y-17.176 Z-0.250 F874.356 
G1 X87.986 Y-17.050 Z-0.323 F764.110 
G1 X87.848 Y-16.899 Z-0.397 F767.963 
G1 X87.473 Y-16.423 Z-1.034 F590.039 
G0 Z3.000 
G0 X87.640 Y-15.796 Z3.000 
G1 X87.640 Y-15.796 Z-1.312 F300.000 
G1 X87.930 Y-15.659 Z-1.186 F757.022 
G1 X88.207 Y-15.548 Z-1.100 F795.437 
G1 X88.268 Y-15.523 Z-1.083 F803.637 
G1 X88.946 Y-15.230 Z-0.911 F812.595 
G1 X88.991 Y-15.210 Z-0.901 F820.865 
G1 X89.661 Y-14.901 Z-0.761 F828.261 
G1 X89.696 Y-14.884 Z-0.754 F835.065 
G1 X90.358 Y-14.561 Z-0.640 F841.577 
G1 X90.386 Y-14.548 Z-0.636 F847.647 
G1 X91.042 Y-14.214 Z-0.544 F852.273 
G1 X91.068 Y-14.201 Z-0.540 F859.051 
G1 X92.364 Y-13.512 Z-0.403 F864.453 
G1 X92.653 Y-13.311 Z-0.443 F857.055 
G1 X93.210 Y-12.817 Z-1.132 F614.782 
G1 X93.084 Y-12.710 Z-0.929 F560.307 
G1 X93.010 Y-12.652 Z-0.820 F572.515 
G1 X92.798 Y-12.501 Z-0.584 F618.812 
G1 X92.586 Y-12.388 Z-0.348 F602.987 
G1 X92.524 Y-12.360 Z-0.303 F676.315 
G1 X92.325 Y-12.290 Z-0.235 F782.009 
G1 X92.123 Y-12.254 Z-0.168 F778.522 
G1 X92.114 Y-12.253 Z-0.168 F887.051 
G1 X92.044 Y-12.245 Z-0.167 F894.106 
G1 X91.744 Y-12.199 Z-0.190 F873.305 
G1 X91.639 Y-12.180 Z-0.192 F893.556 
G1 X91.547 Y-12.160 Z-0.198 F867.197 
G1 X91.389 Y-12.118 Z-0.224 F843.235 
G1 X91.157 Y-12.050 Z-0.247 F864.259 
G1 X91.076 Y-12.023 Z-0.259 F841.056 
G1 X91.049 Y-12.013 Z-0.266 F820.861 
G1 X90.889 Y-11.947 Z-0.291 F844.554 
G1 X90.826 Y-11.919 Z-0.303 F828.070 
G1 X90.729 Y-11.874 Z-0.329 F812.365 
G1 X90.642 Y-11.828 Z-0.345 F837.683 
G1 X90.580 Y-11.794 Z-0.359 F821.677 
G1 X90.432 Y-11.707 Z-0.403 F806.166 
G1 X90.400 Y-11.686 Z-0.409 F833.980 
G1 X90.331 Y-11.638 Z-0.429 F815.510 
G1 X90.162 Y-11.515 Z-0.484 F798.952 
G1 X90.157 Y-11.511 Z-0.486 F824.673 
G1 X89.932 Y-11.288 Z-0.599 F769.560 
G1 X89.734 Y-10.961 Z-0.827 F694.502 
G1 X89.672 Y-10.832 Z-0.947 F631.821 
G0 Z3.000 
G0 X88.674 Y-10.845 Z3.000 
G1 X88.674 Y-10.845 Z-0.843 F300.000 
G1 X89.129 Y-10.786 Z-0.758 F829.641 
G1 X89.228 Y-10.785 Z-0.767 F856.367 
G1 X89.449 Y-10.796 Z-0.858 F753.684 
G1 X89.672 Y-10.832 Z-0.947 F757.088 
G1 X89.866 Y-10.658 Z-0.691 F602.184 
G1 X89.934 Y-10.603 Z-0.615 F632.893 
G1 X90.231 Y-10.411 Z-0.446 F728.257 
G1 X90.437 Y-10.326 Z-0.333 F720.516 
G1 X90.530 Y-10.296 Z-0.314 F836.575 
G1 X90.572 Y-10.282 Z-0.308 F847.289 
G1 X91.185 Y-10.063 Z-0.237 F858.244 
G1 X91.223 Y-10.049 Z-0.233 F868.475 
G1 X91.470 Y-9.952 Z-0.218 F878.306 
G1 X91.497 Y-9.942 Z-0.220 F885.496 
G1 X92.527 Y-9.564 Z-0.199 F893.661 
G1 X92.553 Y-9.556 Z-0.202 F900.000 
G1 X93.591 Y-9.201 Z-0.224 F891.360 
G1 X93.617 Y-9.193 Z-0.227 F884.810 
G1 X93.678 Y-9.173 Z-0.229 F876.766 
G1 X93.957 Y-9.048 Z-0.440 F669.486 
G1 X94.220 Y-8.848 Z-0.654 F680.271 
G1 X94.350 Y-8.715 Z-0.766 F692.761 
G1 X94.474 Y-8.562 Z-0.878 F702.414 
G1 X94.199 Y-8.285 Z-0.618 F675.692 
G1 X93.921 Y-8.097 Z-0.369 F656.269 
G1 X93.827 Y-8.053 Z-0.288 F647.092 
G1 X93.731 Y-8.017 Z-0.207 F644.087 
G1 X93.566 Y-7.977 Z-0.189 F859.332 
G1 X92.668 Y-7.821 Z-0.200 F895.557 
G1 X91.620 Y-7.651 Z-0.193 F897.697 
G1 X91.600 Y-7.650 Z-0.193 F896.156 
G1 X91.588 Y-7.648 Z-0.194 F893.777 
G1 X90.611 Y-7.524 Z-0.215 F891.550 
G1 X90.565 Y-7.519 Z-0.218 F878.295 
G1 X90.527 Y-7.516 Z-0.221 F869.056 
G1 X90.075 Y-7.482 Z-0.249 F876.616 
G1 X90.034 Y-7.480 Z-0.253 F865.329 
G1 X89.540 Y-7.458 Z-0.312 F854.545 
G1 X89.422 Y-7.458 Z-0.334 F827.276 
G1 X88.509 Y-7.497 Z-0.576 F801.224 
G1 X88.459 Y-7.499 Z-0.591 F791.506 
G1 X88.346 Y-7.508 Z-0.626 F783.168 
G1 X87.566 Y-7.576 Z-0.853 F792.513 
G0 Z3.000 
G0 X85.296 Y-8.966 Z3.000 
G1 X85.296 Y-8.966 Z-0.504 F300.000 
G1 X85.306 Y-8.989 Z-0.482 F625.869 
G1 X85.501 Y-9.338 Z-0.220 F678.333 
G1 X85.759 Y-9.572 Z-0.133 F806.370 
G1 X85.773 Y-9.580 Z-0.132 F878.371 
G1 X86.046 Y-9.741 Z-0.119 F883.728 
G1 X86.058 Y-9.748 Z-0.118 F888.945 
G1 X86.077 Y-9.758 Z-0.117 F870.075 
G1 X86.361 Y-9.898 Z-0.099 F878.210 
G1 X86.367 Y-9.901 Z-0.098 F877.498 
G1 X86.396 Y-9.913 Z-0.095 F861.901 
G1 X86.688 Y-10.031 Z-0.072 F872.110 
G1 X86.690 Y-10.032 Z-0.072 F835.863 
G1 X86.724 Y-10.044 Z-0.068 F855.949 
G1 X87.020 Y-10.138 Z-0.041 F867.322 
G1 X87.026 Y-10.139 Z-0.040 F840.662 
G1 X87.062 Y-10.149 Z-0.035 F848.917 
G1 X87.361 Y-10.219 Z-0.005 F863.325 
G1 X87.371 Y-10.220 Z-0.003 F833.690 
G1 X87.410 Y-10.227 Z0.002 F846.297 
G1 X87.723 Y-10.273 Z0.037 F857.588 
G1 X87.732 Y-10.275 Z0.038 F857.296 
G1 X87.760 Y-10.278 Z0.040 F883.724 
G1 X88.067 Y-10.374 Z-0.055 F792.060 
G1 X88.109 Y-10.395 Z-0.083 F688.507 
G1 X88.417 Y-10.602 Z-0.415 F621.452 
G1 X88.471 Y-10.648 Z-0.493 F580.114 
G1 X88.674 Y-10.845 Z-0.842 F560.610 
G1 X88.672 Y-10.847 Z-0.841 F633.126 
G1 X88.429 Y-11.142 Z-0.673 F742.624 
G1 X88.046 Y-11.423 Z-0.449 F732.250 
G1 X87.559 Y-11.677 Z-0.446 F896.940 
G1 X87.533 Y-11.690 Z-0.444 F896.047 
G1 X87.041 Y-11.934 Z-0.460 F890.468 
G1 X87.003 Y-11.953 Z-0.461 F880.507 
G1 X86.004 Y-12.414 Z-0.543 F871.914 
G1 X85.958 Y-12.435 Z-0.546 F861.780 
G1 X84.944 Y-12.865 Z-0.689 F851.544 
G1 X84.900 Y-12.883 Z-0.693 F843.124 
G1 X83.873 Y-13.288 Z-0.886 F834.697 
G1 X83.792 Y-13.318 Z-0.902 F820.715 
G1 X83.470 Y-13.430 Z-0.988 F808.119 
G1 X83.102 Y-13.596 Z-1.186 F725.851 
G1 X82.896 Y-13.724 Z-1.300 F732.044 
G0 Z3.000 
G0 X82.823 Y-14.138 Z3.000 
G1 X82.823 Y-14.138 Z-1.146 F300.000 
G1 X82.896 Y-13.724 Z-1.298 F767.013 
G1 X82.810 Y-13.669 Z-1.176 F565.729 
G1 X82.730 Y-13.619 Z-1.068 F575.259 
G1 X82.369 Y-13.432 Z-0.708 F622.776 
G1 X82.172 Y-13.363 Z-0.506 F606.540 
G1 X82.119 Y-13.348 Z-0.471 F684.959 
G1 X81.900 Y-13.303 Z-0.398 F779.211 
G1 X81.683 Y-13.291 Z-0.325 F775.827 
G1 X81.595 Y-13.293 Z-0.319 F874.231 
G1 X81.541 Y-13.294 Z-0.314 F887.283 
G1 X81.250 Y-13.288 Z-0.317 F899.869 
G1 X81.026 Y-13.280 Z-0.308 F884.665 
G1 X80.956 Y-13.275 Z-0.306 F897.823 
G1 X80.831 Y-13.264 Z-0.314 F881.139 
G1 X80.447 Y-13.218 Z-0.314 F899.803 
G1 X80.420 Y-13.215 Z-0.314 F891.516 
G1 X80.366 Y-13.204 Z-0.314 F895.866 
G1 X80.024 Y-13.130 Z-0.332 F881.435 
G1 X79.866 Y-13.089 Z-0.328 F891.117 
G1 X79.772 Y-13.061 Z-0.331 F883.985 
G1 X79.646 Y-13.019 Z-0.345 F861.983 
G1 X79.292 Y-12.881 Z-0.352 F893.263 
G1 X79.285 Y-12.878 Z-0.351 F870.353 
G1 X78.979 Y-12.689 Z-0.403 F844.541 
G1 X78.706 Y-12.362 Z-0.610 F727.355 
G1 X78.369 Y-11.836 Z-1.283 F585.486 
G1 X78.155 Y-11.849 Z-1.254 F848.082 
G0 Z3.000 
G0 X78.369 Y-11.836 Z3.000 
G1 X78.369 Y-11.836 Z-1.284 F300.000 
G1 X78.555 Y-11.696 Z-1.085 F629.666 
G1 X78.629 Y-11.644 Z-1.016 F658.760 
G1 X78.872 Y-11.497 Z-0.890 F738.089 
G1 X79.124 Y-11.389 Z-0.762 F732.765 
G1 X79.220 Y-11.354 Z-0.736 F815.932 
G1 X79.275 Y-11.334 Z-0.725 F824.998 
G1 X79.875 Y-11.102 Z-0.615 F835.492 
G1 X79.914 Y-11.087 Z-0.609 F843.977 
G1 X80.507 Y-10.840 Z-0.527 F851.485 
G1 X80.543 Y-10.825 Z-0.522 F859.332 
G1 X81.718 Y-10.303 Z-0.411 F866.954 
G1 X81.732 Y-10.297 Z-0.410 F870.739 
G1 X81.847 Y-10.244 Z-0.401 F874.329 
G1 X81.854 Y-10.241 Z-0.404 F875.496 
G1 X82.900 Y-9.770 Z-0.334 F877.921 
G1 X83.173 Y-9.608 Z-0.466 F750.047 
G1 X83.502 Y-9.270 Z-0.650 F757.511 
G1 X83.487 Y-9.254 Z-0.621 F545.573 
G1 X83.375 Y-9.128 Z-0.410 F557.579 
G1 X83.134 Y-8.907 Z-0.124 F625.579 
G1 X82.967 Y-8.806 Z0.068 F603.053 
G1 X82.922 Y-8.784 Z0.093 F724.738 
G1 X82.680 Y-8.707 Z0.133 F840.401 
G1 X82.493 Y-8.677 Z0.114 F862.370 
G1 X82.446 Y-8.668 Z0.108 F844.308 
G1 X82.229 Y-8.622 Z0.064 F827.347 
G1 X82.185 Y-8.611 Z0.054 F810.598 
G1 X82.153 Y-8.603 Z0.045 F797.265 
G1 X81.975 Y-8.546 Z0.008 F826.083 
G1 X81.925 Y-8.529 Z-0.004 F808.922 
G1 X81.921 Y-8.527 Z-0.005 F821.200 
G1 X81.718 Y-8.441 Z-0.055 F816.008 
G1 X81.708 Y-8.437 Z-0.056 F812.366 
G1 X81.660 Y-8.412 Z-0.068 F822.279 
G1 X81.512 Y-8.329 Z-0.110 F807.682 
G1 X81.466 Y-8.300 Z-0.118 F841.418 
G1 X81.340 Y-8.208 Z-0.159 F799.274 
G1 X81.204 Y-8.056 Z-0.244 F749.335 
G1 X81.083 Y-7.832 Z-0.394 F696.968 
G1 X80.869 Y-7.339 Z-0.988 F580.849 
G1 X80.472 Y-7.322 Z-1.010 F878.488 
G1 X80.232 Y-7.347 Z-1.024 F878.644 
G0 Z3.000 
G0 X80.869 Y-7.339 Z3.000 
G1 X80.869 Y-7.339 Z-0.989 F300.000 
G1 X81.230 Y-7.169 Z-0.756 F698.262 
G1 X81.602 Y-7.080 Z-0.515 F685.415 
G1 X81.853 Y-7.048 Z-0.451 F808.510 
G1 X82.209 Y-7.006 Z-0.359 F804.623 
G1 X82.289 Y-7.000 Z-0.344 F821.442 
G1 X82.888 Y-6.964 Z-0.248 F840.238 
G1 X82.948 Y-6.962 Z-0.242 F853.997 
G1 X83.546 Y-6.953 Z-0.194 F870.326 
G1 X83.588 Y-6.954 Z-0.193 F880.898 
G1 X84.032 Y-6.963 Z-0.184 F892.862 
G1 X84.188 Y-6.968 Z-0.178 F885.562 
G1 X84.223 Y-6.970 Z-0.178 F894.471 
G1 X86.204 Y-7.089 Z-0.200 F895.612 
G1 X86.627 Y-7.121 Z-0.195 F895.683 
G1 X86.922 Y-7.179 Z-0.398 F674.728 
G1 X87.214 Y-7.311 Z-0.602 F684.192 
G1 X87.391 Y-7.430 Z-0.727 F696.894 
G1 X87.566 Y-7.576 Z-0.852 F708.097 
G1 X87.552 Y-7.598 Z-0.822 F571.752 
G1 X87.523 Y-7.641 Z-0.765 F577.677 
G1 X87.286 Y-7.936 Z-0.535 F692.502 
G1 X87.036 Y-8.140 Z-0.317 F672.916 
G1 X86.909 Y-8.210 Z-0.213 F663.079 
G1 X86.778 Y-8.264 Z-0.110 F659.755 
G1 X86.769 Y-8.266 Z-0.111 F886.720 
G1 X86.756 Y-8.271 Z-0.111 F886.173 
G1 X86.018 Y-8.526 Z-0.093 F891.594 
G1 X85.972 Y-8.541 Z-0.092 F893.642 
G1 X85.902 Y-8.562 Z-0.098 F879.829 
G1 X85.638 Y-8.680 Z-0.266 F698.519 
G1 X85.296 Y-8.966 Z-0.504 F712.578 
G1 X85.249 Y-8.957 Z-0.468 F657.957 
G1 X85.173 Y-8.945 Z-0.419 F683.274 
G1 X84.846 Y-8.928 Z-0.365 F838.182 
G1 X84.522 Y-8.989 Z-0.310 F836.738 
G1 X84.372 Y-9.037 Z-0.350 F805.647 
G1 X84.319 Y-9.053 Z-0.364 F793.357 
G1 X83.925 Y-9.163 Z-0.496 F782.140 
G1 X83.887 Y-9.173 Z-0.507 F774.765 
G1 X83.502 Y-9.270 Z-0.653 F767.585 
G0 Z3.000 
G0 X74.811 Y-10.121 Z3.000 
G1 X74.811 Y-10.121 Z-1.105 F300.000 
G1 X75.172 Y-9.873 Z-0.736 F632.594 
G1 X75.231 Y-9.841 Z-0.691 F683.782 
G1 X75.556 Y-9.702 Z-0.547 F749.480 
G1 X75.703 Y-9.656 Z-0.507 F809.903 
G1 X75.759 Y-9.638 Z-0.495 F821.784 
G1 X76.690 Y-9.311 Z-0.321 F833.250 
G1 X76.740 Y-9.292 Z-0.313 F844.737 
G1 X77.411 Y-9.026 Z-0.233 F857.612 
G1 X77.436 Y-9.017 Z-0.230 F864.059 
G1 X77.965 Y-8.794 Z-0.188 F872.204 
G1 X77.979 Y-8.788 Z-0.190 F874.390 
G1 X78.102 Y-8.738 Z-0.180 F880.193 
G1 X78.150 Y-8.718 Z-0.180 F894.137 
G1 X78.804 Y-8.419 Z-0.195 F891.766 
G1 X78.855 Y-8.394 Z-0.199 F877.080 
G1 X79.142 Y-8.247 Z-0.231 F862.102 
G1 X79.163 Y-8.236 Z-0.237 F855.207 
G1 X79.176 Y-8.230 Z-0.235 F849.793 
G1 X79.218 Y-8.208 Z-0.243 F838.003 
G1 X79.538 Y-8.036 Z-0.315 F825.269 
G1 X79.726 Y-7.916 Z-0.389 F777.378 
G1 X79.747 Y-7.899 Z-0.402 F725.518 
G1 X79.998 Y-7.665 Z-0.706 F623.649 
G1 X80.231 Y-7.348 Z-1.020 F642.707 
G1 X80.232 Y-7.347 Z-1.022 F586.856 
G1 X79.900 Y-7.093 Z-0.593 F595.116 
G1 X79.581 Y-6.941 Z-0.420 F725.595 
G1 X79.159 Y-6.867 Z-0.190 F711.625 
G1 X78.933 Y-6.866 Z-0.184 F891.046 
G1 X78.623 Y-6.869 Z-0.170 F882.278 
G1 X78.594 Y-6.870 Z-0.169 F890.780 
G1 X78.059 Y-6.888 Z-0.167 F898.359 
G1 X78.032 Y-6.889 Z-0.167 F892.856 
G1 X77.958 Y-6.893 Z-0.170 F887.721 
G1 X77.947 Y-6.894 Z-0.169 F881.981 
G1 X77.497 Y-6.915 Z-0.192 F881.702 
G1 X77.474 Y-6.916 Z-0.194 F873.411 
G1 X76.939 Y-6.952 Z-0.238 F868.437 
G1 X76.908 Y-6.954 Z-0.241 F859.628 
G1 X75.948 Y-7.042 Z-0.362 F852.595 
G1 X75.837 Y-7.053 Z-0.373 F860.417 
G1 X75.802 Y-7.058 Z-0.378 F852.292 
G1 X74.736 Y-7.194 Z-0.535 F844.556 
G1 X74.695 Y-7.200 Z-0.542 F836.933 
G1 X73.965 Y-7.313 Z-0.682 F828.338 
G1 X73.527 Y-7.385 Z-0.759 F834.528 
G1 X73.480 Y-7.393 Z-0.768 F825.509 
G1 X72.899 Y-7.504 Z-0.897 F818.134 
G1 X72.815 Y-7.522 Z-0.919 F805.185 
G1 X72.569 Y-7.579 Z-0.991 F793.195 
G0 Z3.000 
G0 X71.737 Y-8.742 Z3.000 
G1 X71.737 Y-8.742 Z-0.756 F300.000 
G1 X71.760 Y-8.778 Z-0.721 F639.681 
G1 X71.883 Y-8.936 Z-0.562 F643.319 
G1 X72.070 Y-9.101 Z-0.424 F707.308 
G1 X72.270 Y-9.228 Z-0.286 F698.350 
G1 X72.463 Y-9.299 Z-0.235 F806.322 
G1 X72.746 Y-9.376 Z-0.201 F856.293 
G1 X72.943 Y-9.426 Z-0.170 F841.412 
G1 X73.018 Y-9.443 Z-0.162 F862.052 
G1 X73.264 Y-9.488 Z-0.152 F884.860 
G1 X73.495 Y-9.555 Z-0.186 F849.620 
G1 X73.563 Y-9.583 Z-0.214 F753.089 
G1 X73.842 Y-9.734 Z-0.475 F637.843 
G1 X74.026 Y-9.878 Z-0.650 F654.263 
G1 X74.117 Y-9.957 Z-0.783 F583.260 
G1 X74.212 Y-10.045 Z-0.936 F567.332 
G1 X73.887 Y-10.377 Z-0.484 F604.279 
G1 X73.628 Y-10.589 Z-0.382 F789.968 
G1 X73.410 Y-10.704 Z-0.307 F786.437 
G1 X72.958 Y-10.891 Z-0.337 F878.256 
G1 X72.614 Y-11.029 Z-0.350 F886.171 
G1 X72.579 Y-11.042 Z-0.351 F877.623 
G1 X71.977 Y-11.265 Z-0.406 F868.583 
G1 X71.771 Y-11.339 Z-0.419 F876.222 
G1 X71.744 Y-11.348 Z-0.420 F869.035 
G1 X70.983 Y-11.604 Z-0.498 F863.723 
G1 X70.109 Y-11.885 Z-0.566 F871.782 
G1 X70.079 Y-11.895 Z-0.567 F864.785 
G1 X69.986 Y-11.923 Z-0.579 F859.484 
G1 X68.981 Y-12.213 Z-0.668 F867.513 
G1 X68.835 Y-12.252 Z-0.678 F875.487 
G1 X68.819 Y-12.257 Z-0.677 F874.651 
G1 X67.973 Y-12.480 Z-0.750 F869.344 
G1 X67.566 Y-12.583 Z-0.774 F878.015 
G1 X67.545 Y-12.588 Z-0.772 F874.370 
G1 X66.960 Y-12.728 Z-0.821 F870.745 
G1 X66.339 Y-12.868 Z-0.856 F879.324 
G0 Z3.000 
G0 X71.302 Y-14.899 Z3.000 
G1 X71.302 Y-14.899 Z-0.801 F300.000 
G1 X71.320 Y-14.895 Z-0.800 F871.552 
G1 X71.365 Y-14.883 Z-0.797 F879.069 
G1 X71.604 Y-14.815 Z-0.789 F886.972 
G1 X72.518 Y-14.540 Z-0.731 F877.097 
G1 X72.549 Y-14.530 Z-0.729 F867.319 
G1 X72.588 Y-14.518 Z-0.726 F874.935 
G1 X73.424 Y-14.232 Z-0.685 F882.322 
G1 X73.757 Y-14.114 Z-0.661 F873.872 
G1 X73.793 Y-14.101 Z-0.659 F879.977 
G1 X74.322 Y-13.899 Z-0.640 F887.466 
G1 X74.945 Y-13.651 Z-0.600 F877.073 
G1 X74.976 Y-13.640 Z-0.599 F884.775 
G1 X76.114 Y-13.161 Z-0.568 F890.565 
G1 X76.115 Y-13.160 Z-0.568 F867.969 
G1 X76.144 Y-13.148 Z-0.567 F885.468 
G1 X77.264 Y-12.629 Z-0.541 F891.991 
G1 X77.560 Y-12.453 Z-0.659 F774.171 
G1 X77.823 Y-12.213 Z-0.776 F778.804 
G1 X78.155 Y-11.848 Z-1.252 F606.661 
G1 X77.900 Y-11.653 Z-0.858 F561.164 
G1 X77.810 Y-11.591 Z-0.738 F581.417 
G1 X77.489 Y-11.412 Z-0.438 F639.192 
G1 X77.325 Y-11.351 Z-0.284 F623.807 
G1 X77.246 Y-11.328 Z-0.245 F730.239 
G1 X76.965 Y-11.277 Z-0.194 F831.698 
G1 X76.778 Y-11.265 Z-0.197 F893.087 
G1 X76.712 Y-11.259 Z-0.200 F874.974 
G1 X76.272 Y-11.207 Z-0.250 F857.987 
G1 X76.242 Y-11.202 Z-0.251 F885.956 
G1 X76.181 Y-11.191 Z-0.255 F867.892 
G1 X75.963 Y-11.145 Z-0.283 F854.743 
G1 X75.720 Y-11.085 Z-0.298 F876.821 
G1 X75.660 Y-11.069 Z-0.302 F862.382 
G1 X75.387 Y-10.940 Z-0.379 F804.705 
G1 X75.164 Y-10.755 Z-0.527 F719.950 
G1 X74.997 Y-10.539 Z-0.713 F671.432 
G1 X74.852 Y-10.229 Z-0.991 F639.162 
G1 X74.811 Y-10.121 Z-1.105 F602.723 
G1 X74.698 Y-10.098 Z-1.045 F718.498 
G1 X74.608 Y-10.081 Z-1.008 F753.133 
G1 X74.212 Y-10.045 Z-0.938 F832.942 
G0 Z3.000 
G0 X76.596 Y-16.955 Z3.000 
G1 X76.596 Y-16.955 Z-0.892 F300.000 
G1 X76.759 Y-16.905 Z-0.874 F858.984 
G1 X76.796 Y-16.894 Z-0.871 F865.932 
G1 X76.829 Y-16.882 Z-0.868 F870.962 
G1 X77.644 Y-16.603 Z-0.787 F864.013 
G1 X77.841 Y-16.532 Z-0.762 F855.731 
G1 X77.876 Y-16.520 Z-0.758 F861.174 
G1 X78.909 Y-16.127 Z-0.669 F869.187 
G1 X78.945 Y-16.113 Z-0.667 F876.289 
G1 X79.276 Y-15.978 Z-0.651 F883.106 
G1 X79.966 Y-15.691 Z-0.604 F876.256 
G1 X80.002 Y-15.675 Z-0.603 F883.488 
G1 X81.009 Y-15.227 Z-0.577 F891.133 
G1 X81.046 Y-15.211 Z-0.577 F899.052 
G1 X82.043 Y-14.738 Z-0.598 F892.803 
G1 X82.259 Y-14.616 Z-0.665 F798.813 
G1 X82.459 Y-14.461 Z-0.732 F800.985 
G1 X82.823 Y-14.138 Z-1.146 F630.934 
G1 X83.208 Y-14.605 Z-0.494 F584.873 
G1 X83.365 Y-14.770 Z-0.396 F745.107 
G1 X83.538 Y-14.904 Z-0.298 F739.575 
G1 X83.677 Y-14.975 Z-0.274 F842.385 
G1 X83.905 Y-15.076 Z-0.262 F881.450 
G1 X83.980 Y-15.106 Z-0.252 F854.256 
G1 X84.057 Y-15.133 Z-0.247 F874.317 
G1 X84.294 Y-15.209 Z-0.244 F895.386 
G1 X84.369 Y-15.231 Z-0.238 F870.701 
G1 X84.437 Y-15.248 Z-0.236 F889.117 
G1 X84.704 Y-15.307 Z-0.240 F893.709 
G1 X84.754 Y-15.317 Z-0.238 F885.993 
G1 X84.810 Y-15.326 Z-0.239 F898.638 
G1 X85.126 Y-15.372 Z-0.253 F883.174 
G1 X85.133 Y-15.373 Z-0.253 F900.000 
G1 X85.197 Y-15.378 Z-0.255 F887.019 
G1 X85.552 Y-15.402 Z-0.283 F869.439 
G1 X85.855 Y-15.412 Z-0.291 F890.676 
G1 X85.905 Y-15.413 Z-0.294 F879.407 
G1 X86.456 Y-15.411 Z-0.343 F866.007 
G1 X86.561 Y-15.414 Z-0.360 F842.434 
G1 X86.632 Y-15.419 Z-0.380 F788.711 
G1 X86.963 Y-15.479 Z-0.654 F639.854 
G1 X87.413 Y-15.667 Z-1.011 F658.857 
G1 X87.493 Y-15.711 Z-1.109 F582.790 
G1 X87.640 Y-15.796 Z-1.310 F569.937 
G1 X87.473 Y-16.423 Z-1.035 F745.794 
G1 X87.076 Y-16.717 Z-0.682 F663.453 
G1 X86.813 Y-16.880 Z-0.628 F837.533 
G1 X85.997 Y-17.283 Z-0.620 F895.507 
G1 X85.962 Y-17.300 Z-0.618 F896.109 
G1 X85.139 Y-17.686 Z-0.646 F889.327 
G1 X85.106 Y-17.701 Z-0.645 F883.065 
G1 X84.274 Y-18.070 Z-0.705 F875.706 
G1 X84.253 Y-18.079 Z-0.706 F871.378 
G1 X84.241 Y-18.084 Z-0.707 F870.117 
G1 X83.398 Y-18.432 Z-0.787 F866.944 
G1 X83.368 Y-18.444 Z-0.789 F861.055 
G1 X82.814 Y-18.662 Z-0.860 F855.640 
G1 X82.517 Y-18.774 Z-0.889 F864.842 
G1 X82.487 Y-18.784 Z-0.891 F859.229 
G1 X82.047 Y-18.942 Z-0.948 F854.734 
G0 Z3.000 
G0 X80.393 Y-20.866 Z3.000 
G1 X80.393 Y-20.866 Z0.866 F300.000 
G1 X80.879 Y-20.799 Z0.028 F502.492 
G1 X80.892 Y-20.871 Z0.044 F810.521 
G1 X80.461 Y-21.080 Z0.866 F501.797 
G0 Z3.000 
G0 X74.865 Y-18.901 Z3.000 
G1 X74.865 Y-18.901 Z0.864 F300.000 
G1 X75.372 Y-18.824 Z-0.007 F503.116 
G1 X75.375 Y-18.751 Z-0.010 F891.096 
G1 X75.377 Y-18.727 Z-0.011 F865.011 
G1 X74.871 Y-18.669 Z0.866 F500.884 
G0 Z3.000 
G0 X87.569 Y-20.682 Z3.000 
G1 X87.569 Y-20.682 Z-0.719 F300.000 
G1 X87.599 Y-20.670 Z-0.714 F846.712 
G1 X87.635 Y-20.656 Z-0.709 F853.632 
G1 X88.489 Y-20.301 Z-0.613 F860.367 
G1 X88.522 Y-20.287 Z-0.610 F867.035 
G1 X89.345 Y-19.924 Z-0.551 F875.113 
G1 X89.366 Y-19.914 Z-0.549 F867.650 
G1 X89.401 Y-19.899 Z-0.547 F874.020 
G1 X90.233 Y-19.497 Z-0.504 F882.438 
G1 X90.267 Y-19.480 Z-0.503 F889.940 
G1 X91.089 Y-19.059 Z-0.499 F898.387 
G1 X91.373 Y-18.873 Z-0.593 F797.489 
G1 X91.506 Y-18.752 Z-0.641 F800.316 
G1 X91.948 Y-18.308 Z-1.242 F607.440 
G1 X92.303 Y-18.846 Z-0.498 F572.251 
G1 X92.499 Y-19.087 Z-0.308 F690.337 
G1 X92.714 Y-19.244 Z-0.209 F764.280 
G1 X92.854 Y-19.307 Z-0.184 F836.981 
G1 X92.970 Y-19.350 Z-0.177 F879.653 
G1 X93.204 Y-19.427 Z-0.148 F854.796 
G1 X93.241 Y-19.438 Z-0.144 F864.232 
G1 X93.285 Y-19.449 Z-0.140 F862.342 
G1 X93.640 Y-19.524 Z-0.116 F875.311 
G1 X93.708 Y-19.536 Z-0.115 F894.973 
G1 X93.856 Y-19.558 Z-0.122 F883.731 
G1 X94.067 Y-19.585 Z-0.123 F897.126 
G1 X94.125 Y-19.591 Z-0.126 F881.112 
G1 X94.489 Y-19.619 Z-0.160 F864.486 
G1 X94.499 Y-19.620 Z-0.161 F861.166 
G1 X94.536 Y-19.622 Z-0.167 F839.336 
G1 X94.722 Y-19.650 Z-0.259 F729.531 
G1 X94.909 Y-19.705 Z-0.349 F735.423 
G1 X94.951 Y-19.720 Z-0.380 F656.731 
G1 X95.345 Y-19.924 Z-0.809 F607.102 
G1 X95.401 Y-19.960 Z-0.884 F575.001 
G1 X95.676 Y-20.163 Z-1.309 F558.946 
G1 X95.414 Y-20.513 Z-1.078 F714.608 
G1 X95.131 Y-20.778 Z-0.856 F701.345 
G1 X94.967 Y-20.890 Z-0.737 F694.495 
G1 X94.795 Y-20.981 Z-0.619 F691.996 
G1 X94.433 Y-21.147 Z-0.608 F887.219 
G1 X94.048 Y-21.323 Z-0.593 F886.298 
G1 X94.019 Y-21.336 Z-0.590 F891.558 
G1 X93.578 Y-21.527 Z-0.591 F898.729 
G1 X93.265 Y-21.659 Z-0.582 F889.777 
G1 X93.234 Y-21.672 Z-0.579 F896.553 
G1 X92.722 Y-21.874 Z-0.586 F897.088 
G0 Z3.000 
G0 X94.457 Y-25.424 Z3.000 
G1 X94.457 Y-25.424 Z0.865 F300.000 
G1 X94.881 Y-25.863 Z-0.182 F501.483 
G1 X94.883 Y-25.864 Z-0.186 F508.118 
G1 X94.274 Y-25.805 Z0.866 F501.087 
G0 Z3.000 
G0 X94.303 Y-25.667 Z3.000 
G1 X94.303 Y-25.667 Z0.865 F300.000 
G1 X94.871 Y-25.858 Z-0.164 F501.564 
G1 X94.364 Y-25.538 Z0.865 F501.660 
G0 Z3.000 
G0 X94.276 Y-25.948 Z3.000 
G1 X94.276 Y-25.948 Z0.866 F300.000 
G1 X94.898 Y-25.871 Z-0.213 F501.065 
G1 X94.883 Y-25.864 Z-0.187 F519.178 
G0 Z3.000 
G0 X94.881 Y-25.863 Z3.000 
G1 X94.881 Y-25.863 Z-0.182 F300.000 
G1 X94.871 Y-25.858 Z-0.164 F503.964 
G0 Z3.000 
G0 X94.898 Y-25.871 Z3.000 
G1 X94.898 Y-25.871 Z-0.212 F300.000 
G1 X94.910 Y-25.875 Z-0.230 F530.825 
G1 X94.309 Y-26.088 Z0.866 F501.009 
G0 Z3.000 
G0 X94.374 Y-26.223 Z3.000 
G1 X94.374 Y-26.223 Z0.866 F300.000 
G1 X94.927 Y-25.880 Z-0.255 F500.967 
G1 X94.910 Y-25.875 Z-0.231 F544.573 
G0 Z3.000 
G0 X94.927 Y-25.880 Z3.000 
G1 X94.927 Y-25.880 Z-0.254 F300.000 
G1 X94.986 Y-25.887 Z-0.326 F563.259 
G1 X95.045 Y-25.897 Z-0.397 F567.083 
G1 X95.485 Y-26.007 Z-0.987 F550.360 
G1 X95.729 Y-25.694 Z-0.853 F772.725 
G1 X96.025 Y-25.441 Z-0.712 F767.732 
G1 X96.086 Y-25.398 Z-0.709 F899.488 
G1 X97.081 Y-24.731 Z-0.686 F892.699 
G1 X99.096 Y-23.389 Z-0.625 F890.487 
G1 X99.370 Y-23.163 Z-0.866 F672.242 
G1 X99.604 Y-22.875 Z-1.109 F678.879 
G1 X99.800 Y-22.519 Z-1.356 F691.169 
G1 X99.941 Y-22.137 Z-1.583 F705.962 
G1 X100.580 Y-21.887 Z-1.315 F758.236 
G1 X100.584 Y-21.885 Z-1.314 F758.998 
G1 X100.695 Y-21.842 Z-1.277 F785.548 
G1 X101.215 Y-21.703 Z-1.257 F885.298 
G1 X101.574 Y-22.190 Z-0.498 F557.062 
G1 X101.859 Y-22.488 Z-0.190 F655.171 
G1 X102.176 Y-22.656 Z-0.081 F787.220 
G1 X102.258 Y-22.677 Z-0.079 F890.099 
G1 X102.620 Y-22.754 Z-0.096 F882.436 
G1 X102.659 Y-22.762 Z-0.099 F871.782 
G1 X102.896 Y-22.804 Z-0.125 F858.621 
G1 X103.020 Y-22.820 Z-0.129 F889.679 
G1 X103.060 Y-22.824 Z-0.131 F879.621 
G1 X103.421 Y-22.858 Z-0.163 F866.605 
G1 X103.460 Y-22.862 Z-0.167 F857.666 
G1 X103.621 Y-22.871 Z-0.190 F845.884 
G1 X103.823 Y-22.874 Z-0.203 F875.206 
G1 X103.860 Y-22.875 Z-0.207 F865.757 
G1 X104.223 Y-22.869 Z-0.249 F855.579 
G1 X104.258 Y-22.868 Z-0.254 F847.029 
G1 X104.379 Y-22.863 Z-0.274 F837.178 
G1 X104.625 Y-22.875 Z-0.355 F781.900 
G1 X104.680 Y-22.882 Z-0.382 F713.853 
G1 X105.014 Y-22.964 Z-0.720 F604.454 
G1 X105.429 Y-23.155 Z-1.117 F626.750 
G1 X105.480 Y-23.143 Z-1.117 F889.740 
G1 X105.574 Y-23.122 Z-1.122 F874.761 
G1 X105.694 Y-23.099 Z-1.146 F830.039 
G1 X106.028 Y-23.561 Z-0.453 F562.668 
G1 X106.291 Y-23.842 Z-0.184 F666.696 
G1 X106.574 Y-23.986 Z-0.062 F759.925 
G1 X106.704 Y-24.013 Z-0.043 F844.688 
G1 X106.900 Y-24.039 Z-0.036 F888.214 
G1 X107.202 Y-24.066 Z-0.002 F856.972 
G1 X107.248 Y-24.070 Z0.001 F870.179 
G1 X107.254 Y-24.069 Z0.002 F863.600 
G1 X107.504 Y-24.068 Z0.027 F862.646 
G1 X107.567 Y-24.066 Z0.029 F883.232 
G1 X107.819 Y-24.048 Z0.026 F894.843 
G1 X107.856 Y-24.045 Z0.024 F880.897 
G1 X108.389 Y-23.987 Z-0.021 F867.669 
G1 X108.428 Y-23.982 Z-0.026 F856.636 
G1 X108.805 Y-23.926 Z-0.084 F842.653 
G1 X108.961 Y-23.914 Z-0.127 F800.097 
G1 X109.004 Y-23.914 Z-0.145 F740.077 
G1 X109.310 Y-23.947 Z-0.417 F624.522 
G1 X109.603 Y-24.037 Z-0.659 F644.322 
G1 X109.667 Y-24.063 Z-0.735 F577.677 
G1 X110.019 Y-24.229 Z-1.223 F557.952 
G1 X110.131 Y-24.184 Z-1.225 F898.737 
G1 X110.245 Y-24.143 Z-1.224 F898.737 
G1 X110.776 Y-24.645 Z-0.340 F563.803 
G1 X111.030 Y-24.836 Z-0.217 F759.364 
G1 X111.256 Y-24.936 Z-0.117 F752.749 
G1 X111.315 Y-24.950 Z-0.118 F891.489 
G1 X111.375 Y-24.961 Z-0.119 F891.499 
G1 X111.489 Y-24.978 Z-0.133 F855.740 
G1 X111.686 Y-25.001 Z-0.142 F882.871 
G1 X111.670 Y-25.587 Z0.866 F501.053 
G0 Z3.000 
G0 X111.686 Y-25.001 Z3.000 
G1 X111.686 Y-25.001 Z-0.142 F300.000 
G1 X111.900 Y-25.001 Z-0.110 F843.393 
G1 X111.980 Y-24.999 Z-0.103 F865.533 
G1 X112.499 Y-24.962 Z-0.090 F890.817 
G1 X112.568 Y-24.955 Z-0.092 F889.078 
G1 X113.083 Y-24.886 Z-0.137 F867.269 
G1 X113.145 Y-24.875 Z-0.145 F850.817 
G1 X113.462 Y-24.815 Z-0.202 F832.701 
G1 X113.667 Y-24.793 Z-0.268 F783.071 
G1 X113.730 Y-24.792 Z-0.301 F715.551 
G1 X114.062 Y-24.818 Z-0.606 F616.588 
G1 X114.335 Y-24.885 Z-0.840 F635.049 
G1 X114.424 Y-24.912 Z-0.946 F575.035 
G1 X114.640 Y-24.988 Z-1.228 F560.714 
G1 X114.407 Y-26.218 Z-1.198 F890.390 
G1 X114.815 Y-26.330 Z-0.749 F588.736 
G1 X115.239 Y-26.367 Z-0.217 F557.664 
G1 X115.280 Y-26.364 Z-0.183 F638.273 
G1 X115.336 Y-26.361 Z-0.142 F657.667 
G1 X116.029 Y-26.303 Z0.346 F666.349 
G1 X116.049 Y-26.302 Z0.357 F672.472 
G1 X116.066 Y-26.301 Z0.370 F678.572 
G1 X116.795 Y-26.275 Z0.865 F672.318 
G0 Z3.000 
G0 X114.407 Y-26.218 Z3.000 
G1 X114.407 Y-26.218 Z-1.196 F300.000 
G1 X114.360 Y-26.257 Z-1.182 F814.441 
G1 X114.312 Y-26.295 Z-1.173 F839.097 
G1 X114.299 Y-26.306 Z-1.171 F858.937 
G1 X113.773 Y-26.723 Z-1.102 F860.733 
G1 X113.771 Y-26.725 Z-1.102 F865.831 
G1 X113.741 Y-26.749 Z-1.099 F872.575 
G1 X113.728 Y-26.760 Z-1.099 F886.268 
G1 X113.214 Y-27.174 Z-1.079 F888.544 
G1 X113.193 Y-27.191 Z-1.077 F892.942 
G1 X113.178 Y-27.202 Z-1.079 F897.965 
G1 X113.152 Y-27.223 Z-1.080 F887.536 
G1 X112.652 Y-27.629 Z-1.110 F882.041 
G1 X112.617 Y-27.657 Z-1.110 F876.235 
G1 X112.608 Y-27.664 Z-1.114 F864.490 
G1 X112.575 Y-27.690 Z-1.119 F857.620 
G1 X112.080 Y-28.091 Z-1.199 F852.003 
G1 X112.039 Y-28.124 Z-1.203 F844.320 
G1 X112.031 Y-28.130 Z-1.208 F834.512 
G1 X112.000 Y-28.154 Z-1.216 F826.061 
G1 X111.499 Y-28.555 Z-1.350 F821.614 
G1 X111.460 Y-28.586 Z-1.359 F815.265 
G1 X111.435 Y-28.605 Z-1.369 F801.461 
G1 X111.408 Y-28.626 Z-1.379 F791.107 
G1 X111.294 Y-28.717 Z-1.424 F786.290 
G0 Z3.000 
G0 X109.937 Y-29.078 Z3.000 
G1 X109.937 Y-29.078 Z-0.980 F300.000 
G1 X109.973 Y-29.057 Z-0.967 F782.340 
G1 X110.044 Y-29.017 Z-0.945 F811.428 
G1 X110.401 Y-28.856 Z-0.992 F857.396 
G1 X110.678 Y-28.781 Z-1.023 F857.909 
G1 X110.756 Y-28.765 Z-1.056 F740.436 
G1 X111.294 Y-28.717 Z-1.424 F672.698 
G1 X111.341 Y-29.157 Z-0.900 F568.114 
G1 X111.340 Y-29.390 Z-0.591 F546.955 
G1 X111.337 Y-29.432 Z-0.548 F591.978 
G1 X111.283 Y-29.775 Z-0.321 F679.765 
G1 X111.155 Y-30.082 Z-0.081 F661.069 
G1 X111.139 Y-30.106 Z-0.078 F823.028 
G1 X111.136 Y-30.112 Z-0.074 F838.864 
G1 X110.816 Y-30.637 Z0.016 F842.866 
G1 X110.802 Y-30.661 Z0.019 F852.956 
G1 X110.658 Y-30.914 Z0.047 F862.989 
G1 X110.499 Y-31.202 Z0.088 F853.442 
G1 X110.485 Y-31.231 Z0.091 F864.366 
G1 X110.232 Y-31.729 Z0.127 F875.227 
G1 X110.207 Y-31.782 Z0.134 F854.397 
G1 X110.194 Y-31.812 Z0.137 F867.412 
G1 X109.955 Y-32.380 Z0.167 F880.933 
G1 X109.942 Y-32.415 Z0.168 F896.872 
G1 X109.885 Y-32.570 Z0.163 F889.870 
G1 X109.746 Y-32.991 Z0.177 F888.276 
G1 X109.744 Y-32.998 Z0.178 F865.208 
G1 X109.734 Y-33.036 Z0.179 F885.332 
G1 X109.636 Y-33.436 Z0.177 F898.055 
G1 X109.559 Y-33.633 Z0.129 F813.694 
G1 X109.549 Y-33.652 Z0.118 F727.097 
G1 X109.545 Y-33.659 Z0.113 F713.380 
G1 X109.270 Y-34.180 Z-0.204 F711.012 
G0 Z3.000 
G0 X109.605 Y-35.347 Z3.000 
G1 X109.605 Y-35.347 Z0.148 F300.000 
G1 X109.620 Y-35.375 Z0.142 F837.972 
G1 X109.248 Y-35.570 Z0.866 F501.048 
G0 Z3.000 
G0 X109.311 Y-35.665 Z3.000 
G1 X109.311 Y-35.665 Z0.866 F300.000 
G1 X109.627 Y-35.387 Z0.144 F501.648 
G1 X109.620 Y-35.375 Z0.143 F894.570 
G0 Z3.000 
G0 X109.627 Y-35.387 Z3.000 
G1 X109.627 Y-35.387 Z0.143 F300.000 
G1 X109.677 Y-35.444 Z0.161 F807.128 
G1 X109.698 Y-35.468 Z0.168 F816.342 
G1 X109.483 Y-35.814 Z0.866 F502.236 
G0 Z3.000 
G0 X109.698 Y-35.904 Z3.000 
G1 X109.698 Y-35.904 Z0.866 F300.000 
G1 X109.798 Y-35.535 Z0.209 F501.464 
G1 X109.747 Y-35.503 Z0.188 F776.993 
G1 X109.698 Y-35.468 Z0.168 F778.638 
G0 Z3.000 
G0 X109.798 Y-35.535 Z3.000 
G1 X109.798 Y-35.535 Z0.209 F300.000 
G1 X109.937 Y-35.575 Z0.246 F803.111 
G1 X109.934 Y-35.936 Z0.865 F501.329 
G0 Z3.000 
G0 X110.169 Y-35.908 Z3.000 
G1 X110.169 Y-35.908 Z0.865 F300.000 
G1 X110.080 Y-35.569 Z0.264 F501.608 
G1 X110.009 Y-35.576 Z0.255 F849.173 
G1 X109.937 Y-35.575 Z0.246 F849.578 
G0 Z3.000 
G0 X110.080 Y-35.569 Z3.000 
G1 X110.080 Y-35.569 Z0.265 F300.000 
G1 X110.146 Y-35.546 Z0.266 F892.379 
G1 X110.210 Y-35.517 Z0.268 F892.369 
G1 X110.382 Y-35.819 Z0.865 F501.234 
G0 Z3.000 
G0 X110.472 Y-35.752 Z3.000 
G1 X110.472 Y-35.752 Z0.865 F300.000 
G1 X110.240 Y-35.494 Z0.266 F500.701 
G1 X110.210 Y-35.516 Z0.268 F897.993 
G0 Z3.000 
G0 X110.240 Y-35.494 Z3.000 
G1 X110.240 Y-35.494 Z0.268 F300.000 
G1 X110.273 Y-35.461 Z0.271 F877.023 
G1 X110.549 Y-35.669 Z0.865 F500.797 
G0 Z3.000 
G0 X110.609 Y-35.570 Z3.000 
G1 X110.609 Y-35.570 Z0.864 F300.000 
G1 X110.300 Y-35.422 Z0.273 F500.886 
G1 X110.273 Y-35.461 Z0.271 F856.024 
G0 Z3.000 
G0 X110.300 Y-35.422 Z3.000 
G1 X110.300 Y-35.422 Z0.276 F300.000 
G1 X110.327 Y-35.365 Z0.286 F843.157 
G1 X110.335 Y-35.343 Z0.287 F874.512 
G1 X110.342 Y-35.328 Z0.285 F883.841 
G1 X110.618 Y-34.690 Z0.306 F890.432 
G1 X110.628 Y-34.670 Z0.303 F896.585 
G1 X110.924 Y-34.044 Z0.281 F886.783 
G1 X110.936 Y-34.020 Z0.277 F874.272 
G1 X111.084 Y-33.739 Z0.247 F860.801 
G1 X111.251 Y-33.454 Z0.240 F891.903 
G1 X111.275 Y-33.414 Z0.241 F888.483 
G1 X111.294 Y-33.388 Z0.238 F896.496 
G1 X111.436 Y-33.181 Z0.228 F881.258 
G1 X111.702 Y-32.827 Z0.239 F891.119 
G1 X111.779 Y-32.742 Z0.209 F807.893 
G1 X111.868 Y-32.667 Z0.180 F809.768 
G1 X112.099 Y-32.563 Z-0.096 F583.234 
G1 X112.390 Y-32.509 Z-0.378 F608.802 
G1 X112.509 Y-32.502 Z-0.480 F629.188 
G1 X112.635 Y-32.503 Z-0.583 F640.099 
G1 X112.749 Y-32.514 Z-0.728 F555.754 
G1 X112.750 Y-32.526 Z-0.717 F619.119 
G1 X112.754 Y-32.591 Z-0.660 F619.737 
G1 X112.771 Y-32.768 Z-0.512 F635.079 
G1 X112.792 Y-32.911 Z-0.404 F653.811 
G1 X112.793 Y-32.917 Z-0.399 F655.447 
G1 X112.828 Y-33.044 Z-0.294 F641.868 
G1 X112.872 Y-33.182 Z-0.188 F658.601 
G1 X112.895 Y-33.248 Z-0.139 F668.148 
G1 X112.911 Y-33.283 Z-0.112 F664.110 
G1 X112.972 Y-33.411 Z-0.015 F669.773 
G1 X113.015 Y-33.491 Z0.042 F688.299 
G1 X113.069 Y-33.583 Z0.101 F706.710 
G1 X113.084 Y-33.607 Z0.118 F690.196 
G1 X113.212 Y-33.764 Z0.201 F751.895 
G1 X113.328 Y-33.873 Z0.231 F828.132 
G1 X113.419 Y-33.958 Z0.257 F821.782 
G1 X113.449 Y-33.984 Z0.264 F836.792 
G1 X113.668 Y-34.166 Z0.296 F856.386 
G1 X113.687 Y-34.181 Z0.298 F867.681 
G1 X113.950 Y-34.383 Z0.315 F881.444 
G1 X113.964 Y-34.394 Z0.315 F889.230 
G1 X114.131 Y-34.530 Z0.315 F899.823 
G1 X114.271 Y-34.649 Z0.322 F884.812 
G1 X114.292 Y-34.668 Z0.322 F898.653 
G1 X114.529 Y-34.890 Z0.310 F885.177 
G1 X114.579 Y-34.943 Z0.316 F866.306 
G1 X114.622 Y-34.995 Z0.310 F863.056 
G1 X114.660 Y-35.053 Z0.303 F863.293 
G1 X114.672 Y-35.073 Z0.296 F795.428 
G1 X114.765 Y-35.263 Z0.264 F843.633 
G1 X114.775 Y-35.286 Z0.261 F834.847 
G1 X114.794 Y-35.344 Z0.252 F839.105 
G1 X114.810 Y-35.406 Z0.235 F813.682 
G1 X114.832 Y-35.519 Z0.222 F855.457 
G1 X114.837 Y-35.566 Z0.223 F889.433 
G1 X114.841 Y-35.633 Z0.221 F880.200 
G1 X114.844 Y-35.801 Z0.198 F850.952 
G1 X114.840 Y-35.861 Z0.198 F895.528 
G1 X114.837 Y-35.901 Z0.199 F887.496 
G1 X114.810 Y-36.131 Z0.179 F870.940 
G1 X114.809 Y-36.138 Z0.181 F867.265 
G1 X114.769 Y-36.459 Z0.149 F865.105 
G1 X114.763 Y-36.580 Z0.123 F818.938 
G1 X114.792 Y-36.748 Z0.056 F756.225 
G1 X114.819 Y-36.813 Z0.023 F732.721 
G1 X114.849 Y-36.831 Z0.039 F730.418 
G1 X114.776 Y-37.305 Z0.865 F500.786 
G0 Z3.000 
G0 X114.642 Y-37.271 Z3.000 
G1 X114.642 Y-37.271 Z0.866 F300.000 
G1 X114.817 Y-36.815 Z0.026 F501.132 
G1 X114.788 Y-36.835 Z0.080 F521.245 
G0 Z3.000 
G0 X114.817 Y-36.815 Z3.000 
G1 X114.817 Y-36.815 Z0.027 F300.000 
G1 X114.819 Y-36.813 Z0.023 F533.387 
G0 Z3.000 
G0 X114.849 Y-36.831 Z3.000 
G1 X114.849 Y-36.831 Z0.039 F300.000 
G1 X114.904 Y-36.853 Z0.072 F705.260 
G1 X114.976 Y-36.870 Z0.116 F696.725 
G1 X115.055 Y-36.875 Z0.162 F698.810 
G1 X115.142 Y-36.865 Z0.211 F705.316 
G1 X115.383 Y-36.761 Z0.281 F800.071 
G1 X115.384 Y-36.760 Z0.281 F900.000 
G1 X115.595 Y-36.601 Z0.283 F896.965 
G1 X115.623 Y-36.578 Z0.286 F871.353 
G1 X115.658 Y-36.549 Z0.287 F892.531 
G1 X115.794 Y-36.421 Z0.278 F882.961 
G1 X115.878 Y-36.336 Z0.281 F891.698 
G1 X115.910 Y-36.302 Z0.279 F884.635 
G1 X115.973 Y-36.229 Z0.270 F862.979 
G1 X116.101 Y-36.064 Z0.269 F897.632 
G1 X116.131 Y-36.023 Z0.265 F872.883 
G1 X116.289 Y-35.784 Z0.227 F850.140 
G1 X116.298 Y-35.768 Z0.227 F893.622 
G1 X116.325 Y-35.717 Z0.222 F865.865 
G1 X116.455 Y-35.445 Z0.174 F840.127 
G1 X116.483 Y-35.379 Z0.157 F812.392 
G1 X116.524 Y-35.267 Z0.121 F785.853 
G1 X116.608 Y-35.098 Z0.028 F728.908 
G1 X116.667 Y-35.003 Z-0.060 F642.381 
G1 X116.681 Y-34.982 Z-0.085 F609.091 
G0 Z3.000 
G0 X116.656 Y-36.854 Z3.000 
G1 X116.656 Y-36.854 Z0.865 F300.000 
G1 X117.101 Y-36.861 Z0.108 F502.979 
G1 X117.101 Y-36.861 Z0.108 F515.851 
G1 X116.844 Y-37.221 Z0.866 F501.615 
G0 Z3.000 
G0 X116.746 Y-37.128 Z3.000 
G1 X116.746 Y-37.128 Z0.865 F300.000 
G1 X117.087 Y-36.869 Z0.135 F502.404 
G1 X116.681 Y-37.006 Z0.866 F502.396 
G0 Z3.000 
G0 X116.965 Y-37.284 Z3.000 
G1 X116.965 Y-37.284 Z0.866 F300.000 
G1 X117.130 Y-36.847 Z0.062 F501.189 
G1 X117.101 Y-36.861 Z0.107 F538.922 
G0 Z3.000 
G0 X117.101 Y-36.861 Z3.000 
G1 X117.101 Y-36.861 Z0.108 F300.000 
G1 X117.087 Y-36.869 Z0.134 F509.003 
G0 Z3.000 
G0 X117.130 Y-36.847 Z3.000 
G1 X117.130 Y-36.847 Z0.063 F300.000 
G1 X117.141 Y-36.840 Z0.047 F556.974 
G0 Z3.000 
G0 X117.166 Y-36.852 Z3.000 
G1 X117.166 Y-36.852 Z0.056 F300.000 
G1 X117.215 Y-36.869 Z0.083 F720.572 
G1 X117.246 Y-37.322 Z0.864 F500.836 
G0 Z3.000 
G0 X117.102 Y-37.318 Z3.000 
G1 X117.102 Y-37.318 Z0.866 F300.000 
G1 X117.166 Y-36.852 Z0.056 F500.968 
G1 X117.141 Y-36.840 Z0.046 F756.694 
G1 X117.093 Y-36.584 Z0.171 F728.478 
G1 X117.103 Y-36.440 Z0.245 F718.524 
G1 X117.135 Y-36.240 Z0.258 F878.962 
G1 X117.136 Y-36.236 Z0.259 F880.882 
G1 X117.190 Y-35.893 Z0.273 F883.933 
G1 X117.193 Y-35.873 Z0.274 F892.711 
G1 X117.202 Y-35.802 Z0.273 F897.306 
G1 X117.214 Y-35.526 Z0.311 F848.372 
G1 X117.214 Y-35.523 Z0.311 F855.993 
G1 X117.199 Y-35.408 Z0.325 F855.574 
G1 X117.148 Y-35.291 Z0.312 F863.073 
G1 X116.978 Y-35.107 Z0.193 F729.572 
G1 X116.749 Y-34.998 Z-0.018 F635.457 
G1 X116.681 Y-34.982 Z-0.085 F608.350 
G1 X116.610 Y-34.806 Z0.033 F688.109 
G1 X116.564 Y-34.705 Z0.109 F671.067 
G1 X116.522 Y-34.621 Z0.166 F694.158 
G1 X116.483 Y-34.554 Z0.205 F719.296 
G1 X116.357 Y-34.343 Z0.336 F713.484 
G1 X116.293 Y-34.256 Z0.377 F759.674 
G1 X116.138 Y-34.078 Z0.431 F814.308 
G1 X116.128 Y-34.067 Z0.435 F825.992 
G1 X116.021 Y-33.937 Z0.464 F832.932 
G1 X115.997 Y-33.910 Z0.468 F858.184 
G1 X115.939 Y-33.850 Z0.472 F883.905 
G1 X115.924 Y-33.834 Z0.472 F900.000 
G1 X115.736 Y-33.619 Z0.460 F884.354 
G1 X115.719 Y-33.599 Z0.458 F865.534 
G1 X115.706 Y-33.582 Z0.453 F817.558 
G1 X115.679 Y-33.543 Z0.435 F762.411 
G1 X115.592 Y-33.407 Z0.362 F737.454 
G1 X115.552 Y-33.334 Z0.314 F702.935 
G1 X115.484 Y-33.187 Z0.207 F675.343 
G1 X115.444 Y-33.084 Z0.121 F649.324 
G1 X115.391 Y-32.923 Z-0.023 F629.205 
G1 X115.353 Y-32.776 Z-0.169 F609.926 
G1 X115.345 Y-32.737 Z-0.208 F595.075 
G1 X115.334 Y-32.685 Z-0.264 F590.487 
G1 X115.313 Y-32.595 Z-0.363 F586.692 
G1 X115.272 Y-32.365 Z-0.634 F573.135 
G1 X115.248 Y-32.160 Z-0.883 F562.621 
G1 X115.226 Y-31.862 Z-1.266 F553.996 
G1 X115.224 Y-31.791 Z-1.359 F544.169 
G1 X115.219 Y-31.665 Z-1.533 F539.243 
G1 X115.139 Y-31.646 Z-1.490 F716.252 
G1 X114.993 Y-31.605 Z-1.424 F744.985 
G1 X114.799 Y-31.545 Z-1.374 F805.641 
G1 X114.766 Y-31.535 Z-1.369 F859.395 
G0 Z3.000 
G0 X115.219 Y-31.665 Z3.000 
G1 X115.219 Y-31.665 Z-1.532 F300.000 
G1 X115.287 Y-31.637 Z-1.495 F725.423 
G1 X115.544 Y-31.522 Z-1.411 F789.456 
G1 X115.586 Y-31.504 Z-1.410 F859.956 
G1 X115.723 Y-31.446 Z-1.394 F867.040 
G1 X115.870 Y-31.389 Z-1.398 F894.154 
G1 X116.019 Y-31.341 Z-1.401 F894.157 
G1 X116.020 Y-31.341 Z-1.401 F900.000 
G1 X116.169 Y-31.304 Z-1.408 F879.855 
G1 X116.470 Y-31.248 Z-1.456 F842.534 
G1 X116.887 Y-31.242 Z-1.590 F781.324 
G1 X116.950 Y-31.246 Z-1.617 F739.573 
G1 X117.087 Y-31.257 Z-1.671 F755.398 
G1 X117.325 Y-31.287 Z-1.784 F734.263 
G1 X117.433 Y-31.305 Z-1.840 F714.786 
G1 X117.521 Y-31.323 Z-1.883 F730.367 
G1 X117.557 Y-31.330 Z-1.902 F727.359 
G1 X117.565 Y-31.435 Z-1.750 F531.974 
G1 X117.582 Y-31.683 Z-1.408 F540.169 
G1 X117.615 Y-31.980 Z-1.029 F554.985 
G1 X117.654 Y-32.234 Z-0.719 F563.997 
G1 X117.657 Y-32.254 Z-0.693 F564.546 
G1 X117.674 Y-32.368 Z-0.563 F574.682 
G1 X117.711 Y-32.556 Z-0.371 F598.960 
G1 X117.767 Y-32.779 Z-0.156 F613.168 
G1 X117.836 Y-32.979 Z0.014 F641.086 
G1 X117.921 Y-33.169 Z0.152 F676.322 
G1 X117.945 Y-33.217 Z0.185 F690.200 
G1 X117.958 Y-33.241 Z0.199 F720.106 
G1 X117.977 Y-33.277 Z0.216 F752.386 
G1 X118.029 Y-33.364 Z0.252 F769.826 
G1 X118.070 Y-33.425 Z0.272 F796.533 
G1 X118.134 Y-33.510 Z0.290 F835.294 
G1 X118.190 Y-33.576 Z0.297 F872.193 
G1 X118.446 Y-33.839 Z0.280 F883.242 
G1 X118.474 Y-33.869 Z0.277 F863.276 
G1 X118.598 Y-34.014 Z0.248 F843.290 
G1 X118.628 Y-34.050 Z0.239 F823.769 
G1 X118.742 Y-34.202 Z0.189 F802.289 
G1 X118.782 Y-34.260 Z0.165 F777.045 
G1 X118.885 Y-34.425 Z0.085 F751.122 
G1 X118.934 Y-34.514 Z0.035 F723.026 
G1 X119.025 Y-34.700 Z-0.087 F697.778 
G1 X119.058 Y-34.774 Z-0.138 F682.976 
G1 X119.066 Y-34.794 Z-0.154 F668.500 
G0 Z3.000 
G0 X119.309 Y-34.867 Z3.000 
G1 X119.309 Y-34.867 Z0.049 F300.000 
G1 X119.448 Y-34.960 Z0.157 F681.543 
G1 X119.562 Y-35.095 Z0.236 F739.507 
G1 X119.630 Y-35.263 Z0.264 F840.078 
G1 X119.639 Y-35.325 Z0.258 F858.127 
G1 X119.642 Y-35.388 Z0.251 F858.389 
G1 X119.643 Y-35.449 Z0.233 F801.546 
G1 X119.634 Y-35.641 Z0.201 F836.245 
G1 X119.616 Y-35.831 Z0.185 F869.989 
G1 X119.613 Y-35.852 Z0.186 F889.318 
G1 X119.608 Y-35.878 Z0.189 F898.548 
G1 X119.534 Y-36.262 Z0.174 F888.685 
G1 X119.524 Y-36.329 Z0.168 F861.070 
G1 X119.533 Y-36.532 Z0.100 F776.801 
G1 X119.570 Y-36.662 Z0.023 F702.699 
G1 X119.658 Y-36.682 Z0.099 F628.995 
G1 X119.827 Y-37.093 Z0.865 F500.759 
G0 Z3.000 
G0 X119.666 Y-37.142 Z3.000 
G1 X119.666 Y-37.142 Z0.865 F300.000 
G1 X119.569 Y-36.665 Z0.025 F500.728 
G1 X119.529 Y-36.706 Z0.089 F578.055 
G1 X119.475 Y-36.772 Z0.193 F562.942 
G1 X119.369 Y-36.891 Z0.395 F554.781 
G0 Z3.000 
G0 X119.101 Y-36.941 Z3.000 
G1 X119.101 Y-36.941 Z0.865 F300.000 
G1 X119.369 Y-36.891 Z0.397 F501.147 
G1 X119.165 Y-37.165 Z0.864 F540.352 
G0 Z3.000 
G0 X119.569 Y-36.665 Z3.000 
G1 X119.569 Y-36.665 Z0.027 F300.000 
G1 X119.570 Y-36.662 Z0.024 F598.496 
G0 Z3.000 
G0 X119.657 Y-36.682 Z3.000 
G1 X119.657 Y-36.682 Z0.099 F300.000 
G1 X119.908 Y-36.669 Z0.246 F698.326 
G1 X120.019 Y-36.634 Z0.319 F684.841 
G1 X120.113 Y-36.578 Z0.333 F853.258 
G1 X120.320 Y-36.428 Z0.325 F887.770 
G1 X120.368 Y-36.388 Z0.329 F873.493 
G1 X120.397 Y-36.363 Z0.330 F893.139 
G1 X120.592 Y-36.182 Z0.319 F884.599 
G1 X120.635 Y-36.137 Z0.322 F877.951 
G1 X120.662 Y-36.107 Z0.323 F898.142 
G1 X120.832 Y-35.905 Z0.309 F879.720 
G1 X120.872 Y-35.852 Z0.312 F882.914 
G1 X120.899 Y-35.814 Z0.311 F892.568 
G1 X121.036 Y-35.600 Z0.291 F870.270 
G1 X121.072 Y-35.536 Z0.292 F892.724 
G1 X121.097 Y-35.489 Z0.289 F878.775 
G1 X121.197 Y-35.274 Z0.259 F851.719 
G1 X121.228 Y-35.195 Z0.257 F889.177 
G1 X121.250 Y-35.129 Z0.249 F858.237 
G1 X121.308 Y-34.928 Z0.208 F826.277 
G1 X121.332 Y-34.821 Z0.198 F863.848 
G1 X121.346 Y-34.733 Z0.180 F825.912 
G1 X121.366 Y-34.548 Z0.126 F791.320 
G1 X121.391 Y-34.412 Z0.066 F746.937 
G1 X121.417 Y-34.315 Z-0.004 F664.939 
G1 X121.459 Y-34.186 Z-0.131 F613.773 
G1 X121.431 Y-34.143 Z-0.101 F707.593 
G1 X121.428 Y-34.137 Z-0.098 F712.708 
G1 X121.409 Y-34.108 Z-0.081 F729.026 
G1 X121.393 Y-34.084 Z-0.069 F752.358 
G1 X121.295 Y-33.942 Z-0.002 F758.664 
G1 X121.242 Y-33.871 Z0.025 F784.499 
G1 X121.210 Y-33.833 Z0.033 F843.740 
G1 X121.207 Y-33.829 Z0.033 F883.867 
G1 X121.029 Y-33.617 Z0.048 F879.444 
G1 X120.953 Y-33.512 Z0.039 F874.413 
G1 X120.881 Y-33.397 Z0.015 F830.790 
G1 X120.866 Y-33.373 Z0.009 F821.177 
G1 X120.844 Y-33.335 Z-0.005 F786.221 
G1 X120.809 Y-33.270 Z-0.038 F740.572 
G1 X120.751 Y-33.153 Z-0.102 F724.162 
G1 X120.688 Y-33.000 Z-0.204 F690.977 
G1 X120.644 Y-32.870 Z-0.300 F663.715 
G1 X120.613 Y-32.767 Z-0.384 F649.577 
G1 X120.595 Y-32.701 Z-0.443 F623.871 
G1 X120.594 Y-32.697 Z-0.448 F610.189 
G1 X120.555 Y-32.550 Z-0.590 F611.178 
G1 X120.512 Y-32.345 Z-0.805 F597.284 
G1 X120.486 Y-32.182 Z-0.981 F585.885 
G1 X120.462 Y-31.998 Z-1.190 F578.395 
G1 X120.456 Y-31.946 Z-1.250 F568.669 
G1 X120.448 Y-31.866 Z-1.348 F563.016 
G1 X120.435 Y-31.762 Z-1.476 F560.881 
G1 X120.403 Y-31.281 Z-2.102 F551.236 
G1 X120.420 Y-31.288 Z-2.074 F519.818 
G1 X120.612 Y-31.367 Z-1.757 F521.729 
G1 X120.828 Y-31.452 Z-1.405 F523.049 
G1 X120.914 Y-31.485 Z-1.267 F524.122 
G1 X121.557 Y-31.724 Z-0.389 F553.355 
G1 X121.650 Y-31.763 Z-0.303 F628.340 
G1 X121.711 Y-31.789 Z-0.248 F639.147 
G1 X121.816 Y-31.831 Z-0.163 F654.246 
G1 X121.848 Y-31.842 Z-0.140 F669.603 
G1 X121.959 Y-31.888 Z-0.069 F692.462 
G1 X121.984 Y-31.900 Z-0.053 F729.450 
G1 X122.037 Y-31.923 Z-0.031 F757.435 
G1 X122.154 Y-31.970 Z0.012 F774.359 
G1 X122.246 Y-32.013 Z0.038 F803.659 
G1 X122.305 Y-32.044 Z0.049 F837.880 
G1 X122.339 Y-32.062 Z0.054 F849.119 
G1 X122.406 Y-32.093 Z0.062 F861.380 
G1 X122.475 Y-32.130 Z0.062 F889.229 
G1 X122.582 Y-32.193 Z0.059 F883.366 
G1 X122.631 Y-32.225 Z0.060 F890.935 
G1 X122.686 Y-32.264 Z0.057 F887.519 
G1 X122.803 Y-32.352 Z0.043 F861.774 
G1 X123.036 Y-32.483 Z-0.084 F731.173 
G1 X123.200 Y-32.535 Z-0.160 F740.131 
G1 X123.259 Y-32.481 Z-0.100 F651.281 
G1 X123.376 Y-32.367 Z-0.022 F729.499 
G1 X123.420 Y-32.322 Z-0.011 F835.191 
G1 X123.507 Y-32.225 Z0.005 F854.245 
G1 X123.605 Y-32.131 Z0.003 F899.716 
G1 X123.610 Y-32.127 Z0.005 F853.244 
G1 X123.758 Y-32.014 Z-0.002 F886.653 
G1 X123.794 Y-31.988 Z-0.007 F872.393 
G1 X123.517 Y-31.565 Z0.865 F500.924 
G0 Z3.000 
G0 X123.778 Y-31.426 Z3.000 
G1 X123.778 Y-31.426 Z0.866 F300.000 
G1 X123.975 Y-31.903 Z-0.023 F500.919 
G1 X123.889 Y-31.940 Z-0.012 F847.767 
G1 X123.794 Y-31.988 Z-0.007 F882.435 
G0 Z3.000 
G0 X123.975 Y-31.903 Z3.000 
G1 X123.975 Y-31.903 Z-0.023 F300.000 
G1 X124.032 Y-31.885 Z-0.021 F887.901 
G1 X124.065 Y-31.876 Z-0.015 F834.287 
G1 X124.121 Y-31.865 Z-0.011 F857.040 
G1 X124.244 Y-31.856 Z-0.006 F884.887 
G1 X124.247 Y-31.856 Z-0.006 F877.274 
G1 X124.355 Y-31.862 Z0.002 F880.818 
G1 X124.432 Y-31.872 Z0.015 F837.447 
G1 X124.473 Y-31.879 Z0.018 F849.311 
G1 X124.580 Y-31.910 Z0.029 F863.420 
G1 X124.588 Y-31.913 Z0.030 F895.281 
G1 X124.670 Y-31.948 Z0.040 F858.899 
G1 X124.760 Y-31.993 Z0.040 F893.148 
G1 X124.850 Y-32.044 Z0.034 F871.737 
G1 X124.857 Y-32.048 Z0.032 F868.739 
G1 X124.891 Y-32.072 Z0.031 F893.507 
G1 X125.127 Y-32.243 Z0.016 F878.391 
G1 X125.374 Y-32.376 Z-0.067 F790.739 
G1 X125.417 Y-32.391 Z-0.093 F698.547 
G1 X125.594 Y-32.443 Z-0.233 F651.965 
G1 X125.700 Y-32.331 Z-0.131 F676.853 
G1 X125.806 Y-32.202 Z-0.074 F774.841 
G1 X125.815 Y-32.189 Z-0.071 F819.536 
G1 X125.899 Y-32.085 Z-0.059 F859.378 
G1 X125.964 Y-32.013 Z-0.057 F899.210 
G1 X125.605 Y-31.614 Z0.865 F501.253 
G0 Z3.000 
G0 X125.842 Y-31.441 Z3.000 
G1 X125.842 Y-31.441 Z0.866 F300.000 
G1 X126.108 Y-31.890 Z-0.033 F500.992 
G1 X126.026 Y-31.957 Z-0.045 F867.018 
G1 X125.964 Y-32.013 Z-0.059 F836.113 
G0 Z3.000 
G0 X126.108 Y-31.890 Z3.000 
G1 X126.108 Y-31.890 Z-0.036 F300.000 
G1 X126.142 Y-31.871 Z-0.031 F849.516 
G1 X126.278 Y-31.797 Z-0.012 F860.141 
G1 X126.105 Y-31.317 Z0.864 F501.542 
G0 Z3.000 
G0 X126.387 Y-31.245 Z3.000 
G1 X126.387 Y-31.245 Z0.866 F300.000 
G1 X126.468 Y-31.733 Z0.013 F500.732 
G1 X126.444 Y-31.739 Z0.012 F896.847 
G1 X126.298 Y-31.788 Z-0.008 F850.297 
G1 X126.278 Y-31.797 Z-0.014 F799.696 
G0 Z3.000 
G0 X126.468 Y-31.733 Z3.000 
G1 X126.468 Y-31.733 Z0.013 F300.000 
G1 X126.615 Y-31.709 Z0.035 F844.426 
G1 X126.674 Y-31.702 Z0.038 F865.136 
G1 X126.795 Y-31.708 Z0.048 F870.207 
G1 X126.884 Y-31.718 Z0.046 F886.764 
G1 X126.972 Y-31.735 Z0.057 F855.767 
G1 X127.091 Y-31.768 Z0.056 F899.073 
G1 X127.255 Y-31.328 Z0.865 F501.054 
G0 Z3.000 
G0 X127.091 Y-31.768 Z3.000 
G1 X127.091 Y-31.768 Z0.056 F300.000 
G1 X127.149 Y-31.796 Z0.055 F893.457 
G1 X127.290 Y-31.872 Z0.043 F870.281 
G1 X127.469 Y-31.984 Z0.051 F884.454 
G1 X127.525 Y-32.023 Z0.049 F892.736 
G1 X127.773 Y-32.205 Z0.024 F867.743 
G1 X127.823 Y-32.245 Z0.023 F895.842 
G1 X127.853 Y-32.269 Z0.020 F885.044 
G1 X128.231 Y-32.598 Z-0.019 F869.855 
G1 X128.411 Y-32.768 Z-0.021 F897.075 
G1 X128.437 Y-32.793 Z-0.023 F886.071 
G1 X128.440 Y-32.797 Z-0.023 F892.845 
G1 X128.630 Y-33.003 Z-0.029 F891.152 
G1 X128.813 Y-33.217 Z-0.017 F884.657 
G1 X128.916 Y-33.349 Z0.001 F858.418 
G1 X128.960 Y-33.409 Z0.004 F882.093 
G1 X128.961 Y-33.411 Z0.004 F884.028 
G1 X129.403 Y-33.175 Z0.866 F501.079 
G0 Z3.000 
G0 X128.961 Y-33.411 Z3.000 
G1 X128.961 Y-33.411 Z0.004 F300.000 
G1 X129.044 Y-33.570 Z0.035 F834.941 
G1 X129.065 Y-33.611 Z0.043 F848.332 
G1 X129.069 Y-33.623 Z0.045 F826.179 
G1 X129.131 Y-33.791 Z0.076 F830.736 
G1 X129.147 Y-33.839 Z0.084 F847.507 
G1 X129.153 Y-33.865 Z0.089 F833.678 
G1 X129.189 Y-34.042 Z0.114 F843.561 
G1 X129.196 Y-34.077 Z0.120 F855.502 
G1 X129.199 Y-34.124 Z0.126 F847.246 
G1 X129.207 Y-34.310 Z0.142 F865.005 
G1 X129.208 Y-34.320 Z0.143 F868.584 
G1 X129.206 Y-34.356 Z0.148 F849.204 
G1 X129.191 Y-34.569 Z0.168 F863.398 
G1 X129.184 Y-34.622 Z0.178 F828.608 
G1 X129.172 Y-34.695 Z0.187 F856.585 
G1 X129.144 Y-34.819 Z0.189 F890.032 
G1 X129.108 Y-34.945 Z0.204 F855.083 
G1 X129.090 Y-35.005 Z0.210 F881.025 
G1 X129.065 Y-35.069 Z0.206 F891.139 
G1 X128.992 Y-35.241 Z0.217 F876.367 
G1 X128.968 Y-35.293 Z0.219 F897.980 
G1 X128.959 Y-35.311 Z0.216 F874.197 
G1 X128.839 Y-35.516 Z0.217 F897.425 
G1 X128.823 Y-35.544 Z0.220 F890.467 
G1 X128.815 Y-35.555 Z0.220 F897.198 
G1 X128.663 Y-35.764 Z0.212 F893.652 
G1 X128.661 Y-35.766 Z0.212 F881.856 
G1 X128.635 Y-35.797 Z0.214 F897.217 
G1 X128.483 Y-35.968 Z0.203 F884.803 
G1 X128.459 Y-35.992 Z0.204 F886.509 
G1 X128.435 Y-36.016 Z0.207 F897.750 
G1 X128.286 Y-36.156 Z0.196 F884.134 
G1 X128.242 Y-36.194 Z0.197 F888.059 
G1 X128.220 Y-36.214 Z0.200 F900.000 
G1 X128.077 Y-36.327 Z0.191 F885.992 
G1 X128.015 Y-36.371 Z0.194 F884.356 
G1 X127.935 Y-36.423 Z0.180 F834.639 
G1 X127.848 Y-36.465 Z0.163 F835.460 
G1 X127.582 Y-36.515 Z0.013 F706.478 
G1 X127.460 Y-36.509 Z-0.083 F645.858 
G0 Z3.000 
G0 X127.301 Y-36.715 Z3.000 
G1 X127.301 Y-36.715 Z0.159 F300.000 
G1 X127.375 Y-36.627 Z0.045 F601.479 
G1 X127.450 Y-36.522 Z-0.068 F624.708 
G1 X127.460 Y-36.509 Z-0.082 F637.798 
G1 X127.401 Y-36.318 Z0.040 F689.667 
G1 X127.381 Y-36.134 Z0.163 F676.401 
G1 X127.380 Y-36.132 Z0.165 F799.031 
G1 X127.391 Y-36.002 Z0.182 F845.126 
G1 X127.450 Y-35.632 Z0.185 F898.879 
G1 X127.481 Y-35.353 Z0.211 F865.099 
G1 X127.485 Y-35.279 Z0.211 F897.948 
G1 X127.462 Y-35.128 Z0.189 F845.185 
G1 X127.404 Y-34.990 Z0.133 F762.143 
G1 X127.323 Y-34.879 Z0.059 F711.877 
G1 X127.222 Y-34.790 Z-0.027 F683.725 
G1 X127.047 Y-34.694 Z-0.175 F655.373 
G1 X126.970 Y-34.667 Z-0.244 F634.248 
G0 Z3.000 
G0 X125.346 Y-35.090 Z3.000 
G1 X125.346 Y-35.090 Z0.865 F300.000 
G1 X124.976 Y-35.164 Z0.214 F500.694 
G1 X124.896 Y-35.058 Z0.136 F691.717 
G1 X124.791 Y-34.969 Z0.036 F660.761 
G1 X124.597 Y-34.872 Z-0.149 F630.626 
G1 X124.571 Y-34.864 Z-0.174 F618.258 
G1 X124.510 Y-34.685 Z-0.051 F681.585 
G1 X124.502 Y-34.667 Z-0.036 F659.328 
G1 X124.480 Y-34.616 Z0.002 F671.484 
G1 X124.368 Y-34.374 Z0.172 F682.442 
G1 X124.323 Y-34.290 Z0.225 F708.426 
G1 X124.280 Y-34.219 Z0.262 F739.125 
G1 X124.193 Y-34.082 Z0.338 F732.145 
G1 X124.157 Y-34.031 Z0.362 F760.033 
G1 X124.010 Y-33.844 Z0.434 F787.593 
G1 X123.986 Y-33.816 Z0.443 F815.163 
G1 X123.965 Y-33.793 Z0.448 F837.206 
G1 X123.955 Y-33.783 Z0.450 F848.725 
G1 X123.829 Y-33.636 Z0.473 F854.842 
G1 X123.808 Y-33.614 Z0.475 F878.948 
G1 X123.783 Y-33.589 Z0.475 F900.000 
G1 X123.769 Y-33.574 Z0.473 F883.118 
G1 X123.594 Y-33.381 Z0.454 F870.694 
G1 X123.562 Y-33.342 Z0.445 F834.822 
G1 X123.502 Y-33.260 Z0.419 F804.444 
G1 X123.489 Y-33.242 Z0.413 F790.934 
G1 X123.482 Y-33.232 Z0.408 F764.637 
G1 X123.470 Y-33.213 Z0.399 F742.668 
G1 X123.418 Y-33.129 Z0.352 F731.505 
G1 X123.373 Y-33.039 Z0.292 F693.740 
G1 X123.293 Y-32.850 Z0.144 F662.385 
G1 X123.262 Y-32.765 Z0.072 F643.846 
G1 X123.255 Y-32.743 Z0.052 F621.317 
G1 X123.235 Y-32.675 Z-0.016 F606.364 
G1 X123.200 Y-32.535 Z-0.161 F598.859 
G0 Z3.000 
G0 X125.594 Y-32.443 Z3.000 
G1 X125.594 Y-32.443 Z-0.235 F300.000 
G1 X125.601 Y-32.467 Z-0.214 F624.308 
G1 X125.662 Y-32.661 Z-0.038 F627.723 
G1 X125.728 Y-32.822 Z0.092 F654.865 
G1 X125.753 Y-32.871 Z0.126 F688.931 
G1 X125.768 Y-32.903 Z0.148 F698.681 
G1 X125.807 Y-32.987 Z0.197 F707.745 
G1 X125.877 Y-33.109 Z0.253 F756.874 
G1 X125.981 Y-33.255 Z0.293 F815.483 
G1 X126.039 Y-33.326 Z0.304 F855.831 
G1 X126.093 Y-33.382 Z0.303 F895.093 
G1 X126.112 Y-33.404 Z0.301 F881.474 
G1 X126.368 Y-33.700 Z0.266 F865.868 
G1 X126.387 Y-33.720 Z0.263 F853.245 
G1 X126.490 Y-33.831 Z0.239 F840.334 
G1 X126.556 Y-33.911 Z0.211 F796.879 
G1 X126.656 Y-34.052 Z0.142 F756.042 
G1 X126.688 Y-34.102 Z0.115 F738.199 
G1 X126.695 Y-34.114 Z0.108 F719.675 
G1 X126.774 Y-34.247 Z0.033 F728.110 
G1 X126.818 Y-34.330 Z-0.018 F705.999 
G1 X126.922 Y-34.550 Z-0.172 F685.232 
G1 X126.957 Y-34.635 Z-0.223 F706.804 
G1 X126.970 Y-34.667 Z-0.242 F700.565 
G1 X126.890 Y-34.768 Z-0.117 F603.903 
G1 X126.727 Y-35.051 Z0.086 F688.006 
G1 X126.724 Y-35.058 Z0.088 F769.606 
G1 X126.689 Y-35.139 Z0.113 F800.090 
G1 X126.547 Y-35.425 Z0.169 F832.642 
G1 X126.515 Y-35.483 Z0.177 F859.892 
G1 X126.421 Y-35.639 Z0.182 F886.815 
G1 X126.344 Y-35.756 Z0.196 F861.648 
G1 X126.311 Y-35.802 Z0.199 F885.811 
G1 X126.241 Y-35.894 Z0.195 F890.070 
G1 X126.107 Y-36.056 Z0.202 F888.361 
G1 X126.075 Y-36.093 Z0.203 F890.697 
G1 X126.039 Y-36.131 Z0.196 F869.710 
G1 X125.846 Y-36.322 Z0.192 F894.787 
G1 X125.821 Y-36.346 Z0.192 F880.282 
G1 X125.810 Y-36.355 Z0.192 F889.171 
G1 X125.587 Y-36.533 Z0.177 F882.067 
G1 X125.561 Y-36.551 Z0.178 F884.439 
G1 X125.326 Y-36.668 Z0.117 F809.767 
G1 X125.034 Y-36.696 Z-0.075 F677.789 
G0 Z3.000 
G0 X125.009 Y-36.726 Z3.000 
G1 X125.009 Y-36.726 Z-0.042 F300.000 
G1 X125.032 Y-36.699 Z-0.072 F629.000 
G1 X125.034 Y-36.696 Z-0.075 F655.817 
G1 X124.955 Y-36.427 Z0.081 F706.224 
G1 X124.956 Y-36.192 Z0.225 F689.458 
G1 X125.013 Y-35.824 Z0.252 F874.692 
G1 X125.052 Y-35.508 Z0.291 F853.231 
G1 X125.055 Y-35.478 Z0.294 F867.859 
G1 X125.035 Y-35.319 Z0.255 F809.302 
G1 X124.976 Y-35.164 Z0.216 F812.231 
G0 Z3.000 
G0 X124.571 Y-34.864 Z3.000 
G1 X124.571 Y-34.864 Z-0.174 F300.000 
G1 X124.529 Y-34.919 Z-0.106 F602.530 
G1 X124.465 Y-35.007 Z-0.016 F637.607 
G1 X124.355 Y-35.198 Z0.094 F722.488 
G1 X124.341 Y-35.228 Z0.104 F785.466 
G1 X124.312 Y-35.290 Z0.124 F808.173 
G1 X124.198 Y-35.506 Z0.164 F833.814 
G1 X124.171 Y-35.555 Z0.173 F856.886 
G1 X124.075 Y-35.707 Z0.180 F879.359 
G1 X124.038 Y-35.760 Z0.189 F845.486 
G1 X124.012 Y-35.797 Z0.196 F864.824 
G1 X123.859 Y-35.990 Z0.204 F883.698 
G1 X123.836 Y-36.020 Z0.207 F900.000 
G1 X123.725 Y-36.146 Z0.197 F883.686 
G1 X123.670 Y-36.203 Z0.200 F882.681 
G1 X123.640 Y-36.234 Z0.204 F897.336 
G1 X123.535 Y-36.331 Z0.193 F879.924 
G1 X123.333 Y-36.505 Z0.196 F895.271 
G1 X123.270 Y-36.554 Z0.203 F866.218 
G1 X123.113 Y-36.650 Z0.183 F854.008 
G1 X122.993 Y-36.688 Z0.119 F720.073 
G1 X122.863 Y-36.709 Z0.055 F726.817 
G1 X122.803 Y-36.708 Z0.016 F680.664 
G1 X122.743 Y-36.698 Z-0.021 F692.808 
G1 X122.689 Y-36.682 Z-0.052 F703.602 
G1 X122.679 Y-36.678 Z-0.057 F733.578 
G0 Z3.000 
G0 X122.644 Y-36.710 Z3.000 
G1 X122.644 Y-36.710 Z0.007 F300.000 
G1 X122.679 Y-36.678 Z-0.057 F544.363 
G1 X122.660 Y-36.638 Z-0.029 F678.441 
G1 X122.614 Y-36.485 Z0.069 F691.295 
G1 X122.612 Y-36.211 Z0.152 F786.872 
G1 X122.631 Y-36.085 Z0.158 F889.181 
G1 X122.633 Y-36.073 Z0.159 F893.796 
G1 X122.659 Y-35.885 Z0.158 F899.397 
G1 X122.682 Y-35.660 Z0.172 F876.398 
G1 X122.686 Y-35.598 Z0.172 F898.763 
G1 X122.686 Y-35.586 Z0.171 F877.615 
G1 X122.676 Y-35.391 Z0.184 F875.966 
G1 X122.670 Y-35.326 Z0.183 F894.777 
G1 X122.668 Y-35.308 Z0.181 F868.043 
G1 X122.644 Y-35.199 Z0.188 F876.124 
G1 X122.621 Y-35.121 Z0.203 F833.431 
G1 X122.608 Y-35.079 Z0.208 F855.017 
G1 X122.573 Y-35.006 Z0.215 F867.360 
G1 X122.499 Y-34.875 Z0.214 F898.736 
G1 X122.485 Y-34.853 Z0.218 F847.538 
G1 X122.436 Y-34.788 Z0.221 F883.715 
G1 X122.358 Y-34.696 Z0.215 F880.595 
G1 X122.319 Y-34.655 Z0.218 F879.307 
G1 X122.291 Y-34.627 Z0.219 F897.045 
G1 X122.184 Y-34.525 Z0.213 F885.830 
G1 X122.028 Y-34.389 Z0.219 F888.576 
G1 X121.983 Y-34.352 Z0.217 F884.307 
G1 X121.771 Y-34.242 Z0.058 F675.730 
G1 X121.459 Y-34.186 Z-0.131 F694.706 
G0 Z3.000 
G0 X119.671 Y-34.562 Z3.000 
G1 X119.671 Y-34.562 Z0.865 F300.000 
G1 X119.309 Y-34.867 Z0.049 F500.802 
G1 X119.066 Y-34.794 Z-0.154 F641.907 
G1 X118.936 Y-35.038 Z0.060 F648.015 
G1 X118.910 Y-35.104 Z0.092 F738.071 
G1 X118.906 Y-35.115 Z0.098 F784.009 
G1 X118.809 Y-35.360 Z0.176 F787.866 
G1 X118.784 Y-35.417 Z0.193 F810.387 
G1 X118.669 Y-35.652 Z0.235 F836.081 
G1 X118.646 Y-35.697 Z0.241 F857.777 
G1 X118.644 Y-35.699 Z0.242 F864.418 
G1 X118.503 Y-35.919 Z0.269 F858.168 
G1 X118.480 Y-35.955 Z0.273 F877.334 
G1 X118.479 Y-35.956 Z0.273 F876.899 
G1 X118.316 Y-36.164 Z0.286 F879.629 
G1 X118.292 Y-36.193 Z0.288 F898.990 
G1 X118.289 Y-36.196 Z0.285 F881.786 
G1 X118.111 Y-36.385 Z0.289 F894.413 
G1 X118.087 Y-36.410 Z0.291 F889.027 
G1 X118.079 Y-36.417 Z0.287 F871.317 
G1 X117.890 Y-36.585 Z0.286 F897.735 
G1 X117.865 Y-36.606 Z0.286 F880.996 
G1 X117.853 Y-36.616 Z0.283 F865.255 
G1 X117.655 Y-36.762 Z0.279 F893.948 
G1 X117.613 Y-36.790 Z0.276 F868.126 
G1 X117.483 Y-36.847 Z0.217 F748.988 
G1 X117.339 Y-36.878 Z0.158 F755.284 
G1 X117.272 Y-36.878 Z0.116 F683.804 
G0 Z3.000 
G0 X117.215 Y-36.869 Z3.000 
G1 X117.215 Y-36.869 Z0.083 F300.000 
G1 X117.272 Y-36.879 Z0.116 F701.770 
G1 X117.389 Y-37.298 Z0.865 F500.948 
G0 Z3.000 
G0 X114.747 Y-36.855 Z3.000 
G1 X114.747 Y-36.855 Z0.155 F300.000 
G1 X114.788 Y-36.835 Z0.081 F510.305 
G1 X114.522 Y-37.208 Z0.866 F501.552 
G0 Z3.000 
G0 X114.422 Y-37.114 Z3.000 
G1 X114.422 Y-37.114 Z0.866 F300.000 
G1 X114.747 Y-36.855 Z0.154 F501.803 
G1 X114.348 Y-36.987 Z0.865 F503.867 
G0 Z3.000 
G0 X112.749 Y-32.514 Z3.000 
G1 X112.749 Y-32.514 Z-0.728 F300.000 
G1 X112.788 Y-32.465 Z-0.708 F784.773 
G1 X112.924 Y-32.314 Z-0.668 F819.504 
G1 X113.012 Y-32.225 Z-0.650 F855.594 
G1 X113.137 Y-32.112 Z-0.647 F887.089 
G1 X113.179 Y-32.082 Z-0.648 F897.054 
G1 X113.282 Y-32.007 Z-0.649 F887.406 
G1 X113.385 Y-31.939 Z-0.672 F840.701 
G1 X113.493 Y-31.877 Z-0.691 F841.034 
G1 X113.612 Y-31.815 Z-0.724 F797.737 
G1 X113.689 Y-31.777 Z-0.754 F784.392 
G1 X113.834 Y-31.722 Z-0.810 F768.079 
G1 X113.984 Y-31.672 Z-0.875 F744.824 
G1 X114.236 Y-31.605 Z-1.016 F714.302 
G1 X114.335 Y-31.585 Z-1.077 F686.275 
G1 X114.388 Y-31.575 Z-1.108 F699.864 
G1 X114.644 Y-31.544 Z-1.280 F677.043 
G1 X114.766 Y-31.535 Z-1.369 F656.587 
G1 X114.733 Y-31.212 Z-0.894 F529.040 
G1 X114.722 Y-30.929 Z-0.419 F505.120 
G1 X114.753 Y-30.604 Z-0.017 F561.071 
G1 X114.824 Y-30.359 Z0.384 F516.152 
G1 X115.004 Y-29.957 Z0.866 F582.930 
G0 Z3.000 
G0 X117.557 Y-31.330 Z3.000 
G1 X117.557 Y-31.330 Z-1.901 F300.000 
G1 X117.691 Y-31.277 Z-1.829 F722.736 
G1 X118.154 Y-31.135 Z-1.651 F764.684 
G1 X118.342 Y-31.092 Z-1.604 F812.293 
G1 X118.457 Y-31.070 Z-1.583 F825.202 
G1 X118.865 Y-31.036 Z-1.551 F871.093 
G1 X119.055 Y-31.034 Z-1.560 F879.928 
G1 X119.502 Y-31.065 Z-1.645 F829.264 
G1 X119.542 Y-31.071 Z-1.658 F781.318 
G1 X119.586 Y-31.078 Z-1.673 F776.868 
G1 X119.603 Y-31.080 Z-1.679 F772.702 
G1 X119.943 Y-31.145 Z-1.833 F741.598 
G1 X119.946 Y-31.146 Z-1.833 F717.388 
G1 X120.059 Y-31.172 Z-1.898 F704.378 
G1 X120.072 Y-31.174 Z-1.906 F694.387 
G1 X120.234 Y-31.213 Z-2.014 F681.663 
G1 X120.389 Y-31.254 Z-2.122 F671.778 
G1 X120.434 Y-31.199 Z-2.042 F572.704 
G1 X120.547 Y-31.066 Z-1.850 F583.601 
G1 X120.623 Y-30.979 Z-1.735 F597.863 
G1 X120.777 Y-30.498 Z-0.983 F526.128 
G1 X120.829 Y-30.362 Z-0.780 F537.998 
G1 X120.936 Y-30.120 Z-0.477 F572.732 
G1 X121.055 Y-29.918 Z-0.172 F550.964 
G1 X121.092 Y-29.864 Z-0.105 F602.269 
G1 X121.218 Y-29.710 Z0.017 F685.704 
G1 X121.359 Y-29.592 Z0.142 F672.588 
G1 X121.394 Y-29.567 Z0.154 F810.722 
G1 X121.454 Y-29.531 Z0.157 F871.407 
G1 X121.700 Y-29.393 Z0.159 F899.729 
G1 X121.738 Y-29.370 Z0.157 F881.977 
G1 X122.037 Y-29.182 Z0.124 F864.359 
G1 X122.078 Y-29.154 Z0.117 F844.608 
G1 X122.099 Y-29.139 Z0.112 F827.870 
G1 X122.361 Y-28.939 Z0.066 F846.472 
G1 X122.366 Y-28.935 Z0.065 F844.230 
G1 X122.391 Y-28.912 Z0.063 F875.861 
G1 X122.570 Y-28.739 Z0.039 F864.723 
G1 X122.598 Y-28.712 Z0.034 F851.302 
G1 X122.600 Y-28.709 Z0.034 F876.602 
G1 X122.751 Y-28.531 Z0.019 F875.017 
G1 X122.761 Y-28.518 Z0.019 F900.000 
G1 X122.786 Y-28.484 Z0.017 F886.514 
G1 X122.895 Y-28.331 Z0.004 F873.339 
G1 X122.929 Y-28.279 Z0.004 F900.000 
G1 X122.950 Y-28.244 Z0.003 F885.836 
G1 X123.024 Y-28.120 Z-0.008 F871.781 
G1 X123.075 Y-28.028 Z-0.009 F895.663 
G1 X123.094 Y-27.991 Z-0.011 F883.465 
G1 X123.140 Y-27.899 Z-0.019 F869.209 
G1 X123.201 Y-27.763 Z-0.022 F893.316 
G1 X123.217 Y-27.725 Z-0.024 F880.659 
G1 X123.238 Y-27.671 Z-0.029 F867.102 
G1 X123.304 Y-27.490 Z-0.033 F892.479 
G1 X123.321 Y-27.436 Z-0.036 F874.218 
G1 X123.323 Y-27.430 Z-0.037 F881.822 
G1 X123.383 Y-27.194 Z-0.052 F876.330 
G1 X123.435 Y-26.952 Z-0.052 F899.846 
G1 X123.437 Y-26.942 Z-0.051 F874.478 
G1 X123.447 Y-26.881 Z-0.050 F895.684 
G1 X123.467 Y-26.706 Z-0.058 F883.950 
G1 X123.473 Y-26.632 Z-0.056 F893.308 
G1 X123.476 Y-26.585 Z-0.057 F894.303 
G1 X123.481 Y-26.460 Z-0.063 F881.723 
G1 X123.481 Y-26.335 Z-0.061 F892.654 
G1 X123.480 Y-26.292 Z-0.062 F891.117 
G1 X123.477 Y-26.216 Z-0.066 F878.128 
G1 X123.464 Y-26.043 Z-0.065 F896.466 
G1 X123.459 Y-25.997 Z-0.066 F888.414 
G1 X123.456 Y-25.973 Z-0.068 F874.821 
G1 X123.420 Y-25.752 Z-0.068 F899.659 
G1 X123.417 Y-25.734 Z-0.068 F895.923 
G1 X123.410 Y-25.703 Z-0.067 F894.017 
G1 X123.359 Y-25.501 Z-0.068 F898.352 
G1 X123.347 Y-25.462 Z-0.066 F874.460 
G1 X123.332 Y-25.414 Z-0.064 F890.822 
G1 X123.282 Y-25.273 Z-0.067 F894.387 
G1 X123.246 Y-25.181 Z-0.061 F877.643 
G1 X123.226 Y-25.133 Z-0.060 F894.875 
G1 X123.178 Y-25.030 Z-0.063 F889.558 
G1 X123.130 Y-24.902 Z-0.082 F847.947 
G1 X123.112 Y-24.846 Z-0.101 F776.681 
G1 X123.061 Y-24.582 Z-0.264 F693.357 
G1 X123.052 Y-24.477 Z-0.355 F626.565 
G1 X123.063 Y-24.015 Z-0.873 F577.876 
G1 X123.106 Y-23.659 Z-1.363 F541.811 
G1 X123.125 Y-23.521 Z-1.567 F528.885 
G0 Z3.000 
G0 X123.457 Y-23.376 Z3.000 
G1 X123.457 Y-23.376 Z-1.646 F300.000 
G1 X123.753 Y-23.440 Z-1.424 F658.546 
G1 X123.889 Y-23.462 Z-1.345 F701.725 
G1 X124.281 Y-23.496 Z-1.204 F768.478 
G1 X124.402 Y-23.497 Z-1.188 F848.734 
G1 X124.554 Y-23.493 Z-1.189 F896.971 
G1 X124.795 Y-23.794 Z-0.661 F540.375 
G1 X124.881 Y-23.888 Z-0.502 F558.276 
G1 X125.059 Y-24.061 Z-0.268 F611.436 
G1 X125.241 Y-24.191 Z-0.034 F591.153 
G1 X125.294 Y-24.221 Z0.006 F678.530 
G1 X125.493 Y-24.310 Z0.089 F761.138 
G1 X125.657 Y-24.360 Z0.120 F832.214 
G1 X125.703 Y-24.376 Z0.126 F849.358 
G1 X126.063 Y-24.510 Z0.158 F868.912 
G1 X126.110 Y-24.530 Z0.158 F888.080 
G1 X126.401 Y-24.660 Z0.150 F889.580 
G1 X126.460 Y-24.688 Z0.151 F898.826 
G1 X126.509 Y-24.712 Z0.148 F881.670 
G1 X126.804 Y-24.875 Z0.111 F858.251 
G1 X126.847 Y-24.902 Z0.110 F899.252 
G1 X126.889 Y-24.931 Z0.108 F879.885 
G1 X127.128 Y-25.102 Z0.077 F860.302 
G1 X127.153 Y-25.121 Z0.073 F850.210 
G1 X127.177 Y-25.144 Z0.071 F880.923 
G1 X127.343 Y-25.307 Z0.052 F868.210 
G1 X127.384 Y-25.353 Z0.053 F890.674 
G1 X127.426 Y-25.403 Z0.051 F887.005 
G1 X127.517 Y-25.520 Z0.036 F863.705 
G1 X127.600 Y-25.640 Z0.038 F896.071 
G1 X127.635 Y-25.696 Z0.035 F881.402 
G1 X127.667 Y-25.750 Z0.028 F858.513 
G1 X127.772 Y-25.955 Z0.026 F898.013 
G1 X127.791 Y-25.995 Z0.025 F883.408 
G1 X127.800 Y-26.017 Z0.025 F900.000 
G1 X127.884 Y-26.253 Z0.019 F891.132 
G1 X127.896 Y-26.294 Z0.022 F868.184 
G1 X127.913 Y-26.364 Z0.025 F890.965 
G1 X127.945 Y-26.517 Z0.016 F882.677 
G1 X127.965 Y-26.651 Z0.025 F873.834 
G1 X127.973 Y-26.729 Z0.026 F899.027 
G1 X127.977 Y-26.786 Z0.021 F872.502 
G1 X127.976 Y-27.022 Z0.031 F884.331 
G1 X127.975 Y-27.061 Z0.033 F898.055 
G1 X127.971 Y-27.101 Z0.034 F889.340 
G1 X127.930 Y-27.392 Z0.029 F896.491 
G1 X127.930 Y-27.393 Z0.029 F866.852 
G1 X127.911 Y-27.469 Z0.033 F884.904 
G1 X127.841 Y-27.703 Z0.025 F888.297 
G1 X127.817 Y-27.770 Z0.030 F870.489 
G1 X127.792 Y-27.831 Z0.034 F890.702 
G1 X127.714 Y-28.005 Z0.024 F884.376 
G1 X127.657 Y-28.114 Z0.032 F874.812 
G1 X127.629 Y-28.165 Z0.036 F896.083 
G1 X127.551 Y-28.295 Z0.026 F884.707 
G1 X127.461 Y-28.428 Z0.036 F878.092 
G1 X127.427 Y-28.474 Z0.037 F898.666 
G1 X127.354 Y-28.569 Z0.031 F882.350 
G1 X127.228 Y-28.716 Z0.039 F882.937 
G1 X127.195 Y-28.752 Z0.042 F899.212 
G1 X127.128 Y-28.822 Z0.035 F883.505 
G1 X126.970 Y-28.973 Z0.045 F882.163 
G1 X126.937 Y-29.003 Z0.047 F899.144 
G1 X126.876 Y-29.055 Z0.043 F886.590 
G1 X126.690 Y-29.200 Z0.054 F881.221 
G1 X126.658 Y-29.224 Z0.057 F894.330 
G1 X126.603 Y-29.263 Z0.053 F890.409 
G1 X126.395 Y-29.397 Z0.066 F879.937 
G1 X126.363 Y-29.418 Z0.069 F892.964 
G1 X126.171 Y-29.530 Z0.063 F892.790 
G1 X126.091 Y-29.572 Z0.069 F872.127 
G1 X126.056 Y-29.590 Z0.072 F887.414 
G1 X125.718 Y-29.748 Z0.070 F899.386 
G1 X125.562 Y-29.812 Z0.083 F870.583 
G1 X125.521 Y-29.829 Z0.086 F887.002 
G1 X125.242 Y-29.928 Z0.082 F897.290 
G1 X125.010 Y-30.000 Z0.098 F875.332 
G1 X124.973 Y-30.011 Z0.101 F890.089 
G1 X124.746 Y-30.070 Z0.097 F895.772 
G1 X124.450 Y-30.137 Z0.112 F880.868 
G1 X124.418 Y-30.145 Z0.114 F894.263 
G1 X124.235 Y-30.178 Z0.109 F893.628 
G1 X123.886 Y-30.232 Z0.122 F886.500 
G1 X123.858 Y-30.237 Z0.124 F895.950 
G1 X123.713 Y-30.254 Z0.119 F891.905 
G1 X123.319 Y-30.292 Z0.128 F891.202 
G1 X123.296 Y-30.294 Z0.130 F898.387 
G1 X123.182 Y-30.302 Z0.125 F890.269 
G1 X122.755 Y-30.322 Z0.130 F895.984 
G1 X122.728 Y-30.323 Z0.131 F892.950 
G1 X122.643 Y-30.324 Z0.126 F883.303 
G1 X122.576 Y-30.328 Z0.118 F854.992 
G1 X122.363 Y-30.348 Z0.078 F830.424 
G1 X122.218 Y-30.374 Z0.032 F782.504 
G1 X121.997 Y-30.430 Z-0.069 F741.532 
G1 X121.841 Y-30.482 Z-0.162 F704.155 
G1 X121.734 Y-30.525 Z-0.240 F671.972 
G1 X121.646 Y-30.565 Z-0.310 F660.369 
G1 X121.550 Y-30.612 Z-0.404 F625.034 
G1 X121.434 Y-30.664 Z-0.531 F596.242 
G1 X121.036 Y-30.826 Z-1.080 F553.949 
G1 X120.860 Y-30.893 Z-1.353 F530.214 
G1 X120.623 Y-30.979 Z-1.735 F523.519 
G0 Z3.000 
G0 X120.389 Y-31.254 Z3.000 
G1 X120.389 Y-31.254 Z-2.124 F300.000 
G1 X120.403 Y-31.281 Z-2.102 F663.180 
G0 Z3.000 
G0 X122.155 Y-36.846 Z3.000 
G1 X122.155 Y-36.846 Z0.865 F300.000 
G1 X122.593 Y-36.747 Z0.100 F502.615 
G1 X122.581 Y-36.757 Z0.123 F507.320 
G1 X122.208 Y-36.978 Z0.866 F502.081 
G0 Z3.000 
G0 X122.292 Y-37.080 Z3.000 
G1 X122.292 Y-37.080 Z0.865 F300.000 
G1 X122.581 Y-36.757 Z0.124 F502.071 
G0 Z3.000 
G0 X122.593 Y-36.747 Z3.000 
G1 X122.593 Y-36.747 Z0.100 F300.000 
G1 X122.602 Y-36.742 Z0.083 F518.483 
G1 X122.401 Y-37.151 Z0.865 F501.225 
G0 Z3.000 
G0 X122.527 Y-37.195 Z3.000 
G1 X122.527 Y-37.195 Z0.865 F300.000 
G1 X122.644 Y-36.710 Z0.005 F500.812 
G1 X122.602 Y-36.742 Z0.081 F531.322 
G0 Z3.000 
G0 X124.477 Y-36.715 Z3.000 
G1 X124.477 Y-36.715 Z0.866 F300.000 
G1 X124.952 Y-36.764 Z0.042 F500.728 
G1 X124.941 Y-36.772 Z0.061 F533.183 
G1 X124.710 Y-37.179 Z0.866 F501.273 
G0 Z3.000 
G0 X124.601 Y-37.098 Z3.000 
G1 X124.601 Y-37.098 Z0.866 F300.000 
G1 X124.906 Y-36.789 Z0.121 F501.602 
G1 X124.882 Y-36.797 Z0.162 F509.578 
G0 Z3.000 
G0 X124.906 Y-36.789 Z3.000 
G1 X124.906 Y-36.789 Z0.122 F300.000 
G1 X124.941 Y-36.772 Z0.062 F519.267 
G0 Z3.000 
G0 X124.952 Y-36.764 Z3.000 
G1 X124.952 Y-36.764 Z0.042 F300.000 
G1 X124.973 Y-36.753 Z0.010 F544.935 
G1 X124.838 Y-37.232 Z0.866 F501.063 
G0 Z3.000 
G0 X124.977 Y-37.254 Z3.000 
G1 X124.977 Y-37.254 Z0.865 F300.000 
G1 X124.999 Y-36.735 Z-0.029 F501.169 
G1 X124.973 Y-36.753 Z0.009 F564.150 
G0 Z3.000 
G0 X124.999 Y-36.735 Z3.000 
G1 X124.999 Y-36.735 Z-0.028 F300.000 
G1 X125.009 Y-36.726 Z-0.042 F589.649 
G1 X125.117 Y-37.244 Z0.865 F501.412 
G0 Z3.000 
G0 X124.520 Y-36.992 Z3.000 
G1 X124.520 Y-36.992 Z0.866 F300.000 
G1 X124.882 Y-36.797 Z0.162 F502.184 
G1 X124.475 Y-36.863 Z0.865 F502.754 
G0 Z3.000 
G0 X126.880 Y-36.843 Z3.000 
G1 X126.880 Y-36.843 Z0.865 F300.000 
G1 X127.168 Y-36.809 Z0.375 F504.023 
G1 X126.913 Y-36.942 Z0.866 F502.456 
G0 Z3.000 
G0 X126.971 Y-37.020 Z3.000 
G1 X126.971 Y-37.020 Z0.865 F300.000 
G1 X127.184 Y-36.804 Z0.347 F502.285 
G1 X127.168 Y-36.809 Z0.375 F511.548 
G0 Z3.000 
G0 X127.184 Y-36.804 Z3.000 
G1 X127.184 Y-36.804 Z0.348 F300.000 
G1 X127.203 Y-36.796 Z0.317 F523.319 
G1 X127.048 Y-37.076 Z0.866 F501.316 
G0 Z3.000 
G0 X127.138 Y-37.112 Z3.000 
G1 X127.138 Y-37.112 Z0.866 F300.000 
G1 X127.214 Y-36.789 Z0.298 F501.841 
G1 X127.203 Y-36.796 Z0.316 F537.397 
G0 Z3.000 
G0 X127.214 Y-36.789 Z3.000 
G1 X127.214 Y-36.789 Z0.299 F300.000 
G1 X127.301 Y-36.715 Z0.159 F562.466 
G1 X127.339 Y-37.128 Z0.865 F502.365 
G0 Z3.000 
G0 X132.265 Y-24.667 Z3.000 
G1 X132.265 Y-24.667 Z0.866 F300.000 
G1 X132.098 Y-24.015 Z-0.294 F500.812 
G1 X132.385 Y-24.623 Z0.865 F500.684 
G0 Z3.000 
G0 X132.592 Y-24.478 Z3.000 
G1 X132.592 Y-24.478 Z0.865 F300.000 
G1 X132.081 Y-23.967 Z-0.381 F500.745 
G1 X132.082 Y-23.971 Z-0.375 F504.805 
G1 X132.098 Y-24.015 Z-0.295 F502.948 
G0 Z3.000 
G0 X132.081 Y-23.967 Z3.000 
G1 X132.081 Y-23.967 Z-0.380 F300.000 
G1 X132.077 Y-23.961 Z-0.392 F511.158 
G1 X131.981 Y-23.758 Z-0.745 F516.855 
G1 X132.756 Y-24.279 Z0.866 F500.769 
G0 Z3.000 
G0 X131.981 Y-23.758 Z3.000 
G1 X131.981 Y-23.758 Z-0.745 F300.000 
G1 X131.914 Y-23.646 Z-0.938 F525.825 
G1 X131.835 Y-23.488 Z-1.189 F534.910 
G1 X131.819 Y-23.455 Z-1.242 F534.070 
G1 X131.947 Y-23.035 Z-1.572 F653.611 
G1 X132.094 Y-22.712 Z-1.823 F664.954 
G1 X132.154 Y-22.738 Z-1.732 F539.105 
G1 X132.647 Y-22.992 Z-1.014 F550.950 
G1 X132.741 Y-23.049 Z-0.886 F572.683 
G1 X133.094 Y-23.318 Z-0.458 F606.691 
G1 X133.163 Y-23.384 Z-0.390 F664.531 
G1 X133.343 Y-23.592 Z-0.264 F735.941 
G1 X133.344 Y-23.594 Z-0.264 F801.255 
G1 X133.399 Y-23.667 Z-0.243 F813.715 
G1 X133.561 Y-23.865 Z-0.200 F836.296 
G1 X133.566 Y-23.871 Z-0.198 F811.584 
G1 X133.618 Y-23.927 Z-0.185 F832.931 
G1 X133.791 Y-24.102 Z-0.155 F854.094 
G1 X133.802 Y-24.112 Z-0.152 F829.427 
G1 X133.853 Y-24.156 Z-0.142 F844.425 
G1 X134.041 Y-24.312 Z-0.118 F862.940 
G1 X134.055 Y-24.322 Z-0.115 F833.472 
G1 X134.097 Y-24.352 Z-0.108 F846.506 
G1 X134.305 Y-24.494 Z-0.084 F863.575 
G1 X134.315 Y-24.500 Z-0.082 F829.149 
G1 X134.354 Y-24.522 Z-0.075 F840.299 
G1 X134.577 Y-24.645 Z-0.044 F853.886 
G1 X134.586 Y-24.649 Z-0.042 F814.185 
G1 X134.629 Y-24.668 Z-0.032 F825.692 
G1 X134.856 Y-24.762 Z0.005 F842.153 
G1 X135.126 Y-24.852 Z0.083 F797.678 
G1 X135.145 Y-24.858 Z0.088 F803.100 
G1 X135.445 Y-24.874 Z0.113 F868.910 
G1 X135.484 Y-25.309 Z0.866 F500.696 
G0 Z3.000 
G0 X135.628 Y-25.282 Z3.000 
G1 X135.628 Y-25.282 Z0.865 F300.000 
G1 X135.504 Y-24.858 Z0.104 F500.863 
G1 X135.445 Y-24.874 Z0.113 F855.655 
G0 Z3.000 
G0 X135.505 Y-24.858 Z3.000 
G1 X135.505 Y-24.858 Z0.106 F300.000 
G1 X135.556 Y-24.835 Z0.102 F875.630 
G1 X135.760 Y-25.229 Z0.865 F500.761 
G0 Z3.000 
G0 X135.983 Y-25.056 Z3.000 
G1 X135.983 Y-25.056 Z0.864 F300.000 
G1 X135.650 Y-24.763 Z0.100 F500.963 
G1 X135.607 Y-24.801 Z0.101 F892.688 
G1 X135.556 Y-24.835 Z0.102 F895.630 
G0 Z3.000 
G0 X135.650 Y-24.763 Z3.000 
G1 X135.650 Y-24.763 Z0.102 F300.000 
G1 X135.754 Y-24.608 Z0.095 F884.237 
G1 X136.149 Y-24.822 Z0.865 F501.189 
G0 Z3.000 
G0 X135.754 Y-24.608 Z3.000 
G1 X135.754 Y-24.608 Z0.095 F300.000 
G1 X135.789 Y-24.497 Z0.067 F809.834 
G1 X135.809 Y-24.380 Z0.039 F811.427 
G1 X135.810 Y-24.372 Z0.035 F733.731 
G1 X135.877 Y-24.101 Z-0.269 F585.317 
G1 X136.020 Y-23.810 Z-0.578 F609.160 
G1 X136.086 Y-23.708 Z-0.683 F627.553 
G1 X136.161 Y-23.605 Z-0.788 F636.996 
G1 X136.364 Y-23.739 Z-0.589 F638.397 
G1 X136.537 Y-23.887 Z-0.390 F625.297 
G1 X136.597 Y-23.947 Z-0.344 F708.802 
G1 X136.713 Y-24.076 Z-0.283 F771.863 
G1 X136.781 Y-24.162 Z-0.256 F809.130 
G1 X136.843 Y-24.235 Z-0.239 F832.668 
G1 X136.964 Y-24.367 Z-0.220 F859.252 
G1 X137.033 Y-24.435 Z-0.201 F827.020 
G1 X137.097 Y-24.494 Z-0.189 F846.887 
G1 X137.227 Y-24.605 Z-0.177 F872.388 
G1 X137.309 Y-24.668 Z-0.160 F839.438 
G1 X137.372 Y-24.714 Z-0.152 F858.620 
G1 X137.516 Y-24.811 Z-0.142 F879.499 
G1 X137.603 Y-24.862 Z-0.128 F844.156 
G1 X137.660 Y-24.894 Z-0.121 F862.591 
G1 X137.826 Y-24.981 Z-0.112 F882.091 
G1 X137.908 Y-25.017 Z-0.099 F844.451 
G1 X137.959 Y-25.040 Z-0.094 F861.216 
G1 X138.148 Y-25.113 Z-0.083 F879.487 
G1 X138.219 Y-25.135 Z-0.071 F839.148 
G1 X138.267 Y-25.150 Z-0.064 F852.125 
G1 X138.480 Y-25.207 Z-0.047 F869.537 
G1 X138.536 Y-25.219 Z-0.035 F826.202 
G1 X138.582 Y-25.227 Z-0.028 F838.391 
G1 X138.817 Y-25.263 Z0.001 F853.285 
G1 X138.856 Y-25.266 Z0.011 F806.504 
G1 X139.008 Y-25.267 Z0.008 F892.361 
G1 X139.159 Y-25.243 Z0.005 F892.378 
G1 X139.240 Y-25.213 Z-0.015 F812.819 
G1 X139.393 Y-25.701 Z0.865 F500.693 
G0 Z3.000 
G0 X139.240 Y-25.213 Z3.000 
G1 X139.240 Y-25.213 Z-0.015 F300.000 
G1 X139.304 Y-25.177 Z-0.031 F818.937 
G1 X139.364 Y-25.129 Z-0.046 F827.708 
G1 X139.421 Y-25.067 Z-0.062 F827.400 
G1 X139.472 Y-24.991 Z-0.081 F819.556 
G1 X139.508 Y-24.916 Z-0.101 F809.805 
G1 X139.567 Y-24.635 Z-0.208 F764.480 
G1 X139.570 Y-24.607 Z-0.225 F693.627 
G1 X139.634 Y-24.290 Z-0.551 F599.378 
G1 X139.768 Y-23.954 Z-0.873 F622.031 
G1 X140.029 Y-24.062 Z-0.577 F591.024 
G1 X140.107 Y-24.101 Z-0.500 F621.987 
G1 X140.451 Y-24.332 Z-0.245 F689.634 
G1 X140.482 Y-24.360 Z-0.232 F781.708 
G1 X140.518 Y-24.391 Z-0.220 F812.549 
G1 X140.816 Y-24.641 Z-0.143 F824.521 
G1 X140.876 Y-24.689 Z-0.132 F845.350 
G1 X140.981 Y-24.765 Z-0.121 F869.171 
G1 X141.194 Y-24.907 Z-0.081 F840.238 
G1 X141.224 Y-24.926 Z-0.076 F848.754 
G1 X141.256 Y-24.944 Z-0.071 F849.577 
G1 X141.486 Y-25.067 Z-0.045 F861.760 
G1 X141.598 Y-25.121 Z-0.025 F839.365 
G1 X141.658 Y-25.149 Z-0.018 F858.884 
G1 X141.758 Y-25.189 Z-0.013 F881.913 
G1 X142.018 Y-25.286 Z0.017 F858.997 
G1 X142.036 Y-25.293 Z0.019 F864.055 
G1 X142.079 Y-25.305 Z0.024 F861.425 
G1 X142.323 Y-25.369 Z0.039 F877.013 
G1 X142.453 Y-25.397 Z0.056 F850.982 
G1 X142.513 Y-25.409 Z0.061 F871.924 
G1 X142.610 Y-25.423 Z0.062 F893.351 
G1 X142.897 Y-25.452 Z0.092 F861.232 
G1 X142.955 Y-25.457 Z0.094 F882.324 
G1 X142.965 Y-25.457 Z0.094 F892.311 
G1 X143.319 Y-25.444 Z0.133 F858.689 
