(Exported by FreeCAD)
(Post Processor: linuxcnc_post)
(Output Time:2022-04-14 19:31:25.559358)
(begin preamble)
G17 G54 G40 G49 G80 G90
G21
(begin operation: Fixture)
(machine units: mm/min)
G54 
(finish operation: Fixture)
(begin operation: 60 Deg. V-Bit001)
(machine units: mm/min)
(60 Deg. V-Bit001) 
M5
M6 T2 
G43 H2 
M3 S15000 
(finish operation: 60 Deg. V-Bit001)
(begin operation: Vcarve)
(machine units: mm/min)
(starting) 
G0 Z3.000 
G0 X-0.838 Y-4.760 Z3.000 
G1 X-0.838 Y-4.760 Z-5.812 F120.000 
G1 X-0.571 Y-4.561 Z-5.525 F382.909 
G1 X-0.262 Y-4.288 Z-5.174 F384.368 
G1 X-0.064 Y-4.105 Z-4.956 F392.196 
G1 X0.035 Y-4.011 Z-4.847 F393.832 
G1 X0.453 Y-3.545 Z-4.368 F400.521 
G1 X0.639 Y-3.318 Z-4.163 F413.944 
G1 X0.702 Y-3.238 Z-4.094 F417.445 
G1 X0.928 Y-2.918 Z-3.838 F423.360 
G1 X1.109 Y-2.642 Z-3.640 F435.073 
G1 X1.274 Y-2.375 Z-3.467 F445.816 
G1 X1.346 Y-2.249 Z-3.394 F457.433 
G1 X1.385 Y-2.178 Z-3.351 F450.060 
G1 X1.494 Y-1.971 Z-3.235 F459.338 
G1 X1.595 Y-1.764 Z-3.129 F468.640 
G1 X1.717 Y-1.496 Z-3.010 F482.495 
G1 X1.900 Y-1.057 Z-2.843 F496.744 
G1 X1.901 Y-1.055 Z-2.842 F497.783 
G1 X2.006 Y-0.761 Z-2.743 F506.181 
G1 X2.162 Y-0.265 Z-2.612 F524.459 
G1 X2.229 Y-0.030 Z-2.563 F539.115 
G1 X2.315 Y0.316 Z-2.510 F554.866 
G1 X2.363 Y0.522 Z-2.472 F545.937 
G1 X2.402 Y0.711 Z-2.446 F558.759 
G1 X2.486 Y1.178 Z-2.401 F571.473 
G1 X2.510 Y1.328 Z-2.382 F560.870 
G1 X2.531 Y1.477 Z-2.368 F571.581 
G1 X2.600 Y2.071 Z-2.333 F582.536 
G1 X2.609 Y2.161 Z-2.325 F573.041 
G1 X2.620 Y2.286 Z-2.318 F581.739 
G1 X2.665 Y2.991 Z-2.297 F590.926 
G1 X2.667 Y3.039 Z-2.294 F581.456 
G1 X2.671 Y3.143 Z-2.290 F588.785 
G1 X2.686 Y3.929 Z-2.281 F596.543 
G1 X2.686 Y3.966 Z-2.280 F587.479 
G1 X2.684 Y4.089 Z-2.278 F596.527 
G1 X2.660 Y4.821 Z-2.290 F595.246 
G1 X2.658 Y4.878 Z-2.292 F590.402 
G1 X2.648 Y4.999 Z-2.297 F586.167 
G1 X2.583 Y5.669 Z-2.348 F576.986 
G1 X2.565 Y5.826 Z-2.365 F566.310 
G1 X2.564 Y5.831 Z-2.366 F562.262 
G1 X2.514 Y6.147 Z-2.406 F562.002 
G1 X2.491 Y6.274 Z-2.425 F554.238 
G1 X2.432 Y6.583 Z-2.482 F545.735 
G1 X2.404 Y6.714 Z-2.510 F536.784 
G1 X2.393 Y6.761 Z-2.521 F528.309 
G1 X2.331 Y7.014 Z-2.577 F536.154 
G1 X2.296 Y7.148 Z-2.610 F527.398 
G1 X2.212 Y7.446 Z-2.695 F517.965 
G1 X2.167 Y7.593 Z-2.742 F509.884 
G1 X2.142 Y7.671 Z-2.770 F501.420 
G1 X2.069 Y7.887 Z-2.839 F509.276 
G1 X2.015 Y8.036 Z-2.893 F500.679 
G1 X1.902 Y8.332 Z-3.008 F493.148 
G1 X1.848 Y8.467 Z-3.065 F485.315 
G1 X1.815 Y8.545 Z-3.102 F477.042 
G1 X1.720 Y8.763 Z-3.196 F484.534 
G1 X1.653 Y8.910 Z-3.264 F478.762 
G1 X1.508 Y9.213 Z-3.414 F471.184 
G1 X1.428 Y9.373 Z-3.500 F464.194 
G1 X1.407 Y9.412 Z-3.521 F462.704 
G1 X1.059 Y10.039 Z-3.873 F460.668 
G1 X0.999 Y10.145 Z-3.934 F456.590 
G1 X0.919 Y10.274 Z-4.013 F454.831 
G1 X0.548 Y10.850 Z-4.380 F449.396 
G1 X0.488 Y10.939 Z-4.434 F458.018 
G1 X0.444 Y11.003 Z-4.474 F455.896 
G1 X0.107 Y11.490 Z-4.782 F453.432 
G1 X-0.308 Y12.060 Z-5.122 F462.647 
G1 X-0.590 Y12.427 Z-5.325 F473.779 
G1 X-0.681 Y12.552 Z-5.387 F483.907 
G1 X-0.890 Y12.819 Z-5.504 F497.837 
G1 X-1.010 Y12.983 Z-5.565 F511.226 
G1 X-1.083 Y13.076 Z-5.594 F526.211 
G1 X-1.190 Y13.223 Z-5.628 F544.979 
G1 X-1.258 Y13.328 Z-5.640 F568.985 
G1 X-1.344 Y13.473 Z-5.645 F592.055 
G1 X-1.359 Y13.499 Z-5.644 F588.805 
G1 X-1.485 Y13.716 Z-5.624 F576.059 
G1 X-1.584 Y13.897 Z-5.599 F562.773 
G1 X-1.612 Y13.952 Z-5.587 F540.383 
G1 X-1.642 Y14.023 Z-5.564 F513.459 
G1 X-1.649 Y14.042 Z-5.557 F488.998 
G1 X-1.742 Y14.276 Z-5.451 F478.432 
G1 X-1.854 Y14.588 Z-5.294 F464.229 
G1 X-1.939 Y14.805 Z-5.171 F452.509 
G1 X-2.031 Y15.052 Z-5.025 F444.867 
G1 X-2.088 Y15.193 Z-4.932 F431.652 
G0 Z3.000 
G0 X-0.759 Y18.349 Z3.000 
G1 X-0.759 Y18.349 Z0.866 F120.000 
G1 X-0.973 Y17.523 Z-0.603 F280.808 
G1 X-0.989 Y17.477 Z-0.687 F282.202 
G1 X-1.066 Y17.225 Z-1.131 F283.136 
G1 X-1.153 Y16.984 Z-1.560 F284.884 
G1 X-1.168 Y16.943 Z-1.634 F285.005 
G1 X-1.385 Y16.467 Z-2.566 F275.871 
G1 X-1.641 Y15.959 Z-3.455 F294.177 
G1 X-1.676 Y15.891 Z-3.582 F283.838 
G1 X-1.912 Y15.489 Z-4.355 F285.648 
G1 X-2.088 Y15.193 Z-4.931 F285.411 
G1 X-2.397 Y15.615 Z-4.418 F362.753 
G1 X-2.412 Y15.637 Z-4.393 F370.467 
G1 X-2.495 Y15.763 Z-4.250 F367.768 
G1 X-2.771 Y16.220 Z-3.772 F377.440 
G1 X-2.855 Y16.372 Z-3.629 F388.409 
G1 X-3.041 Y16.743 Z-3.307 F398.833 
G1 X-3.113 Y16.900 Z-3.185 F410.467 
G1 X-3.236 Y17.197 Z-2.970 F421.036 
G1 X-3.300 Y17.364 Z-2.862 F432.539 
G1 X-3.422 Y17.734 Z-2.652 F449.075 
G1 X-3.525 Y18.102 Z-2.475 F467.187 
G1 X-3.589 Y18.361 Z-2.365 F481.669 
G1 X-3.604 Y18.438 Z-2.338 F498.905 
G1 X-3.680 Y18.865 Z-2.199 F504.094 
G1 X-3.716 Y19.106 Z-2.133 F520.347 
G1 X-3.769 Y19.594 Z-2.032 F537.629 
G1 X-3.784 Y19.772 Z-2.002 F550.840 
G1 X-3.815 Y20.326 Z-1.939 F564.944 
G1 X-3.820 Y20.465 Z-1.928 F576.087 
G1 X-3.828 Y21.086 Z-1.903 F587.549 
G1 X-3.829 Y21.178 Z-1.900 F595.025 
G1 X-3.828 Y21.219 Z-1.902 F597.012 
G1 X-3.803 Y22.004 Z-1.889 F594.709 
G1 X-3.799 Y22.091 Z-1.888 F598.259 
G1 X-3.794 Y22.177 Z-1.892 F590.432 
G1 X-3.745 Y22.789 Z-1.887 F597.312 
G1 X-3.732 Y22.918 Z-1.889 F591.712 
G1 X-3.730 Y22.936 Z-1.891 F581.457 
G1 X-3.644 Y23.493 Z-1.895 F597.996 
G1 X-3.629 Y23.581 Z-1.896 F590.456 
G1 X-3.606 Y23.682 Z-1.899 F592.326 
G1 X-3.489 Y24.145 Z-1.926 F583.380 
G1 X-3.467 Y24.226 Z-1.930 F576.944 
G1 X-3.430 Y24.341 Z-1.940 F573.285 
G1 X-3.362 Y24.533 Z-1.968 F563.602 
G1 X-3.293 Y24.715 Z-1.999 F548.585 
G1 X-3.222 Y24.886 Z-2.042 F533.573 
G1 X-3.190 Y24.961 Z-2.059 F527.885 
G1 X-3.122 Y25.100 Z-2.102 F517.095 
G1 X-3.044 Y25.252 Z-2.159 F506.419 
G1 X-2.911 Y25.488 Z-2.258 F489.034 
G1 X-2.827 Y25.626 Z-2.333 F472.760 
G1 X-2.700 Y25.819 Z-2.444 F460.361 
G1 X-2.624 Y25.921 Z-2.513 F448.435 
G1 X-2.527 Y26.047 Z-2.606 F442.433 
G1 X-2.265 Y26.358 Z-2.864 F425.557 
G1 X-2.154 Y26.478 Z-2.983 F410.727 
G1 X-1.828 Y26.800 Z-3.340 F396.872 
G1 X-1.758 Y26.864 Z-3.423 F384.851 
G1 X-1.698 Y26.915 Z-3.487 F392.660 
G1 X-1.343 Y27.197 Z-3.876 F381.995 
G1 X-1.189 Y27.310 Z-4.054 F372.803 
G1 X-0.784 Y27.587 Z-4.530 F364.544 
G1 X-0.733 Y27.619 Z-4.592 F357.203 
G1 X-0.617 Y27.689 Z-4.725 F362.830 
G1 X-0.520 Y27.746 Z-4.834 F361.327 
G1 X-0.517 Y27.944 Z-4.698 F414.365 
G1 X-0.503 Y28.294 Z-4.442 F406.984 
G1 X-0.492 Y28.461 Z-4.312 F397.882 
G1 X-0.490 Y28.510 Z-4.271 F389.666 
G1 X-0.485 Y28.566 Z-4.222 F378.117 
G1 X-0.437 Y28.912 Z-3.883 F364.672 
G1 X-0.375 Y29.244 Z-3.533 F354.501 
G1 X-0.360 Y29.339 Z-3.429 F347.931 
G1 X-0.267 Y29.808 Z-2.883 F339.872 
G1 X-0.221 Y29.998 Z-2.650 F332.522 
G1 X-0.162 Y30.289 Z-2.278 F325.928 
G1 X-0.055 Y30.714 Z-1.702 F318.925 
G1 X-0.049 Y30.741 Z-1.664 F312.981 
G1 X0.018 Y30.985 Z-1.303 F306.362 
G1 X0.068 Y31.205 Z-0.970 F302.440 
G1 X0.081 Y31.247 Z-0.904 F297.028 
G1 X0.106 Y31.350 Z-0.737 F293.280 
G1 X0.139 Y31.460 Z-0.551 F289.641 
G1 X0.148 Y31.500 Z-0.483 F285.476 
G1 X0.182 Y31.615 Z-0.280 F283.079 
G1 X0.299 Y32.269 Z0.865 F280.695 
G0 Z3.000 
G0 X0.433 Y32.231 Z3.000 
G1 X0.433 Y32.231 Z0.864 F120.000 
G1 X0.182 Y31.615 Z-0.280 F280.895 
G0 Z3.000 
G0 X-0.520 Y27.746 Z3.000 
G1 X-0.520 Y27.746 Z-4.834 F120.000 
G1 X-0.478 Y27.715 Z-4.788 F378.254 
G1 X-0.244 Y27.523 Z-4.516 F376.850 
G1 X-0.111 Y27.409 Z-4.367 F382.244 
G1 X0.148 Y27.176 Z-4.078 F389.116 
G1 X0.256 Y27.063 Z-3.951 F391.396 
G1 X0.370 Y26.943 Z-3.821 F394.795 
G1 X0.658 Y26.612 Z-3.496 F406.200 
G1 X0.691 Y26.572 Z-3.463 F418.385 
G1 X0.756 Y26.486 Z-3.385 F408.500 
G1 X0.993 Y26.145 Z-3.109 F421.368 
G1 X1.079 Y26.010 Z-3.015 F435.891 
G1 X1.182 Y25.841 Z-2.902 F443.738 
G1 X1.247 Y25.719 Z-2.829 F450.561 
G1 X1.322 Y25.572 Z-2.746 F456.210 
G1 X1.445 Y25.310 Z-2.615 F470.593 
G1 X1.514 Y25.150 Z-2.547 F485.251 
G1 X1.601 Y24.932 Z-2.465 F499.063 
G1 X1.631 Y24.847 Z-2.439 F512.663 
G1 X1.663 Y24.756 Z-2.409 F506.761 
G1 X1.736 Y24.523 Z-2.343 F521.901 
G1 X1.850 Y24.107 Z-2.257 F538.101 
G1 X1.905 Y23.881 Z-2.219 F554.479 
G1 X1.942 Y23.702 Z-2.204 F571.296 
G1 X2.007 Y23.371 Z-2.167 F565.744 
G1 X2.033 Y23.225 Z-2.153 F576.982 
G1 X2.126 Y22.609 Z-2.131 F588.049 
G1 X2.140 Y22.517 Z-2.127 F595.039 
G1 X2.141 Y22.511 Z-2.127 F600.000 
G1 X2.222 Y21.778 Z-2.123 F597.305 
G1 X2.227 Y21.741 Z-2.122 F600.000 
G1 X2.261 Y21.403 Z-2.126 F596.944 
G1 X2.270 Y21.302 Z-2.125 F596.051 
G1 X0.664 Y19.951 Z0.865 F307.077 
G0 Z3.000 
G0 X2.270 Y21.302 Z3.000 
G1 X2.270 Y21.302 Z-2.125 F120.000 
G1 X2.651 Y20.841 Z-1.530 F360.762 
G1 X2.945 Y20.497 Z-1.068 F357.339 
G1 X3.178 Y20.212 Z-0.682 F352.498 
G1 X3.546 Y19.797 Z-0.069 F344.543 
G1 X3.588 Y19.746 Z0.009 F338.016 
G1 X3.731 Y19.591 Z0.267 F328.960 
G1 X3.761 Y19.563 Z0.321 F319.356 
G1 X3.846 Y19.471 Z0.492 F312.268 
G0 Z3.000 
G0 X3.910 Y19.418 Z3.000 
G1 X3.910 Y19.418 Z0.617 F120.000 
G1 X4.045 Y19.357 Z0.865 F284.595 
G0 Z3.000 
G0 X3.996 Y19.297 Z3.000 
G1 X3.996 Y19.297 Z0.866 F120.000 
G1 X3.910 Y19.418 Z0.618 F285.327 
G1 X3.846 Y19.471 Z0.494 F300.128 
G1 X3.894 Y19.260 Z0.866 F281.381 
G0 Z3.000 
G0 X5.387 Y19.949 Z3.000 
G1 X5.387 Y19.949 Z0.865 F120.000 
G1 X8.241 Y21.858 Z-4.076 F305.578 
G1 X9.681 Y22.820 Z-6.569 F305.506 
G1 X8.437 Y24.803 Z-4.415 F372.657 
G1 X5.831 Y28.958 Z0.099 F372.655 
G1 X5.387 Y29.658 Z0.865 F372.070 
G0 Z3.000 
G0 X9.681 Y22.820 Z3.000 
G1 X9.681 Y22.820 Z-6.572 F120.000 
G1 X9.724 Y22.801 Z-6.569 F584.726 
G1 X10.544 Y22.433 Z-6.523 F584.266 
G1 X11.246 Y22.079 Z-6.630 F557.697 
G1 X12.169 Y21.477 Z-6.782 F558.025 
G1 X16.533 Y24.269 Z0.864 F301.923 
G0 Z3.000 
G0 X12.169 Y21.477 Z3.000 
G1 X12.169 Y21.477 Z-6.782 F120.000 
G1 X12.348 Y20.990 Z-6.488 F442.371 
G1 X11.403 Y18.504 Z-3.443 F339.369 
G1 X11.358 Y18.381 Z-3.364 F433.882 
G1 X11.350 Y18.360 Z-3.351 F446.808 
G1 X11.186 Y17.784 Z-3.112 F483.716 
G1 X11.112 Y17.346 Z-2.930 F480.974 
G1 X11.106 Y17.296 Z-2.917 F529.726 
G1 X11.085 Y17.057 Z-2.878 F550.291 
G1 X11.072 Y16.864 Z-2.856 F565.486 
G1 X11.066 Y16.719 Z-2.844 F573.141 
G1 X11.045 Y15.982 Z-2.800 F581.816 
G1 X11.043 Y15.912 Z-2.797 F586.576 
G1 X11.011 Y13.203 Z-2.717 F590.988 
G1 X11.011 Y13.170 Z-2.716 F592.615 
G1 X10.995 Y9.145 Z-2.652 F595.135 
G1 X10.996 Y9.126 Z-2.652 F596.771 
G1 X10.998 Y4.863 Z-2.617 F597.534 
G1 X10.999 Y4.183 Z-2.612 F597.529 
G1 X10.999 Y4.173 Z-2.612 F596.761 
G1 X11.013 Y-0.516 Z-2.594 F598.827 
G1 X11.017 Y-3.930 Z-2.567 F597.646 
G1 X11.009 Y-5.199 Z-2.541 F593.714 
G1 X10.992 Y-6.204 Z-2.503 F588.240 
G1 X10.966 Y-6.951 Z-2.451 F578.841 
G1 X10.963 Y-6.996 Z-2.445 F561.419 
G0 Z3.000 
G0 X11.888 Y-8.230 Z3.000 
G1 X11.888 Y-8.230 Z-0.376 F120.000 
G1 X11.891 Y-8.237 Z-0.363 F285.968 
G0 Z3.000 
G0 X11.899 Y-8.260 Z3.000 
G1 X11.899 Y-8.260 Z-0.321 F120.000 
G1 X11.891 Y-8.237 Z-0.362 F282.356 
G1 X12.301 Y-8.819 Z0.864 F280.670 
G0 Z3.000 
G0 X12.185 Y-8.885 Z3.000 
G1 X12.185 Y-8.885 Z0.864 F120.000 
G1 X11.899 Y-8.260 Z-0.322 F280.580 
G1 X12.058 Y-8.930 Z0.865 F280.708 
G0 Z3.000 
G0 X12.406 Y-8.729 Z3.000 
G1 X12.406 Y-8.729 Z0.865 F120.000 
G1 X11.888 Y-8.230 Z-0.376 F280.542 
G1 X11.863 Y-8.184 Z-0.459 F290.299 
G1 X11.793 Y-8.081 Z-0.651 F295.518 
G1 X11.721 Y-7.986 Z-0.829 F299.993 
G1 X11.706 Y-7.964 Z-0.868 F306.976 
G1 X11.495 Y-7.681 Z-1.344 F314.850 
G1 X11.388 Y-7.530 Z-1.588 F318.084 
G1 X10.963 Y-6.996 Z-2.445 F325.600 
G1 X10.681 Y-7.256 Z-1.954 F322.616 
G1 X10.640 Y-7.295 Z-1.882 F323.455 
G1 X9.061 Y-8.785 Z0.865 F324.393 
G0 Z3.000 
G0 X11.595 Y-10.618 Z3.000 
G1 X11.595 Y-10.618 Z0.865 F120.000 
G1 X12.991 Y-12.103 Z-1.550 F334.148 
G1 X13.085 Y-12.203 Z-1.714 F334.094 
G1 X14.558 Y-10.802 Z0.864 F324.063 
G0 Z3.000 
G0 X13.085 Y-12.203 Z3.000 
G1 X13.085 Y-12.203 Z-1.716 F120.000 
G1 X13.115 Y-17.007 Z-1.768 F596.717 
G1 X13.115 Y-17.007 Z-1.768 F600.000 
G1 X13.153 Y-23.193 Z-1.833 F596.755 
G1 X13.193 Y-23.669 Z-2.248 F381.551 
G1 X13.305 Y-24.147 Z-2.664 F385.115 
G1 X13.493 Y-24.630 Z-3.084 F391.672 
G1 X13.761 Y-25.120 Z-3.511 F400.532 
G1 X14.114 Y-25.620 Z-3.947 F410.931 
G1 X14.394 Y-25.955 Z-4.239 F420.173 
G1 X14.711 Y-26.290 Z-4.530 F427.618 
G1 X15.566 Y-27.145 Z-6.011 F329.225 
G1 X14.802 Y-27.909 Z-4.690 F329.233 
G1 X14.699 Y-28.012 Z-4.511 F329.236 
G1 X14.213 Y-28.544 Z-4.048 F425.524 
G1 X13.828 Y-29.060 Z-3.599 F413.839 
G1 X13.536 Y-29.563 Z-3.162 F402.907 
G1 X13.329 Y-30.054 Z-2.734 F393.458 
G1 X13.202 Y-30.537 Z-2.314 F386.283 
G1 X13.162 Y-30.819 Z-2.069 F382.678 
G1 X13.148 Y-31.101 Z-1.823 F381.378 
G1 X13.119 Y-36.980 Z-1.774 F597.417 
G1 X13.094 Y-41.443 Z-1.731 F597.056 
G1 X13.077 Y-43.619 Z-1.702 F595.997 
G0 Z3.000 
G0 X13.963 Y-44.453 Z3.000 
G1 X13.963 Y-44.453 Z-0.103 F120.000 
G1 X13.992 Y-44.484 Z-0.039 F300.054 
G0 Z3.000 
G0 X14.072 Y-44.552 Z3.000 
G1 X14.072 Y-44.552 Z0.128 F120.000 
G1 X14.454 Y-44.758 Z0.865 F282.512 
G0 Z3.000 
G0 X14.344 Y-44.892 Z3.000 
G1 X14.344 Y-44.892 Z0.865 F120.000 
G1 X14.072 Y-44.552 Z0.128 F282.978 
G1 X13.992 Y-44.484 Z-0.040 F291.271 
G1 X14.167 Y-44.981 Z0.865 F281.034 
G0 Z3.000 
G0 X14.514 Y-44.565 Z3.000 
G1 X14.514 Y-44.565 Z0.866 F120.000 
G1 X13.963 Y-44.453 Z-0.103 F280.650 
G1 X13.798 Y-44.304 Z-0.415 F309.437 
G1 X13.737 Y-44.243 Z-0.530 F316.821 
G1 X13.394 Y-43.915 Z-1.144 F320.822 
G1 X13.077 Y-43.619 Z-1.702 F322.238 
G1 X12.961 Y-43.745 Z-1.501 F335.706 
G1 X11.595 Y-45.199 Z0.865 F334.130 
G0 Z3.000 
G0 X17.521 Y-45.473 Z3.000 
G1 X17.521 Y-45.473 Z0.865 F120.000 
G1 X19.073 Y-43.921 Z-1.821 F329.332 
G1 X20.625 Y-45.473 Z0.865 F329.237 
G0 Z3.000 
G0 X22.224 Y-45.269 Z3.000 
G1 X22.224 Y-45.269 Z0.865 F120.000 
G1 X22.378 Y-45.137 Z0.564 F301.225 
G1 X22.387 Y-45.131 Z0.550 F305.274 
G0 Z3.000 
G0 X22.344 Y-45.310 Z3.000 
G1 X22.344 Y-45.310 Z0.865 F120.000 
G1 X22.387 Y-45.131 Z0.548 F280.601 
G1 X22.666 Y-44.871 Z0.038 F315.646 
G1 X22.688 Y-44.849 Z-0.004 F319.694 
G1 X23.620 Y-43.950 Z-1.669 F321.909 
G1 X23.791 Y-43.780 Z-1.974 F324.428 
G1 X24.932 Y-42.659 Z-3.980 F325.670 
G1 X26.306 Y-41.276 Z-6.399 F327.334 
G1 X26.306 Y-41.215 Z-6.399 F595.522 
G1 X26.302 Y-40.702 Z-6.406 F595.834 
G1 X25.621 Y-39.985 Z-5.248 F335.730 
G1 X25.609 Y-39.972 Z-5.226 F334.847 
G1 X25.109 Y-39.393 Z-4.757 F431.514 
G1 X24.709 Y-38.830 Z-4.299 F421.342 
G1 X24.400 Y-38.279 Z-3.853 F411.893 
G1 X24.177 Y-37.739 Z-3.416 F403.729 
G1 X24.032 Y-37.207 Z-2.985 F397.444 
G1 X23.977 Y-36.850 Z-2.697 F394.011 
G1 X23.956 Y-36.493 Z-2.409 F392.633 
G1 X23.931 Y-34.453 Z-2.390 F597.559 
G1 X23.929 Y-34.202 Z-2.387 F596.105 
G1 X23.929 Y-34.195 Z-2.389 F600.000 
G1 X23.919 Y-32.967 Z-2.375 F597.114 
G1 X23.920 Y-32.917 Z-2.377 F598.797 
G1 X23.925 Y-31.995 Z-2.388 F595.688 
G1 X23.927 Y-31.886 Z-2.395 F587.998 
G1 X23.940 Y-31.526 Z-2.416 F580.260 
G1 X23.946 Y-31.405 Z-2.428 F571.934 
G1 X23.966 Y-31.103 Z-2.463 F563.608 
G1 X23.987 Y-30.883 Z-2.503 F548.772 
G1 X24.018 Y-30.633 Z-2.556 F534.535 
G1 X24.069 Y-30.324 Z-2.646 F515.267 
G1 X24.112 Y-30.112 Z-2.720 F497.253 
G1 X24.240 Y-29.628 Z-2.947 F471.472 
G1 X24.300 Y-29.443 Z-3.049 F448.839 
G1 X24.561 Y-28.798 Z-3.506 F423.237 
G1 X24.646 Y-28.622 Z-3.651 F401.997 
G1 X25.034 Y-27.935 Z-4.326 F383.952 
G1 X25.153 Y-27.750 Z-4.533 F369.073 
G1 X25.185 Y-27.702 Z-4.590 F368.254 
G1 X25.626 Y-27.095 Z-5.354 F357.224 
G1 X25.793 Y-26.885 Z-5.640 F348.436 
G1 X25.893 Y-26.762 Z-5.815 F346.956 
G1 X25.870 Y-26.738 Z-5.774 F333.986 
G1 X25.362 Y-26.151 Z-5.044 F369.392 
G1 X24.945 Y-25.576 Z-4.328 F358.801 
G1 X24.750 Y-25.259 Z-3.933 F351.081 
G1 X24.580 Y-24.942 Z-3.539 F345.960 
G1 X24.539 Y-24.861 Z-3.469 F398.925 
G1 X24.298 Y-24.298 Z-3.122 F442.112 
G1 X24.135 Y-23.727 Z-2.769 F436.195 
G1 X24.104 Y-23.589 Z-2.716 F492.937 
G1 X24.044 Y-23.230 Z-2.611 F513.761 
G1 X24.018 Y-23.027 Z-2.566 F535.340 
G1 X24.000 Y-22.841 Z-2.535 F547.483 
G1 X23.979 Y-22.575 Z-2.498 F559.266 
G1 X23.970 Y-22.426 Z-2.484 F569.435 
G1 X23.942 Y-21.717 Z-2.435 F579.492 
G1 X23.940 Y-21.598 Z-2.432 F587.913 
G1 X23.933 Y-20.683 Z-2.418 F595.960 
G1 X23.933 Y-20.640 Z-2.419 F598.569 
G1 X23.941 Y-18.425 Z-2.432 F598.082 
G1 X23.980 Y-17.899 Z-2.874 F387.887 
G1 X24.091 Y-17.371 Z-3.314 F390.762 
G1 X24.278 Y-16.838 Z-3.759 F396.139 
G1 X24.543 Y-16.298 Z-4.209 F403.534 
G1 X24.891 Y-15.749 Z-4.668 F412.380 
G1 X25.329 Y-15.187 Z-5.136 F422.124 
G1 X25.696 Y-14.782 Z-5.475 F430.775 
G1 X26.077 Y-14.385 Z-6.133 F332.347 
G1 X22.036 Y-10.344 Z0.865 F329.265 
G0 Z3.000 
G0 X20.625 Y-10.650 Z3.000 
G1 X20.625 Y-10.650 Z0.865 F120.000 
G1 X19.271 Y-12.004 Z-1.480 F329.234 
G1 X19.118 Y-12.163 Z-1.744 F332.299 
G1 X18.799 Y-11.844 Z-1.169 F323.600 
G1 X18.691 Y-11.731 Z-0.966 F321.113 
G1 X18.506 Y-11.558 Z-0.626 F315.230 
G1 X18.354 Y-11.429 Z-0.347 F309.520 
G1 X18.352 Y-11.426 Z-0.341 F306.607 
G1 X18.242 Y-11.338 Z-0.129 F299.022 
G0 Z3.000 
G0 X18.179 Y-11.298 Z3.000 
G1 X18.179 Y-11.298 Z-0.011 F120.000 
G1 X18.242 Y-11.338 Z-0.128 F292.279 
G1 X17.974 Y-10.826 Z0.864 F281.245 
G0 Z3.000 
G0 X17.847 Y-10.910 Z3.000 
G1 X17.847 Y-10.910 Z0.865 F120.000 
G1 X18.179 Y-11.298 Z-0.011 F281.363 
G1 X18.138 Y-11.278 Z0.065 F285.605 
G0 Z3.000 
G0 X17.754 Y-11.012 Z3.000 
G1 X17.754 Y-11.012 Z0.866 F120.000 
G1 X18.138 Y-11.278 Z0.064 F281.353 
G1 X17.692 Y-11.133 Z0.865 F282.133 
G0 Z3.000 
G0 X19.118 Y-12.163 Z3.000 
G1 X19.118 Y-12.163 Z-1.744 F120.000 
G1 X19.098 Y-13.216 Z-1.780 F589.593 
G1 X19.080 Y-15.132 Z-1.811 F595.088 
G1 X19.073 Y-17.400 Z-1.823 F598.383 
G1 X19.073 Y-23.174 Z-1.823 F600.000 
G1 X19.037 Y-23.649 Z-2.233 F382.328 
G1 X18.928 Y-24.126 Z-2.645 F385.771 
G1 X18.743 Y-24.607 Z-3.062 F392.238 
G1 X18.479 Y-25.096 Z-3.486 F401.042 
G1 X18.129 Y-25.595 Z-3.918 F411.412 
G1 X17.844 Y-25.936 Z-4.214 F420.730 
G1 X17.521 Y-26.278 Z-4.510 F428.345 
G1 X16.654 Y-27.145 Z-6.013 F329.234 
G0 Z3.000 
G0 X15.566 Y-27.145 Z3.000 
G1 X15.566 Y-27.145 Z-6.011 F120.000 
G1 X16.110 Y-27.145 Z-6.011 F600.000 
G1 X16.116 Y-27.145 Z-6.011 F600.000 
G1 X16.654 Y-27.145 Z-6.011 F600.000 
G1 X17.521 Y-28.012 Z-4.511 F329.234 
G1 X17.570 Y-28.061 Z-4.427 F329.843 
G1 X18.047 Y-28.592 Z-3.974 F427.349 
G1 X18.423 Y-29.107 Z-3.535 F415.776 
G1 X18.707 Y-29.609 Z-3.107 F405.001 
G1 X18.907 Y-30.100 Z-2.689 F395.764 
G1 X19.027 Y-30.582 Z-2.278 F388.860 
G1 X19.062 Y-30.849 Z-2.051 F385.550 
G1 X19.074 Y-31.116 Z-1.823 F384.442 
G1 X19.073 Y-38.294 Z-1.823 F600.000 
G1 X19.073 Y-43.921 Z-1.823 F600.000 
G0 Z3.000 
G0 X26.306 Y-41.276 Z3.000 
G1 X26.306 Y-41.276 Z-6.401 F120.000 
G1 X26.477 Y-41.449 Z-6.105 F330.011 
G1 X30.501 Y-45.473 Z0.865 F329.234 
G0 Z3.000 
G0 X31.630 Y-45.473 Z3.000 
G1 X31.630 Y-45.473 Z0.865 F120.000 
G1 X34.273 Y-42.830 Z-3.711 F329.308 
G1 X35.277 Y-41.814 Z-5.450 F330.123 
G1 X35.386 Y-41.991 Z-5.144 F301.273 
G1 X35.580 Y-42.339 Z-4.536 F297.305 
G1 X35.684 Y-42.556 Z-4.158 F293.465 
G1 X35.813 Y-42.804 Z-3.714 F291.510 
G1 X36.048 Y-43.299 Z-2.828 F289.302 
G1 X36.089 Y-43.375 Z-2.687 F286.850 
G1 X36.269 Y-43.745 Z-2.001 F285.123 
G1 X36.289 Y-43.779 Z-1.933 F282.394 
G1 X37.005 Y-45.237 Z0.865 F280.737 
G0 Z3.000 
G0 X35.277 Y-41.814 Z3.000 
G1 X35.277 Y-41.814 Z-5.450 F120.000 
G1 X35.315 Y-41.658 Z-5.515 F481.901 
G1 X35.385 Y-41.304 Z-5.636 F500.909 
G1 X35.436 Y-40.988 Z-5.725 F517.238 
G1 X34.781 Y-40.398 Z-4.590 F321.842 
G1 X34.258 Y-39.885 Z-4.097 F418.984 
G1 X33.840 Y-39.388 Z-3.620 F406.177 
G1 X33.518 Y-38.905 Z-3.155 F393.893 
G1 X33.283 Y-38.433 Z-2.702 F382.887 
G1 X33.130 Y-37.970 Z-2.257 F374.041 
G1 X33.053 Y-37.514 Z-1.818 F368.222 
G1 X33.042 Y-37.264 Z-1.579 F366.217 
G1 X33.041 Y-31.030 Z-1.577 F600.000 
G1 X33.042 Y-31.023 Z-1.579 F595.924 
G1 X33.048 Y-28.380 Z-1.589 F598.589 
G1 X33.049 Y-28.366 Z-1.592 F597.886 
G1 X33.049 Y-28.214 Z-1.591 F595.981 
G1 X33.068 Y-25.783 Z-1.624 F595.903 
G1 X33.069 Y-25.768 Z-1.626 F593.954 
G1 X33.097 Y-23.539 Z-1.674 F593.119 
G1 X33.098 Y-23.511 Z-1.677 F590.107 
G1 X33.133 Y-21.931 Z-1.737 F588.112 
G1 X33.134 Y-21.900 Z-1.741 F585.322 
G1 X33.226 Y-19.098 Z-1.898 F582.634 
G1 X33.279 Y-18.616 Z-2.330 F377.871 
G1 X33.405 Y-18.132 Z-2.763 F381.932 
G1 X33.606 Y-17.643 Z-3.201 F388.839 
G1 X33.888 Y-17.146 Z-3.645 F397.907 
G1 X34.255 Y-16.639 Z-4.099 F408.400 
G1 X34.522 Y-16.327 Z-4.379 F417.366 
G1 X34.819 Y-16.014 Z-4.658 F424.223 
G1 X35.351 Y-15.482 Z-5.578 F329.237 
G1 X35.326 Y-15.318 Z-5.535 F522.111 
G1 X35.247 Y-14.894 Z-5.398 F505.918 
G1 X35.175 Y-14.578 Z-5.273 F487.914 
G1 X35.149 Y-14.485 Z-5.228 F467.559 
G0 Z3.000 
G0 X35.351 Y-15.482 Z3.000 
G1 X35.351 Y-15.482 Z-5.579 F120.000 
G1 X35.618 Y-15.678 Z-5.238 F356.034 
G1 X35.712 Y-15.749 Z-5.120 F357.425 
G1 X35.727 Y-15.760 Z-5.100 F358.628 
G1 X35.999 Y-15.978 Z-4.736 F353.165 
G1 X36.369 Y-16.294 Z-4.249 F359.702 
G1 X36.511 Y-16.433 Z-4.057 F364.943 
G1 X36.706 Y-16.631 Z-3.794 F368.449 
G1 X37.027 Y-16.982 Z-3.370 F377.670 
G1 X37.241 Y-17.265 Z-3.083 F392.401 
G1 X37.310 Y-17.363 Z-2.993 F402.242 
G1 X37.600 Y-17.828 Z-2.630 F421.154 
G1 X37.602 Y-17.833 Z-2.626 F435.629 
G1 X37.657 Y-17.939 Z-2.556 F437.740 
G1 X37.829 Y-18.317 Z-2.346 F457.165 
G1 X37.877 Y-18.441 Z-2.292 F479.623 
G1 X37.978 Y-18.734 Z-2.185 F498.348 
G1 X38.004 Y-18.823 Z-2.160 F518.742 
G1 X38.022 Y-18.885 Z-2.141 F512.315 
G1 X38.083 Y-19.139 Z-2.079 F530.441 
G1 X38.167 Y-19.552 Z-2.011 F549.944 
G1 X38.196 Y-19.714 Z-1.988 F562.317 
G1 X38.232 Y-19.955 Z-1.971 F575.649 
G1 X38.282 Y-20.314 Z-1.935 F569.483 
G1 X38.292 Y-20.391 Z-1.927 F575.929 
G1 X38.385 Y-21.202 Z-1.881 F582.025 
G1 X38.503 Y-22.323 Z-1.797 F577.160 
G1 X38.510 Y-22.391 Z-1.793 F582.953 
G1 X38.523 Y-22.559 Z-1.787 F588.789 
G1 X38.551 Y-22.938 Z-1.767 F584.343 
G1 X38.556 Y-23.001 Z-1.763 F589.874 
G1 X38.593 Y-23.707 Z-1.754 F595.415 
G1 X38.596 Y-23.761 Z-1.753 F600.000 
G1 X38.605 Y-24.031 Z-1.759 F595.134 
G1 X38.648 Y-25.545 Z-1.764 F598.850 
G1 X38.649 Y-25.585 Z-1.762 F595.417 
G1 X38.650 Y-25.612 Z-1.766 F592.144 
G1 X38.663 Y-27.702 Z-1.789 F596.608 
G1 X38.664 Y-27.731 Z-1.788 F593.740 
G1 X38.659 Y-29.135 Z-1.828 F591.557 
G1 X38.648 Y-29.983 Z-1.837 F597.008 
G1 X38.647 Y-30.009 Z-1.835 F595.400 
G1 X38.599 Y-32.196 Z-1.891 F592.501 
G1 X38.598 Y-32.231 Z-1.891 F589.340 
G1 X38.598 Y-32.255 Z-1.893 F587.590 
G1 X38.537 Y-33.657 Z-1.930 F592.032 
G1 X38.512 Y-34.153 Z-1.936 F596.430 
G1 X38.510 Y-34.193 Z-1.935 F593.118 
G1 X38.462 Y-34.965 Z-1.962 F589.842 
G1 X38.459 Y-34.993 Z-1.963 F594.733 
G1 X38.456 Y-35.035 Z-1.962 F591.848 
G1 X38.400 Y-35.693 Z-1.990 F587.940 
G1 X38.392 Y-35.771 Z-1.993 F581.744 
G1 X38.348 Y-36.173 Z-2.027 F575.388 
G1 X38.337 Y-36.267 Z-2.033 F580.967 
G1 X38.311 Y-36.446 Z-2.050 F567.208 
G1 X38.257 Y-36.754 Z-2.101 F553.113 
G1 X38.186 Y-37.071 Z-2.178 F529.415 
G1 X38.130 Y-37.276 Z-2.244 F506.836 
G1 X38.129 Y-37.279 Z-2.245 F517.624 
G1 X38.058 Y-37.500 Z-2.323 F498.215 
G1 X37.991 Y-37.689 Z-2.406 F483.942 
G1 X37.886 Y-37.953 Z-2.534 F468.448 
G1 X37.809 Y-38.130 Z-2.636 F453.991 
G1 X37.750 Y-38.259 Z-2.712 F447.545 
G1 X37.644 Y-38.459 Z-2.845 F437.266 
G1 X37.549 Y-38.629 Z-2.969 F428.243 
G1 X37.335 Y-38.976 Z-3.251 F414.065 
G1 X37.241 Y-39.115 Z-3.381 F401.611 
G1 X37.220 Y-39.145 Z-3.408 F407.004 
G1 X36.967 Y-39.480 Z-3.736 F395.645 
G1 X36.827 Y-39.653 Z-3.927 F385.736 
G1 X36.672 Y-39.836 Z-4.135 F380.742 
G1 X36.539 Y-39.978 Z-4.308 F377.793 
G1 X36.366 Y-40.157 Z-4.536 F374.209 
G1 X36.096 Y-40.422 Z-4.892 F368.321 
G1 X36.083 Y-40.434 Z-4.909 F368.309 
G1 X35.873 Y-40.620 Z-5.178 F367.771 
G1 X35.741 Y-40.734 Z-5.344 F365.481 
G1 X35.572 Y-40.878 Z-5.564 F363.096 
G1 X35.436 Y-40.988 Z-5.728 F369.850 
G0 Z3.000 
G0 X30.501 Y-36.957 Z3.000 
G1 X30.501 Y-36.957 Z0.865 F120.000 
G1 X29.121 Y-38.154 Z-1.525 F319.422 
G1 X27.843 Y-39.286 Z-3.739 F320.770 
G1 X26.671 Y-40.356 Z-5.769 F322.747 
G1 X26.302 Y-40.702 Z-6.409 F324.389 
G0 Z3.000 
G0 X29.755 Y-30.458 Z3.000 
G1 X29.755 Y-30.458 Z0.866 F120.000 
G1 X29.707 Y-30.322 Z0.617 F281.015 
G1 X29.826 Y-30.422 Z0.866 F291.040 
G0 Z3.000 
G0 X29.861 Y-30.307 Z3.000 
G1 X29.861 Y-30.307 Z0.865 F120.000 
G1 X29.653 Y-30.263 Z0.497 F280.590 
G1 X29.707 Y-30.322 Z0.617 F299.949 
G0 Z3.000 
G0 X29.653 Y-30.263 Z3.000 
G1 X29.653 Y-30.263 Z0.498 F120.000 
G1 X29.570 Y-30.188 Z0.339 F307.934 
G1 X29.400 Y-30.015 Z0.013 F314.824 
G1 X29.126 Y-29.754 Z-0.484 F318.966 
G1 X28.569 Y-29.184 Z-1.499 F323.533 
G1 X28.561 Y-29.176 Z-1.512 F325.939 
G1 X27.904 Y-28.494 Z-2.673 F329.171 
G1 X27.504 Y-28.075 Z-3.378 F330.029 
G1 X27.237 Y-27.800 Z-3.841 F331.469 
G1 X27.098 Y-27.661 Z-4.081 F329.501 
G1 X26.810 Y-27.379 Z-4.580 F327.647 
G1 X26.539 Y-27.123 Z-5.051 F324.794 
G1 X26.271 Y-26.881 Z-5.514 F322.274 
G1 X26.225 Y-26.840 Z-5.593 F321.749 
G1 X26.122 Y-26.750 Z-5.770 F321.681 
G0 Z3.000 
G0 X25.893 Y-26.762 Z3.000 
G1 X25.893 Y-26.762 Z-5.815 F120.000 
G1 X26.122 Y-26.750 Z-5.770 F540.697 
G1 X26.583 Y-26.310 Z-4.959 F323.748 
G1 X26.685 Y-26.212 Z-4.780 F324.674 
G1 X27.320 Y-25.588 Z-3.663 F325.575 
G1 X27.938 Y-24.970 Z-2.556 F324.333 
G1 X28.452 Y-24.462 Z-1.637 F323.646 
G1 X28.563 Y-24.348 Z-1.431 F321.420 
G1 X29.105 Y-23.818 Z-0.434 F318.597 
G1 X29.325 Y-23.615 Z-0.030 F314.816 
G1 X29.526 Y-23.417 Z0.361 F310.915 
G1 X29.589 Y-23.362 Z0.481 F305.177 
G0 Z3.000 
G0 X29.656 Y-23.291 Z3.000 
G1 X29.656 Y-23.291 Z0.628 F120.000 
G1 X29.589 Y-23.362 Z0.479 F297.630 
G1 X29.807 Y-23.313 Z0.865 F280.524 
G0 Z3.000 
G0 X29.770 Y-23.197 Z3.000 
G1 X29.770 Y-23.197 Z0.866 F120.000 
G1 X29.656 Y-23.291 Z0.628 F289.998 
G1 X29.707 Y-23.163 Z0.865 F282.400 
G0 Z3.000 
G0 X30.219 Y-18.261 Z3.000 
G1 X30.219 Y-18.261 Z0.866 F120.000 
G1 X27.939 Y-16.072 Z-3.083 F326.244 
G1 X26.180 Y-14.383 Z-6.131 F326.244 
G1 X26.128 Y-14.384 Z-6.133 F588.839 
G1 X26.077 Y-14.385 Z-6.135 F589.199 
G0 Z3.000 
G0 X26.180 Y-14.383 Z3.000 
G1 X26.180 Y-14.383 Z-6.128 F120.000 
G1 X26.260 Y-14.303 Z-5.990 F329.219 
G1 X30.219 Y-10.344 Z0.865 F329.300 
G0 Z3.000 
G0 X30.501 Y-9.456 Z3.000 
G1 X30.501 Y-9.456 Z0.864 F120.000 
G1 X32.320 Y-7.549 Z-2.283 F333.017 
G1 X32.430 Y-7.434 Z-2.473 F332.855 
G1 X34.311 Y-9.276 Z0.865 F323.943 
G0 Z3.000 
G0 X32.430 Y-7.434 Z3.000 
G1 X32.430 Y-7.434 Z-2.473 F120.000 
G1 X32.477 Y-3.878 Z-2.555 F593.024 
G1 X32.478 Y-3.878 Z-2.557 F600.000 
G1 X32.547 Y1.469 Z-2.677 F593.018 
G1 X32.592 Y2.015 Z-2.948 F460.685 
G1 X32.709 Y2.563 Z-3.218 F462.976 
G1 X32.901 Y3.117 Z-3.490 F467.093 
G1 X33.178 Y3.687 Z-3.770 F472.670 
G1 X33.530 Y4.248 Z-4.447 F356.762 
G1 X33.989 Y4.846 Z-5.168 F366.867 
G1 X33.618 Y7.143 Z-4.508 F515.729 
G1 X33.344 Y8.828 Z-4.023 F515.390 
G1 X32.687 Y12.983 Z-2.794 F513.154 
G1 X32.637 Y13.316 Z-2.692 F509.521 
G1 X32.588 Y13.614 Z-2.592 F502.740 
G1 X32.555 Y13.773 Z-2.528 F485.201 
G1 X32.540 Y13.830 Z-2.499 F460.410 
G1 X32.535 Y13.844 Z-2.490 F432.109 
G1 X32.510 Y13.903 Z-2.443 F407.054 
G1 X32.421 Y14.078 Z-2.280 F388.780 
G1 X32.242 Y14.399 Z-1.954 F378.263 
G1 X31.973 Y14.853 Z-1.467 F372.126 
G1 X31.395 Y15.787 Z-0.422 F367.564 
G1 X31.183 Y16.145 Z-0.015 F363.747 
G1 X30.923 Y16.557 Z0.478 F357.886 
G1 X30.904 Y16.588 Z0.517 F351.223 
G1 X30.789 Y16.761 Z0.752 F341.093 
G1 X30.759 Y16.814 Z0.825 F331.236 
G0 Z3.000 
G0 X30.737 Y16.824 Z3.000 
G1 X30.737 Y16.824 Z0.865 F120.000 
G1 X30.759 Y16.814 Z0.825 F283.423 
G1 X30.749 Y16.841 Z0.865 F309.210 
G0 Z3.000 
G0 X38.235 Y13.176 Z3.000 
G1 X38.235 Y13.176 Z0.866 F120.000 
G1 X38.249 Y13.143 Z0.818 F317.971 
G1 X38.223 Y13.151 Z0.864 F290.700 
G0 Z3.000 
G0 X38.249 Y13.143 Z3.000 
G1 X38.249 Y13.143 Z0.818 F120.000 
G1 X38.276 Y13.101 Z0.761 F340.491 
G1 X38.295 Y13.068 Z0.720 F349.718 
G1 X38.364 Y12.956 Z0.586 F356.620 
G1 X38.469 Y12.780 Z0.381 F360.090 
G1 X38.661 Y12.471 Z0.028 F364.554 
G1 X39.108 Y11.735 Z-0.793 F367.221 
G1 X39.584 Y10.967 Z-1.642 F369.494 
G1 X40.050 Y10.208 Z-2.473 F370.665 
G1 X40.097 Y10.132 Z-2.555 F372.025 
G1 X42.071 Y11.368 Z0.865 F302.727 
G0 Z3.000 
G0 X43.729 Y10.426 Z3.000 
G1 X43.729 Y10.426 Z0.865 F120.000 
G1 X43.760 Y10.358 Z0.765 F316.050 
G0 Z3.000 
G0 X43.704 Y10.376 Z3.000 
G1 X43.704 Y10.376 Z0.866 F120.000 
G1 X43.760 Y10.358 Z0.766 F281.387 
G1 X43.858 Y10.205 Z0.553 F337.104 
G1 X43.863 Y10.197 Z0.543 F343.793 
G1 X44.121 Y9.779 Z0.041 F356.739 
G1 X44.212 Y9.622 Z-0.138 F362.013 
G1 X45.060 Y8.229 Z-1.698 F366.812 
G1 X45.490 Y7.505 Z-2.489 F369.501 
G1 X46.586 Y5.702 Z-4.440 F371.967 
G1 X46.784 Y5.372 Z-4.793 F373.087 
G1 X46.762 Y5.291 Z-4.756 F473.374 
G1 X46.740 Y5.211 Z-4.720 F474.945 
G1 X46.574 Y4.416 Z-4.457 F504.256 
G1 X46.572 Y4.402 Z-4.454 F533.984 
G1 X46.536 Y4.134 Z-4.395 F534.314 
G1 X46.495 Y3.709 Z-4.327 F551.528 
G1 X46.471 Y3.324 Z-4.288 F569.339 
G1 X46.461 Y3.076 Z-4.272 F580.769 
G1 X46.451 Y2.607 Z-4.259 F591.669 
G1 X46.450 Y2.500 Z-4.258 F596.579 
G1 X46.447 Y1.295 Z-4.263 F598.681 
G1 X46.481 Y0.644 Z-4.328 F569.700 
G1 X46.590 Y-0.015 Z-4.597 F482.941 
G1 X46.833 Y-0.848 Z-4.938 F485.794 
G1 X46.754 Y-1.125 Z-4.802 F464.189 
G1 X46.728 Y-1.220 Z-4.757 F470.238 
G1 X46.626 Y-1.675 Z-4.608 F505.708 
G1 X46.557 Y-2.129 Z-4.460 F504.501 
G1 X46.521 Y-2.445 Z-4.399 F541.922 
G1 X46.486 Y-2.920 Z-4.338 F561.006 
G1 X46.470 Y-3.381 Z-4.310 F581.874 
G1 X46.467 Y-3.656 Z-4.305 F593.784 
G1 X46.473 Y-4.227 Z-4.315 F594.597 
G1 X46.475 Y-4.336 Z-4.319 F589.354 
G1 X46.518 Y-5.790 Z-4.393 F584.338 
G1 X46.533 Y-6.072 Z-4.419 F572.185 
G1 X43.482 Y-9.123 Z0.866 F329.236 
G0 Z3.000 
G0 X42.071 Y-9.122 Z3.000 
G1 X42.071 Y-9.122 Z0.864 F120.000 
G1 X40.026 Y-7.076 Z-2.678 F329.269 
G1 X39.704 Y-6.754 Z-3.235 F329.274 
G1 X37.979 Y-9.120 Z0.864 F309.546 
G0 Z3.000 
G0 X36.868 Y-11.211 Z3.000 
G1 X36.868 Y-11.211 Z0.865 F120.000 
G1 X36.123 Y-12.545 Z-1.764 F280.906 
G0 Z3.000 
G0 X36.572 Y-11.087 Z3.000 
G1 X36.572 Y-11.087 Z0.866 F120.000 
G1 X36.123 Y-12.545 Z-1.763 F280.698 
G1 X36.087 Y-12.628 Z-1.916 F282.941 
G1 X35.930 Y-12.922 Z-2.471 F285.647 
G1 X35.841 Y-13.116 Z-2.818 F288.374 
G1 X35.587 Y-13.625 Z-3.732 F290.101 
G1 X35.509 Y-13.796 Z-4.029 F292.066 
G1 X35.271 Y-14.273 Z-4.860 F294.462 
G1 X35.149 Y-14.485 Z-5.230 F298.458 
G1 X34.192 Y-13.517 Z-3.571 F330.082 
G1 X31.630 Y-10.955 Z0.865 F329.311 
G0 Z3.000 
G0 X39.704 Y-6.754 Z3.000 
G1 X39.704 Y-6.754 Z-3.232 F120.000 
G1 X39.107 Y-2.945 Z-4.266 F519.918 
G1 X39.108 Y-2.945 Z-4.266 F600.000 
G1 X38.623 Y0.145 Z-5.105 F519.934 
G1 X38.011 Y0.562 Z-4.554 F403.936 
G1 X37.491 Y0.995 Z-4.013 F393.877 
G1 X37.056 Y1.444 Z-3.482 F384.817 
G1 X36.815 Y1.748 Z-3.138 F378.440 
G1 X36.605 Y2.062 Z-2.794 F374.322 
G1 X36.104 Y2.881 Z-2.780 F596.341 
G1 X35.780 Y3.345 Z-3.292 F375.583 
G1 X35.381 Y3.790 Z-3.808 F382.189 
G1 X34.903 Y4.217 Z-4.332 F390.477 
G1 X34.341 Y4.626 Z-4.865 F399.924 
G1 X33.989 Y4.846 Z-5.168 F407.756 
G0 Z3.000 
G0 X38.623 Y0.145 Z3.000 
G1 X38.623 Y0.145 Z-5.107 F120.000 
G1 X39.073 Y0.717 Z-4.379 F359.792 
G1 X39.341 Y1.122 Z-3.863 F350.878 
G1 X39.651 Y1.695 Z-3.558 F466.270 
G1 X39.873 Y2.254 Z-3.261 F459.753 
G1 X40.015 Y2.802 Z-2.969 F454.699 
G1 X40.068 Y3.176 Z-2.771 F451.911 
G1 X40.086 Y3.549 Z-2.572 F450.793 
G1 X40.090 Y8.355 Z-2.563 F599.428 
G1 X40.097 Y10.132 Z-2.552 F598.109 
G0 Z3.000 
G0 X46.784 Y5.372 Z3.000 
G1 X46.784 Y5.372 Z-4.793 F120.000 
G1 X47.477 Y5.538 Z-4.103 F364.968 
G1 X48.120 Y5.628 Z-3.427 F353.652 
G1 X48.293 Y5.640 Z-3.238 F346.890 
G1 X48.464 Y5.647 Z-3.048 F344.082 
G1 X48.521 Y5.648 Z-3.003 F390.220 
G1 X49.101 Y5.626 Z-2.697 F452.633 
G1 X49.633 Y5.535 Z-2.400 F446.196 
G1 X49.821 Y5.485 Z-2.290 F442.961 
G1 X50.004 Y5.424 Z-2.180 F441.684 
G1 X50.114 Y5.384 Z-2.157 F534.244 
G1 X50.223 Y5.344 Z-2.132 F542.401 
G1 X50.365 Y5.287 Z-2.110 F551.259 
G1 X50.371 Y5.284 Z-2.109 F551.251 
G1 X50.459 Y5.250 Z-2.094 F551.896 
G1 X50.507 Y5.231 Z-2.085 F555.772 
G1 X51.296 Y4.905 Z-1.973 F559.727 
G1 X51.323 Y4.894 Z-1.967 F562.116 
G1 X53.016 Y4.178 Z-1.755 F564.410 
G1 X53.036 Y4.170 Z-1.752 F564.965 
G1 X53.766 Y3.867 Z-1.670 F568.135 
G1 X54.987 Y3.362 Z-1.530 F567.832 
G1 X55.511 Y3.134 Z-1.451 F557.884 
G1 X55.948 Y2.915 Z-1.338 F530.887 
G1 X56.089 Y2.836 Z-1.288 F507.933 
G1 X56.146 Y2.800 Z-1.262 F488.853 
G1 X56.326 Y2.903 Z-0.917 F285.209 
G1 X56.613 Y3.045 Z-0.376 F283.180 
G0 Z3.000 
G0 X56.146 Y2.800 Z3.000 
G1 X56.146 Y2.800 Z-1.262 F120.000 
G1 X56.154 Y2.792 Z-1.252 F387.963 
G1 X56.177 Y2.763 Z-1.217 F371.428 
G1 X56.296 Y2.618 Z-1.041 F368.629 
G1 X56.470 Y2.378 Z-0.739 F357.093 
G1 X56.644 Y2.116 Z-0.395 F347.044 
G1 X56.780 Y1.885 Z-0.086 F338.150 
G1 X56.796 Y1.858 Z-0.050 F335.850 
G1 X56.910 Y1.636 Z0.265 F324.736 
G0 Z3.000 
G0 X56.983 Y1.448 Z3.000 
G1 X56.983 Y1.448 Z0.555 F120.000 
G1 X56.937 Y1.562 Z0.378 F305.747 
G1 X56.910 Y1.636 Z0.267 F309.445 
G1 X57.222 Y1.479 Z0.866 F281.026 
G0 Z3.000 
G0 X57.115 Y1.320 Z3.000 
G1 X57.115 Y1.320 Z0.866 F120.000 
G1 X56.983 Y1.448 Z0.554 F282.242 
G1 X56.989 Y1.423 Z0.594 F291.673 
G0 Z3.000 
G0 X57.055 Y1.277 Z3.000 
G1 X57.055 Y1.277 Z0.865 F120.000 
G1 X56.989 Y1.423 Z0.595 F283.659 
G1 X56.991 Y1.262 Z0.865 F284.429 
G0 Z3.000 
G0 X57.287 Y3.302 Z3.000 
G1 X57.287 Y3.302 Z0.865 F120.000 
G1 X56.613 Y3.045 Z-0.375 F280.987 
G1 X57.215 Y3.439 Z0.864 F280.627 
G0 Z3.000 
G0 X56.815 Y-1.346 Z3.000 
G1 X56.815 Y-1.346 Z0.866 F120.000 
G1 X56.596 Y-1.782 Z0.026 F280.914 
G1 X56.921 Y-1.415 Z0.865 F281.655 
G0 Z3.000 
G0 X57.016 Y-1.528 Z3.000 
G1 X57.016 Y-1.528 Z0.866 F120.000 
G1 X56.547 Y-1.853 Z-0.118 F280.598 
G1 X56.596 Y-1.782 Z0.026 F284.592 
G0 Z3.000 
G0 X56.547 Y-1.853 Z3.000 
G1 X56.547 Y-1.853 Z-0.118 F120.000 
G1 X56.421 Y-1.999 Z-0.432 F288.613 
G1 X56.285 Y-2.139 Z-0.740 F292.218 
G1 X55.949 Y-2.440 Z-1.432 F296.738 
G1 X55.945 Y-2.439 Z-1.432 F548.699 
G1 X54.968 Y-2.176 Z-1.590 F552.809 
G1 X53.536 Y-1.798 Z-1.805 F555.827 
G1 X52.314 Y-1.476 Z-1.988 F556.221 
G1 X51.136 Y-1.166 Z-2.160 F556.956 
G1 X51.113 Y-1.161 Z-2.164 F554.613 
G1 X50.320 Y-0.958 Z-2.290 F553.380 
G1 X50.261 Y-0.944 Z-2.300 F549.421 
G1 X49.896 Y-0.856 Z-2.368 F545.115 
G1 X49.375 Y-0.770 Z-2.606 F470.433 
G1 X48.684 Y-0.759 Z-2.907 F474.722 
G1 X48.648 Y-0.761 Z-2.932 F415.673 
G1 X48.579 Y-0.765 Z-2.981 F410.935 
G1 X46.833 Y-0.848 Z-4.939 F342.762 
G0 Z3.000 
G0 X46.533 Y-6.072 Z3.000 
G1 X46.533 Y-6.072 Z-4.419 F120.000 
G1 X47.088 Y-6.504 Z-3.975 F427.887 
G1 X47.627 Y-6.841 Z-3.543 F417.657 
G1 X48.154 Y-7.090 Z-3.121 F408.496 
G1 X48.672 Y-7.257 Z-2.707 F401.061 
G1 X49.318 Y-7.359 Z-2.189 F395.521 
G1 X50.395 Y-7.430 Z-2.067 F565.414 
G1 X50.745 Y-7.453 Z-2.027 F565.405 
G1 X50.774 Y-7.455 Z-2.024 F567.851 
G1 X52.509 Y-7.553 Z-1.852 F569.893 
G1 X52.534 Y-7.555 Z-1.850 F571.897 
G1 X54.701 Y-7.661 Z-1.666 F574.165 
G1 X54.713 Y-7.662 Z-1.665 F574.445 
G1 X55.901 Y-7.715 Z-1.572 F576.228 
G1 X55.961 Y-7.775 Z-1.469 F329.264 
G1 X57.309 Y-9.123 Z0.866 F329.235 
G0 Z3.000 
G0 X55.901 Y-7.715 Z3.000 
G1 X55.901 Y-7.715 Z-1.572 F120.000 
G1 X57.309 Y-6.428 Z0.865 F322.952 
G0 Z3.000 
G0 X56.956 Y-3.928 Z3.000 
G1 X56.956 Y-3.928 Z0.865 F120.000 
G1 X56.940 Y-3.681 Z0.444 F282.331 
G1 X57.057 Y-3.902 Z0.865 F283.649 
G0 Z3.000 
G0 X57.141 Y-3.828 Z3.000 
G1 X57.141 Y-3.828 Z0.864 F120.000 
G1 X56.932 Y-3.654 Z0.399 F281.676 
G1 X56.940 Y-3.681 Z0.443 F292.435 
G0 Z3.000 
G0 X56.932 Y-3.654 Z3.000 
G1 X56.932 Y-3.654 Z0.400 F120.000 
G1 X56.886 Y-3.561 Z0.249 F304.375 
G1 X57.210 Y-3.712 Z0.865 F280.657 
G0 Z3.000 
G0 X57.263 Y-3.560 Z3.000 
G1 X57.263 Y-3.560 Z0.865 F120.000 
G1 X56.815 Y-3.447 Z0.068 F280.545 
G1 X56.886 Y-3.561 Z0.249 F314.840 
G0 Z3.000 
G0 X56.815 Y-3.447 Z3.000 
G1 X56.815 Y-3.447 Z0.068 F120.000 
G1 X56.648 Y-3.225 Z-0.279 F326.456 
G1 X56.568 Y-3.115 Z-0.446 F329.222 
G1 X56.290 Y-2.787 Z-0.931 F341.528 
G1 X56.015 Y-2.500 Z-1.347 F353.008 
G1 X55.949 Y-2.440 Z-1.431 F367.035 
G0 Z3.000 
G0 X23.066 Y-5.182 Z3.000 
G1 X23.066 Y-5.182 Z-5.209 F120.000 
G1 X23.084 Y-5.171 Z-5.192 F397.465 
G1 X23.283 Y-5.046 Z-5.016 F402.906 
G1 X23.664 Y-4.765 Z-4.671 F407.746 
G1 X23.779 Y-4.664 Z-4.563 F412.070 
G1 X23.887 Y-4.569 Z-4.463 F415.666 
G1 X24.059 Y-4.412 Z-4.309 F421.424 
G1 X24.350 Y-4.099 Z-4.044 F429.983 
G1 X24.450 Y-3.984 Z-3.958 F444.109 
G1 X24.454 Y-3.980 Z-3.955 F444.830 
G1 X24.747 Y-3.594 Z-3.695 F449.560 
G1 X24.830 Y-3.472 Z-3.627 F467.530 
G1 X24.843 Y-3.453 Z-3.615 F458.511 
G1 X25.089 Y-3.040 Z-3.412 F477.538 
G1 X25.169 Y-2.890 Z-3.353 F497.820 
G1 X25.277 Y-2.677 Z-3.262 F489.111 
G1 X25.426 Y-2.359 Z-3.151 F506.493 
G1 X25.471 Y-2.250 Z-3.121 F524.579 
G1 X25.621 Y-1.874 Z-3.007 F515.830 
G1 X25.689 Y-1.693 Z-2.959 F526.269 
G1 X25.736 Y-1.559 Z-2.929 F536.700 
G1 X25.895 Y-1.078 Z-2.809 F528.595 
G1 X25.949 Y-0.905 Z-2.772 F539.222 
G1 X25.972 Y-0.824 Z-2.758 F550.107 
G1 X26.111 Y-0.308 Z-2.657 F542.540 
G1 X26.155 Y-0.127 Z-2.629 F553.974 
G1 X26.172 Y-0.051 Z-2.620 F566.050 
G1 X26.295 Y0.548 Z-2.536 F558.571 
G1 X26.321 Y0.683 Z-2.522 F567.474 
G1 X26.332 Y0.753 Z-2.516 F577.407 
G1 X26.437 Y1.427 Z-2.450 F570.228 
G1 X26.453 Y1.534 Z-2.442 F577.181 
G1 X26.459 Y1.586 Z-2.439 F585.430 
G1 X26.545 Y2.338 Z-2.385 F578.279 
G1 X26.554 Y2.429 Z-2.381 F584.327 
G1 X26.555 Y2.440 Z-2.380 F589.295 
G1 X26.621 Y3.284 Z-2.337 F584.406 
G1 X26.623 Y3.311 Z-2.336 F586.860 
G1 X26.625 Y3.356 Z-2.334 F585.747 
G1 X26.664 Y4.195 Z-2.304 F589.300 
G1 X26.666 Y4.252 Z-2.301 F583.374 
G1 X26.667 Y4.323 Z-2.298 F587.970 
G1 X26.679 Y5.089 Z-2.280 F592.662 
G1 X26.680 Y5.247 Z-2.273 F586.699 
G1 X26.680 Y5.308 Z-2.271 F591.432 
G1 X26.671 Y5.989 Z-2.263 F596.190 
G1 X26.664 Y6.252 Z-2.255 F590.683 
G1 X26.663 Y6.312 Z-2.254 F594.435 
G1 X26.639 Y6.890 Z-2.253 F599.367 
G1 X26.620 Y7.265 Z-2.244 F593.233 
G1 X26.617 Y7.325 Z-2.244 F597.481 
G1 X26.584 Y7.791 Z-2.247 F598.103 
G1 X26.546 Y8.274 Z-2.241 F596.151 
G1 X26.540 Y8.335 Z-2.241 F599.497 
G1 X26.506 Y8.687 Z-2.247 F594.654 
G1 X26.443 Y9.271 Z-2.246 F599.271 
G1 X26.435 Y9.336 Z-2.246 F596.263 
G1 X26.405 Y9.575 Z-2.253 F591.131 
G1 X26.312 Y10.248 Z-2.260 F597.031 
G1 X26.301 Y10.320 Z-2.262 F592.017 
G1 X26.280 Y10.452 Z-2.268 F586.503 
G1 X26.153 Y11.197 Z-2.286 F592.731 
G1 X26.138 Y11.278 Z-2.289 F587.277 
G1 X26.132 Y11.311 Z-2.291 F580.493 
G1 X25.966 Y12.110 Z-2.325 F587.309 
G1 X25.957 Y12.151 Z-2.327 F584.778 
G1 X25.944 Y12.207 Z-2.330 F584.626 
G1 X25.754 Y12.967 Z-2.381 F580.166 
G1 X25.750 Y12.986 Z-2.382 F588.792 
G1 X25.717 Y13.102 Z-2.390 F579.347 
G1 X25.522 Y13.754 Z-2.455 F570.742 
G1 X25.502 Y13.817 Z-2.460 F577.960 
G1 X25.534 Y13.965 Z-2.464 F522.531 
G1 X25.328 Y14.320 Z-2.523 F562.194 
G1 X25.291 Y14.422 Z-2.539 F555.200 
G1 X25.258 Y14.507 Z-2.554 F549.186 
G1 X25.152 Y14.774 Z-2.595 F557.451 
G1 X25.108 Y14.881 Z-2.614 F548.779 
G1 X24.972 Y15.195 Z-2.682 F540.047 
G1 X24.962 Y15.219 Z-2.687 F539.544 
G1 X24.900 Y15.348 Z-2.717 F538.551 
G1 X24.761 Y15.623 Z-2.788 F530.687 
G1 X24.665 Y15.804 Z-2.844 F517.949 
G1 X24.623 Y15.878 Z-2.871 F507.637 
G1 X24.526 Y16.042 Z-2.924 F516.480 
G1 X24.388 Y16.262 Z-3.010 F501.974 
G1 X24.250 Y16.467 Z-3.106 F487.476 
G1 X24.242 Y16.479 Z-3.111 F489.114 
G1 X24.029 Y16.760 Z-3.258 F479.900 
G1 X23.887 Y16.932 Z-3.364 F464.245 
G1 X23.822 Y17.010 Z-3.414 F460.192 
G1 X23.548 Y17.294 Z-3.623 F451.002 
G1 X23.398 Y17.438 Z-3.745 F437.148 
G1 X23.371 Y17.464 Z-3.768 F435.482 
G1 X22.902 Y17.846 Z-4.158 F424.913 
G1 X22.883 Y17.859 Z-4.174 F416.460 
G1 X22.721 Y17.971 Z-4.309 F416.017 
G1 X22.540 Y18.091 Z-4.465 F410.479 
G1 X22.197 Y18.286 Z-4.759 F404.131 
G1 X21.970 Y18.395 Z-4.953 F398.783 
G1 X21.898 Y18.428 Z-5.017 F394.515 
G1 X21.789 Y18.474 Z-5.105 F403.659 
G1 X21.749 Y18.491 Z-5.139 F401.999 
G0 Z3.000 
G0 X21.682 Y19.799 Z3.000 
G1 X21.682 Y19.799 Z-3.377 F120.000 
G1 X21.683 Y19.773 Z-3.423 F280.925 
G1 X21.683 Y19.770 Z-3.428 F281.376 
G1 X21.685 Y19.722 Z-3.509 F284.034 
G1 X21.686 Y19.711 Z-3.527 F286.186 
G1 X21.688 Y19.638 Z-3.646 F289.055 
G1 X21.691 Y19.612 Z-3.687 F291.898 
G1 X21.694 Y19.519 Z-3.832 F295.612 
G1 X21.698 Y19.473 Z-3.901 F299.370 
G1 X21.702 Y19.365 Z-4.058 F303.850 
G1 X21.707 Y19.303 Z-4.147 F308.167 
G1 X21.712 Y19.179 Z-4.315 F313.199 
G1 X21.717 Y19.110 Z-4.406 F318.010 
G1 X21.723 Y18.971 Z-4.584 F323.242 
G1 X21.729 Y18.880 Z-4.695 F328.662 
G1 X21.735 Y18.733 Z-4.869 F334.541 
G1 X21.744 Y18.612 Z-5.008 F340.403 
G1 X21.749 Y18.491 Z-5.140 F346.244 
G1 X21.727 Y18.479 Z-5.121 F408.792 
G1 X21.485 Y18.332 Z-4.912 F405.705 
G1 X21.214 Y18.140 Z-4.674 F410.251 
G1 X21.082 Y18.034 Z-4.555 F413.229 
G1 X20.927 Y17.906 Z-4.419 F418.175 
G1 X20.919 Y17.899 Z-4.413 F418.384 
G1 X20.605 Y17.609 Z-4.129 F421.175 
G1 X20.441 Y17.432 Z-3.981 F432.226 
G1 X20.300 Y17.274 Z-3.859 F439.344 
G1 X20.289 Y17.262 Z-3.849 F439.850 
G1 X19.997 Y16.887 Z-3.594 F449.247 
G1 X19.978 Y16.861 Z-3.579 F466.571 
G1 X19.863 Y16.694 Z-3.478 F459.091 
G1 X19.680 Y16.406 Z-3.328 F473.105 
G1 X19.671 Y16.392 Z-3.321 F480.544 
G1 X19.544 Y16.166 Z-3.215 F481.959 
G1 X19.418 Y15.928 Z-3.118 F494.445 
G1 X19.405 Y15.901 Z-3.109 F507.692 
G1 X19.294 Y15.665 Z-3.020 F499.634 
G1 X19.212 Y15.482 Z-2.960 F510.302 
G1 X19.155 Y15.346 Z-2.921 F521.011 
G1 X19.089 Y15.181 Z-2.869 F514.297 
G1 X19.026 Y15.014 Z-2.824 F524.256 
G1 X18.930 Y14.746 Z-2.762 F534.313 
G1 X18.910 Y14.687 Z-2.747 F526.435 
G1 X18.862 Y14.535 Z-2.713 F536.191 
G1 X18.756 Y14.177 Z-2.646 F545.697 
G1 X18.722 Y14.056 Z-2.627 F554.052 
G1 X18.713 Y14.019 Z-2.622 F561.649 
G1 X18.625 Y13.668 Z-2.569 F555.229 
G1 X18.601 Y13.562 Z-2.555 F562.062 
G1 X18.536 Y13.266 Z-2.524 F568.367 
G1 X18.511 Y13.146 Z-2.508 F561.730 
G1 X18.488 Y13.025 Z-2.497 F570.817 
G1 X18.396 Y12.496 Z-2.460 F579.204 
G1 X18.336 Y12.118 Z-2.425 F572.267 
G1 X18.318 Y11.987 Z-2.417 F581.238 
G1 X18.285 Y11.724 Z-2.408 F590.215 
G1 X18.207 Y10.990 Z-2.362 F580.944 
G1 X18.198 Y10.886 Z-2.358 F588.565 
G1 X18.137 Y10.115 Z-2.347 F595.335 
G1 X18.121 Y9.819 Z-2.330 F583.057 
G1 X18.118 Y9.734 Z-2.327 F589.904 
G1 X18.081 Y8.614 Z-2.312 F595.720 
G1 X18.080 Y8.537 Z-2.312 F598.807 
G1 X18.079 Y8.495 Z-2.313 F593.377 
G1 X18.092 Y7.385 Z-2.295 F595.075 
G1 X18.094 Y7.313 Z-2.295 F599.575 
G1 X18.107 Y6.869 Z-2.303 F594.697 
G1 X18.144 Y6.147 Z-2.289 F594.087 
G1 X18.149 Y6.078 Z-2.289 F599.561 
G1 X18.208 Y5.254 Z-2.300 F595.672 
G1 X18.238 Y4.920 Z-2.293 F593.154 
G1 X18.246 Y4.849 Z-2.292 F598.310 
G1 X18.373 Y3.719 Z-2.306 F596.292 
G1 X18.379 Y3.667 Z-2.308 F592.294 
G1 X18.385 Y3.640 Z-2.308 F598.899 
G1 X18.553 Y2.558 Z-2.320 F596.429 
G1 X18.569 Y2.468 Z-2.323 F589.972 
G1 X18.631 Y2.128 Z-2.342 F583.403 
G1 X18.770 Y1.451 Z-2.353 F595.398 
G1 X18.794 Y1.341 Z-2.357 F587.257 
G1 X18.959 Y0.651 Z-2.404 F579.774 
G1 X19.022 Y0.410 Z-2.411 F592.420 
G1 X19.061 Y0.274 Z-2.419 F582.321 
G1 X19.313 Y-0.557 Z-2.499 F571.879 
G1 X19.360 Y-0.701 Z-2.518 F562.081 
G1 X19.377 Y-0.750 Z-2.526 F553.509 
G1 X19.495 Y-1.071 Z-2.567 F563.595 
G1 X19.538 Y-1.182 Z-2.584 F554.678 
G1 X19.621 Y-1.389 Z-2.623 F547.124 
G1 X19.678 Y-1.523 Z-2.645 F554.444 
G1 X19.739 Y-1.662 Z-2.673 F544.893 
G1 X19.883 Y-1.973 Z-2.747 F535.189 
G1 X19.899 Y-2.005 Z-2.755 F533.536 
G1 X19.971 Y-2.146 Z-2.792 F529.061 
G1 X20.120 Y-2.423 Z-2.877 F519.359 
G1 X20.211 Y-2.582 Z-2.933 F510.006 
G1 X20.251 Y-2.647 Z-2.957 F503.701 
G1 X20.490 Y-3.019 Z-3.109 F499.200 
G1 X20.551 Y-3.113 Z-3.149 F494.205 
G1 X20.676 Y-3.283 Z-3.231 F486.684 
G1 X20.790 Y-3.431 Z-3.311 F477.199 
G1 X20.918 Y-3.592 Z-3.405 F468.237 
G1 X20.999 Y-3.683 Z-3.464 F462.721 
G1 X21.111 Y-3.807 Z-3.548 F458.198 
G1 X21.312 Y-4.017 Z-3.706 F447.212 
G1 X21.432 Y-4.128 Z-3.801 F439.043 
G1 X21.545 Y-4.229 Z-3.894 F432.704 
G1 X21.720 Y-4.380 Z-4.041 F426.993 
G1 X22.073 Y-4.640 Z-4.341 F416.266 
G1 X22.133 Y-4.681 Z-4.395 F406.339 
G1 X22.193 Y-4.721 Z-4.445 F413.760 
G1 X22.524 Y-4.923 Z-4.735 F404.096 
G1 X22.890 Y-5.107 Z-5.058 F396.014 
G1 X22.953 Y-5.134 Z-5.112 F395.580 
G1 X23.066 Y-5.182 Z-5.209 F394.890 
G1 X23.074 Y-5.312 Z-5.079 F357.416 
G1 X23.076 Y-5.371 Z-5.016 F350.781 
G1 X23.096 Y-5.678 Z-4.676 F344.425 
G1 X23.097 Y-5.727 Z-4.618 F337.983 
G1 X23.115 Y-5.992 Z-4.298 F331.570 
G1 X23.116 Y-6.037 Z-4.242 F325.206 
G1 X23.131 Y-6.262 Z-3.947 F319.329 
G1 X23.132 Y-6.303 Z-3.891 F313.215 
G1 X23.144 Y-6.485 Z-3.634 F307.897 
G1 X23.145 Y-6.518 Z-3.585 F302.438 
G1 X23.155 Y-6.665 Z-3.360 F297.683 
G1 X23.155 Y-6.683 Z-3.332 F293.087 
G1 X23.163 Y-6.792 Z-3.155 F289.294 
G1 X23.163 Y-6.799 Z-3.143 F286.109 
G1 X23.167 Y-6.853 Z-3.051 F283.483 
G1 X23.167 Y-6.860 Z-3.040 F280.672 
G0 Z3.000 
G0 X6.417 Y-11.594 Z3.000 
G1 X6.417 Y-11.594 Z-1.290 F120.000 
G1 X6.411 Y-11.664 Z-1.409 F281.366 
G1 X6.397 Y-11.756 Z-1.566 F283.064 
G1 X6.392 Y-11.816 Z-1.667 F285.188 
G1 X6.378 Y-11.907 Z-1.818 F287.584 
G1 X6.373 Y-11.967 Z-1.915 F290.171 
G1 X6.358 Y-12.068 Z-2.076 F293.084 
G1 X6.351 Y-12.142 Z-2.190 F296.209 
G1 X6.347 Y-12.171 Z-2.234 F299.736 
G1 X6.339 Y-12.267 Z-2.374 F304.716 
G1 X6.296 Y-12.582 Z-2.816 F310.282 
G1 X6.286 Y-12.728 Z-3.009 F318.250 
G1 X6.260 Y-12.933 Z-3.267 F326.579 
G1 X6.245 Y-13.139 Z-3.509 F335.640 
G1 X6.228 Y-13.274 Z-3.660 F344.799 
G1 X6.209 Y-13.560 Z-3.954 F356.089 
G1 X6.207 Y-13.579 Z-3.973 F367.500 
G1 X6.192 Y-13.827 Z-4.189 F381.527 
G1 X6.192 Y-13.838 Z-4.197 F397.584 
G1 X5.987 Y-13.967 Z-3.976 F374.071 
G1 X5.699 Y-14.191 Z-3.638 F371.895 
G1 X5.579 Y-14.290 Z-3.500 F378.698 
G1 X5.493 Y-14.367 Z-3.392 F370.060 
G1 X5.076 Y-14.779 Z-2.892 F384.191 
G1 X4.916 Y-14.975 Z-2.698 F400.032 
G1 X4.765 Y-15.172 Z-2.518 F407.913 
G1 X4.603 Y-15.400 Z-2.330 F419.260 
G1 X4.445 Y-15.675 Z-2.144 F437.610 
G1 X4.328 Y-15.901 Z-2.013 F454.872 
G1 X4.216 Y-16.139 Z-1.893 F469.607 
G1 X4.165 Y-16.275 Z-1.837 F488.277 
G1 X4.071 Y-16.543 Z-1.741 F499.409 
G1 X3.991 Y-16.811 Z-1.666 F520.874 
G1 X3.952 Y-16.970 Z-1.636 F543.635 
G1 X3.916 Y-17.126 Z-1.601 F534.954 
G1 X3.880 Y-17.315 Z-1.571 F552.759 
G1 X3.821 Y-17.683 Z-1.535 F570.522 
G1 X3.802 Y-17.824 Z-1.528 F583.944 
G1 X3.798 Y-17.864 Z-1.528 F598.468 
G1 X3.763 Y-18.248 Z-1.515 F589.944 
G1 X3.755 Y-18.363 Z-1.515 F600.000 
G1 X3.733 Y-18.798 Z-1.531 F588.792 
G1 X3.732 Y-18.845 Z-1.531 F596.696 
G1 X3.730 Y-18.930 Z-1.535 F588.573 
G1 X3.729 Y-19.534 Z-1.574 F579.987 
G1 X3.731 Y-19.657 Z-1.587 F568.784 
G1 X3.735 Y-19.757 Z-1.601 F557.744 
G1 X3.758 Y-20.184 Z-1.650 F564.841 
G1 X3.775 Y-20.371 Z-1.682 F548.324 
G1 X3.817 Y-20.724 Z-1.763 F531.594 
G1 X3.834 Y-20.857 Z-1.790 F538.886 
G1 X3.876 Y-21.097 Z-1.855 F520.364 
G1 X3.980 Y-21.581 Z-2.021 F501.410 
G1 X4.003 Y-21.684 Z-2.059 F494.501 
G1 X4.045 Y-21.832 Z-2.120 F484.032 
G1 X4.205 Y-22.350 Z-2.355 F474.881 
G1 X4.278 Y-22.562 Z-2.464 F462.338 
G1 X4.299 Y-22.618 Z-2.495 F451.204 
G1 X4.506 Y-23.151 Z-2.784 F457.262 
G1 X4.570 Y-23.304 Z-2.872 F449.889 
G1 X4.659 Y-23.511 Z-3.000 F442.102 
G1 X4.879 Y-23.996 Z-3.289 F448.312 
G1 X4.929 Y-24.102 Z-3.354 F444.560 
G1 X5.047 Y-24.348 Z-3.512 F440.313 
G1 X5.322 Y-24.894 Z-3.846 F447.135 
G1 X5.432 Y-25.117 Z-3.978 F450.923 
G1 X5.636 Y-25.512 Z-4.198 F459.465 
G1 X5.775 Y-25.811 Z-4.338 F477.017 
G1 X5.847 Y-25.956 Z-4.400 F487.886 
G1 X5.943 Y-26.177 Z-4.472 F511.491 
G1 X5.271 Y-26.460 Z-3.225 F281.724 
G1 X4.304 Y-26.831 Z-1.447 F281.144 
G0 Z3.000 
G0 X5.943 Y-26.177 Z3.000 
G1 X5.943 Y-26.177 Z-4.472 F120.000 
G1 X6.061 Y-26.360 Z-4.477 F593.663 
G1 X6.145 Y-26.503 Z-4.469 F584.769 
G1 X6.225 Y-26.649 Z-4.453 F570.654 
G1 X6.236 Y-26.669 Z-4.450 F559.057 
G1 X6.507 Y-27.178 Z-4.337 F540.953 
G1 X6.658 Y-27.494 Z-4.244 F520.923 
G1 X6.814 Y-27.810 Z-4.142 F513.642 
G1 X7.144 Y-28.528 Z-3.871 F498.964 
G1 X7.194 Y-28.633 Z-3.830 F496.621 
G1 X7.643 Y-29.653 Z-3.399 F487.341 
G1 X7.659 Y-29.691 Z-3.382 F478.360 
G1 X7.679 Y-29.739 Z-3.360 F480.640 
G1 X8.038 Y-30.624 Z-2.977 F483.270 
G1 X8.062 Y-30.687 Z-2.948 F473.327 
G1 X8.096 Y-30.780 Z-2.904 F477.850 
G1 X8.365 Y-31.540 Z-2.580 F482.702 
G1 X8.396 Y-31.633 Z-2.542 F487.748 
G1 X8.416 Y-31.698 Z-2.515 F486.772 
G1 X8.593 Y-32.323 Z-2.274 F491.060 
G1 X8.648 Y-32.544 Z-2.201 F505.351 
G1 X8.681 Y-32.696 Z-2.160 F520.707 
G1 X8.756 Y-33.080 Z-2.041 F510.102 
G1 X8.795 Y-33.330 Z-1.980 F528.021 
G1 X8.852 Y-33.815 Z-1.896 F547.469 
G1 X8.854 Y-33.839 Z-1.891 F537.598 
G1 X8.867 Y-34.034 Z-1.858 F552.609 
G1 X8.886 Y-34.577 Z-1.804 F568.506 
G1 X8.888 Y-34.695 Z-1.795 F578.573 
G1 X8.886 Y-34.982 Z-1.786 F588.728 
G1 X8.878 Y-35.327 Z-1.762 F578.816 
G1 X8.877 Y-35.392 Z-1.756 F584.243 
G1 X8.845 Y-36.084 Z-1.736 F590.249 
G1 X8.840 Y-36.177 Z-1.733 F598.026 
G1 X8.838 Y-36.195 Z-1.736 F593.316 
G1 X8.783 Y-36.789 Z-1.730 F596.981 
G1 X8.769 Y-36.906 Z-1.732 F592.731 
G1 X8.698 Y-37.439 Z-1.764 F582.290 
G1 X8.696 Y-37.453 Z-1.764 F582.436 
G1 X8.671 Y-37.596 Z-1.775 F576.051 
G1 X8.578 Y-38.048 Z-1.832 F563.508 
G1 X8.526 Y-38.266 Z-1.871 F544.893 
G1 X8.421 Y-38.639 Z-1.967 F527.210 
G1 X8.391 Y-38.740 Z-1.993 F519.435 
G1 X8.344 Y-38.874 Z-2.036 F509.618 
G1 X8.284 Y-39.032 Z-2.096 F499.916 
G1 X8.194 Y-39.246 Z-2.186 F484.870 
G1 X8.129 Y-39.388 Z-2.258 F470.732 
G1 X7.993 Y-39.657 Z-2.412 F454.433 
G1 X7.923 Y-39.784 Z-2.498 F439.674 
G1 X7.705 Y-40.136 Z-2.769 F422.305 
G1 X7.658 Y-40.203 Z-2.829 F407.149 
G1 X7.624 Y-40.251 Z-2.870 F413.136 
G1 X7.301 Y-40.658 Z-3.276 F396.858 
G1 X7.210 Y-40.761 Z-3.397 F382.926 
G1 X7.207 Y-40.764 Z-3.401 F386.002 
G1 X6.741 Y-41.223 Z-3.998 F373.272 
G1 X6.706 Y-41.253 Z-4.043 F365.096 
G1 X6.590 Y-41.350 Z-4.192 F364.502 
G1 X6.308 Y-41.577 Z-4.554 F358.852 
G1 X6.107 Y-41.717 Z-4.806 F356.005 
G0 Z3.000 
G0 X6.072 Y-42.654 Z3.000 
G1 X6.072 Y-42.654 Z-4.156 F120.000 
G1 X6.075 Y-42.631 Z-4.181 F355.959 
G1 X6.081 Y-42.555 Z-4.252 F369.337 
G1 X6.082 Y-42.527 Z-4.276 F382.257 
G1 X6.090 Y-42.409 Z-4.371 F393.306 
G1 X6.094 Y-42.238 Z-4.497 F406.353 
G1 X6.097 Y-42.187 Z-4.532 F417.153 
G1 X6.104 Y-41.890 Z-4.716 F430.357 
G1 X6.104 Y-41.882 Z-4.720 F442.131 
G1 X6.107 Y-41.717 Z-4.806 F452.981 
G1 X5.931 Y-41.574 Z-4.583 F363.429 
G1 X5.871 Y-41.523 Z-4.509 F366.570 
G1 X5.809 Y-41.469 Z-4.427 F361.263 
G1 X5.437 Y-41.116 Z-3.945 F369.375 
G1 X5.269 Y-40.929 Z-3.722 F378.555 
G1 X5.168 Y-40.812 Z-3.590 F383.608 
G1 X4.997 Y-40.605 Z-3.370 F390.183 
G1 X4.821 Y-40.359 Z-3.138 F400.189 
G1 X4.734 Y-40.230 Z-3.025 F408.976 
G1 X4.585 Y-39.994 Z-2.837 F418.531 
G1 X4.519 Y-39.875 Z-2.752 F428.914 
G1 X4.441 Y-39.729 Z-2.651 F433.889 
G1 X4.299 Y-39.433 Z-2.476 F449.057 
G1 X4.235 Y-39.287 Z-2.398 F464.781 
G1 X4.227 Y-39.269 Z-2.388 F460.195 
G1 X4.154 Y-39.079 Z-2.297 F470.813 
G1 X4.087 Y-38.894 Z-2.217 F482.447 
G1 X4.011 Y-38.653 Z-2.132 F498.220 
G1 X3.966 Y-38.495 Z-2.083 F515.151 
G1 X3.892 Y-38.216 Z-1.993 F507.807 
G1 X3.844 Y-38.006 Z-1.940 F523.749 
G1 X3.739 Y-37.474 Z-1.830 F539.753 
G1 X3.715 Y-37.337 Z-1.809 F551.404 
G1 X3.620 Y-36.709 Z-1.730 F562.829 
G1 X3.610 Y-36.627 Z-1.723 F570.589 
G1 X3.607 Y-36.610 Z-1.722 F573.336 
G1 X3.529 Y-35.885 Z-1.663 F576.164 
G1 X3.522 Y-35.807 Z-1.661 F582.739 
G1 X3.455 Y-34.986 Z-1.633 F590.216 
G1 X3.456 Y-34.985 Z-1.635 F600.000 
G1 X3.440 Y-34.800 Z-1.627 F590.292 
G0 Z3.000 
G0 X4.402 Y-33.327 Z3.000 
G1 X4.402 Y-33.327 Z0.428 F120.000 
G1 X4.629 Y-33.212 Z0.865 F280.923 
G0 Z3.000 
G0 X4.556 Y-33.102 Z3.000 
G1 X4.556 Y-33.102 Z0.866 F120.000 
G1 X4.440 Y-33.226 Z0.580 F283.655 
G1 X4.473 Y-33.055 Z0.865 F287.870 
G0 Z3.000 
G0 X4.380 Y-33.068 Z3.000 
G1 X4.380 Y-33.068 Z0.866 F120.000 
G1 X4.425 Y-33.260 Z0.526 F280.695 
G1 X4.402 Y-33.327 Z0.428 F311.893 
G1 X4.318 Y-33.501 Z0.187 F327.202 
G1 X4.292 Y-33.549 Z0.124 F336.689 
G1 X4.275 Y-33.578 Z0.086 F334.575 
G1 X4.172 Y-33.751 Z-0.157 F332.284 
G1 X4.021 Y-33.985 Z-0.480 F337.831 
G1 X3.997 Y-34.021 Z-0.527 F336.509 
G1 X3.966 Y-34.067 Z-0.596 F334.611 
G1 X3.440 Y-34.800 Z-1.629 F339.417 
G1 X3.255 Y-34.662 Z-1.321 F318.011 
G1 X3.214 Y-34.631 Z-1.255 F318.860 
G1 X1.926 Y-33.643 Z0.866 F319.696 
G0 Z3.000 
G0 X4.425 Y-33.260 Z3.000 
G1 X4.425 Y-33.260 Z0.526 F120.000 
G1 X4.440 Y-33.226 Z0.581 F302.567 
G0 Z3.000 
G0 X6.077 Y-42.661 Z3.000 
G1 X6.077 Y-42.661 Z-4.143 F120.000 
G1 X6.072 Y-42.654 Z-4.159 F280.527 
G1 X6.070 Y-42.662 Z-4.149 F332.664 
G1 X6.054 Y-42.710 Z-4.085 F324.739 
G1 X6.025 Y-42.781 Z-3.983 F317.927 
G1 X6.000 Y-42.856 Z-3.875 F312.240 
G1 X5.939 Y-43.011 Z-3.638 F307.340 
G1 X5.925 Y-43.055 Z-3.569 F302.237 
G1 X5.866 Y-43.203 Z-3.328 F297.633 
G1 X5.864 Y-43.207 Z-3.320 F294.302 
G1 X5.786 Y-43.402 Z-2.981 F289.673 
G1 X5.747 Y-43.522 Z-2.773 F286.520 
G1 X5.686 Y-43.676 Z-2.496 F284.130 
G1 X5.590 Y-43.981 Z-1.951 F282.223 
G1 X4.964 Y-45.490 Z0.865 F280.666 
G0 Z3.000 
G0 X-5.689 Y-43.289 Z3.000 
G1 X-5.689 Y-43.289 Z-3.313 F120.000 
G1 X-5.801 Y-43.036 Z-3.789 F280.684 
G1 X-5.834 Y-42.969 Z-3.918 F281.435 
G1 X-5.863 Y-42.916 Z-4.020 F282.334 
G1 X-5.890 Y-42.873 Z-4.106 F283.541 
G1 X-5.894 Y-42.883 Z-4.091 F323.271 
G1 X-5.930 Y-42.971 Z-3.966 F317.158 
G1 X-5.964 Y-43.041 Z-3.855 F308.452 
G1 X-5.974 Y-43.063 Z-3.821 F302.385 
G1 X-6.004 Y-43.123 Z-3.718 F296.244 
G1 X-6.042 Y-43.208 Z-3.570 F291.989 
G1 X-6.089 Y-43.338 Z-3.346 F288.459 
G0 Z3.000 
G0 X-6.105 Y-43.493 Z3.000 
G1 X-6.105 Y-43.493 Z-3.076 F120.000 
G1 X-6.089 Y-43.338 Z-3.346 F280.726 
G1 X-6.117 Y-43.396 Z-3.237 F284.233 
G1 X-6.167 Y-43.488 Z-3.059 F282.785 
G1 X-6.205 Y-43.550 Z-2.934 F281.591 
G1 X-6.246 Y-43.611 Z-2.808 F280.781 
G0 Z3.000 
G0 X-5.890 Y-42.873 Z3.000 
G1 X-5.890 Y-42.873 Z-4.107 F120.000 
G1 X-5.873 Y-42.793 Z-4.186 F364.685 
G1 X-5.857 Y-42.700 Z-4.273 F372.143 
G1 X-5.848 Y-42.634 Z-4.330 F382.218 
G1 X-5.845 Y-42.613 Z-4.348 F392.658 
G1 X-5.830 Y-42.507 Z-4.428 F402.593 
G1 X-5.819 Y-42.391 Z-4.510 F413.614 
G1 X-5.811 Y-42.283 Z-4.580 F425.040 
G1 X-5.811 Y-42.254 Z-4.597 F440.195 
G1 X-5.789 Y-41.816 Z-4.828 F451.112 
G1 X-5.856 Y-41.757 Z-4.741 F366.709 
G1 X-5.863 Y-41.751 Z-4.732 F364.040 
G1 X-5.980 Y-41.642 Z-4.578 F364.124 
G1 X-6.372 Y-41.248 Z-4.067 F373.000 
G1 X-6.408 Y-41.207 Z-4.018 F378.387 
G1 X-6.652 Y-40.924 Z-3.689 F379.114 
G1 X-6.955 Y-40.542 Z-3.289 F390.427 
G1 X-7.023 Y-40.446 Z-3.202 F403.051 
G1 X-7.051 Y-40.407 Z-3.164 F395.874 
G1 X-7.278 Y-40.044 Z-2.854 F409.213 
G1 X-7.363 Y-39.893 Z-2.743 F423.885 
G1 X-7.509 Y-39.612 Z-2.554 F436.774 
G1 X-7.588 Y-39.445 Z-2.458 F450.932 
G1 X-7.617 Y-39.383 Z-2.421 F454.118 
G1 X-7.680 Y-39.230 Z-2.339 F459.988 
G1 X-7.751 Y-39.044 Z-2.250 F468.856 
G1 X-7.834 Y-38.802 Z-2.146 F483.864 
G1 X-7.964 Y-38.375 Z-1.997 F500.194 
G1 X-8.022 Y-38.160 Z-1.932 F516.093 
G1 X-8.024 Y-38.153 Z-1.930 F526.791 
G1 X-8.132 Y-37.652 Z-1.808 F527.182 
G1 X-8.162 Y-37.499 Z-1.774 F539.957 
G1 X-8.256 Y-36.929 Z-1.687 F552.768 
G1 X-8.259 Y-36.910 Z-1.682 F555.065 
G1 X-8.272 Y-36.807 Z-1.668 F558.408 
G1 X-8.340 Y-36.174 Z-1.602 F567.562 
G1 X-8.350 Y-36.070 Z-1.593 F577.219 
G1 X-8.371 Y-35.758 Z-1.581 F586.803 
G1 X-8.391 Y-35.382 Z-1.552 F577.118 
G1 X-8.395 Y-35.293 Z-1.545 F585.471 
G1 X-8.404 Y-34.835 Z-1.539 F593.809 
G0 Z3.000 
G0 X-9.480 Y-33.954 Z3.000 
G1 X-9.480 Y-33.954 Z0.452 F120.000 
G1 X-9.293 Y-34.104 Z0.084 F296.461 
G1 X-9.232 Y-34.159 Z-0.037 F301.165 
G1 X-8.872 Y-34.453 Z-0.705 F305.762 
G1 X-8.872 Y-34.453 Z-0.705 F600.000 
G1 X-8.434 Y-34.811 Z-1.485 F311.658 
G1 X-8.404 Y-34.835 Z-1.538 F314.201 
G1 X-8.385 Y-34.809 Z-1.503 F346.347 
G1 X-8.179 Y-34.551 Z-1.132 F342.289 
G1 X-8.150 Y-34.515 Z-1.080 F343.740 
G1 X-8.019 Y-34.355 Z-0.853 F345.103 
G1 X-7.028 Y-33.176 Z0.865 F343.399 
G0 Z3.000 
G0 X-9.649 Y-33.767 Z3.000 
G1 X-9.649 Y-33.767 Z0.866 F120.000 
G1 X-9.480 Y-33.954 Z0.452 F287.287 
G1 X-9.707 Y-33.870 Z0.866 F281.598 
G0 Z3.000 
G0 X-14.084 Y-29.456 Z3.000 
G1 X-14.084 Y-29.456 Z-4.374 F120.000 
G1 X-13.545 Y-28.818 Z-3.445 F343.748 
G1 X-13.166 Y-28.237 Z-2.791 F368.822 
G1 X-13.154 Y-28.216 Z-2.765 F373.692 
G1 X-12.910 Y-27.709 Z-2.465 F448.738 
G1 X-12.749 Y-27.213 Z-2.168 F441.734 
G1 X-12.709 Y-27.032 Z-2.059 F438.215 
G1 X-12.680 Y-26.851 Z-1.951 F436.837 
G1 X-12.670 Y-26.779 Z-1.935 F537.008 
G1 X-12.647 Y-26.534 Z-1.896 F550.945 
G1 X-12.628 Y-26.222 Z-1.866 F571.137 
G1 X-12.625 Y-26.122 Z-1.859 F579.325 
G1 X-12.594 Y-24.910 Z-1.810 F587.474 
G1 X-12.593 Y-24.868 Z-1.809 F591.212 
G1 X-12.571 Y-23.025 Z-1.776 F594.597 
G1 X-12.572 Y-23.003 Z-1.776 F597.275 
G1 X-12.568 Y-22.248 Z-1.773 F598.704 
G1 X-12.565 Y-20.716 Z-1.760 F597.527 
G1 X-12.565 Y-20.714 Z-1.760 F600.000 
G1 X-12.561 Y-18.256 Z-1.741 F597.626 
G1 X-12.551 Y-16.768 Z-1.715 F594.724 
G1 X-12.548 Y-15.944 Z-1.696 F592.803 
G1 X-12.529 Y-14.041 Z-1.629 F589.328 
G1 X-12.505 Y-12.955 Z-1.568 F582.748 
G1 X-12.503 Y-12.811 Z-1.558 F578.727 
G1 X-12.478 Y-12.007 Z-1.480 F570.424 
G0 Z3.000 
G0 X-11.967 Y-11.497 Z3.000 
G1 X-11.967 Y-11.497 Z-0.552 F120.000 
G1 X-11.160 Y-11.337 Z0.865 F280.714 
G0 Z3.000 
G0 X-11.291 Y-10.987 Z3.000 
G1 X-11.291 Y-10.987 Z0.866 F120.000 
G1 X-11.789 Y-11.299 Z-0.144 F281.055 
G1 X-11.869 Y-11.387 Z-0.334 F290.673 
G1 X-11.873 Y-11.392 Z-0.344 F295.980 
G1 X-11.967 Y-11.497 Z-0.552 F302.096 
G1 X-11.999 Y-11.528 Z-0.614 F311.395 
G1 X-12.032 Y-11.563 Z-0.676 F319.003 
G1 X-12.329 Y-11.861 Z-1.215 F322.694 
G1 X-12.478 Y-12.007 Z-1.479 F324.455 
G1 X-12.550 Y-11.926 Z-1.344 F325.973 
G1 X-13.719 Y-10.650 Z0.866 F323.032 
G0 Z3.000 
G0 X-11.789 Y-11.299 Z3.000 
G1 X-11.789 Y-11.299 Z-0.143 F120.000 
G1 X-11.784 Y-11.293 Z-0.130 F284.608 
G0 Z3.000 
G0 X-11.518 Y-10.777 Z3.000 
G1 X-11.518 Y-10.777 Z0.865 F120.000 
G1 X-11.784 Y-11.293 Z-0.130 F281.383 
G1 X-11.388 Y-10.866 Z0.864 F281.882 
G0 Z3.000 
G0 X-9.900 Y-10.584 Z3.000 
G1 X-9.900 Y-10.584 Z0.864 F120.000 
G1 X-9.403 Y-11.126 Z-0.071 F323.553 
G1 X-10.102 Y-12.898 Z0.866 F460.098 
G0 Z3.000 
G0 X-9.403 Y-11.126 Z3.000 
G1 X-9.403 Y-11.126 Z-0.071 F120.000 
G1 X-8.291 Y-10.584 Z0.864 F402.207 
G0 Z3.000 
G0 X-5.751 Y-13.070 Z3.000 
G1 X-5.751 Y-13.070 Z-3.189 F120.000 
G1 X-5.665 Y-13.213 Z-3.475 F281.652 
G1 X-5.654 Y-13.183 Z-3.433 F319.264 
G1 X-5.599 Y-13.049 Z-3.234 F311.321 
G1 X-5.555 Y-12.958 Z-3.087 F304.830 
G1 X-5.514 Y-12.867 Z-2.940 F301.613 
G1 X-5.404 Y-12.655 Z-2.573 F296.677 
G1 X-5.332 Y-12.538 Z-2.356 F292.205 
G1 X-5.272 Y-12.429 Z-2.156 F289.594 
G1 X-5.134 Y-12.219 Z-1.739 F286.080 
G0 Z3.000 
G0 X-5.077 Y-12.146 Z3.000 
G1 X-5.077 Y-12.146 Z-1.580 F120.000 
G1 X-4.075 Y-11.140 Z0.864 F280.744 
G0 Z3.000 
G0 X-4.303 Y-10.952 Z3.000 
G1 X-4.303 Y-10.952 Z0.865 F120.000 
G1 X-5.077 Y-12.146 Z-1.580 F280.995 
G1 X-5.134 Y-12.219 Z-1.738 F282.935 
G1 X-4.587 Y-10.811 Z0.866 F280.569 
G0 Z3.000 
G0 X-5.665 Y-13.213 Z3.000 
G1 X-5.665 Y-13.213 Z-3.474 F120.000 
G1 X-5.666 Y-13.223 Z-3.486 F342.140 
G1 X-5.675 Y-13.317 Z-3.582 F357.211 
G1 X-5.679 Y-13.341 Z-3.606 F364.161 
G1 X-5.693 Y-13.550 Z-3.793 F377.557 
G1 X-5.695 Y-13.641 Z-3.867 F390.629 
G1 X-5.705 Y-13.831 Z-4.015 F398.123 
G1 X-5.706 Y-14.000 Z-4.135 F410.922 
G1 X-5.710 Y-14.128 Z-4.221 F419.375 
G1 X-5.759 Y-14.161 Z-4.168 F374.311 
G1 X-5.850 Y-14.227 Z-4.062 F368.817 
G1 X-6.132 Y-14.438 Z-3.735 F370.957 
G1 X-6.145 Y-14.448 Z-3.720 F371.122 
G1 X-6.573 Y-14.825 Z-3.206 F375.798 
G1 X-6.600 Y-14.852 Z-3.172 F382.551 
G1 X-6.801 Y-15.062 Z-2.924 F383.723 
G1 X-7.011 Y-15.295 Z-2.671 F392.555 
G1 X-7.234 Y-15.598 Z-2.398 F408.710 
G1 X-7.373 Y-15.806 Z-2.235 F423.173 
G1 X-7.410 Y-15.862 Z-2.192 F426.441 
G1 X-7.649 Y-16.322 Z-1.912 F448.614 
G1 X-7.733 Y-16.517 Z-1.825 F481.297 
G1 X-7.748 Y-16.555 Z-1.807 F473.193 
G1 X-7.879 Y-16.952 Z-1.668 F502.084 
G1 X-7.952 Y-17.236 Z-1.605 F534.628 
G1 X-7.955 Y-17.248 Z-1.602 F534.334 
G1 X-7.999 Y-17.480 Z-1.563 F550.433 
G1 X-8.051 Y-17.838 Z-1.531 F572.605 
G1 X-8.070 Y-17.989 Z-1.524 F586.808 
G1 X-8.074 Y-18.043 Z-1.524 F598.874 
G1 X-8.104 Y-18.435 Z-1.516 F593.617 
G1 X-8.109 Y-18.525 Z-1.517 F597.622 
G1 X-8.125 Y-18.894 Z-1.530 F589.026 
G1 X-8.130 Y-19.068 Z-1.532 F596.313 
G1 X-8.131 Y-19.112 Z-1.534 F591.525 
G1 X-8.139 Y-19.659 Z-1.555 F587.943 
G1 X-8.139 Y-19.737 Z-1.560 F580.973 
G1 X-8.138 Y-19.790 Z-1.565 F572.701 
G1 X-8.127 Y-20.182 Z-1.591 F579.262 
G1 X-8.116 Y-20.369 Z-1.614 F562.838 
G1 X-8.083 Y-20.725 Z-1.678 F545.964 
G1 X-8.079 Y-20.759 Z-1.683 F553.430 
G1 X-8.038 Y-21.029 Z-1.747 F529.872 
G1 X-7.959 Y-21.421 Z-1.870 F508.535 
G1 X-7.896 Y-21.679 Z-1.971 F488.992 
G1 X-7.767 Y-22.132 Z-2.183 F471.187 
G1 X-7.708 Y-22.321 Z-2.280 F460.299 
G1 X-7.653 Y-22.480 Z-2.370 F450.244 
G1 X-7.505 Y-22.890 Z-2.592 F456.306 
G1 X-7.458 Y-23.013 Z-2.662 F449.892 
G1 X-7.377 Y-23.217 Z-2.785 F444.000 
G1 X-7.104 Y-23.880 Z-3.171 F449.015 
G1 X-6.852 Y-24.462 Z-3.495 F455.829 
G1 X-6.760 Y-24.663 Z-3.600 F464.266 
G1 X-6.619 Y-24.975 Z-3.760 F466.094 
G1 X-6.403 Y-25.427 Z-3.976 F475.731 
G1 X-6.264 Y-25.698 Z-4.094 F487.032 
G1 X-6.203 Y-25.824 Z-4.143 F496.932 
G1 X-6.076 Y-26.069 Z-4.227 F510.540 
G1 X-6.023 Y-26.177 Z-4.259 F520.638 
G1 X-5.904 Y-26.399 Z-4.312 F536.242 
G1 X-5.849 Y-26.509 Z-4.333 F548.503 
G1 X-5.753 Y-26.686 Z-4.357 F563.678 
G1 X-5.678 Y-26.835 Z-4.369 F578.285 
G1 X-5.615 Y-26.952 Z-4.371 F594.928 
G1 X-5.506 Y-27.168 Z-4.362 F588.508 
G1 X-5.485 Y-27.206 Z-4.358 F573.709 
G1 X-5.352 Y-27.473 Z-4.318 F558.703 
G1 X-5.326 Y-27.527 Z-4.306 F542.949 
G1 X-5.205 Y-27.772 Z-4.243 F530.049 
G1 X-5.132 Y-27.929 Z-4.195 F517.574 
G1 X-5.039 Y-28.119 Z-4.129 F507.626 
G1 X-4.917 Y-28.382 Z-4.027 F496.442 
G1 X-4.845 Y-28.530 Z-3.963 F487.790 
G1 X-4.662 Y-28.927 Z-3.782 F479.492 
G1 X-4.650 Y-28.953 Z-3.771 F480.820 
G1 X-4.630 Y-28.996 Z-3.750 F481.801 
G1 X-4.422 Y-29.479 Z-3.518 F472.618 
G1 X-4.386 Y-29.564 Z-3.481 F476.406 
G1 X-4.121 Y-30.211 Z-3.189 F480.300 
G1 X-4.116 Y-30.222 Z-3.187 F481.136 
G1 X-4.089 Y-30.294 Z-3.154 F477.445 
G1 X-3.594 Y-31.638 Z-2.564 F481.030 
G1 X-3.564 Y-31.722 Z-2.531 F485.545 
G1 X-3.548 Y-31.768 Z-2.511 F491.237 
G1 X-3.413 Y-32.180 Z-2.339 F484.382 
G1 X-3.384 Y-32.274 Z-2.303 F490.090 
G1 X-3.268 Y-32.660 Z-2.159 F496.111 
G1 X-3.221 Y-32.832 Z-2.107 F507.742 
G1 X-3.136 Y-33.177 Z-2.009 F520.312 
G1 X-3.095 Y-33.375 Z-1.967 F535.196 
G1 X-3.092 Y-33.389 Z-1.964 F539.593 
G1 X-3.040 Y-33.728 Z-1.896 F541.051 
G1 X-3.016 Y-33.934 Z-1.869 F557.857 
G1 X-3.006 Y-34.041 Z-1.858 F574.978 
G1 X-2.989 Y-34.300 Z-1.827 F563.940 
G1 X-2.984 Y-34.454 Z-1.817 F576.625 
G1 X-2.979 Y-34.693 Z-1.808 F590.061 
G1 X-2.980 Y-34.882 Z-1.795 F578.985 
G1 X-2.984 Y-35.002 Z-1.792 F588.761 
G1 X-3.000 Y-35.374 Z-1.790 F599.590 
G1 X-3.047 Y-36.124 Z-1.765 F589.631 
G1 X-3.050 Y-36.167 Z-1.762 F580.278 
G1 X-3.054 Y-36.216 Z-1.760 F584.450 
G1 X-3.130 Y-36.998 Z-1.730 F588.567 
G1 X-3.137 Y-37.057 Z-1.729 F593.328 
G1 X-3.209 Y-37.672 Z-1.727 F599.062 
G1 X-3.226 Y-37.794 Z-1.732 F590.354 
G1 X-3.265 Y-38.041 Z-1.748 F579.141 
G1 X-3.302 Y-38.257 Z-1.758 F585.517 
G1 X-3.353 Y-38.494 Z-1.787 F564.666 
G1 X-3.437 Y-38.827 Z-1.850 F544.294 
G1 X-3.543 Y-39.165 Z-1.950 F516.635 
G1 X-3.591 Y-39.291 Z-1.999 F491.169 
G1 X-3.647 Y-39.433 Z-2.063 F481.252 
G1 X-3.747 Y-39.639 Z-2.172 F464.076 
G1 X-3.803 Y-39.746 Z-2.234 F451.200 
G1 X-4.068 Y-40.183 Z-2.560 F427.190 
G1 X-4.135 Y-40.280 Z-2.646 F406.584 
G1 X-4.310 Y-40.516 Z-2.877 F397.027 
G1 X-4.564 Y-40.800 Z-3.203 F383.882 
G1 X-4.651 Y-40.891 Z-3.317 F374.588 
G1 X-5.077 Y-41.294 Z-3.891 F363.271 
G1 X-5.209 Y-41.398 Z-4.063 F357.425 
G1 X-5.325 Y-41.487 Z-4.214 F354.901 
G1 X-5.749 Y-41.792 Z-4.776 F348.244 
G1 X-5.789 Y-41.816 Z-4.827 F350.017 
G0 Z3.000 
G0 X-11.120 Y-45.626 Z3.000 
G1 X-11.120 Y-45.626 Z0.866 F120.000 
G1 X-12.370 Y-44.466 Z-1.306 F323.336 
G1 X-12.539 Y-44.302 Z-1.601 F326.580 
G1 X-12.848 Y-44.714 Z-0.903 F314.495 
G1 X-12.852 Y-44.720 Z-0.894 F310.756 
G1 X-12.972 Y-44.870 Z-0.617 F305.043 
G1 X-13.046 Y-44.951 Z-0.452 F299.137 
G0 Z3.000 
G0 X-13.059 Y-44.970 Z3.000 
G1 X-13.059 Y-44.970 Z-0.415 F120.000 
G1 X-13.082 Y-44.995 Z-0.360 F287.171 
G0 Z3.000 
G0 X-13.104 Y-45.025 Z3.000 
G1 X-13.104 Y-45.025 Z-0.296 F120.000 
G1 X-13.439 Y-45.611 Z0.865 F280.853 
G0 Z3.000 
G0 X-13.562 Y-45.521 Z3.000 
G1 X-13.562 Y-45.521 Z0.865 F120.000 
G1 X-13.104 Y-45.025 Z-0.296 F280.848 
G1 X-13.082 Y-44.995 Z-0.360 F283.430 
G1 X-13.662 Y-45.405 Z0.865 F280.607 
G0 Z3.000 
G0 X-13.745 Y-45.260 Z3.000 
G1 X-13.745 Y-45.260 Z0.865 F120.000 
G1 X-13.046 Y-44.951 Z-0.452 F280.720 
G1 X-13.059 Y-44.970 Z-0.415 F291.827 
G1 X-13.288 Y-45.676 Z0.866 F280.553 
G0 Z3.000 
G0 X-12.539 Y-44.302 Z3.000 
G1 X-12.539 Y-44.302 Z-1.602 F120.000 
G1 X-12.562 Y-44.122 Z-1.642 F532.892 
G1 X-12.763 Y-42.355 Z-2.002 F538.979 
G1 X-13.029 Y-39.869 Z-2.480 F542.289 
G1 X-13.331 Y-36.933 Z-3.021 F544.573 
G1 X-14.083 Y-29.462 Z-4.375 F545.491 
G1 X-14.084 Y-29.456 Z-4.376 F541.948 
G1 X-16.641 Y-27.504 Z-3.645 F531.682 
G1 X-16.701 Y-27.459 Z-3.707 F387.320 
G1 X-17.051 Y-27.199 Z-4.119 F368.886 
G1 X-17.060 Y-27.192 Z-4.131 F354.565 
G0 Z3.000 
G0 X-21.984 Y-30.811 Z3.000 
G1 X-21.984 Y-30.811 Z0.866 F120.000 
G1 X-23.959 Y-28.836 Z-2.555 F329.235 
G1 X-25.651 Y-27.144 Z-5.485 F329.239 
G0 Z3.000 
G0 X-25.650 Y-26.840 Z3.000 
G1 X-25.650 Y-26.840 Z-5.484 F120.000 
G1 X-24.100 Y-25.290 Z-2.798 F329.232 
G1 X-21.984 Y-23.174 Z0.865 F329.293 
G0 Z3.000 
G0 X-21.560 Y-18.439 Z3.000 
G1 X-21.560 Y-18.439 Z0.865 F120.000 
G1 X-23.980 Y-16.109 Z-3.327 F326.454 
G1 X-25.416 Y-14.728 Z-5.812 F326.452 
G0 Z3.000 
G0 X-25.415 Y-14.459 Z3.000 
G1 X-25.415 Y-14.459 Z-5.810 F120.000 
G1 X-25.258 Y-14.296 Z-5.539 F331.779 
G1 X-21.560 Y-10.497 Z0.865 F331.320 
G0 Z3.000 
G0 X-20.013 Y-11.025 Z3.000 
G1 X-20.013 Y-11.025 Z0.865 F120.000 
G1 X-19.063 Y-11.832 Z-0.772 F318.914 
G1 X-18.698 Y-12.151 Z-1.402 F320.203 
G1 X-18.548 Y-11.871 Z-0.956 F309.041 
G1 X-18.548 Y-11.870 Z-0.954 F301.843 
G1 X-18.458 Y-11.693 Z-0.649 F296.150 
G1 X-18.382 Y-10.817 Z0.865 F280.813 
G0 Z3.000 
G0 X-18.169 Y-10.856 Z3.000 
G1 X-18.169 Y-10.856 Z0.864 F120.000 
G1 X-18.408 Y-11.594 Z-0.465 F281.494 
G1 X-17.978 Y-10.947 Z0.865 F281.643 
G0 Z3.000 
G0 X-17.804 Y-11.102 Z3.000 
G1 X-17.804 Y-11.102 Z0.866 F120.000 
G1 X-18.450 Y-11.681 Z-0.627 F280.972 
G1 X-18.408 Y-11.594 Z-0.465 F285.067 
G0 Z3.000 
G0 X-18.450 Y-11.681 Z3.000 
G1 X-18.450 Y-11.681 Z-0.627 F120.000 
G1 X-18.458 Y-11.693 Z-0.649 F290.683 
G0 Z3.000 
G0 X-18.698 Y-12.151 Z3.000 
G1 X-18.698 Y-12.151 Z-1.402 F120.000 
G1 X-18.695 Y-12.165 Z-1.408 F486.490 
G1 X-18.635 Y-12.496 Z-1.509 F510.490 
G1 X-18.567 Y-12.959 Z-1.624 F526.245 
G1 X-18.399 Y-14.359 Z-1.904 F540.187 
G1 X-18.191 Y-16.371 Z-2.250 F548.257 
G1 X-17.923 Y-19.088 Z-2.692 F550.956 
G1 X-17.923 Y-19.093 Z-2.693 F551.085 
G1 X-17.624 Y-22.091 Z-3.188 F550.212 
G1 X-17.622 Y-22.111 Z-3.191 F548.974 
G1 X-17.364 Y-24.602 Z-3.622 F548.004 
G1 X-17.360 Y-24.639 Z-3.628 F545.896 
G1 X-17.168 Y-26.361 Z-3.947 F544.397 
G1 X-17.159 Y-26.441 Z-3.963 F541.056 
G1 X-17.097 Y-26.934 Z-4.066 F537.370 
G1 X-17.079 Y-27.062 Z-4.095 F531.767 
G1 X-17.060 Y-27.192 Z-4.128 F525.095 
G1 X-17.507 Y-27.686 Z-3.422 F350.649 
G1 X-17.861 Y-28.164 Z-2.735 F338.145 
G1 X-18.144 Y-28.657 Z-2.447 F456.649 
G1 X-18.338 Y-29.136 Z-2.168 F448.298 
G1 X-18.451 Y-29.603 Z-1.894 F442.033 
G1 X-18.489 Y-30.049 Z-1.633 F438.637 
G1 X-18.543 Y-37.673 Z-1.482 F593.972 
G1 X-18.588 Y-44.036 Z-1.358 F594.008 
G0 Z3.000 
G0 X-17.328 Y-45.320 Z3.000 
G1 X-17.328 Y-45.320 Z0.865 F120.000 
G1 X-18.588 Y-44.036 Z-1.359 F327.854 
G1 X-18.597 Y-44.045 Z-1.344 F328.899 
G1 X-19.867 Y-45.320 Z0.865 F328.916 
G0 Z3.000 
G0 X-21.121 Y-45.473 Z3.000 
G1 X-21.121 Y-45.473 Z0.865 F120.000 
G1 X-25.198 Y-41.472 Z-6.065 F330.656 
G1 X-25.271 Y-41.400 Z-6.188 F331.555 
G1 X-26.751 Y-42.862 Z-3.626 F328.407 
G1 X-27.442 Y-43.528 Z-2.429 F326.469 
G1 X-28.042 Y-44.108 Z-1.386 F326.227 
G1 X-28.702 Y-44.718 Z-0.240 F323.142 
G1 X-28.956 Y-44.955 Z0.206 F322.465 
G1 X-29.216 Y-45.176 Z0.662 F316.503 
G1 X-29.281 Y-45.222 Z0.775 F307.626 
G0 Z3.000 
G0 X-29.310 Y-45.267 Z3.000 
G1 X-29.310 Y-45.267 Z0.864 F120.000 
G1 X-29.281 Y-45.222 Z0.775 F283.740 
G1 X-29.333 Y-45.244 Z0.865 F289.350 
G0 Z3.000 
G0 X-31.046 Y-45.476 Z3.000 
G1 X-31.046 Y-45.476 Z0.866 F120.000 
G1 X-31.478 Y-45.208 Z-0.007 F281.224 
G1 X-31.473 Y-45.217 Z0.010 F286.816 
G0 Z3.000 
G0 X-31.478 Y-45.208 Z3.000 
G1 X-31.478 Y-45.208 Z-0.008 F120.000 
G1 X-31.562 Y-45.109 Z-0.211 F293.712 
G0 Z3.000 
G0 X-31.455 Y-45.724 Z3.000 
G1 X-31.455 Y-45.724 Z0.866 F120.000 
G1 X-31.562 Y-45.109 Z-0.211 F280.542 
G1 X-31.573 Y-45.094 Z-0.238 F300.288 
G1 X-31.690 Y-44.952 Z-0.501 F307.011 
G1 X-31.711 Y-44.930 Z-0.542 F315.973 
G1 X-31.758 Y-44.876 Z-0.633 F323.842 
G1 X-32.033 Y-44.574 Z-1.137 F328.102 
G1 X-32.307 Y-44.281 Z-1.627 F329.786 
G1 X-32.312 Y-44.286 Z-1.617 F323.470 
G1 X-33.694 Y-45.626 Z0.866 F321.505 
G0 Z3.000 
G0 X-35.010 Y-45.428 Z3.000 
G1 X-35.010 Y-45.428 Z0.866 F120.000 
G1 X-35.566 Y-45.105 Z-0.240 F280.825 
G1 X-35.635 Y-45.012 Z-0.416 F298.673 
G1 X-35.670 Y-44.959 Z-0.509 F304.277 
G1 X-35.770 Y-44.830 Z-0.733 F312.008 
G1 X-35.839 Y-44.733 Z-0.893 F315.900 
G1 X-36.075 Y-44.432 Z-1.386 F321.540 
G1 X-36.228 Y-44.251 Z-1.681 F326.904 
G1 X-36.250 Y-44.225 Z-1.723 F327.260 
G1 X-37.645 Y-45.626 Z0.866 F319.269 
G0 Z3.000 
G0 X-39.249 Y-45.778 Z3.000 
G1 X-39.249 Y-45.778 Z0.865 F120.000 
G1 X-40.591 Y-44.350 Z-1.610 F324.695 
G1 X-40.634 Y-44.393 Z-1.534 F329.123 
G1 X-42.019 Y-45.778 Z0.865 F329.234 
G0 Z3.000 
G0 X-40.591 Y-44.350 Z3.000 
G1 X-40.591 Y-44.350 Z-1.608 F120.000 
G1 X-40.539 Y-42.707 Z-1.697 F583.427 
G1 X-40.539 Y-42.700 Z-1.697 F583.372 
G1 X-40.416 Y-39.077 Z-1.910 F582.118 
G1 X-40.415 Y-39.053 Z-1.912 F579.510 
G1 X-40.311 Y-36.517 Z-2.093 F578.207 
G1 X-40.309 Y-36.476 Z-2.096 F574.943 
G1 X-40.266 Y-35.668 Z-2.171 F571.855 
G1 X-40.261 Y-35.594 Z-2.178 F565.900 
G1 X-40.226 Y-35.122 Z-2.240 F560.914 
G1 X-40.200 Y-34.886 Z-2.284 F543.772 
G1 X-40.185 Y-34.781 Z-2.310 F527.663 
G1 X-40.077 Y-34.268 Z-2.680 F411.932 
G1 X-39.893 Y-33.750 Z-3.054 F417.300 
G1 X-39.629 Y-33.224 Z-3.434 F424.669 
G1 X-39.358 Y-32.795 Z-3.744 F432.494 
G1 X-39.340 Y-32.769 Z-3.775 F362.396 
G1 X-38.932 Y-32.238 Z-4.550 F337.761 
G1 X-38.439 Y-31.698 Z-5.337 F348.815 
G1 X-37.854 Y-31.148 Z-6.138 F360.285 
G1 X-37.172 Y-30.589 Z-6.954 F371.866 
G1 X-36.380 Y-30.013 Z-7.794 F383.372 
G1 X-35.865 Y-30.826 Z-7.455 F496.285 
G1 X-35.445 Y-31.622 Z-7.122 F491.828 
G1 X-35.347 Y-31.835 Z-7.033 F489.192 
G1 X-35.254 Y-32.048 Z-6.944 F488.130 
G1 X-35.500 Y-32.946 Z-5.580 F302.982 
G1 X-35.507 Y-32.974 Z-5.539 F307.594 
G1 X-35.995 Y-34.741 Z-3.399 F336.492 
G1 X-36.021 Y-34.836 Z-3.321 F393.296 
G1 X-36.108 Y-35.176 Z-3.081 F417.226 
G1 X-36.153 Y-35.363 Z-2.978 F449.887 
G1 X-36.161 Y-35.402 Z-2.959 F461.547 
G1 X-36.215 Y-35.699 Z-2.833 F479.493 
G1 X-36.222 Y-35.752 Z-2.814 F498.010 
G1 X-36.259 Y-36.120 Z-2.709 F515.254 
G1 X-36.272 Y-36.342 Z-2.663 F537.595 
G1 X-36.278 Y-36.498 Z-2.636 F546.539 
G1 X-36.293 Y-37.361 Z-2.510 F555.890 
G1 X-36.294 Y-37.420 Z-2.503 F560.422 
G1 X-36.294 Y-37.577 Z-2.484 F564.388 
G1 X-36.294 Y-38.734 Z-2.342 F562.561 
G1 X-36.294 Y-38.767 Z-2.338 F564.805 
G1 X-36.278 Y-40.398 Z-2.161 F567.067 
G1 X-36.278 Y-40.409 Z-2.160 F566.688 
G1 X-36.270 Y-41.071 Z-2.093 F569.039 
G1 X-36.253 Y-42.227 Z-1.973 F568.425 
G1 X-36.242 Y-43.541 Z-1.824 F565.530 
G1 X-36.250 Y-44.225 Z-1.722 F554.562 
G0 Z3.000 
G0 X-35.566 Y-45.105 Z3.000 
G1 X-35.566 Y-45.105 Z-0.240 F120.000 
G1 X-35.550 Y-45.132 Z-0.191 F291.261 
G0 Z3.000 
G0 X-35.515 Y-45.179 Z3.000 
G1 X-35.515 Y-45.179 Z-0.094 F120.000 
G1 X-35.118 Y-45.574 Z0.866 F281.417 
G0 Z3.000 
G0 X-35.248 Y-45.671 Z3.000 
G1 X-35.248 Y-45.671 Z0.865 F120.000 
G1 X-35.515 Y-45.179 Z-0.094 F281.459 
G1 X-35.550 Y-45.132 Z-0.191 F285.793 
G1 X-35.403 Y-45.728 Z0.866 F280.771 
G0 Z3.000 
G0 X-32.307 Y-44.281 Z3.000 
G1 X-32.307 Y-44.281 Z-1.626 F120.000 
G1 X-32.311 Y-43.470 Z-1.674 F581.933 
G1 X-32.341 Y-41.047 Z-1.786 F585.884 
G1 X-32.341 Y-41.038 Z-1.787 F583.653 
G1 X-32.362 Y-39.636 Z-1.860 F584.189 
G1 X-32.369 Y-39.268 Z-1.876 F586.130 
G1 X-32.370 Y-39.246 Z-1.877 F584.714 
G1 X-32.408 Y-37.774 Z-1.963 F582.329 
G1 X-32.410 Y-37.734 Z-1.965 F578.948 
G1 X-32.449 Y-36.710 Z-2.044 F576.478 
G1 X-32.452 Y-36.639 Z-2.051 F570.948 
G1 X-32.469 Y-36.342 Z-2.087 F563.662 
G1 X-32.491 Y-36.110 Z-2.127 F547.551 
G1 X-32.507 Y-35.981 Z-2.157 F530.645 
G1 X-32.609 Y-35.479 Z-2.508 F416.177 
G1 X-32.784 Y-34.972 Z-2.863 F421.556 
G1 X-33.039 Y-34.456 Z-3.224 F429.007 
G1 X-33.244 Y-34.123 Z-3.456 F436.151 
G1 X-33.628 Y-33.608 Z-4.322 F314.810 
G1 X-34.093 Y-33.086 Z-5.200 F325.685 
G1 X-34.647 Y-32.557 Z-6.090 F337.114 
G1 X-35.254 Y-32.048 Z-6.944 F348.450 
G0 Z3.000 
G0 X-36.380 Y-30.013 Z3.000 
G1 X-36.380 Y-30.013 Z-7.794 F120.000 
G1 X-36.378 Y-28.815 Z-7.794 F600.000 
G0 Z3.000 
G0 X-39.703 Y-12.966 Z3.000 
G1 X-39.703 Y-12.966 Z-3.144 F120.000 
G1 X-39.457 Y-19.029 Z-3.570 F578.572 
G1 X-39.457 Y-19.042 Z-3.571 F578.885 
G1 X-39.384 Y-20.738 Z-3.698 F577.185 
G1 X-39.381 Y-20.790 Z-3.703 F574.714 
G1 X-39.307 Y-22.181 Z-3.829 F572.275 
G1 X-39.302 Y-22.269 Z-3.839 F568.145 
G1 X-39.237 Y-23.213 Z-3.951 F563.808 
G1 X-39.221 Y-23.399 Z-3.979 F555.061 
G1 X-39.194 Y-23.660 Z-4.026 F545.837 
G1 X-39.143 Y-24.031 Z-4.113 F529.926 
G1 X-39.132 Y-24.101 Z-4.133 F515.569 
G1 X-38.986 Y-24.743 Z-4.435 F468.598 
G1 X-38.819 Y-25.250 Z-4.674 F471.629 
G1 X-38.808 Y-25.281 Z-4.694 F430.919 
G1 X-38.528 Y-25.931 Z-5.381 F364.582 
G1 X-38.168 Y-26.589 Z-6.076 F371.565 
G1 X-37.724 Y-27.255 Z-6.780 F379.471 
G1 X-37.356 Y-27.734 Z-7.287 F386.737 
G1 X-36.948 Y-28.214 Z-7.794 F392.976 
G1 X-36.379 Y-28.815 Z-7.794 F600.000 
G1 X-35.696 Y-28.085 Z-7.303 F460.399 
G1 X-35.233 Y-27.521 Z-6.924 F453.425 
G1 X-34.745 Y-26.834 Z-6.299 F405.193 
G1 X-34.348 Y-26.159 Z-5.687 F397.103 
G1 X-34.037 Y-25.494 Z-5.084 F389.819 
G1 X-33.781 Y-24.753 Z-4.411 F383.304 
G1 X-33.769 Y-24.714 Z-4.388 F456.082 
G1 X-33.601 Y-23.898 Z-4.098 F497.055 
G1 X-33.587 Y-23.799 Z-4.076 F532.839 
G1 X-33.558 Y-23.532 Z-4.025 F542.724 
G1 X-33.525 Y-23.161 Z-3.969 F554.376 
G1 X-33.516 Y-23.029 Z-3.952 F560.820 
G1 X-33.430 Y-21.672 Z-3.804 F566.950 
G1 X-33.427 Y-21.611 Z-3.798 F569.949 
G1 X-33.323 Y-19.610 Z-3.620 F572.857 
G1 X-33.321 Y-19.575 Z-3.617 F575.147 
G1 X-33.211 Y-17.134 Z-3.428 F576.359 
G1 X-33.211 Y-17.120 Z-3.426 F576.374 
G1 X-33.035 Y-12.953 Z-3.124 F577.875 
G1 X-35.152 Y-10.650 Z0.865 F323.231 
G0 Z3.000 
G0 X-37.582 Y-10.650 Z3.000 
G1 X-37.582 Y-10.650 Z0.866 F120.000 
G1 X-39.491 Y-12.735 Z-2.745 F322.973 
G1 X-39.703 Y-12.966 Z-3.144 F323.450 
G1 X-39.800 Y-12.869 Z-2.977 F329.242 
G1 X-42.019 Y-10.650 Z0.866 F329.236 
G0 Z3.000 
G0 X-42.019 Y-8.817 Z3.000 
G1 X-42.019 Y-8.817 Z0.866 F120.000 
G1 X-38.939 Y-5.737 Z-4.468 F329.234 
G1 X-39.267 Y-5.127 Z-4.148 F468.186 
G1 X-39.506 Y-4.531 Z-3.837 F462.139 
G1 X-39.665 Y-3.946 Z-3.531 F457.348 
G1 X-39.748 Y-3.369 Z-3.230 F454.194 
G1 X-39.762 Y-3.013 Z-3.044 F453.031 
G1 X-39.761 Y1.195 Z-3.044 F600.000 
G1 X-39.761 Y5.229 Z-3.044 F600.000 
G1 X-39.766 Y8.420 Z-3.036 F599.176 
G1 X-39.775 Y9.865 Z-3.021 F596.977 
G1 X-42.019 Y11.209 Z0.866 F301.003 
G0 Z3.000 
G0 X-39.775 Y9.865 Z3.000 
G1 X-39.775 Y9.865 Z-3.022 F120.000 
G1 X-39.148 Y10.925 Z-1.915 F376.363 
G1 X-39.085 Y11.030 Z-1.804 F375.027 
G1 X-38.118 Y12.670 Z-0.062 F373.473 
G1 X-38.031 Y12.813 Z0.094 F370.306 
G1 X-37.785 Y13.231 Z0.559 F366.833 
G1 X-37.742 Y13.303 Z0.641 F362.148 
G1 X-37.687 Y13.397 Z0.752 F356.825 
G1 X-37.666 Y13.429 Z0.794 F347.629 
G0 Z3.000 
G0 X-37.626 Y13.438 Z3.000 
G1 X-37.626 Y13.438 Z0.865 F120.000 
G1 X-37.666 Y13.429 Z0.796 F284.595 
G1 X-37.640 Y13.481 Z0.865 F329.795 
G0 Z3.000 
G0 X-42.981 Y4.740 Z3.000 
G1 X-42.981 Y4.740 Z0.865 F120.000 
G1 X-43.398 Y4.758 Z0.149 F281.403 
G0 Z3.000 
G0 X-43.414 Y4.760 Z3.000 
G1 X-43.414 Y4.760 Z0.122 F120.000 
G1 X-43.398 Y4.758 Z0.149 F283.443 
G1 X-42.997 Y4.644 Z0.865 F281.316 
G0 Z3.000 
G0 X-43.034 Y4.553 Z3.000 
G1 X-43.034 Y4.553 Z0.864 F120.000 
G1 X-43.414 Y4.760 Z0.124 F281.537 
G1 X-43.454 Y4.771 Z0.056 F287.988 
G0 Z3.000 
G0 X-43.520 Y4.795 Z3.000 
G1 X-43.520 Y4.795 Z-0.056 F120.000 
G1 X-43.454 Y4.771 Z0.055 F293.400 
G1 X-43.095 Y4.466 Z0.864 F281.122 
G0 Z3.000 
G0 X-43.182 Y4.381 Z3.000 
G1 X-43.182 Y4.381 Z0.865 F120.000 
G1 X-43.520 Y4.795 Z-0.056 F280.762 
G1 X-43.650 Y4.858 Z-0.271 F300.322 
G1 X-43.884 Y4.949 Z-0.628 F307.187 
G1 X-44.013 Y5.010 Z-0.823 F313.800 
G1 X-44.126 Y5.065 Z-0.996 F311.704 
G1 X-44.413 Y5.212 Z-1.447 F309.720 
G1 X-44.621 Y5.328 Z-1.772 F313.321 
G1 X-44.977 Y5.497 Z-2.282 F320.792 
G1 X-45.319 Y5.640 Z-2.741 F327.670 
G1 X-45.630 Y5.752 Z-3.130 F335.065 
G1 X-45.837 Y5.816 Z-3.373 F342.563 
G0 Z3.000 
G0 X-45.355 Y6.739 Z3.000 
G1 X-45.355 Y6.739 Z-1.683 F120.000 
G1 X-45.395 Y6.666 Z-1.824 F281.107 
G1 X-45.459 Y6.525 Z-2.087 F282.858 
G1 X-45.624 Y6.229 Z-2.651 F285.513 
G1 X-45.639 Y6.206 Z-2.695 F288.239 
G1 X-45.777 Y5.943 Z-3.164 F292.676 
G1 X-45.801 Y5.889 Z-3.254 F297.522 
G1 X-45.837 Y5.816 Z-3.373 F301.387 
G1 X-45.958 Y5.787 Z-3.408 F517.450 
G1 X-46.152 Y5.727 Z-3.444 F546.625 
G1 X-46.176 Y5.719 Z-3.448 F545.656 
G1 X-46.231 Y5.702 Z-3.459 F544.195 
G1 X-46.583 Y5.573 Z-3.497 F568.710 
G1 X-47.007 Y5.397 Z-3.512 F590.408 
G1 X-47.146 Y5.334 Z-3.507 F591.198 
G0 Z3.000 
G0 X-47.291 Y3.782 Z3.000 
G1 X-47.291 Y3.782 Z-1.058 F120.000 
G1 X-47.307 Y3.700 Z-0.918 F283.736 
G0 Z3.000 
G0 X-47.640 Y2.719 Z3.000 
G1 X-47.640 Y2.719 Z0.865 F120.000 
G1 X-47.307 Y3.700 Z-0.917 F280.856 
G1 X-47.404 Y2.666 Z0.866 F281.138 
G0 Z3.000 
G0 X-47.141 Y2.675 Z3.000 
G1 X-47.141 Y2.675 Z0.865 F120.000 
G1 X-47.291 Y3.782 Z-1.058 F280.779 
G1 X-47.270 Y3.986 Z-1.394 F287.697 
G1 X-47.243 Y4.169 Z-1.690 F290.285 
G1 X-47.202 Y4.591 Z-2.355 F293.661 
G1 X-47.178 Y4.840 Z-2.746 F293.777 
G1 X-47.149 Y5.280 Z-3.424 F296.037 
G1 X-47.146 Y5.334 Z-3.508 F295.789 
G1 X-47.309 Y5.339 Z-3.379 F395.711 
G1 X-47.591 Y5.342 Z-3.163 F400.430 
G1 X-47.597 Y5.343 Z-3.159 F398.148 
G1 X-47.952 Y5.326 Z-2.892 F403.212 
G1 X-48.185 Y5.306 Z-2.730 F414.674 
G1 X-48.635 Y5.244 Z-2.452 F432.652 
G1 X-48.842 Y5.204 Z-2.343 F453.321 
G1 X-48.843 Y5.204 Z-2.342 F438.869 
G1 X-49.237 Y5.097 Z-2.153 F467.231 
G1 X-49.450 Y5.026 Z-2.069 F491.506 
G1 X-49.701 Y4.932 Z-1.988 F509.803 
G1 X-49.948 Y4.827 Z-1.925 F529.136 
G1 X-49.958 Y4.823 Z-1.922 F529.227 
G1 X-50.106 Y4.752 Z-1.886 F533.405 
G1 X-50.782 Y4.404 Z-1.751 F546.489 
G1 X-50.871 Y4.357 Z-1.736 F554.471 
G1 X-50.963 Y4.305 Z-1.723 F562.734 
G1 X-51.164 Y4.188 Z-1.686 F551.459 
G1 X-51.261 Y4.128 Z-1.671 F562.150 
G1 X-51.543 Y3.948 Z-1.641 F572.707 
G1 X-51.642 Y3.882 Z-1.635 F582.771 
G1 X-51.879 Y3.716 Z-1.628 F593.138 
G1 X-51.918 Y3.687 Z-1.625 F580.997 
G1 X-52.007 Y3.621 Z-1.622 F592.035 
G1 X-52.273 Y3.408 Z-1.625 F597.938 
G1 X-52.357 Y3.339 Z-1.629 F587.937 
G1 X-52.621 Y3.112 Z-1.654 F577.629 
G1 X-52.690 Y3.051 Z-1.664 F569.731 
G1 X-52.702 Y3.040 Z-1.665 F573.286 
G1 X-52.958 Y2.791 Z-1.699 F571.340 
G1 X-53.030 Y2.719 Z-1.711 F562.123 
G1 X-53.286 Y2.454 Z-1.768 F553.344 
G1 X-53.353 Y2.381 Z-1.786 F544.696 
G1 X-53.396 Y2.334 Z-1.799 F537.200 
G1 X-53.602 Y2.093 Z-1.852 F549.843 
G1 X-53.660 Y2.024 Z-1.869 F542.496 
G1 X-54.006 Y1.597 Z-1.987 F535.317 
G1 X-54.321 Y1.183 Z-2.074 F549.473 
G1 X-54.393 Y1.086 Z-2.098 F540.697 
G1 X-54.545 Y0.872 Z-2.157 F531.890 
G1 X-54.914 Y0.318 Z-2.274 F546.836 
G1 X-54.983 Y0.210 Z-2.300 F538.212 
G1 X-55.011 Y0.164 Z-2.313 F528.663 
G1 X-55.192 Y-0.151 Z-2.379 F545.243 
G1 X-55.246 Y-0.250 Z-2.402 F538.577 
G1 X-55.394 Y-0.526 Z-2.474 F531.299 
G1 X-55.429 Y-0.598 Z-2.487 F549.403 
G1 X-55.483 Y-0.713 Z-2.512 F540.878 
G1 X-55.634 Y-1.050 Z-2.595 F532.308 
G1 X-55.692 Y-1.186 Z-2.633 F523.480 
G1 X-55.693 Y-1.188 Z-2.634 F514.137 
G1 X-55.810 Y-1.515 Z-2.711 F533.281 
G1 X-55.868 Y-1.689 Z-2.758 F523.453 
G1 X-55.908 Y-1.817 Z-2.796 F513.868 
G1 X-55.959 Y-2.010 Z-2.839 F535.587 
G1 X-56.003 Y-2.194 Z-2.887 F523.768 
G1 X-56.047 Y-2.399 Z-2.949 F512.694 
G1 X-56.066 Y-2.511 Z-2.973 F536.868 
G1 X-56.096 Y-2.723 Z-3.026 F525.819 
G1 X-56.123 Y-2.962 Z-3.096 F513.882 
G1 X-56.129 Y-3.038 Z-3.112 F533.517 
G1 X-56.138 Y-3.176 Z-3.146 F526.276 
G1 X-56.138 Y-3.264 Z-3.167 F528.810 
G1 X-56.138 Y-3.400 Z-3.202 F524.300 
G1 X-56.133 Y-3.578 Z-3.237 F539.743 
G1 X-56.131 Y-3.613 Z-3.244 F538.284 
G1 X-56.114 Y-3.802 Z-3.281 F541.332 
G1 X-56.110 Y-3.838 Z-3.290 F531.466 
G1 X-56.074 Y-4.114 Z-3.342 F543.528 
G1 X-56.063 Y-4.189 Z-3.357 F539.397 
G1 X-56.038 Y-4.320 Z-3.383 F540.519 
G1 X-56.017 Y-4.428 Z-3.408 F532.481 
G1 X-55.993 Y-4.525 Z-3.424 F551.785 
G1 X-56.049 Y-4.548 Z-3.324 F283.798 
G1 X-56.082 Y-4.563 Z-3.264 F282.318 
G1 X-56.236 Y-4.626 Z-2.978 F281.142 
G0 Z3.000 
G0 X-55.993 Y-4.525 Z3.000 
G1 X-55.993 Y-4.525 Z-3.424 F120.000 
G1 X-55.952 Y-4.605 Z-3.401 F523.907 
G1 X-55.941 Y-4.625 Z-3.394 F508.110 
G1 X-55.862 Y-4.762 Z-3.348 F514.119 
G1 X-55.835 Y-4.802 Z-3.333 F503.009 
G1 X-55.646 Y-5.081 Z-3.225 F505.287 
G1 X-55.624 Y-5.113 Z-3.212 F506.970 
G1 X-55.541 Y-5.218 Z-3.163 F492.639 
G1 X-55.318 Y-5.493 Z-3.041 F498.576 
G1 X-55.313 Y-5.500 Z-3.039 F499.977 
G1 X-55.202 Y-5.621 Z-2.976 F489.424 
G1 X-55.026 Y-5.806 Z-2.887 F497.051 
G1 X-54.915 Y-5.919 Z-2.836 F505.670 
G1 X-54.891 Y-5.941 Z-2.825 F500.013 
G1 X-54.708 Y-6.105 Z-2.744 F502.480 
G1 X-54.545 Y-6.244 Z-2.682 F513.262 
G1 X-54.447 Y-6.323 Z-2.650 F524.549 
G1 X-54.357 Y-6.391 Z-2.615 F508.366 
G1 X-54.198 Y-6.506 Z-2.563 F521.157 
G1 X-54.006 Y-6.637 Z-2.512 F534.162 
G1 X-53.936 Y-6.683 Z-2.495 F538.441 
G1 X-53.823 Y-6.749 Z-2.467 F534.377 
G1 X-53.622 Y-6.860 Z-2.422 F540.825 
G1 X-53.453 Y-6.949 Z-2.394 F555.411 
G1 X-53.410 Y-6.970 Z-2.389 F568.772 
G1 X-53.244 Y-7.043 Z-2.358 F548.783 
G1 X-53.067 Y-7.117 Z-2.334 F561.612 
G1 X-52.907 Y-7.178 Z-2.320 F575.706 
G1 X-52.849 Y-7.197 Z-2.310 F550.561 
G1 X-52.672 Y-7.250 Z-2.287 F562.844 
G1 X-52.442 Y-7.313 Z-2.269 F576.269 
G1 X-52.440 Y-7.313 Z-2.269 F586.784 
G1 X-52.270 Y-7.348 Z-2.249 F566.005 
G1 X-52.030 Y-7.390 Z-2.231 F577.357 
G1 X-51.926 Y-7.408 Z-2.227 F586.442 
G1 X-51.880 Y-7.412 Z-2.224 F582.731 
G1 X-51.627 Y-7.438 Z-2.213 F586.907 
G1 X-51.483 Y-7.451 Z-2.212 F597.248 
G1 X-51.379 Y-7.457 Z-2.215 F591.526 
G1 X-51.218 Y-7.463 Z-2.211 F593.350 
G1 X-51.080 Y-7.465 Z-2.213 F596.684 
G1 X-50.832 Y-7.464 Z-2.223 F587.793 
G1 X-50.802 Y-7.463 Z-2.222 F596.994 
G1 X-50.629 Y-7.454 Z-2.229 F588.316 
G1 X-50.289 Y-7.427 Z-2.256 F575.865 
G1 X-50.032 Y-7.399 Z-2.264 F590.681 
G1 X-49.834 Y-7.372 Z-2.280 F576.020 
G1 X-49.751 Y-7.358 Z-2.290 F561.556 
G1 X-49.223 Y-7.257 Z-2.334 F575.333 
G1 X-49.181 Y-7.247 Z-2.335 F590.015 
G1 X-49.060 Y-7.219 Z-2.343 F581.734 
G1 X-48.707 Y-7.128 Z-2.375 F573.097 
G1 X-48.308 Y-7.014 Z-2.392 F587.640 
G1 X-48.213 Y-6.985 Z-2.398 F580.581 
G1 X-48.201 Y-6.982 Z-2.399 F572.988 
G1 X-47.713 Y-6.813 Z-2.419 F587.891 
G1 X-47.599 Y-6.770 Z-2.418 F596.471 
G1 X-47.446 Y-6.708 Z-2.422 F592.059 
G1 X-47.239 Y-6.619 Z-2.436 F581.317 
G1 X-46.955 Y-6.488 Z-2.440 F595.990 
G1 X-46.785 Y-6.404 Z-2.451 F582.175 
G1 X-46.731 Y-6.373 Z-2.455 F581.741 
G1 X-46.360 Y-6.155 Z-2.487 F577.532 
G1 X-46.348 Y-6.147 Z-2.487 F593.508 
G1 X-46.238 Y-6.076 Z-2.498 F575.212 
G1 X-46.130 Y-6.000 Z-2.508 F575.253 
G1 X-45.972 Y-5.885 Z-2.537 F556.258 
G1 X-45.963 Y-5.878 Z-2.538 F558.878 
G1 X-45.796 Y-5.740 Z-2.568 F558.456 
G1 X-45.658 Y-5.620 Z-2.601 F544.851 
G1 X-45.604 Y-5.572 Z-2.616 F539.718 
G1 X-45.481 Y-5.447 Z-2.650 F541.118 
G1 X-45.361 Y-5.321 Z-2.691 F529.359 
G1 X-45.286 Y-5.240 Z-2.719 F524.103 
G1 X-45.252 Y-5.198 Z-2.731 F531.424 
G1 X-43.500 Y-6.405 Z0.865 F283.283 
G0 Z3.000 
G0 X-42.863 Y-4.829 Z3.000 
G1 X-42.863 Y-4.829 Z0.865 F120.000 
G1 X-44.912 Y-4.400 Z-2.702 F282.184 
G1 X-44.966 Y-4.543 Z-2.696 F584.544 
G1 X-45.027 Y-4.700 Z-2.691 F594.396 
G1 X-45.127 Y-4.936 Z-2.701 F589.267 
G1 X-45.199 Y-5.089 Z-2.715 F572.749 
G1 X-45.252 Y-5.198 Z-2.731 F565.387 
G0 Z3.000 
G0 X-44.912 Y-4.400 Z3.000 
G1 X-44.912 Y-4.400 Z-2.704 F120.000 
G1 X-44.896 Y-4.284 Z-2.681 F539.687 
G1 X-44.872 Y-4.111 Z-2.648 F544.095 
G1 X-44.845 Y-3.811 Z-2.615 F566.163 
G1 X-44.824 Y-3.439 Z-2.597 F585.570 
G1 X-44.817 Y-3.196 Z-2.598 F598.369 
G1 X-44.820 Y-2.676 Z-2.629 F582.027 
G1 X-44.842 Y-2.277 Z-2.686 F556.616 
G1 X-44.859 Y-2.113 Z-2.723 F532.906 
G1 X-44.913 Y-1.748 Z-2.863 F489.512 
G1 X-44.999 Y-1.382 Z-3.002 F491.398 
G1 X-45.033 Y-1.259 Z-3.069 F451.691 
G1 X-45.045 Y-1.217 Z-3.092 F453.324 
G1 X-45.291 Y-0.556 Z-3.542 F426.314 
G1 X-45.911 Y-0.474 Z-3.060 F399.559 
G1 X-45.949 Y-0.472 Z-3.034 F414.343 
G1 X-46.075 Y-0.466 Z-2.947 F415.291 
G1 X-46.646 Y-0.475 Z-2.647 F452.182 
G1 X-46.941 Y-0.510 Z-2.486 F448.247 
G1 X-47.093 Y-0.534 Z-2.431 F494.168 
G1 X-47.515 Y-0.624 Z-2.318 F522.006 
G1 X-47.975 Y-0.751 Z-2.241 F550.945 
G1 X-48.055 Y-0.774 Z-2.229 F557.014 
G1 X-48.444 Y-0.891 Z-2.180 F562.974 
G0 Z3.000 
G0 X-50.202 Y0.323 Z3.000 
G1 X-50.202 Y0.323 Z0.865 F120.000 
G1 X-48.444 Y-0.891 Z-2.181 F306.953 
G1 X-48.837 Y-1.383 Z-1.498 F348.018 
G1 X-49.508 Y-2.222 Z-0.336 F348.005 
G1 X-50.202 Y-3.090 Z0.866 F348.023 
G0 Z3.000 
G0 X-45.291 Y-0.556 Z3.000 
G1 X-45.291 Y-0.556 Z-3.541 F120.000 
G1 X-45.209 Y-0.444 Z-3.404 F361.262 
G1 X-44.726 Y0.235 Z-2.561 F358.264 
G1 X-44.310 Y0.847 Z-1.790 F353.788 
G1 X-44.213 Y0.999 Z-1.595 F347.527 
G1 X-44.209 Y1.005 Z-1.587 F347.764 
G1 X-43.976 Y1.375 Z-1.114 F347.861 
G1 X-43.721 Y1.831 Z-0.511 F338.406 
G1 X-43.645 Y1.989 Z-0.296 F328.665 
G1 X-43.589 Y2.126 Z-0.104 F320.199 
G1 X-43.558 Y2.226 Z0.042 F310.137 
G0 Z3.000 
G0 X-43.546 Y2.290 Z3.000 
G1 X-43.546 Y2.290 Z0.142 F120.000 
G1 X-43.558 Y2.226 Z0.044 F299.536 
G1 X-43.207 Y2.550 Z0.866 F280.952 
G0 Z3.000 
G0 X-43.318 Y2.646 Z3.000 
G1 X-43.318 Y2.646 Z0.865 F120.000 
G1 X-43.546 Y2.290 Z0.142 F281.586 
G1 X-43.543 Y2.342 Z0.225 F289.906 
G0 Z3.000 
G0 X-43.444 Y2.703 Z3.000 
G1 X-43.444 Y2.703 Z0.866 F120.000 
G1 X-43.543 Y2.342 Z0.226 F281.664 
G1 X-43.585 Y2.719 Z0.865 F283.320 
G0 Z3.000 
G0 X-38.939 Y-5.737 Z3.000 
G1 X-38.939 Y-5.737 Z-4.467 F120.000 
G1 X-38.282 Y-5.863 Z-4.326 F536.631 
G1 X-37.504 Y-5.916 Z-4.159 F535.657 
G1 X-35.891 Y-5.915 Z-4.159 F600.000 
G1 X-32.989 Y-8.817 Z0.866 F329.259 
G0 Z3.000 
G0 X-32.142 Y-8.714 Z3.000 
G1 X-32.142 Y-8.714 Z0.865 F120.000 
G1 X-32.084 Y-8.684 Z0.773 F309.572 
G1 X-32.100 Y-8.735 Z0.865 F281.450 
G0 Z3.000 
G0 X-32.084 Y-8.684 Z3.000 
G1 X-32.084 Y-8.684 Z0.773 F120.000 
G1 X-31.959 Y-8.592 Z0.584 F328.982 
G1 X-31.928 Y-8.567 Z0.537 F335.010 
G1 X-31.504 Y-8.233 Z-0.096 F336.063 
G1 X-31.434 Y-8.174 Z-0.200 F340.426 
G1 X-30.041 Y-7.018 Z-2.251 F340.958 
G1 X-29.774 Y-6.793 Z-2.642 F342.750 
G1 X-27.975 Y-8.817 Z0.865 F321.052 
G0 Z3.000 
G0 X-29.238 Y-10.765 Z3.000 
G1 X-29.238 Y-10.765 Z0.866 F120.000 
G1 X-29.135 Y-10.856 Z0.683 F316.413 
G1 X-29.121 Y-10.869 Z0.657 F321.641 
G1 X-28.892 Y-11.085 Z0.254 F322.677 
G1 X-28.818 Y-11.157 Z0.124 F324.248 
G1 X-28.026 Y-11.918 Z-1.260 F324.868 
G1 X-27.697 Y-12.239 Z-1.835 F326.102 
G1 X-25.415 Y-14.459 Z-5.810 F326.365 
G1 X-25.415 Y-14.468 Z-5.809 F596.763 
G1 X-25.416 Y-14.728 Z-5.811 F598.472 
G1 X-26.329 Y-15.671 Z-4.240 F332.588 
G1 X-26.689 Y-16.071 Z-3.619 F338.311 
G1 X-27.077 Y-16.589 Z-3.248 F440.619 
G1 X-27.370 Y-17.091 Z-2.887 F430.353 
G1 X-27.576 Y-17.581 Z-2.536 F421.439 
G1 X-27.701 Y-18.062 Z-2.191 F414.684 
G1 X-27.752 Y-18.617 Z-1.793 F410.631 
G1 X-27.756 Y-20.895 Z-1.800 F599.074 
G1 X-27.760 Y-23.174 Z-1.807 F599.075 
G1 X-27.725 Y-23.648 Z-2.219 F381.521 
G1 X-27.616 Y-24.124 Z-2.633 F385.022 
G1 X-27.432 Y-24.604 Z-3.051 F391.556 
G1 X-27.169 Y-25.093 Z-3.476 F400.431 
G1 X-26.820 Y-25.592 Z-3.910 F410.867 
G1 X-26.537 Y-25.932 Z-4.205 F420.218 
G1 X-26.216 Y-26.273 Z-4.501 F427.835 
G1 X-25.650 Y-26.840 Z-5.484 F328.975 
G1 X-25.651 Y-26.992 Z-5.485 F598.992 
G1 X-25.651 Y-27.144 Z-5.485 F599.196 
G1 X-25.934 Y-27.426 Z-4.997 F329.526 
G1 X-26.223 Y-27.727 Z-4.498 F332.991 
G1 X-26.680 Y-28.277 Z-4.065 F433.533 
G1 X-27.038 Y-28.811 Z-3.644 F422.983 
G1 X-27.306 Y-29.332 Z-3.234 F413.348 
G1 X-27.491 Y-29.842 Z-2.833 F405.303 
G1 X-27.598 Y-30.345 Z-2.437 F399.538 
G1 X-27.622 Y-30.578 Z-2.254 F397.094 
G1 X-27.630 Y-30.811 Z-2.070 F396.407 
G1 X-27.633 Y-33.853 Z-2.076 F599.478 
G1 X-27.636 Y-36.895 Z-2.081 F599.488 
G1 X-27.601 Y-37.392 Z-2.414 F420.005 
G1 X-27.492 Y-37.892 Z-2.748 F422.958 
G1 X-27.307 Y-38.396 Z-3.086 F428.485 
G1 X-27.042 Y-38.910 Z-3.430 F435.996 
G1 X-26.625 Y-39.524 Z-3.841 F445.606 
G1 X-26.059 Y-40.176 Z-4.820 F340.764 
G1 X-25.275 Y-40.992 Z-6.180 F332.111 
G1 X-23.700 Y-39.448 Z-3.404 F325.131 
G1 X-21.278 Y-37.073 Z0.866 F325.141 
G0 Z3.000 
G0 X-25.275 Y-40.992 Z3.000 
G1 X-25.275 Y-40.992 Z-6.181 F120.000 
G1 X-25.271 Y-41.349 Z-6.187 F594.946 
G1 X-25.272 Y-41.350 Z-6.187 F600.000 
G1 X-25.271 Y-41.400 Z-6.188 F594.504 
G0 Z3.000 
G0 X-31.143 Y-45.595 Z3.000 
G1 X-31.143 Y-45.595 Z0.866 F120.000 
G1 X-31.473 Y-45.217 Z0.010 F281.980 
G1 X-31.276 Y-45.676 Z0.866 F281.373 
G0 Z3.000 
G0 X-33.035 Y-12.953 Z3.000 
G1 X-33.035 Y-12.953 Z-3.123 F120.000 
G1 X-32.942 Y-12.860 Z-2.962 F329.231 
G1 X-30.731 Y-10.650 Z0.865 F329.298 
G0 Z3.000 
G0 X-29.774 Y-6.793 Z3.000 
G1 X-29.774 Y-6.793 Z-2.642 F120.000 
G1 X-29.767 Y-6.741 Z-2.640 F587.726 
G1 X-29.735 Y-6.518 Z-2.630 F586.845 
G1 X-29.735 Y-6.517 Z-2.628 F600.000 
G1 X-29.439 Y-4.461 Z-2.542 F587.018 
G1 X-29.328 Y-3.937 Z-2.891 F422.282 
G1 X-29.143 Y-3.425 Z-3.244 F424.375 
G1 X-28.884 Y-2.921 Z-3.599 F428.791 
G1 X-28.547 Y-2.422 Z-3.960 F435.101 
G1 X-28.126 Y-1.927 Z-4.328 F442.780 
G1 X-27.930 Y-1.727 Z-4.479 F448.685 
G1 X-27.721 Y-1.529 Z-4.630 F452.203 
G1 X-27.714 Y-1.523 Z-4.640 F350.491 
G1 X-27.509 Y-1.342 Z-4.940 F346.297 
G1 X-27.874 Y-0.696 Z-4.487 F432.708 
G1 X-28.146 Y-0.082 Z-4.047 F422.754 
G1 X-28.332 Y0.505 Z-3.617 F413.658 
G1 X-28.437 Y1.068 Z-3.195 F406.003 
G1 X-28.467 Y1.609 Z-2.780 F400.383 
G1 X-28.455 Y1.861 Z-2.584 F397.834 
G1 X-28.427 Y2.111 Z-2.387 F396.990 
G1 X-28.214 Y3.558 Z-2.340 F589.853 
G1 X-28.208 Y3.595 Z-2.337 F592.695 
G1 X-27.969 Y5.111 Z-2.315 F595.241 
G1 X-27.962 Y5.158 Z-2.313 F598.075 
G1 X-27.852 Y5.799 Z-2.319 F597.931 
G1 X-27.852 Y5.809 Z-2.320 F596.847 
G1 X-27.689 Y6.773 Z-2.331 F596.500 
G1 X-27.684 Y6.802 Z-2.329 F593.904 
G1 X-27.386 Y8.487 Z-2.375 F592.196 
G1 X-27.260 Y8.995 Z-2.783 F397.272 
G1 X-27.061 Y9.493 Z-3.193 F400.369 
G1 X-26.787 Y9.984 Z-3.608 F405.937 
G1 X-26.433 Y10.470 Z-4.028 F413.459 
G1 X-25.995 Y10.953 Z-4.457 F422.350 
G1 X-25.709 Y11.222 Z-4.701 F429.851 
G1 X-25.399 Y11.488 Z-4.945 F435.380 
G1 X-24.870 Y10.972 Z-4.525 F441.847 
G1 X-24.438 Y10.456 Z-4.115 F432.928 
G1 X-24.095 Y9.939 Z-3.715 F424.961 
G1 X-23.833 Y9.420 Z-3.322 F418.480 
G1 X-23.649 Y8.895 Z-2.935 F413.993 
G1 X-23.598 Y8.689 Z-2.785 F412.266 
G1 X-23.558 Y8.482 Z-2.636 F411.835 
G1 X-23.222 Y6.495 Z-2.616 F597.073 
G1 X-23.220 Y6.477 Z-2.617 F598.355 
G1 X-23.096 Y5.726 Z-2.614 F599.518 
G1 X-22.712 Y3.345 Z-2.601 F598.252 
G1 X-22.707 Y3.313 Z-2.602 F599.050 
G1 X-22.531 Y2.168 Z-2.610 F597.494 
G1 X-22.486 Y1.628 Z-3.010 F405.880 
G1 X-22.512 Y1.074 Z-3.411 F408.554 
G1 X-22.612 Y0.505 Z-3.815 F413.534 
G1 X-22.788 Y-0.085 Z-4.225 F420.373 
G1 X-23.045 Y-0.697 Z-4.643 F428.548 
G1 X-23.225 Y-1.048 Z-4.878 F435.476 
G1 X-23.429 Y-1.403 Z-5.114 F440.577 
G1 X-23.245 Y-1.605 Z-4.852 F367.758 
G1 X-22.905 Y-2.006 Z-4.418 F388.743 
G1 X-22.608 Y-2.415 Z-3.983 F382.505 
G1 X-22.499 Y-2.578 Z-3.838 F408.093 
G1 X-22.176 Y-3.127 Z-3.491 F446.256 
G1 X-21.969 Y-3.582 Z-3.206 F441.575 
G1 X-21.908 Y-3.737 Z-3.140 F490.423 
G1 X-21.806 Y-4.022 Z-3.045 F505.181 
G1 X-21.698 Y-4.432 Z-2.965 F542.767 
G1 X-21.657 Y-4.620 Z-2.943 F567.586 
G1 X-21.601 Y-4.937 Z-2.931 F586.614 
G1 X-21.567 Y-5.178 Z-2.934 F593.739 
G1 X-21.561 Y-5.216 Z-2.937 F591.944 
G1 X-21.381 Y-6.594 Z-2.984 F589.255 
G1 X-22.059 Y-7.352 Z-1.673 F321.477 
G1 X-23.360 Y-8.817 Z0.865 F320.896 
G0 Z3.000 
G0 X-21.381 Y-6.594 Z3.000 
G1 X-21.381 Y-6.594 Z-2.984 F120.000 
G1 X-21.141 Y-6.801 Z-2.626 F341.524 
G1 X-20.639 Y-7.223 Z-1.877 F339.710 
G1 X-20.147 Y-7.642 Z-1.134 F338.844 
G1 X-19.789 Y-7.930 Z-0.591 F334.551 
G1 X-19.602 Y-8.073 Z-0.305 F330.366 
G1 X-19.500 Y-8.153 Z-0.145 F328.216 
G1 X-19.282 Y-8.308 Z0.200 F321.283 
G1 X-19.135 Y-8.395 Z0.437 F311.537 
G1 X-19.004 Y-8.610 Z0.866 F281.755 
G0 Z3.000 
G0 X-18.911 Y-8.530 Z3.000 
G1 X-18.911 Y-8.530 Z0.866 F120.000 
G1 X-19.085 Y-8.415 Z0.518 F285.309 
G1 X-19.135 Y-8.395 Z0.436 F297.024 
G0 Z3.000 
G0 X-19.085 Y-8.415 Z3.000 
G1 X-19.085 Y-8.415 Z0.519 F120.000 
G1 X-18.881 Y-8.435 Z0.866 F283.177 
G0 Z3.000 
G0 X-18.033 Y-9.122 Z3.000 
G1 X-18.033 Y-9.122 Z0.865 F120.000 
G1 X-14.892 Y-5.981 Z-4.575 F329.234 
G1 X-14.062 Y-5.151 Z-6.013 F329.235 
G1 X-14.365 Y-4.848 Z-5.488 F329.238 
G1 X-14.898 Y-4.270 Z-4.985 F426.773 
G1 X-15.328 Y-3.708 Z-4.498 F416.012 
G1 X-15.665 Y-3.159 Z-4.024 F405.812 
G1 X-15.916 Y-2.623 Z-3.559 F396.725 
G1 X-16.085 Y-2.095 Z-3.103 F389.367 
G1 X-16.178 Y-1.575 Z-2.652 F384.330 
G1 X-16.199 Y-1.180 Z-2.310 F382.180 
G1 X-16.199 Y6.105 Z-2.311 F600.000 
G1 X-16.199 Y6.114 Z-2.310 F600.000 
G1 X-16.197 Y7.020 Z-2.315 F598.651 
G1 X-16.191 Y9.092 Z-2.324 F598.673 
G1 X-16.191 Y9.109 Z-2.322 F598.216 
G1 X-16.172 Y11.831 Z-2.358 F596.216 
G1 X-16.172 Y11.854 Z-2.357 F594.734 
G1 X-16.143 Y14.019 Z-2.409 F592.902 
G1 X-16.142 Y14.069 Z-2.408 F589.739 
G1 X-16.107 Y15.377 Z-2.471 F585.833 
G1 X-16.101 Y15.501 Z-2.479 F577.423 
G1 X-16.042 Y16.504 Z-2.583 F568.903 
G1 X-16.030 Y16.657 Z-2.602 F558.845 
G1 X-15.996 Y17.004 Z-2.663 F549.048 
G1 X-15.967 Y17.235 Z-2.711 F534.681 
G1 X-15.926 Y17.503 Z-2.785 F520.788 
G1 X-15.843 Y17.906 Z-2.925 F498.160 
G1 X-15.790 Y18.117 Z-3.020 F477.307 
G1 X-15.579 Y18.758 Z-3.383 F448.419 
G1 X-15.505 Y18.941 Z-3.513 F423.720 
G1 X-15.335 Y19.320 Z-3.835 F397.918 
G1 X-15.131 Y19.699 Z-4.159 F403.024 
G1 X-15.025 Y19.883 Z-4.345 F381.408 
G1 X-14.624 Y20.501 Z-5.038 F369.067 
G1 X-14.474 Y20.710 Z-5.300 F358.549 
G1 X-14.347 Y20.883 Z-5.518 F356.010 
G1 X-18.033 Y23.163 Z0.865 F302.251 
G0 Z3.000 
G0 X-14.347 Y20.883 Z3.000 
G1 X-14.347 Y20.883 Z-5.518 F120.000 
G1 X-13.869 Y21.050 Z-5.628 F534.524 
G1 X-13.584 Y21.139 Z-5.712 F517.895 
G1 X-13.528 Y21.157 Z-5.726 F515.720 
G1 X-12.803 Y21.331 Z-5.986 F497.487 
G1 X-12.501 Y21.388 Z-6.120 F476.599 
G1 X-12.351 Y21.415 Z-6.185 F472.622 
G1 X-12.275 Y21.426 Z-6.217 F477.529 
G1 X-12.214 Y21.547 Z-6.066 F340.692 
G1 X-11.910 Y22.193 Z-5.228 F335.615 
G1 X-11.739 Y22.597 Z-4.693 F329.847 
G1 X-11.678 Y22.731 Z-4.510 F326.462 
G1 X-11.524 Y23.117 Z-3.968 F319.932 
G1 X-11.507 Y23.156 Z-3.911 F317.445 
G1 X-11.394 Y23.474 Z-3.441 F310.392 
G1 X-11.358 Y23.608 Z-3.238 F303.127 
G1 X-11.312 Y23.756 Z-3.007 F300.293 
G0 Z3.000 
G0 X-11.294 Y23.792 Z3.000 
G1 X-11.294 Y23.792 Z-2.942 F120.000 
G1 X-11.280 Y23.830 Z-2.874 F284.826 
G1 X-11.261 Y23.894 Z-2.761 F283.060 
G1 X-11.248 Y23.945 Z-2.671 F281.964 
G1 X-11.214 Y24.110 Z-2.381 F280.900 
G0 Z3.000 
G0 X-11.223 Y23.873 Z3.000 
G1 X-11.223 Y23.873 Z-2.755 F120.000 
G1 X-11.294 Y23.792 Z-2.941 F280.863 
G1 X-11.312 Y23.756 Z-3.006 F289.580 
G1 X-11.359 Y24.392 Z-1.916 F281.651 
G1 X-11.380 Y26.005 Z0.865 F280.634 
G0 Z3.000 
G0 X-12.275 Y21.426 Z3.000 
G1 X-12.275 Y21.426 Z-6.217 F120.000 
G1 X-11.796 Y20.975 Z-5.602 F370.207 
G1 X-11.769 Y20.946 Z-5.566 F373.670 
G1 X-11.546 Y20.708 Z-5.269 F374.272 
G1 X-11.168 Y20.272 Z-4.774 F383.521 
G1 X-11.081 Y20.158 Z-4.658 F391.391 
G1 X-10.997 Y20.044 Z-4.545 F394.079 
G1 X-10.667 Y19.556 Z-4.115 F407.171 
G1 X-10.602 Y19.450 Z-4.033 F421.924 
G1 X-10.569 Y19.397 Z-3.992 F424.263 
G1 X-10.283 Y18.833 Z-3.626 F439.752 
G1 X-10.206 Y18.656 Z-3.532 F461.649 
G1 X-10.085 Y18.354 Z-3.391 F474.996 
G1 X-10.027 Y18.180 Z-3.324 F491.516 
G1 X-9.956 Y17.952 Z-3.241 F499.852 
G1 X-9.878 Y17.666 Z-3.157 F514.720 
G1 X-9.809 Y17.384 Z-3.089 F530.031 
G1 X-9.767 Y17.195 Z-3.051 F540.514 
G1 X-9.759 Y17.154 Z-3.044 F551.581 
G1 X-9.703 Y16.855 Z-2.990 F546.104 
G1 X-9.672 Y16.666 Z-2.964 F557.222 
G1 X-9.549 Y15.815 Z-2.873 F568.284 
G1 X-9.549 Y15.813 Z-2.874 F564.392 
G1 X-9.532 Y15.664 Z-2.860 F573.296 
G1 X-9.424 Y14.584 Z-2.797 F582.390 
G1 X-9.416 Y14.484 Z-2.795 F588.690 
G1 X-9.406 Y14.349 Z-2.791 F595.044 
G1 X-9.330 Y13.179 Z-2.749 F589.005 
G1 X-9.327 Y13.110 Z-2.749 F593.376 
G1 X-9.294 Y12.419 Z-2.742 F597.749 
G1 X-9.265 Y11.586 Z-2.717 F590.759 
G1 X-9.264 Y11.534 Z-2.718 F594.746 
G1 X-9.238 Y10.404 Z-2.706 F597.457 
G1 X-9.232 Y9.799 Z-2.689 F591.365 
G1 X-9.233 Y9.758 Z-2.691 F594.146 
G1 X-9.232 Y8.358 Z-2.673 F596.748 
G1 X-9.238 Y7.818 Z-2.657 F590.835 
G1 X-9.239 Y7.789 Z-2.656 F592.503 
G1 X-9.265 Y6.336 Z-2.630 F594.491 
G1 X-9.283 Y5.747 Z-2.608 F588.386 
G1 X-9.284 Y5.714 Z-2.609 F590.791 
G1 X-9.334 Y4.398 Z-2.575 F592.738 
G1 X-9.353 Y4.033 Z-2.558 F585.814 
G1 X-9.357 Y3.977 Z-2.560 F589.695 
G1 X-9.445 Y2.616 Z-2.527 F593.343 
G1 X-9.446 Y2.606 Z-2.529 F594.287 
G1 X-9.454 Y2.527 Z-2.526 F591.515 
G1 X-9.567 Y1.448 Z-2.513 F596.762 
G1 X-9.579 Y1.346 Z-2.517 F596.102 
G1 X-9.621 Y1.025 Z-2.525 F589.449 
G1 X-9.641 Y0.898 Z-2.525 F598.806 
G1 X-9.656 Y0.804 Z-2.530 F594.895 
G1 X-9.727 Y0.412 Z-2.542 F588.259 
G1 X-9.751 Y0.292 Z-2.553 F580.151 
G1 X-9.824 Y-0.052 Z-2.582 F571.826 
G1 X-9.858 Y-0.200 Z-2.603 F562.312 
G1 X-9.881 Y-0.289 Z-2.616 F552.129 
G1 X-9.939 Y-0.501 Z-2.642 F563.044 
G1 X-9.992 Y-0.680 Z-2.674 F551.091 
G1 X-10.078 Y-0.945 Z-2.728 F539.461 
G1 X-10.156 Y-1.165 Z-2.787 F525.784 
G1 X-10.248 Y-1.403 Z-2.862 F512.194 
G1 X-10.336 Y-1.613 Z-2.939 F500.147 
G1 X-10.352 Y-1.647 Z-2.953 F492.794 
G1 X-10.453 Y-1.861 Z-3.042 F490.772 
G1 X-10.592 Y-2.132 Z-3.173 F476.475 
G1 X-10.705 Y-2.335 Z-3.284 F462.935 
G1 X-10.919 Y-2.687 Z-3.510 F446.818 
G1 X-10.923 Y-2.693 Z-3.514 F431.537 
G1 X-11.139 Y-3.004 Z-3.733 F439.453 
G1 X-11.414 Y-3.368 Z-4.028 F425.209 
G1 X-11.543 Y-3.527 Z-4.171 F412.418 
G1 X-11.681 Y-3.688 Z-4.312 F421.487 
G1 X-12.016 Y-4.048 Z-4.666 F409.560 
G1 X-12.105 Y-4.138 Z-4.763 F398.485 
G1 X-12.310 Y-4.329 Z-4.965 F409.755 
G1 X-12.565 Y-4.557 Z-5.222 F402.630 
G1 X-12.874 Y-4.785 Z-5.512 F402.353 
G1 X-12.928 Y-4.823 Z-5.565 F395.149 
G1 X-13.164 Y-4.972 Z-5.764 F411.229 
G1 X-13.208 Y-4.999 Z-5.800 F410.316 
G1 X-13.494 Y-5.149 Z-6.015 F420.618 
G0 Z3.000 
G0 X-14.062 Y-5.151 Z3.000 
G1 X-14.062 Y-5.151 Z-6.010 F120.000 
G1 X-13.690 Y-5.151 Z-6.010 F600.000 
G1 X-13.494 Y-5.149 Z-6.015 F593.308 
G1 X-13.420 Y-5.305 Z-5.745 F293.474 
G1 X-11.751 Y-9.122 Z0.865 F291.851 
G0 Z3.000 
G0 X-5.710 Y-14.128 Z3.000 
G1 X-5.710 Y-14.128 Z-4.222 F120.000 
G1 X-5.472 Y-14.294 Z-3.942 F365.143 
G1 X-5.112 Y-14.592 Z-3.515 F373.605 
G1 X-5.052 Y-14.648 Z-3.443 F380.039 
G1 X-4.992 Y-14.705 Z-3.369 F381.954 
G1 X-4.773 Y-14.927 Z-3.115 F389.629 
G1 X-4.410 Y-15.390 Z-2.687 F407.950 
G1 X-4.356 Y-15.468 Z-2.627 F429.548 
G1 X-4.158 Y-15.788 Z-2.420 F445.852 
G1 X-4.063 Y-15.985 Z-2.314 F462.461 
G1 X-3.963 Y-16.209 Z-2.206 F473.977 
G1 X-3.834 Y-16.541 Z-2.083 F496.455 
G1 X-3.758 Y-16.771 Z-2.015 F520.374 
G1 X-3.735 Y-16.848 Z-1.989 F505.045 
G1 X-3.689 Y-17.022 Z-1.942 F517.864 
G1 X-3.600 Y-17.396 Z-1.852 F531.466 
G1 X-3.573 Y-17.521 Z-1.830 F541.306 
G1 X-3.511 Y-17.839 Z-1.776 F552.215 
G1 X-3.494 Y-17.942 Z-1.756 F539.989 
G1 X-3.478 Y-18.049 Z-1.739 F548.434 
G1 X-3.436 Y-18.369 Z-1.693 F558.153 
G1 X-3.421 Y-18.494 Z-1.672 F548.714 
G1 X-3.411 Y-18.601 Z-1.659 F558.783 
G1 X-3.385 Y-18.925 Z-1.623 F567.811 
G1 X-3.377 Y-19.050 Z-1.608 F563.453 
G1 X-3.372 Y-19.174 Z-1.600 F574.967 
G1 X-3.367 Y-19.311 Z-1.591 F586.369 
G0 Z3.000 
G0 X-4.770 Y-20.730 Z3.000 
G1 X-4.770 Y-20.730 Z0.865 F120.000 
G1 X-3.715 Y-19.675 Z-0.962 F329.236 
G1 X-3.659 Y-19.618 Z-1.061 F327.206 
G1 X-3.367 Y-19.311 Z-1.594 F325.422 
G1 X-3.359 Y-19.319 Z-1.577 F329.233 
G1 X-1.948 Y-20.730 Z0.865 F329.383 
G0 Z3.000 
G0 X7.080 Y-20.425 Z3.000 
G1 X7.080 Y-20.425 Z0.865 F120.000 
G1 X8.135 Y-19.370 Z-0.960 F329.449 
G1 X8.188 Y-19.315 Z-1.055 F327.410 
G1 X8.430 Y-19.061 Z-1.495 F325.612 
G1 X8.521 Y-18.964 Z-1.660 F327.095 
G1 X8.514 Y-18.832 Z-1.659 F596.526 
G1 X8.503 Y-18.701 Z-1.663 F591.437 
G1 X8.480 Y-18.468 Z-1.678 F579.751 
G1 X8.452 Y-18.237 Z-1.686 F589.129 
G1 X8.436 Y-18.117 Z-1.695 F577.729 
G1 X8.364 Y-17.671 Z-1.745 F566.525 
G1 X8.340 Y-17.539 Z-1.765 F555.679 
G1 X8.318 Y-17.436 Z-1.784 F544.456 
G1 X8.250 Y-17.127 Z-1.835 F551.537 
