(Exported by FreeCAD)
(Post Processor: linuxcnc_post)
(Output Time:2022-04-15 16:09:24.178977)
(begin preamble)
G17 G54 G40 G49 G80 G90
G21
(begin operation: Fixture)
(machine units: mm/min)
G54 
(finish operation: Fixture)
(begin operation: 60 Deg. V-Bit001)
(machine units: mm/min)
(60 Deg. V-Bit001) 
M5
M6 T2 
G43 H2 
M3 S15000 
(finish operation: 60 Deg. V-Bit001)
(begin operation: Vcarve)
(machine units: mm/min)
(starting) 
G0 Z3.000 
G0 X-2.926 Y-0.366 Z3.000 
G1 X-2.926 Y-0.366 Z0.866 F300.000 
G1 X-3.060 Y-0.417 Z0.620 F501.491 
G0 Z3.000 
G0 X-3.043 Y-0.391 Z3.000 
G1 X-3.043 Y-0.391 Z0.667 F300.000 
G1 X-2.959 Y-0.301 Z0.864 F513.381 
G0 Z3.000 
G0 X-3.018 Y-0.276 Z3.000 
G1 X-3.018 Y-0.276 Z0.864 F300.000 
G1 X-3.043 Y-0.391 Z0.667 F505.885 
G1 X-3.060 Y-0.417 Z0.620 F525.415 
G1 X-3.112 Y-0.484 Z0.502 F538.663 
G1 X-3.125 Y-0.273 Z0.866 F500.887 
G0 Z3.000 
G0 X-3.112 Y-0.484 Z3.000 
G1 X-3.112 Y-0.484 Z0.502 F300.000 
G1 X-3.144 Y-0.533 Z0.427 F551.499 
G1 X-3.357 Y-0.818 Z-0.009 F561.618 
G1 X-3.412 Y-0.901 Z-0.124 F571.592 
G1 X-3.669 Y-1.257 Z-0.613 F579.584 
G1 X-3.743 Y-1.367 Z-0.756 F585.479 
G1 X-4.019 Y-1.749 Z-1.249 F591.338 
G1 X-4.129 Y-1.908 Z-1.446 F596.884 
G1 X-4.358 Y-2.241 Z-1.855 F597.563 
G1 X-4.441 Y-2.368 Z-2.004 F603.839 
G1 X-4.903 Y-2.051 Z-1.195 F531.046 
G1 X-5.416 Y-1.725 Z-0.296 F527.123 
G1 X-5.451 Y-1.700 Z-0.230 F521.711 
G1 X-5.766 Y-1.507 Z0.352 F515.557 
G0 Z3.000 
G0 X-6.055 Y-1.433 Z3.000 
G1 X-6.055 Y-1.433 Z0.866 F300.000 
G1 X-5.766 Y-1.507 Z0.352 F501.223 
G1 X-6.008 Y-1.314 Z0.865 F507.675 
G0 Z3.000 
G0 X-4.441 Y-2.368 Z3.000 
G1 X-4.441 Y-2.368 Z-2.004 F300.000 
G1 X-4.441 Y-2.468 Z-2.007 F887.418 
G1 X-4.440 Y-2.506 Z-2.006 F893.107 
G1 X-4.437 Y-2.572 Z-2.006 F899.421 
G1 X-4.409 Y-3.123 Z-2.018 F891.822 
G1 X-4.404 Y-3.203 Z-2.021 F885.223 
G1 X-4.378 Y-3.556 Z-2.043 F876.411 
G1 X-4.363 Y-3.712 Z-2.048 F887.851 
G1 X-4.354 Y-3.805 Z-2.053 F879.410 
G1 X-4.298 Y-4.271 Z-2.090 F870.386 
G1 X-4.284 Y-4.375 Z-2.101 F860.248 
G1 X-4.219 Y-4.800 Z-2.158 F849.562 
G1 X-4.198 Y-4.927 Z-2.179 F838.118 
G1 X-4.197 Y-4.930 Z-2.179 F837.227 
G1 X-4.119 Y-5.311 Z-2.246 F835.480 
G1 X-4.082 Y-5.473 Z-2.280 F821.050 
G1 X-3.995 Y-5.814 Z-2.367 F807.326 
G1 X-3.937 Y-6.019 Z-2.431 F789.638 
G1 X-3.850 Y-6.296 Z-2.531 F773.442 
G1 X-3.842 Y-6.319 Z-2.538 F784.927 
G1 X-3.740 Y-6.589 Z-2.644 F765.398 
G1 X-3.631 Y-6.850 Z-2.766 F745.421 
G1 X-3.458 Y-7.216 Z-2.970 F721.838 
G1 X-3.354 Y-7.412 Z-3.097 F699.933 
G1 X-3.336 Y-7.445 Z-3.118 F713.477 
G1 X-3.022 Y-7.931 Z-3.478 F687.318 
G1 X-2.878 Y-8.130 Z-3.652 F664.190 
G1 X-2.752 Y-8.297 Z-3.807 F656.925 
G1 X-2.473 Y-8.611 Z-4.133 F647.958 
G1 X-2.345 Y-8.736 Z-4.278 F639.346 
G1 X-2.185 Y-8.889 Z-4.462 F634.588 
G1 X-2.168 Y-8.904 Z-4.481 F642.551 
G1 X-1.923 Y-9.117 Z-4.751 F634.926 
G1 X-1.689 Y-9.293 Z-5.001 F629.982 
G1 X-1.475 Y-9.434 Z-5.222 F628.207 
G1 X-1.326 Y-9.521 Z-5.370 F629.284 
G1 X-1.273 Y-9.550 Z-5.422 F626.335 
G1 X-1.105 Y-9.639 Z-5.579 F636.536 
G1 X-1.092 Y-9.646 Z-5.592 F637.002 
G1 X-0.914 Y-9.729 Z-5.748 F642.509 
G1 X-0.838 Y-9.760 Z-5.812 F647.613 
G1 X-0.818 Y-9.892 Z-5.692 F615.678 
G1 X-0.785 Y-10.075 Z-5.513 F607.084 
G1 X-0.772 Y-10.165 Z-5.420 F596.918 
G1 X-0.763 Y-10.221 Z-5.361 F591.616 
G0 Z3.000 
G0 X-0.838 Y-9.760 Z3.000 
G1 X-0.838 Y-9.760 Z-5.812 F300.000 
G1 X-0.571 Y-9.561 Z-5.525 F628.636 
G1 X-0.262 Y-9.288 Z-5.174 F630.460 
G1 X-0.064 Y-9.105 Z-4.956 F640.244 
G1 X0.035 Y-9.011 Z-4.847 F642.290 
G1 X0.453 Y-8.545 Z-4.368 F650.652 
G1 X0.639 Y-8.318 Z-4.163 F667.431 
G1 X0.702 Y-8.238 Z-4.094 F671.806 
G1 X0.928 Y-7.918 Z-3.838 F679.200 
G1 X1.109 Y-7.642 Z-3.640 F693.841 
G1 X1.274 Y-7.375 Z-3.467 F707.269 
G1 X1.346 Y-7.249 Z-3.394 F721.791 
G1 X1.385 Y-7.178 Z-3.351 F712.575 
G1 X1.494 Y-6.971 Z-3.235 F724.173 
G1 X1.595 Y-6.764 Z-3.129 F735.801 
G1 X1.718 Y-6.494 Z-3.009 F753.240 
G1 X1.899 Y-6.057 Z-2.843 F770.623 
G1 X1.902 Y-6.051 Z-2.840 F760.666 
G1 X2.006 Y-5.760 Z-2.742 F783.148 
G1 X2.162 Y-5.264 Z-2.611 F805.574 
G1 X2.229 Y-5.029 Z-2.562 F824.201 
G1 X2.315 Y-4.683 Z-2.509 F843.567 
G1 X2.363 Y-4.477 Z-2.471 F832.453 
G1 X2.402 Y-4.288 Z-2.445 F848.645 
G1 X2.486 Y-3.821 Z-2.401 F864.341 
G1 X2.510 Y-3.671 Z-2.381 F851.088 
G1 X2.531 Y-3.522 Z-2.367 F864.727 
G1 X2.600 Y-2.928 Z-2.333 F878.170 
G1 X2.609 Y-2.838 Z-2.325 F866.720 
G1 X2.620 Y-2.713 Z-2.318 F877.478 
G1 X2.665 Y-2.008 Z-2.297 F888.603 
G1 X2.667 Y-1.960 Z-2.294 F876.820 
G1 X2.671 Y-1.856 Z-2.290 F886.719 
G1 X2.686 Y-1.070 Z-2.281 F895.630 
G1 X2.686 Y-1.033 Z-2.280 F885.391 
G1 X2.684 Y-0.910 Z-2.278 F895.658 
G1 X2.660 Y-0.178 Z-2.290 F894.005 
G1 X2.658 Y-0.121 Z-2.292 F887.992 
G1 X2.648 Y0.001 Z-2.297 F882.144 
G1 X2.583 Y0.670 Z-2.348 F871.360 
G1 X2.565 Y0.825 Z-2.365 F857.772 
G1 X2.564 Y0.831 Z-2.366 F853.235 
G1 X2.514 Y1.147 Z-2.406 F852.503 
G1 X2.491 Y1.274 Z-2.425 F842.797 
G1 X2.432 Y1.583 Z-2.482 F832.169 
G1 X2.404 Y1.714 Z-2.510 F820.980 
G1 X2.393 Y1.761 Z-2.521 F810.387 
G1 X2.331 Y2.014 Z-2.577 F820.192 
G1 X2.296 Y2.148 Z-2.610 F809.248 
G1 X2.212 Y2.446 Z-2.695 F797.457 
G1 X2.167 Y2.593 Z-2.742 F787.355 
G1 X2.142 Y2.671 Z-2.770 F776.775 
G1 X2.069 Y2.887 Z-2.839 F786.595 
G1 X2.015 Y3.036 Z-2.893 F775.848 
G1 X1.902 Y3.332 Z-3.008 F766.435 
G1 X1.848 Y3.467 Z-3.065 F756.644 
G1 X1.815 Y3.545 Z-3.102 F746.303 
G1 X1.720 Y3.763 Z-3.196 F755.668 
G1 X1.653 Y3.910 Z-3.264 F748.453 
G1 X1.508 Y4.213 Z-3.414 F738.980 
G1 X1.428 Y4.373 Z-3.500 F730.243 
G1 X1.407 Y4.412 Z-3.521 F728.380 
G1 X1.059 Y5.039 Z-3.873 F725.835 
G1 X0.999 Y5.145 Z-3.934 F720.737 
G1 X0.919 Y5.274 Z-4.013 F718.538 
G1 X0.548 Y5.850 Z-4.380 F711.745 
G1 X0.488 Y5.939 Z-4.434 F722.523 
G1 X0.444 Y6.003 Z-4.474 F719.870 
G1 X0.107 Y6.490 Z-4.782 F716.790 
G1 X-0.308 Y7.060 Z-5.122 F728.309 
G1 X-0.590 Y7.427 Z-5.325 F742.223 
G1 X-0.681 Y7.552 Z-5.387 F754.884 
G1 X-0.890 Y7.819 Z-5.504 F772.297 
G1 X-1.010 Y7.983 Z-5.565 F789.032 
G1 X-1.083 Y8.076 Z-5.594 F807.764 
G1 X-1.190 Y8.223 Z-5.628 F831.224 
G1 X-1.258 Y8.328 Z-5.640 F861.231 
G1 X-1.344 Y8.473 Z-5.645 F890.068 
G1 X-1.359 Y8.499 Z-5.644 F886.006 
G1 X-1.485 Y8.716 Z-5.624 F870.074 
G1 X-1.584 Y8.897 Z-5.599 F853.466 
G1 X-1.612 Y8.952 Z-5.587 F825.479 
G1 X-1.642 Y9.023 Z-5.564 F791.824 
G1 X-1.649 Y9.042 Z-5.557 F761.248 
G1 X-1.742 Y9.276 Z-5.451 F748.040 
G1 X-1.854 Y9.588 Z-5.294 F730.286 
G1 X-1.939 Y9.805 Z-5.171 F715.637 
G1 X-2.031 Y10.052 Z-5.025 F706.084 
G1 X-2.088 Y10.193 Z-4.932 F689.565 
G0 Z3.000 
G0 X-0.759 Y13.349 Z3.000 
G1 X-0.759 Y13.349 Z0.866 F300.000 
G1 X-0.973 Y12.523 Z-0.603 F501.010 
G1 X-0.989 Y12.477 Z-0.687 F502.753 
G1 X-1.066 Y12.225 Z-1.131 F503.920 
G1 X-1.153 Y11.984 Z-1.560 F506.105 
G1 X-1.168 Y11.943 Z-1.634 F506.256 
G1 X-1.385 Y11.467 Z-2.566 F494.839 
G1 X-1.641 Y10.959 Z-3.455 F517.721 
G1 X-1.676 Y10.891 Z-3.582 F504.798 
G1 X-1.912 Y10.489 Z-4.355 F507.060 
G1 X-2.088 Y10.193 Z-4.931 F506.764 
G1 X-2.397 Y10.615 Z-4.418 F603.441 
G1 X-2.412 Y10.637 Z-4.393 F613.083 
G1 X-2.495 Y10.763 Z-4.250 F609.710 
G1 X-2.771 Y11.220 Z-3.772 F621.800 
G1 X-2.855 Y11.372 Z-3.629 F635.511 
G1 X-3.041 Y11.743 Z-3.307 F648.542 
G1 X-3.113 Y11.900 Z-3.185 F663.083 
G1 X-3.236 Y12.197 Z-2.970 F676.296 
G1 X-3.300 Y12.364 Z-2.862 F690.674 
G1 X-3.422 Y12.734 Z-2.652 F711.344 
G1 X-3.525 Y13.102 Z-2.475 F733.983 
G1 X-3.589 Y13.361 Z-2.365 F752.086 
G1 X-3.604 Y13.438 Z-2.338 F773.631 
G1 X-3.680 Y13.865 Z-2.199 F780.118 
G1 X-3.716 Y14.106 Z-2.133 F800.434 
G1 X-3.769 Y14.594 Z-2.032 F822.037 
G1 X-3.784 Y14.772 Z-2.002 F838.550 
G1 X-3.815 Y15.326 Z-1.939 F856.180 
G1 X-3.820 Y15.465 Z-1.928 F870.109 
G1 X-3.828 Y16.086 Z-1.903 F884.437 
G1 X-3.829 Y16.178 Z-1.900 F893.782 
G1 X-3.828 Y16.219 Z-1.902 F896.265 
G1 X-3.803 Y17.004 Z-1.889 F893.386 
G1 X-3.799 Y17.091 Z-1.888 F897.824 
G1 X-3.794 Y17.177 Z-1.892 F888.040 
G1 X-3.745 Y17.789 Z-1.887 F896.640 
G1 X-3.732 Y17.918 Z-1.889 F889.640 
G1 X-3.730 Y17.936 Z-1.891 F876.821 
G1 X-3.644 Y18.493 Z-1.895 F897.494 
G1 X-3.629 Y18.581 Z-1.896 F888.070 
G1 X-3.606 Y18.682 Z-1.899 F890.408 
G1 X-3.489 Y19.145 Z-1.926 F879.224 
G1 X-3.467 Y19.226 Z-1.930 F871.181 
G1 X-3.430 Y19.341 Z-1.940 F866.607 
G1 X-3.362 Y19.533 Z-1.968 F854.502 
G1 X-3.293 Y19.715 Z-1.999 F835.732 
G1 X-3.222 Y19.886 Z-2.042 F816.967 
G1 X-3.190 Y19.961 Z-2.059 F809.856 
G1 X-3.122 Y20.100 Z-2.102 F796.369 
G1 X-3.044 Y20.252 Z-2.159 F783.024 
G1 X-2.911 Y20.488 Z-2.258 F761.292 
G1 X-2.827 Y20.626 Z-2.333 F740.951 
G1 X-2.700 Y20.819 Z-2.444 F725.451 
G1 X-2.624 Y20.921 Z-2.513 F710.543 
G1 X-2.527 Y21.047 Z-2.606 F703.041 
G1 X-2.265 Y21.358 Z-2.864 F681.946 
G1 X-2.154 Y21.478 Z-2.983 F663.408 
G1 X-1.828 Y21.800 Z-3.340 F646.090 
G1 X-1.758 Y21.864 Z-3.423 F631.064 
G1 X-1.698 Y21.915 Z-3.487 F640.825 
G1 X-1.343 Y22.197 Z-3.876 F627.494 
G1 X-1.189 Y22.310 Z-4.054 F616.004 
G1 X-0.784 Y22.587 Z-4.530 F605.680 
G1 X-0.733 Y22.619 Z-4.592 F596.504 
G1 X-0.617 Y22.689 Z-4.725 F603.537 
G1 X-0.520 Y22.746 Z-4.834 F601.658 
G1 X-0.517 Y22.944 Z-4.698 F667.956 
G1 X-0.503 Y23.294 Z-4.442 F658.730 
G1 X-0.492 Y23.461 Z-4.312 F647.352 
G1 X-0.490 Y23.510 Z-4.271 F637.082 
G1 X-0.485 Y23.566 Z-4.222 F622.646 
G1 X-0.437 Y23.912 Z-3.883 F605.841 
G1 X-0.375 Y24.244 Z-3.533 F593.127 
G1 X-0.360 Y24.339 Z-3.429 F584.914 
G1 X-0.267 Y24.808 Z-2.883 F574.840 
G1 X-0.221 Y24.998 Z-2.650 F565.652 
G1 X-0.162 Y25.289 Z-2.278 F557.410 
G1 X-0.055 Y25.714 Z-1.702 F548.656 
G1 X-0.049 Y25.741 Z-1.664 F541.226 
G1 X0.018 Y25.985 Z-1.303 F532.953 
G1 X0.068 Y26.205 Z-0.970 F528.051 
G1 X0.081 Y26.247 Z-0.904 F521.285 
G1 X0.106 Y26.350 Z-0.737 F516.600 
G1 X0.139 Y26.460 Z-0.551 F512.052 
G1 X0.148 Y26.500 Z-0.483 F506.845 
G1 X0.182 Y26.615 Z-0.280 F503.849 
G1 X0.299 Y27.269 Z0.865 F500.869 
G0 Z3.000 
G0 X0.433 Y27.231 Z3.000 
G1 X0.433 Y27.231 Z0.864 F300.000 
G1 X0.182 Y26.615 Z-0.280 F501.119 
G0 Z3.000 
G0 X-0.520 Y22.746 Z3.000 
G1 X-0.520 Y22.746 Z-4.834 F300.000 
G1 X-0.478 Y22.715 Z-4.788 F622.817 
G1 X-0.244 Y22.523 Z-4.516 F621.062 
G1 X-0.111 Y22.409 Z-4.367 F627.804 
G1 X0.148 Y22.176 Z-4.078 F636.394 
G1 X0.256 Y22.063 Z-3.951 F639.245 
G1 X0.370 Y21.943 Z-3.821 F643.494 
G1 X0.658 Y21.612 Z-3.496 F657.750 
G1 X0.691 Y21.572 Z-3.463 F672.981 
G1 X0.756 Y21.486 Z-3.385 F660.625 
G1 X0.993 Y21.145 Z-3.109 F676.710 
G1 X1.079 Y21.010 Z-3.015 F694.864 
G1 X1.182 Y20.841 Z-2.902 F704.673 
G1 X1.247 Y20.719 Z-2.829 F713.201 
G1 X1.322 Y20.572 Z-2.746 F720.263 
G1 X1.445 Y20.310 Z-2.615 F738.241 
G1 X1.514 Y20.150 Z-2.547 F756.563 
G1 X1.601 Y19.932 Z-2.465 F773.829 
G1 X1.631 Y19.847 Z-2.439 F790.828 
G1 X1.663 Y19.756 Z-2.409 F783.451 
G1 X1.736 Y19.523 Z-2.343 F802.376 
G1 X1.850 Y19.107 Z-2.257 F822.626 
G1 X1.905 Y18.881 Z-2.219 F843.098 
G1 X1.942 Y18.702 Z-2.204 F864.121 
G1 X2.007 Y18.371 Z-2.167 F857.181 
G1 X2.033 Y18.225 Z-2.153 F871.227 
G1 X2.126 Y17.609 Z-2.131 F885.062 
G1 X2.140 Y17.517 Z-2.127 F893.799 
G1 X2.141 Y17.511 Z-2.127 F900.000 
G1 X2.222 Y16.778 Z-2.123 F896.631 
G1 X2.227 Y16.741 Z-2.122 F900.000 
G1 X2.261 Y16.403 Z-2.126 F896.180 
G1 X2.270 Y16.302 Z-2.125 F895.064 
G1 X0.664 Y14.951 Z0.865 F533.847 
G0 Z3.000 
G0 X2.270 Y16.302 Z3.000 
G1 X2.270 Y16.302 Z-2.125 F300.000 
G1 X2.651 Y15.841 Z-1.530 F600.952 
G1 X2.945 Y15.497 Z-1.068 F596.674 
G1 X3.178 Y15.212 Z-0.682 F590.623 
G1 X3.546 Y14.797 Z-0.069 F580.679 
G1 X3.588 Y14.746 Z0.009 F572.520 
G1 X3.731 Y14.591 Z0.267 F561.200 
G1 X3.761 Y14.563 Z0.321 F549.195 
G1 X3.846 Y14.471 Z0.492 F540.334 
G0 Z3.000 
G0 X3.910 Y14.418 Z3.000 
G1 X3.910 Y14.418 Z0.617 F300.000 
G1 X4.045 Y14.357 Z0.865 F505.744 
G0 Z3.000 
G0 X3.996 Y14.297 Z3.000 
G1 X3.996 Y14.297 Z0.866 F300.000 
G1 X3.910 Y14.418 Z0.618 F506.659 
G1 X3.846 Y14.471 Z0.494 F525.160 
G1 X3.894 Y14.260 Z0.866 F501.727 
G0 Z3.000 
G0 X5.387 Y14.949 Z3.000 
G1 X5.387 Y14.949 Z0.865 F300.000 
G1 X8.241 Y16.858 Z-4.076 F531.973 
G1 X9.681 Y17.820 Z-6.569 F531.882 
G1 X8.437 Y19.803 Z-4.415 F615.822 
G1 X5.831 Y23.958 Z0.099 F615.819 
G1 X5.387 Y24.658 Z0.865 F615.088 
G0 Z3.000 
G0 X9.681 Y17.820 Z3.000 
G1 X9.681 Y17.820 Z-6.572 F300.000 
G1 X9.724 Y17.801 Z-6.569 F880.908 
G1 X10.544 Y17.433 Z-6.523 F880.332 
G1 X11.246 Y17.079 Z-6.630 F847.121 
G1 X12.169 Y16.477 Z-6.782 F847.531 
G1 X16.533 Y19.269 Z0.864 F527.403 
G0 Z3.000 
G0 X12.169 Y16.477 Z3.000 
G1 X12.169 Y16.477 Z-6.782 F300.000 
G1 X12.348 Y15.990 Z-6.488 F702.964 
G1 X11.403 Y13.504 Z-3.443 F574.211 
G1 X11.358 Y13.381 Z-3.364 F692.354 
G1 X11.350 Y13.360 Z-3.351 F708.511 
G1 X11.186 Y12.784 Z-3.112 F754.646 
G1 X11.112 Y12.346 Z-2.930 F751.218 
G1 X11.106 Y12.296 Z-2.917 F812.158 
G1 X11.085 Y12.057 Z-2.878 F837.863 
G1 X11.072 Y11.864 Z-2.856 F856.858 
G1 X11.066 Y11.719 Z-2.844 F866.427 
G1 X11.045 Y10.982 Z-2.800 F877.270 
G1 X11.043 Y10.912 Z-2.797 F883.220 
G1 X11.011 Y8.203 Z-2.717 F888.735 
G1 X11.011 Y8.170 Z-2.716 F890.769 
G1 X10.995 Y4.145 Z-2.652 F893.918 
G1 X10.996 Y4.126 Z-2.652 F895.964 
G1 X10.998 Y-0.136 Z-2.617 F896.917 
G1 X10.999 Y-0.816 Z-2.612 F896.911 
G1 X10.999 Y-0.826 Z-2.612 F895.951 
G1 X11.013 Y-5.516 Z-2.594 F898.534 
G1 X11.017 Y-8.930 Z-2.567 F897.057 
G1 X11.009 Y-10.199 Z-2.541 F892.173 
G1 X10.992 Y-11.204 Z-2.503 F885.300 
G1 X10.966 Y-11.951 Z-2.451 F873.551 
G1 X10.963 Y-11.996 Z-2.445 F851.774 
G0 Z3.000 
G0 X11.888 Y-13.230 Z3.000 
G1 X11.888 Y-13.230 Z-0.376 F300.000 
G1 X11.891 Y-13.237 Z-0.363 F507.460 
G0 Z3.000 
G0 X11.899 Y-13.260 Z3.000 
G1 X11.899 Y-13.260 Z-0.321 F300.000 
G1 X11.891 Y-13.237 Z-0.362 F502.944 
G1 X12.301 Y-13.819 Z0.864 F500.838 
G0 Z3.000 
G0 X12.185 Y-13.885 Z3.000 
G1 X12.185 Y-13.885 Z0.864 F300.000 
G1 X11.899 Y-13.260 Z-0.322 F500.725 
G1 X12.058 Y-13.930 Z0.865 F500.885 
G0 Z3.000 
G0 X12.406 Y-13.729 Z3.000 
G1 X12.406 Y-13.729 Z0.865 F300.000 
G1 X11.888 Y-13.230 Z-0.376 F500.678 
G1 X11.863 Y-13.184 Z-0.459 F512.874 
G1 X11.793 Y-13.081 Z-0.651 F519.398 
G1 X11.721 Y-12.986 Z-0.829 F524.991 
G1 X11.706 Y-12.964 Z-0.868 F533.721 
G1 X11.495 Y-12.681 Z-1.344 F543.563 
G1 X11.388 Y-12.530 Z-1.588 F547.604 
G1 X10.963 Y-11.996 Z-2.445 F557.000 
G1 X10.681 Y-12.256 Z-1.954 F553.270 
G1 X10.640 Y-12.295 Z-1.882 F554.319 
G1 X9.061 Y-13.785 Z0.865 F555.491 
G0 Z3.000 
G0 X11.595 Y-15.618 Z3.000 
G1 X11.595 Y-15.618 Z0.865 F300.000 
G1 X12.991 Y-17.103 Z-1.550 F567.685 
G1 X13.085 Y-17.203 Z-1.714 F567.617 
G1 X14.558 Y-15.802 Z0.864 F555.079 
G0 Z3.000 
G0 X13.085 Y-17.203 Z3.000 
G1 X13.085 Y-17.203 Z-1.716 F300.000 
G1 X13.115 Y-22.007 Z-1.768 F895.897 
G1 X13.115 Y-22.007 Z-1.768 F900.000 
G1 X13.153 Y-28.193 Z-1.833 F895.944 
G1 X13.193 Y-28.669 Z-2.248 F626.939 
G1 X13.305 Y-29.147 Z-2.664 F631.394 
G1 X13.493 Y-29.630 Z-3.084 F639.589 
G1 X13.761 Y-30.120 Z-3.511 F650.665 
G1 X14.114 Y-30.620 Z-3.947 F663.664 
G1 X14.394 Y-30.955 Z-4.239 F675.216 
G1 X14.711 Y-31.290 Z-4.530 F684.522 
G1 X15.566 Y-32.145 Z-6.011 F561.531 
G1 X14.802 Y-32.909 Z-4.690 F561.542 
G1 X14.699 Y-33.012 Z-4.511 F561.545 
G1 X14.213 Y-33.544 Z-4.048 F681.904 
G1 X13.828 Y-34.060 Z-3.599 F667.299 
G1 X13.536 Y-34.563 Z-3.162 F653.634 
G1 X13.329 Y-35.054 Z-2.734 F641.822 
G1 X13.202 Y-35.537 Z-2.314 F632.853 
G1 X13.162 Y-35.819 Z-2.069 F628.348 
G1 X13.148 Y-36.101 Z-1.823 F626.723 
G1 X13.119 Y-41.980 Z-1.774 F896.771 
G1 X13.094 Y-46.443 Z-1.731 F896.320 
G1 X13.077 Y-48.619 Z-1.702 F894.997 
G0 Z3.000 
G0 X13.963 Y-49.453 Z3.000 
G1 X13.963 Y-49.453 Z-0.103 F300.000 
G1 X13.992 Y-49.484 Z-0.039 F525.067 
G0 Z3.000 
G0 X14.072 Y-49.552 Z3.000 
G1 X14.072 Y-49.552 Z0.128 F300.000 
G1 X14.454 Y-49.758 Z0.865 F503.140 
G0 Z3.000 
G0 X14.344 Y-49.892 Z3.000 
G1 X14.344 Y-49.892 Z0.865 F300.000 
G1 X14.072 Y-49.552 Z0.128 F503.723 
G1 X13.992 Y-49.484 Z-0.040 F514.089 
G1 X14.167 Y-49.981 Z0.865 F501.292 
G0 Z3.000 
G0 X14.514 Y-49.565 Z3.000 
G1 X14.514 Y-49.565 Z0.866 F300.000 
G1 X13.963 Y-49.453 Z-0.103 F500.813 
G1 X13.798 Y-49.304 Z-0.415 F536.796 
G1 X13.737 Y-49.243 Z-0.530 F546.026 
G1 X13.394 Y-48.915 Z-1.144 F551.027 
G1 X13.077 Y-48.619 Z-1.702 F552.798 
G1 X12.961 Y-48.745 Z-1.501 F569.633 
G1 X11.595 Y-50.199 Z0.865 F567.663 
G0 Z3.000 
G0 X17.521 Y-50.473 Z3.000 
G1 X17.521 Y-50.473 Z0.865 F300.000 
G1 X19.073 Y-48.921 Z-1.821 F561.665 
G1 X20.625 Y-50.473 Z0.865 F561.546 
G0 Z3.000 
G0 X22.224 Y-50.269 Z3.000 
G1 X22.224 Y-50.269 Z0.865 F300.000 
G1 X22.378 Y-50.137 Z0.564 F526.532 
G1 X22.387 Y-50.131 Z0.550 F531.593 
G0 Z3.000 
G0 X22.344 Y-50.310 Z3.000 
G1 X22.344 Y-50.310 Z0.865 F300.000 
G1 X22.387 Y-50.131 Z0.548 F500.752 
G1 X22.666 Y-49.871 Z0.038 F544.558 
G1 X22.688 Y-49.849 Z-0.004 F549.618 
G1 X23.620 Y-48.950 Z-1.669 F552.387 
G1 X23.791 Y-48.780 Z-1.974 F555.535 
G1 X24.932 Y-47.659 Z-3.980 F557.088 
G1 X26.306 Y-46.276 Z-6.399 F559.168 
G1 X26.306 Y-46.215 Z-6.399 F894.403 
G1 X26.302 Y-45.702 Z-6.406 F894.792 
G1 X25.621 Y-44.985 Z-5.248 F569.663 
G1 X25.609 Y-44.972 Z-5.226 F568.558 
G1 X25.109 Y-44.393 Z-4.757 F689.392 
G1 X24.709 Y-43.830 Z-4.299 F676.677 
G1 X24.400 Y-43.279 Z-3.853 F664.867 
G1 X24.177 Y-42.739 Z-3.416 F654.662 
G1 X24.032 Y-42.207 Z-2.985 F646.805 
G1 X23.977 Y-41.850 Z-2.697 F642.514 
G1 X23.956 Y-41.493 Z-2.409 F640.791 
G1 X23.931 Y-39.453 Z-2.390 F896.949 
G1 X23.929 Y-39.202 Z-2.387 F895.131 
G1 X23.929 Y-39.195 Z-2.389 F900.000 
G1 X23.919 Y-37.967 Z-2.375 F896.392 
G1 X23.920 Y-37.917 Z-2.377 F898.496 
G1 X23.925 Y-36.995 Z-2.388 F894.610 
G1 X23.927 Y-36.886 Z-2.395 F884.997 
G1 X23.940 Y-36.526 Z-2.416 F875.325 
G1 X23.946 Y-36.405 Z-2.428 F864.918 
G1 X23.966 Y-36.103 Z-2.463 F854.509 
G1 X23.987 Y-35.883 Z-2.503 F835.965 
G1 X24.018 Y-35.633 Z-2.556 F818.169 
G1 X24.069 Y-35.324 Z-2.646 F794.084 
G1 X24.112 Y-35.112 Z-2.720 F771.566 
G1 X24.240 Y-34.628 Z-2.947 F739.340 
G1 X24.300 Y-34.443 Z-3.049 F711.049 
G1 X24.561 Y-33.798 Z-3.506 F679.046 
G1 X24.646 Y-33.622 Z-3.651 F652.497 
G1 X25.034 Y-32.935 Z-4.326 F629.940 
G1 X25.153 Y-32.750 Z-4.533 F611.341 
G1 X25.185 Y-32.702 Z-4.590 F610.318 
G1 X25.626 Y-32.095 Z-5.354 F596.531 
G1 X25.793 Y-31.885 Z-5.640 F585.545 
G1 X25.893 Y-31.762 Z-5.815 F583.695 
G1 X25.870 Y-31.738 Z-5.774 F567.483 
G1 X25.362 Y-31.151 Z-5.044 F611.739 
G1 X24.945 Y-30.576 Z-4.328 F598.501 
G1 X24.750 Y-30.259 Z-3.933 F588.851 
G1 X24.580 Y-29.942 Z-3.539 F582.450 
G1 X24.539 Y-29.861 Z-3.469 F648.656 
G1 X24.298 Y-29.298 Z-3.122 F702.640 
G1 X24.135 Y-28.727 Z-2.769 F695.243 
G1 X24.104 Y-28.589 Z-2.716 F766.171 
G1 X24.044 Y-28.230 Z-2.611 F792.201 
G1 X24.018 Y-28.027 Z-2.566 F819.174 
G1 X24.000 Y-27.841 Z-2.535 F834.354 
G1 X23.979 Y-27.575 Z-2.498 F849.083 
G1 X23.970 Y-27.426 Z-2.484 F861.794 
G1 X23.942 Y-26.717 Z-2.435 F874.365 
G1 X23.940 Y-26.598 Z-2.432 F884.891 
G1 X23.933 Y-25.683 Z-2.418 F894.950 
G1 X23.933 Y-25.640 Z-2.419 F898.212 
G1 X23.941 Y-23.425 Z-2.432 F897.603 
G1 X23.980 Y-22.899 Z-2.874 F634.858 
G1 X24.091 Y-22.371 Z-3.314 F638.452 
G1 X24.278 Y-21.838 Z-3.759 F645.174 
G1 X24.543 Y-21.298 Z-4.209 F654.417 
G1 X24.891 Y-20.749 Z-4.668 F665.474 
G1 X25.329 Y-20.187 Z-5.136 F677.655 
G1 X25.696 Y-19.782 Z-5.475 F688.469 
G1 X26.077 Y-19.385 Z-6.133 F565.434 
G1 X22.036 Y-15.344 Z0.865 F561.581 
G0 Z3.000 
G0 X20.625 Y-15.650 Z3.000 
G1 X20.625 Y-15.650 Z0.865 F300.000 
G1 X19.271 Y-17.004 Z-1.480 F561.543 
G1 X19.118 Y-17.163 Z-1.744 F565.373 
G1 X18.799 Y-16.844 Z-1.169 F554.501 
G1 X18.691 Y-16.731 Z-0.966 F551.391 
G1 X18.506 Y-16.558 Z-0.626 F544.038 
G1 X18.354 Y-16.429 Z-0.347 F536.899 
G1 X18.352 Y-16.426 Z-0.341 F533.259 
G1 X18.242 Y-16.338 Z-0.129 F523.778 
G0 Z3.000 
G0 X18.179 Y-16.298 Z3.000 
G1 X18.179 Y-16.298 Z-0.011 F300.000 
G1 X18.242 Y-16.338 Z-0.128 F515.349 
G1 X17.974 Y-15.826 Z0.864 F501.556 
G0 Z3.000 
G0 X17.847 Y-15.910 Z3.000 
G1 X17.847 Y-15.910 Z0.865 F300.000 
G1 X18.179 Y-16.298 Z-0.011 F501.703 
G1 X18.138 Y-16.278 Z0.065 F507.006 
G0 Z3.000 
G0 X17.754 Y-16.012 Z3.000 
G1 X17.754 Y-16.012 Z0.866 F300.000 
G1 X18.138 Y-16.278 Z0.064 F501.691 
G1 X17.692 Y-16.133 Z0.865 F502.666 
G0 Z3.000 
G0 X19.118 Y-17.163 Z3.000 
G1 X19.118 Y-17.163 Z-1.744 F300.000 
G1 X19.098 Y-18.216 Z-1.780 F886.991 
G1 X19.080 Y-20.132 Z-1.811 F893.860 
G1 X19.073 Y-22.400 Z-1.823 F897.979 
G1 X19.073 Y-28.174 Z-1.823 F900.000 
G1 X19.037 Y-28.649 Z-2.233 F627.910 
G1 X18.928 Y-29.126 Z-2.645 F632.214 
G1 X18.743 Y-29.607 Z-3.062 F640.297 
G1 X18.479 Y-30.096 Z-3.486 F651.303 
G1 X18.129 Y-30.595 Z-3.918 F664.265 
G1 X17.844 Y-30.936 Z-4.214 F675.912 
G1 X17.521 Y-31.278 Z-4.510 F685.431 
G1 X16.654 Y-32.145 Z-6.013 F561.542 
G0 Z3.000 
G0 X15.566 Y-32.145 Z3.000 
G1 X15.566 Y-32.145 Z-6.011 F300.000 
G1 X16.110 Y-32.145 Z-6.011 F900.000 
G1 X16.116 Y-32.145 Z-6.011 F900.000 
G1 X16.654 Y-32.145 Z-6.011 F900.000 
G1 X17.521 Y-33.012 Z-4.511 F561.542 
G1 X17.570 Y-33.061 Z-4.427 F562.304 
G1 X18.047 Y-33.592 Z-3.974 F684.187 
G1 X18.423 Y-34.107 Z-3.535 F669.720 
G1 X18.707 Y-34.609 Z-3.107 F656.251 
G1 X18.907 Y-35.100 Z-2.689 F644.706 
G1 X19.027 Y-35.582 Z-2.278 F636.076 
G1 X19.062 Y-35.849 Z-2.051 F631.938 
G1 X19.074 Y-36.116 Z-1.823 F630.553 
G1 X19.073 Y-43.294 Z-1.823 F900.000 
G1 X19.073 Y-48.921 Z-1.823 F900.000 
G0 Z3.000 
G0 X26.306 Y-46.276 Z3.000 
G1 X26.306 Y-46.276 Z-6.401 F300.000 
G1 X26.477 Y-46.449 Z-6.105 F562.514 
G1 X30.501 Y-50.473 Z0.865 F561.542 
G0 Z3.000 
G0 X31.630 Y-50.473 Z3.000 
G1 X31.630 Y-50.473 Z0.865 F300.000 
G1 X34.273 Y-47.830 Z-3.711 F561.635 
G1 X35.277 Y-46.814 Z-5.450 F562.654 
G1 X35.386 Y-46.991 Z-5.144 F526.591 
G1 X35.580 Y-47.339 Z-4.536 F521.632 
G1 X35.684 Y-47.556 Z-4.158 F516.831 
G1 X35.813 Y-47.804 Z-3.714 F514.387 
G1 X36.048 Y-48.299 Z-2.828 F511.628 
G1 X36.089 Y-48.375 Z-2.687 F508.563 
G1 X36.269 Y-48.745 Z-2.001 F506.404 
G1 X36.289 Y-48.779 Z-1.933 F502.992 
G1 X37.005 Y-50.237 Z0.865 F500.921 
G0 Z3.000 
G0 X35.277 Y-46.814 Z3.000 
G1 X35.277 Y-46.814 Z-5.450 F300.000 
G1 X35.315 Y-46.658 Z-5.515 F752.376 
G1 X35.385 Y-46.304 Z-5.636 F776.136 
G1 X35.436 Y-45.988 Z-5.725 F796.548 
G1 X34.781 Y-45.398 Z-4.590 F552.302 
G1 X34.258 Y-44.885 Z-4.097 F673.729 
G1 X33.840 Y-44.388 Z-3.620 F657.722 
G1 X33.518 Y-43.905 Z-3.155 F642.366 
G1 X33.283 Y-43.433 Z-2.702 F628.609 
G1 X33.130 Y-42.970 Z-2.257 F617.551 
G1 X33.053 Y-42.514 Z-1.818 F610.277 
G1 X33.042 Y-42.264 Z-1.579 F607.771 
G1 X33.041 Y-36.030 Z-1.577 F900.000 
G1 X33.042 Y-36.023 Z-1.579 F894.905 
G1 X33.048 Y-33.380 Z-1.589 F898.236 
G1 X33.049 Y-33.366 Z-1.592 F897.358 
G1 X33.049 Y-33.214 Z-1.591 F894.976 
G1 X33.068 Y-30.783 Z-1.624 F894.879 
G1 X33.069 Y-30.768 Z-1.626 F892.443 
G1 X33.097 Y-28.539 Z-1.674 F891.399 
G1 X33.098 Y-28.511 Z-1.677 F887.634 
G1 X33.133 Y-26.931 Z-1.737 F885.140 
G1 X33.134 Y-26.900 Z-1.741 F881.653 
G1 X33.226 Y-24.098 Z-1.898 F878.292 
G1 X33.279 Y-23.616 Z-2.330 F622.338 
G1 X33.405 Y-23.132 Z-2.763 F627.416 
G1 X33.606 Y-22.643 Z-3.201 F636.048 
G1 X33.888 Y-22.146 Z-3.645 F647.384 
G1 X34.255 Y-21.639 Z-4.099 F660.500 
G1 X34.522 Y-21.327 Z-4.379 F671.707 
G1 X34.819 Y-21.014 Z-4.658 F680.279 
G1 X35.351 Y-20.482 Z-5.578 F561.546 
G1 X35.326 Y-20.318 Z-5.535 F802.639 
G1 X35.247 Y-19.894 Z-5.398 F782.397 
G1 X35.175 Y-19.578 Z-5.273 F759.892 
G1 X35.149 Y-19.485 Z-5.228 F734.448 
G0 Z3.000 
G0 X35.351 Y-20.482 Z3.000 
G1 X35.351 Y-20.482 Z-5.579 F300.000 
G1 X35.618 Y-20.678 Z-5.238 F595.042 
G1 X35.712 Y-20.749 Z-5.120 F596.782 
G1 X35.727 Y-20.760 Z-5.100 F598.285 
G1 X35.999 Y-20.978 Z-4.736 F591.456 
G1 X36.369 Y-21.294 Z-4.249 F599.627 
G1 X36.511 Y-21.433 Z-4.057 F606.179 
G1 X36.706 Y-21.631 Z-3.794 F610.562 
G1 X37.027 Y-21.982 Z-3.370 F622.087 
G1 X37.241 Y-22.265 Z-3.083 F640.502 
G1 X37.310 Y-22.363 Z-2.993 F652.802 
G1 X37.600 Y-22.828 Z-2.630 F676.442 
G1 X37.602 Y-22.833 Z-2.626 F694.536 
G1 X37.657 Y-22.939 Z-2.556 F697.175 
G1 X37.829 Y-23.317 Z-2.346 F721.456 
G1 X37.877 Y-23.441 Z-2.292 F749.529 
G1 X37.978 Y-23.734 Z-2.185 F772.935 
G1 X38.004 Y-23.823 Z-2.160 F798.427 
G1 X38.022 Y-23.885 Z-2.141 F790.394 
G1 X38.083 Y-24.139 Z-2.079 F813.052 
G1 X38.167 Y-24.552 Z-2.011 F837.431 
G1 X38.196 Y-24.714 Z-1.988 F852.896 
G1 X38.232 Y-24.955 Z-1.971 F869.562 
G1 X38.282 Y-25.314 Z-1.935 F861.854 
G1 X38.292 Y-25.391 Z-1.927 F869.911 
G1 X38.385 Y-26.202 Z-1.881 F877.531 
G1 X38.503 Y-27.323 Z-1.797 F871.450 
G1 X38.510 Y-27.391 Z-1.793 F878.691 
G1 X38.523 Y-27.559 Z-1.787 F885.986 
G1 X38.551 Y-27.938 Z-1.767 F880.429 
G1 X38.556 Y-28.001 Z-1.763 F887.342 
G1 X38.593 Y-28.707 Z-1.754 F894.269 
G1 X38.596 Y-28.761 Z-1.753 F900.000 
G1 X38.605 Y-29.031 Z-1.759 F893.917 
G1 X38.648 Y-30.545 Z-1.764 F898.563 
G1 X38.649 Y-30.585 Z-1.762 F894.271 
G1 X38.650 Y-30.612 Z-1.766 F890.180 
G1 X38.663 Y-32.702 Z-1.789 F895.760 
G1 X38.664 Y-32.731 Z-1.788 F892.175 
G1 X38.659 Y-34.135 Z-1.828 F889.446 
G1 X38.648 Y-34.983 Z-1.837 F896.260 
G1 X38.647 Y-35.009 Z-1.835 F894.251 
G1 X38.599 Y-37.196 Z-1.891 F890.626 
G1 X38.598 Y-37.231 Z-1.891 F886.674 
G1 X38.598 Y-37.255 Z-1.893 F884.487 
G1 X38.537 Y-38.657 Z-1.930 F890.040 
G1 X38.512 Y-39.153 Z-1.936 F895.538 
G1 X38.510 Y-39.193 Z-1.935 F891.397 
G1 X38.462 Y-39.965 Z-1.962 F887.303 
G1 X38.459 Y-39.993 Z-1.963 F893.417 
G1 X38.456 Y-40.035 Z-1.962 F889.810 
G1 X38.400 Y-40.693 Z-1.990 F884.925 
G1 X38.392 Y-40.771 Z-1.993 F877.180 
G1 X38.348 Y-41.173 Z-2.027 F869.235 
G1 X38.337 Y-41.267 Z-2.033 F876.209 
G1 X38.311 Y-41.446 Z-2.050 F859.010 
G1 X38.257 Y-41.754 Z-2.101 F841.392 
G1 X38.186 Y-42.071 Z-2.178 F811.769 
G1 X38.130 Y-42.276 Z-2.244 F783.545 
G1 X38.129 Y-42.279 Z-2.245 F797.030 
G1 X38.058 Y-42.500 Z-2.323 F772.768 
G1 X37.991 Y-42.689 Z-2.406 F754.927 
G1 X37.886 Y-42.953 Z-2.534 F735.560 
G1 X37.809 Y-43.130 Z-2.636 F717.489 
G1 X37.750 Y-43.259 Z-2.712 F709.431 
G1 X37.644 Y-43.459 Z-2.845 F696.582 
G1 X37.549 Y-43.629 Z-2.969 F685.303 
G1 X37.335 Y-43.976 Z-3.251 F667.581 
G1 X37.241 Y-44.115 Z-3.381 F652.014 
G1 X37.220 Y-44.145 Z-3.408 F658.755 
G1 X36.967 Y-44.480 Z-3.736 F644.557 
G1 X36.827 Y-44.653 Z-3.927 F632.170 
G1 X36.672 Y-44.836 Z-4.135 F625.928 
G1 X36.539 Y-44.978 Z-4.308 F622.242 
G1 X36.366 Y-45.157 Z-4.536 F617.762 
G1 X36.096 Y-45.422 Z-4.892 F610.401 
G1 X36.083 Y-45.434 Z-4.909 F610.387 
G1 X35.873 Y-45.620 Z-5.178 F609.713 
G1 X35.741 Y-45.734 Z-5.344 F606.851 
G1 X35.572 Y-45.878 Z-5.564 F603.870 
G1 X35.436 Y-45.988 Z-5.728 F612.312 
G0 Z3.000 
G0 X30.501 Y-41.957 Z3.000 
G1 X30.501 Y-41.957 Z0.865 F300.000 
G1 X29.121 Y-43.154 Z-1.525 F549.277 
G1 X27.843 Y-44.286 Z-3.739 F550.962 
G1 X26.671 Y-45.356 Z-5.769 F553.434 
G1 X26.302 Y-45.702 Z-6.409 F555.486 
G0 Z3.000 
G0 X29.755 Y-35.458 Z3.000 
G1 X29.755 Y-35.458 Z0.866 F300.000 
G1 X29.707 Y-35.322 Z0.617 F501.268 
G1 X29.826 Y-35.422 Z0.866 F513.799 
G0 Z3.000 
G0 X29.861 Y-35.307 Z3.000 
G1 X29.861 Y-35.307 Z0.865 F300.000 
G1 X29.653 Y-35.263 Z0.497 F500.737 
G1 X29.707 Y-35.322 Z0.617 F524.936 
G0 Z3.000 
G0 X29.653 Y-35.263 Z3.000 
G1 X29.653 Y-35.263 Z0.498 F300.000 
G1 X29.570 Y-35.188 Z0.339 F534.918 
G1 X29.400 Y-35.015 Z0.013 F543.530 
G1 X29.126 Y-34.754 Z-0.484 F548.707 
G1 X28.569 Y-34.184 Z-1.499 F554.417 
G1 X28.561 Y-34.176 Z-1.512 F557.423 
G1 X27.904 Y-33.494 Z-2.673 F561.464 
G1 X27.504 Y-33.075 Z-3.378 F562.537 
G1 X27.237 Y-32.800 Z-3.841 F564.336 
G1 X27.098 Y-32.661 Z-4.081 F561.876 
G1 X26.810 Y-32.379 Z-4.580 F559.559 
G1 X26.539 Y-32.123 Z-5.051 F555.992 
G1 X26.271 Y-31.881 Z-5.514 F552.843 
G1 X26.225 Y-31.840 Z-5.593 F552.186 
G1 X26.122 Y-31.750 Z-5.770 F552.101 
G0 Z3.000 
G0 X25.893 Y-31.762 Z3.000 
G1 X25.893 Y-31.762 Z-5.815 F300.000 
G1 X26.122 Y-31.750 Z-5.770 F825.872 
G1 X26.583 Y-31.310 Z-4.959 F554.685 
G1 X26.685 Y-31.212 Z-4.780 F555.843 
G1 X27.320 Y-30.588 Z-3.663 F556.969 
G1 X27.938 Y-29.970 Z-2.556 F555.417 
G1 X28.452 Y-29.462 Z-1.637 F554.558 
G1 X28.563 Y-29.348 Z-1.431 F551.775 
G1 X29.105 Y-28.818 Z-0.434 F548.246 
G1 X29.325 Y-28.615 Z-0.030 F543.520 
G1 X29.526 Y-28.417 Z0.361 F538.643 
G1 X29.589 Y-28.362 Z0.481 F531.471 
G0 Z3.000 
G0 X29.656 Y-28.291 Z3.000 
G1 X29.656 Y-28.291 Z0.628 F300.000 
G1 X29.589 Y-28.362 Z0.479 F522.037 
G1 X29.807 Y-28.313 Z0.865 F500.655 
G0 Z3.000 
G0 X29.770 Y-28.197 Z3.000 
G1 X29.770 Y-28.197 Z0.866 F300.000 
G1 X29.656 Y-28.291 Z0.628 F512.498 
G1 X29.707 Y-28.163 Z0.865 F502.999 
G0 Z3.000 
G0 X30.219 Y-23.261 Z3.000 
G1 X30.219 Y-23.261 Z0.866 F300.000 
G1 X27.939 Y-21.072 Z-3.083 F557.805 
G1 X26.180 Y-19.383 Z-6.131 F557.805 
G1 X26.128 Y-19.384 Z-6.133 F886.049 
G1 X26.077 Y-19.385 Z-6.135 F886.499 
G0 Z3.000 
G0 X26.180 Y-19.383 Z3.000 
G1 X26.180 Y-19.383 Z-6.128 F300.000 
G1 X26.260 Y-19.303 Z-5.990 F561.524 
G1 X30.219 Y-15.344 Z0.865 F561.625 
G0 Z3.000 
G0 X30.501 Y-14.456 Z3.000 
G1 X30.501 Y-14.456 Z0.864 F300.000 
G1 X32.320 Y-12.549 Z-2.283 F566.272 
G1 X32.430 Y-12.434 Z-2.473 F566.069 
G1 X34.311 Y-14.276 Z0.865 F554.929 
G0 Z3.000 
G0 X32.430 Y-12.434 Z3.000 
G1 X32.430 Y-12.434 Z-2.473 F300.000 
G1 X32.477 Y-8.878 Z-2.555 F891.280 
G1 X32.547 Y-3.530 Z-2.677 F891.274 
G1 X32.592 Y-2.984 Z-2.948 F725.680 
G1 X32.709 Y-2.436 Z-3.219 F728.547 
G1 X32.902 Y-1.881 Z-3.492 F733.696 
G1 X33.178 Y-1.312 Z-3.772 F740.664 
G1 X33.530 Y-0.751 Z-4.448 F595.902 
G1 X33.989 Y-0.153 Z-5.169 F608.525 
G1 X33.618 Y2.143 Z-4.508 F794.648 
G1 X33.344 Y3.828 Z-4.023 F794.244 
G1 X32.687 Y7.983 Z-2.794 F791.443 
G1 X32.637 Y8.316 Z-2.692 F786.901 
G1 X32.588 Y8.614 Z-2.592 F778.425 
G1 X32.555 Y8.773 Z-2.528 F756.501 
G1 X32.540 Y8.830 Z-2.499 F725.512 
G1 X32.535 Y8.844 Z-2.490 F690.137 
G1 X32.510 Y8.903 Z-2.443 F658.817 
G1 X32.421 Y9.078 Z-2.280 F635.975 
G1 X32.242 Y9.399 Z-1.954 F622.828 
G1 X31.973 Y9.853 Z-1.467 F615.157 
G1 X31.395 Y10.787 Z-0.422 F609.455 
G1 X31.183 Y11.145 Z-0.015 F604.684 
G1 X30.923 Y11.557 Z0.478 F597.358 
G1 X30.904 Y11.588 Z0.517 F589.029 
G1 X30.789 Y11.761 Z0.752 F576.366 
G1 X30.759 Y11.814 Z0.825 F564.044 
G0 Z3.000 
G0 X30.737 Y11.824 Z3.000 
G1 X30.737 Y11.824 Z0.865 F300.000 
G1 X30.759 Y11.814 Z0.825 F504.279 
G1 X30.749 Y11.841 Z0.865 F536.513 
G0 Z3.000 
G0 X38.235 Y8.176 Z3.000 
G1 X38.235 Y8.176 Z0.866 F300.000 
G1 X38.249 Y8.143 Z0.818 F547.463 
G1 X38.223 Y8.151 Z0.864 F513.375 
G0 Z3.000 
G0 X38.249 Y8.143 Z3.000 
G1 X38.249 Y8.143 Z0.818 F300.000 
G1 X38.276 Y8.101 Z0.761 F575.614 
G1 X38.295 Y8.068 Z0.720 F587.147 
G1 X38.364 Y7.956 Z0.586 F595.775 
G1 X38.469 Y7.780 Z0.381 F600.113 
G1 X38.661 Y7.471 Z0.028 F605.693 
G1 X39.108 Y6.735 Z-0.793 F609.026 
G1 X39.584 Y5.967 Z-1.642 F611.867 
G1 X40.050 Y5.208 Z-2.473 F613.331 
G1 X40.097 Y5.132 Z-2.555 F615.032 
G1 X42.071 Y6.368 Z0.865 F528.409 
G0 Z3.000 
G0 X43.729 Y5.426 Z3.000 
G1 X43.729 Y5.426 Z0.865 F300.000 
G1 X43.760 Y5.358 Z0.765 F545.062 
G0 Z3.000 
G0 X43.704 Y5.376 Z3.000 
G1 X43.704 Y5.376 Z0.866 F300.000 
G1 X43.760 Y5.358 Z0.766 F501.734 
G1 X43.858 Y5.205 Z0.553 F571.380 
G1 X43.863 Y5.197 Z0.543 F579.741 
G1 X44.121 Y4.779 Z0.041 F595.924 
G1 X44.212 Y4.622 Z-0.138 F602.516 
G1 X45.060 Y3.229 Z-1.698 F608.515 
G1 X45.490 Y2.505 Z-2.489 F611.877 
G1 X46.586 Y0.702 Z-4.440 F614.958 
G1 X46.784 Y0.372 Z-4.793 F616.390 
G1 X46.762 Y0.292 Z-4.757 F741.656 
G1 X46.740 Y0.212 Z-4.721 F744.068 
G1 X46.575 Y-0.583 Z-4.458 F780.149 
G1 X46.572 Y-0.597 Z-4.454 F817.431 
G1 X46.536 Y-0.865 Z-4.395 F817.893 
G1 X46.495 Y-1.290 Z-4.327 F839.235 
G1 X46.471 Y-1.675 Z-4.288 F861.674 
G1 X46.461 Y-1.923 Z-4.272 F875.654 
G1 X46.451 Y-2.392 Z-4.259 F889.586 
G1 X46.450 Y-2.499 Z-4.258 F895.724 
G1 X46.447 Y-3.704 Z-4.263 F898.352 
G1 X46.455 Y-4.030 Z-4.296 F862.313 
G1 X46.481 Y-4.355 Z-4.328 F862.429 
G1 X46.590 Y-5.014 Z-4.596 F753.825 
G1 X46.833 Y-5.848 Z-4.937 F757.393 
G1 X46.754 Y-6.125 Z-4.802 F730.203 
G1 X46.728 Y-6.220 Z-4.757 F737.798 
G1 X46.626 Y-6.675 Z-4.608 F782.136 
G1 X46.557 Y-7.129 Z-4.460 F780.626 
G1 X46.521 Y-7.445 Z-4.399 F827.402 
G1 X46.486 Y-7.920 Z-4.338 F851.258 
G1 X46.470 Y-8.381 Z-4.310 F877.343 
G1 X46.467 Y-8.656 Z-4.305 F892.230 
G1 X46.473 Y-9.227 Z-4.315 F893.246 
G1 X46.475 Y-9.336 Z-4.319 F886.693 
G1 X46.518 Y-10.790 Z-4.393 F880.422 
G1 X46.533 Y-11.072 Z-4.419 F865.232 
G1 X43.482 Y-14.123 Z0.866 F561.545 
G0 Z3.000 
G0 X42.071 Y-14.122 Z3.000 
G1 X42.071 Y-14.122 Z0.864 F300.000 
G1 X40.026 Y-12.076 Z-2.678 F561.586 
G1 X39.704 Y-11.754 Z-3.235 F561.592 
G1 X37.979 Y-14.120 Z0.864 F536.932 
G0 Z3.000 
G0 X36.868 Y-16.211 Z3.000 
G1 X36.868 Y-16.211 Z0.865 F300.000 
G1 X36.123 Y-17.545 Z-1.764 F501.133 
G0 Z3.000 
G0 X36.572 Y-16.087 Z3.000 
G1 X36.572 Y-16.087 Z0.866 F300.000 
G1 X36.123 Y-17.545 Z-1.763 F500.873 
G1 X36.087 Y-17.628 Z-1.916 F503.676 
G1 X35.930 Y-17.922 Z-2.471 F507.059 
G1 X35.841 Y-18.116 Z-2.818 F510.468 
G1 X35.587 Y-18.625 Z-3.732 F512.627 
G1 X35.509 Y-18.796 Z-4.029 F515.082 
G1 X35.271 Y-19.273 Z-4.860 F518.077 
G1 X35.149 Y-19.485 Z-5.230 F523.072 
G1 X34.192 Y-18.517 Z-3.571 F562.603 
G1 X31.630 Y-15.955 Z0.865 F561.638 
G0 Z3.000 
G0 X39.704 Y-11.754 Z3.000 
G1 X39.704 Y-11.754 Z-3.232 F300.000 
G1 X39.107 Y-7.945 Z-4.266 F799.898 
G1 X38.623 Y-4.854 Z-5.106 F799.905 
G1 X38.010 Y-4.437 Z-4.552 F654.975 
G1 X37.491 Y-4.004 Z-4.011 F642.396 
G1 X37.056 Y-3.555 Z-3.481 F631.065 
G1 X36.815 Y-3.252 Z-3.137 F623.086 
G1 X36.604 Y-2.938 Z-2.793 F617.931 
G1 X36.104 Y-2.118 Z-2.781 F895.664 
G1 X35.779 Y-1.654 Z-3.293 F619.455 
G1 X35.380 Y-1.209 Z-3.810 F627.709 
G1 X34.902 Y-0.782 Z-4.334 F638.065 
G1 X34.340 Y-0.373 Z-4.868 F649.870 
G1 X33.989 Y-0.153 Z-5.169 F659.648 
G0 Z3.000 
G0 X38.623 Y-4.854 Z3.000 
G1 X38.623 Y-4.854 Z-5.106 F300.000 
G1 X39.073 Y-4.283 Z-4.378 F599.791 
G1 X39.342 Y-3.877 Z-3.861 F588.641 
G1 X39.651 Y-3.304 Z-3.557 F733.022 
G1 X39.873 Y-2.745 Z-3.260 F724.875 
G1 X40.015 Y-2.197 Z-2.969 F718.558 
G1 X40.068 Y-1.824 Z-2.771 F715.072 
G1 X40.086 Y-1.450 Z-2.572 F713.674 
G1 X40.090 Y3.355 Z-2.563 F899.285 
G1 X40.097 Y5.132 Z-2.552 F897.636 
G0 Z3.000 
G0 X46.784 Y0.372 Z3.000 
G1 X46.784 Y0.372 Z-4.794 F300.000 
G1 X47.477 Y0.538 Z-4.104 F606.228 
G1 X48.120 Y0.628 Z-3.428 F592.087 
G1 X48.293 Y0.640 Z-3.238 F583.635 
G1 X48.464 Y0.647 Z-3.049 F580.125 
G1 X48.521 Y0.648 Z-3.002 F637.378 
G1 X49.101 Y0.626 Z-2.698 F715.793 
G1 X49.633 Y0.535 Z-2.401 F707.761 
G1 X49.821 Y0.485 Z-2.291 F703.728 
G1 X50.004 Y0.424 Z-2.181 F702.139 
G1 X50.114 Y0.385 Z-2.156 F817.805 
G1 X50.223 Y0.344 Z-2.133 F827.968 
G1 X50.366 Y0.287 Z-2.109 F838.734 
G1 X50.371 Y0.285 Z-2.108 F839.063 
G1 X50.459 Y0.250 Z-2.093 F840.033 
G1 X50.507 Y0.231 Z-2.086 F844.688 
G1 X51.295 Y-0.094 Z-1.973 F849.658 
G1 X51.323 Y-0.105 Z-1.968 F852.620 
G1 X53.017 Y-0.822 Z-1.754 F855.502 
G1 X53.036 Y-0.830 Z-1.751 F857.493 
G1 X53.765 Y-1.132 Z-1.669 F860.069 
G1 X54.987 Y-1.638 Z-1.528 F859.627 
G1 X55.511 Y-1.865 Z-1.449 F847.394 
G1 X55.948 Y-2.084 Z-1.337 F813.609 
G1 X56.089 Y-2.163 Z-1.287 F784.700 
G1 X56.146 Y-2.199 Z-1.261 F761.559 
G1 X56.326 Y-2.096 Z-0.916 F506.462 
G1 X56.613 Y-1.954 Z-0.375 F503.975 
G0 Z3.000 
G0 X56.146 Y-2.199 Z3.000 
G1 X56.146 Y-2.199 Z-1.262 F300.000 
G1 X56.154 Y-2.207 Z-1.252 F634.953 
G1 X56.177 Y-2.236 Z-1.217 F614.285 
G1 X56.296 Y-2.381 Z-1.040 F610.894 
G1 X56.470 Y-2.621 Z-0.739 F596.366 
G1 X56.644 Y-2.883 Z-0.396 F583.860 
G1 X56.780 Y-3.114 Z-0.087 F572.687 
G1 X56.796 Y-3.141 Z-0.050 F569.812 
G1 X56.910 Y-3.363 Z0.264 F555.920 
G0 Z3.000 
G0 X56.983 Y-3.551 Z3.000 
G1 X56.983 Y-3.551 Z0.553 F300.000 
G1 X56.937 Y-3.437 Z0.376 F532.184 
G1 X56.910 Y-3.363 Z0.265 F536.644 
G1 X57.222 Y-3.520 Z0.865 F501.282 
G0 Z3.000 
G0 X57.115 Y-3.679 Z3.000 
G1 X57.115 Y-3.679 Z0.864 F300.000 
G1 X56.983 Y-3.551 Z0.552 F502.803 
G1 X56.989 Y-3.576 Z0.592 F514.591 
G0 Z3.000 
G0 X57.055 Y-3.722 Z3.000 
G1 X57.055 Y-3.722 Z0.865 F300.000 
G1 X56.989 Y-3.576 Z0.593 F503.339 
G1 X56.991 Y-3.737 Z0.866 F503.805 
G0 Z3.000 
G0 X57.287 Y-1.697 Z3.000 
G1 X57.287 Y-1.697 Z0.865 F300.000 
G1 X56.613 Y-1.954 Z-0.375 F501.234 
G1 X57.215 Y-1.560 Z0.865 F500.797 
G0 Z3.000 
G0 X56.815 Y-6.346 Z3.000 
G1 X56.815 Y-6.346 Z0.866 F300.000 
G1 X56.596 Y-6.782 Z0.026 F501.142 
G1 X56.921 Y-6.415 Z0.865 F502.069 
G0 Z3.000 
G0 X57.016 Y-6.528 Z3.000 
G1 X57.016 Y-6.528 Z0.866 F300.000 
G1 X56.547 Y-6.853 Z-0.118 F500.747 
G1 X56.596 Y-6.782 Z0.026 F505.740 
G0 Z3.000 
G0 X56.547 Y-6.853 Z3.000 
G1 X56.547 Y-6.853 Z-0.118 F300.000 
G1 X56.421 Y-6.999 Z-0.432 F510.767 
G1 X56.285 Y-7.139 Z-0.740 F515.273 
G1 X55.949 Y-7.440 Z-1.432 F520.923 
G1 X55.945 Y-7.439 Z-1.432 F835.873 
G1 X54.968 Y-7.176 Z-1.590 F841.026 
G1 X53.536 Y-6.798 Z-1.806 F844.649 
G1 X52.314 Y-6.475 Z-1.988 F845.181 
G1 X51.136 Y-6.166 Z-2.161 F846.202 
G1 X51.113 Y-6.160 Z-2.165 F843.268 
G1 X50.320 Y-5.957 Z-2.291 F841.725 
G1 X50.262 Y-5.943 Z-2.301 F836.779 
G1 X49.896 Y-5.856 Z-2.369 F831.393 
G1 X49.375 Y-5.770 Z-2.607 F738.039 
G1 X48.684 Y-5.759 Z-2.907 F743.386 
G1 X48.648 Y-5.761 Z-2.933 F669.283 
G1 X48.579 Y-5.765 Z-2.980 F663.346 
G1 X46.833 Y-5.848 Z-4.939 F578.474 
G0 Z3.000 
G0 X46.533 Y-11.072 Z3.000 
G1 X46.533 Y-11.072 Z-4.419 F300.000 
G1 X47.088 Y-11.504 Z-3.975 F684.859 
G1 X47.627 Y-11.841 Z-3.543 F672.071 
G1 X48.154 Y-12.090 Z-3.121 F660.620 
G1 X48.672 Y-12.257 Z-2.707 F651.326 
G1 X49.318 Y-12.359 Z-2.189 F644.401 
G1 X50.395 Y-12.430 Z-2.067 F856.767 
G1 X50.745 Y-12.453 Z-2.027 F856.757 
G1 X50.774 Y-12.455 Z-2.024 F859.814 
G1 X52.509 Y-12.553 Z-1.852 F862.366 
G1 X52.534 Y-12.555 Z-1.850 F864.871 
G1 X54.701 Y-12.661 Z-1.666 F867.706 
G1 X54.713 Y-12.662 Z-1.665 F868.056 
G1 X55.901 Y-12.715 Z-1.572 F870.286 
G1 X55.961 Y-12.775 Z-1.469 F561.579 
G1 X57.309 Y-14.123 Z0.866 F561.544 
G0 Z3.000 
G0 X55.901 Y-12.715 Z3.000 
G1 X55.901 Y-12.715 Z-1.572 F300.000 
G1 X57.309 Y-11.428 Z0.865 F553.689 
G0 Z3.000 
G0 X56.956 Y-8.928 Z3.000 
G1 X56.956 Y-8.928 Z0.865 F300.000 
G1 X56.940 Y-8.681 Z0.444 F502.914 
G1 X57.057 Y-8.902 Z0.865 F504.562 
G0 Z3.000 
G0 X57.141 Y-8.828 Z3.000 
G1 X57.141 Y-8.828 Z0.864 F300.000 
G1 X56.932 Y-8.654 Z0.399 F502.095 
G1 X56.940 Y-8.681 Z0.443 F515.543 
G0 Z3.000 
G0 X56.932 Y-8.654 Z3.000 
G1 X56.932 Y-8.654 Z0.400 F300.000 
G1 X56.886 Y-8.561 Z0.249 F530.469 
G1 X57.210 Y-8.712 Z0.865 F500.821 
G0 Z3.000 
G0 X57.263 Y-8.560 Z3.000 
G1 X57.263 Y-8.560 Z0.865 F300.000 
G1 X56.815 Y-8.447 Z0.068 F500.681 
G1 X56.886 Y-8.561 Z0.249 F543.550 
G0 Z3.000 
G0 X56.815 Y-8.447 Z3.000 
G1 X56.815 Y-8.447 Z0.068 F300.000 
G1 X56.648 Y-8.225 Z-0.279 F558.071 
G1 X56.568 Y-8.115 Z-0.446 F561.527 
G1 X56.290 Y-7.787 Z-0.931 F576.910 
G1 X56.015 Y-7.500 Z-1.347 F591.260 
G1 X55.949 Y-7.440 Z-1.431 F608.793 
G0 Z3.000 
G0 X23.066 Y-10.182 Z3.000 
G1 X23.066 Y-10.182 Z-5.209 F300.000 
G1 X23.084 Y-10.171 Z-5.192 F646.831 
G1 X23.283 Y-10.046 Z-5.016 F653.633 
G1 X23.664 Y-9.765 Z-4.671 F659.683 
G1 X23.779 Y-9.664 Z-4.563 F665.087 
G1 X23.887 Y-9.569 Z-4.463 F669.583 
G1 X24.059 Y-9.412 Z-4.309 F676.779 
G1 X24.350 Y-9.099 Z-4.044 F687.478 
G1 X24.450 Y-8.984 Z-3.958 F705.136 
G1 X24.454 Y-8.980 Z-3.955 F706.037 
G1 X24.747 Y-8.594 Z-3.695 F711.950 
G1 X24.830 Y-8.472 Z-3.627 F734.412 
G1 X24.843 Y-8.453 Z-3.615 F723.139 
G1 X25.089 Y-8.040 Z-3.412 F746.923 
G1 X25.169 Y-7.890 Z-3.353 F772.275 
G1 X25.277 Y-7.677 Z-3.262 F761.388 
G1 X25.426 Y-7.359 Z-3.151 F783.116 
G1 X25.471 Y-7.250 Z-3.121 F805.724 
G1 X25.621 Y-6.874 Z-3.007 F794.788 
G1 X25.689 Y-6.693 Z-2.959 F807.837 
G1 X25.736 Y-6.559 Z-2.929 F820.875 
G1 X25.895 Y-6.078 Z-2.809 F810.744 
G1 X25.950 Y-5.904 Z-2.772 F824.131 
G1 X25.972 Y-5.824 Z-2.758 F837.160 
G1 X26.111 Y-5.306 Z-2.656 F828.046 
G1 X26.155 Y-5.126 Z-2.628 F842.909 
G1 X26.172 Y-5.051 Z-2.620 F857.437 
G1 X26.295 Y-4.451 Z-2.536 F848.124 
G1 X26.321 Y-4.316 Z-2.521 F859.898 
G1 X26.332 Y-4.246 Z-2.516 F871.172 
G1 X26.437 Y-3.572 Z-2.449 F862.792 
G1 X26.453 Y-3.465 Z-2.442 F872.179 
G1 X26.459 Y-3.413 Z-2.439 F881.060 
G1 X26.545 Y-2.661 Z-2.385 F872.849 
G1 X26.554 Y-2.570 Z-2.380 F880.825 
G1 X26.555 Y-2.559 Z-2.380 F889.962 
G1 X26.621 Y-1.715 Z-2.337 F880.462 
G1 X26.623 Y-1.688 Z-2.336 F883.576 
G1 X26.625 Y-1.643 Z-2.334 F882.184 
G1 X26.664 Y-0.804 Z-2.304 F886.671 
G1 X26.666 Y-0.747 Z-2.301 F879.217 
G1 X26.667 Y-0.676 Z-2.298 F884.951 
G1 X26.679 Y0.089 Z-2.280 F890.866 
G1 X26.680 Y0.247 Z-2.273 F883.368 
G1 X26.680 Y0.308 Z-2.271 F889.300 
G1 X26.671 Y0.989 Z-2.263 F895.238 
G1 X26.664 Y1.252 Z-2.255 F888.354 
G1 X26.663 Y1.312 Z-2.254 F893.044 
G1 X26.639 Y1.890 Z-2.253 F899.208 
G1 X26.620 Y2.265 Z-2.244 F891.541 
G1 X26.617 Y2.325 Z-2.244 F896.852 
G1 X26.584 Y2.791 Z-2.247 F897.629 
G1 X26.546 Y3.274 Z-2.241 F895.189 
G1 X26.540 Y3.335 Z-2.241 F899.371 
G1 X26.506 Y3.687 Z-2.247 F893.317 
G1 X26.443 Y4.271 Z-2.246 F899.089 
G1 X26.435 Y4.336 Z-2.246 F895.329 
G1 X26.405 Y4.575 Z-2.253 F888.914 
G1 X26.312 Y5.248 Z-2.260 F896.289 
G1 X26.301 Y5.320 Z-2.262 F890.021 
G1 X26.280 Y5.452 Z-2.268 F883.128 
G1 X26.153 Y6.197 Z-2.286 F890.913 
G1 X26.138 Y6.278 Z-2.289 F884.096 
G1 X26.132 Y6.311 Z-2.291 F875.617 
G1 X25.966 Y7.110 Z-2.325 F884.137 
G1 X25.957 Y7.151 Z-2.327 F880.973 
G1 X25.944 Y7.207 Z-2.330 F880.783 
G1 X25.754 Y7.967 Z-2.381 F875.208 
G1 X25.750 Y7.986 Z-2.382 F885.990 
G1 X25.717 Y8.102 Z-2.390 F874.184 
G1 X25.522 Y8.754 Z-2.455 F863.427 
G1 X25.502 Y8.817 Z-2.460 F872.450 
G1 X25.533 Y8.964 Z-2.465 F806.574 
G1 X25.328 Y9.320 Z-2.523 F852.743 
G1 X25.291 Y9.422 Z-2.539 F844.000 
G1 X25.258 Y9.507 Z-2.554 F836.483 
G1 X25.152 Y9.774 Z-2.595 F846.814 
G1 X25.108 Y9.881 Z-2.614 F835.973 
G1 X24.972 Y10.195 Z-2.682 F825.059 
G1 X24.962 Y10.219 Z-2.687 F824.429 
G1 X24.900 Y10.348 Z-2.717 F823.189 
G1 X24.761 Y10.623 Z-2.788 F813.358 
G1 X24.665 Y10.804 Z-2.844 F797.436 
G1 X24.623 Y10.878 Z-2.871 F784.546 
G1 X24.526 Y11.042 Z-2.924 F795.600 
G1 X24.388 Y11.262 Z-3.010 F777.468 
G1 X24.250 Y11.467 Z-3.106 F759.345 
G1 X24.242 Y11.479 Z-3.111 F761.393 
G1 X24.029 Y11.760 Z-3.258 F749.875 
G1 X23.887 Y11.932 Z-3.364 F730.306 
G1 X23.822 Y12.010 Z-3.414 F725.239 
G1 X23.548 Y12.294 Z-3.623 F713.752 
G1 X23.398 Y12.438 Z-3.745 F696.435 
G1 X23.371 Y12.464 Z-3.768 F694.352 
G1 X22.902 Y12.846 Z-4.158 F681.142 
G1 X22.883 Y12.859 Z-4.174 F670.575 
G1 X22.721 Y12.971 Z-4.309 F670.021 
G1 X22.540 Y13.091 Z-4.465 F663.099 
G1 X22.197 Y13.286 Z-4.759 F655.163 
G1 X21.970 Y13.395 Z-4.953 F648.479 
G1 X21.898 Y13.428 Z-5.017 F643.144 
G1 X21.789 Y13.474 Z-5.105 F654.574 
G1 X21.749 Y13.491 Z-5.139 F652.498 
G0 Z3.000 
G0 X21.682 Y14.799 Z3.000 
G1 X21.682 Y14.799 Z-3.377 F300.000 
G1 X21.683 Y14.773 Z-3.423 F501.156 
G1 X21.683 Y14.770 Z-3.428 F501.720 
G1 X21.685 Y14.722 Z-3.509 F505.042 
G1 X21.686 Y14.711 Z-3.527 F507.732 
G1 X21.688 Y14.638 Z-3.646 F511.318 
G1 X21.691 Y14.612 Z-3.687 F514.873 
G1 X21.694 Y14.519 Z-3.832 F519.514 
G1 X21.698 Y14.473 Z-3.901 F524.213 
G1 X21.702 Y14.365 Z-4.058 F529.813 
G1 X21.707 Y14.303 Z-4.147 F535.208 
G1 X21.712 Y14.179 Z-4.315 F541.499 
G1 X21.717 Y14.110 Z-4.406 F547.513 
G1 X21.723 Y13.971 Z-4.584 F554.053 
G1 X21.729 Y13.880 Z-4.695 F560.827 
G1 X21.735 Y13.733 Z-4.869 F568.177 
G1 X21.744 Y13.612 Z-5.008 F575.504 
G1 X21.749 Y13.491 Z-5.140 F582.805 
G1 X21.727 Y13.479 Z-5.121 F660.991 
G1 X21.485 Y13.332 Z-4.912 F657.131 
G1 X21.214 Y13.140 Z-4.674 F662.814 
G1 X21.082 Y13.034 Z-4.555 F666.536 
G1 X20.927 Y12.906 Z-4.419 F672.719 
G1 X20.919 Y12.899 Z-4.413 F672.980 
G1 X20.605 Y12.609 Z-4.129 F676.469 
G1 X20.441 Y12.432 Z-3.981 F690.283 
G1 X20.300 Y12.274 Z-3.859 F699.180 
G1 X20.289 Y12.262 Z-3.849 F699.813 
G1 X19.997 Y11.887 Z-3.594 F711.559 
G1 X19.978 Y11.861 Z-3.579 F733.214 
G1 X19.863 Y11.694 Z-3.478 F723.864 
G1 X19.680 Y11.406 Z-3.328 F741.381 
G1 X19.671 Y11.392 Z-3.321 F750.679 
G1 X19.544 Y11.166 Z-3.215 F752.449 
G1 X19.418 Y10.928 Z-3.118 F768.056 
G1 X19.405 Y10.901 Z-3.109 F784.615 
G1 X19.294 Y10.665 Z-3.020 F774.542 
G1 X19.212 Y10.482 Z-2.960 F787.877 
G1 X19.155 Y10.346 Z-2.921 F801.264 
G1 X19.089 Y10.181 Z-2.869 F792.871 
G1 X19.026 Y10.014 Z-2.824 F805.320 
G1 X18.930 Y9.746 Z-2.762 F817.891 
G1 X18.910 Y9.687 Z-2.747 F808.043 
G1 X18.862 Y9.535 Z-2.713 F820.239 
G1 X18.756 Y9.177 Z-2.646 F832.122 
G1 X18.722 Y9.056 Z-2.627 F842.565 
G1 X18.713 Y9.019 Z-2.622 F852.061 
G1 X18.625 Y8.668 Z-2.569 F844.036 
G1 X18.601 Y8.562 Z-2.555 F852.577 
G1 X18.536 Y8.266 Z-2.524 F860.459 
G1 X18.511 Y8.146 Z-2.508 F852.162 
G1 X18.488 Y8.025 Z-2.497 F863.521 
G1 X18.396 Y7.496 Z-2.460 F874.004 
G1 X18.336 Y7.118 Z-2.425 F865.334 
G1 X18.318 Y6.987 Z-2.417 F876.547 
G1 X18.285 Y6.724 Z-2.408 F887.768 
G1 X18.207 Y5.990 Z-2.362 F876.180 
G1 X18.198 Y5.886 Z-2.358 F885.706 
G1 X18.137 Y5.115 Z-2.347 F894.168 
G1 X18.121 Y4.819 Z-2.330 F878.821 
G1 X18.118 Y4.734 Z-2.327 F887.380 
G1 X18.081 Y3.614 Z-2.312 F894.650 
G1 X18.080 Y3.537 Z-2.312 F898.509 
G1 X18.079 Y3.495 Z-2.313 F891.722 
G1 X18.092 Y2.385 Z-2.295 F893.844 
G1 X18.094 Y2.313 Z-2.295 F899.469 
G1 X18.107 Y1.869 Z-2.303 F893.372 
G1 X18.144 Y1.147 Z-2.289 F892.608 
G1 X18.149 Y1.078 Z-2.289 F899.451 
G1 X18.208 Y0.254 Z-2.300 F894.589 
G1 X18.238 Y-0.080 Z-2.293 F891.330 
G1 X18.246 Y-0.152 Z-2.292 F898.419 
G1 X18.373 Y-1.281 Z-2.306 F895.428 
G1 X18.379 Y-1.331 Z-2.307 F891.065 
G1 X18.384 Y-1.359 Z-2.307 F898.626 
G1 X18.553 Y-2.441 Z-2.320 F895.537 
G1 X18.569 Y-2.531 Z-2.323 F887.882 
G1 X18.631 Y-2.871 Z-2.342 F879.254 
G1 X18.770 Y-3.548 Z-2.352 F894.193 
G1 X18.794 Y-3.658 Z-2.357 F884.411 
G1 X18.959 Y-4.348 Z-2.404 F874.723 
G1 X19.022 Y-4.589 Z-2.410 F890.673 
G1 X19.061 Y-4.725 Z-2.418 F877.902 
G1 X19.313 Y-5.556 Z-2.498 F864.805 
G1 X19.359 Y-5.698 Z-2.517 F853.221 
G1 X19.377 Y-5.750 Z-2.525 F841.091 
G1 X19.495 Y-6.069 Z-2.566 F854.085 
G1 X19.538 Y-6.182 Z-2.584 F843.690 
G1 X19.621 Y-6.389 Z-2.623 F833.905 
G1 X19.678 Y-6.523 Z-2.645 F843.054 
G1 X19.739 Y-6.662 Z-2.673 F831.116 
G1 X19.883 Y-6.973 Z-2.747 F818.986 
G1 X19.899 Y-7.005 Z-2.755 F816.920 
G1 X19.971 Y-7.146 Z-2.792 F811.326 
G1 X20.120 Y-7.423 Z-2.877 F799.198 
G1 X20.211 Y-7.582 Z-2.933 F787.507 
G1 X20.251 Y-7.647 Z-2.957 F779.626 
G1 X20.490 Y-8.019 Z-3.109 F774.000 
G1 X20.551 Y-8.113 Z-3.149 F767.756 
G1 X20.676 Y-8.283 Z-3.231 F758.355 
G1 X20.790 Y-8.431 Z-3.311 F746.499 
G1 X20.918 Y-8.592 Z-3.405 F735.296 
G1 X20.999 Y-8.683 Z-3.464 F728.402 
G1 X21.111 Y-8.807 Z-3.548 F722.748 
G1 X21.312 Y-9.017 Z-3.706 F709.015 
G1 X21.432 Y-9.128 Z-3.801 F698.804 
G1 X21.545 Y-9.229 Z-3.894 F690.880 
G1 X21.720 Y-9.380 Z-4.041 F683.742 
G1 X22.073 Y-9.640 Z-4.341 F670.332 
G1 X22.133 Y-9.681 Z-4.395 F657.924 
G1 X22.193 Y-9.721 Z-4.445 F667.200 
G1 X22.524 Y-9.923 Z-4.735 F655.120 
G1 X22.890 Y-10.107 Z-5.058 F645.017 
G1 X22.953 Y-10.134 Z-5.112 F644.475 
G1 X23.066 Y-10.182 Z-5.209 F643.612 
G1 X23.074 Y-10.312 Z-5.079 F596.769 
G1 X23.076 Y-10.371 Z-5.016 F588.476 
G1 X23.096 Y-10.678 Z-4.676 F580.531 
G1 X23.097 Y-10.727 Z-4.618 F572.479 
G1 X23.115 Y-10.992 Z-4.298 F564.463 
G1 X23.116 Y-11.037 Z-4.242 F556.507 
G1 X23.131 Y-11.262 Z-3.947 F549.161 
G1 X23.132 Y-11.303 Z-3.891 F541.518 
G1 X23.144 Y-11.485 Z-3.634 F534.871 
G1 X23.145 Y-11.518 Z-3.585 F528.048 
G1 X23.155 Y-11.665 Z-3.360 F522.104 
G1 X23.155 Y-11.683 Z-3.332 F516.359 
G1 X23.163 Y-11.792 Z-3.155 F511.618 
G1 X23.163 Y-11.799 Z-3.143 F507.636 
G1 X23.167 Y-11.853 Z-3.051 F504.354 
G1 X23.167 Y-11.860 Z-3.040 F500.840 
G0 Z3.000 
G0 X6.417 Y-16.594 Z3.000 
G1 X6.417 Y-16.594 Z-1.290 F300.000 
G1 X6.411 Y-16.664 Z-1.409 F501.708 
G1 X6.397 Y-16.756 Z-1.566 F503.830 
G1 X6.392 Y-16.816 Z-1.667 F506.485 
G1 X6.378 Y-16.907 Z-1.818 F509.481 
G1 X6.373 Y-16.967 Z-1.915 F512.714 
G1 X6.358 Y-17.068 Z-2.076 F516.355 
G1 X6.351 Y-17.142 Z-2.190 F520.262 
G1 X6.347 Y-17.171 Z-2.234 F524.670 
G1 X6.339 Y-17.267 Z-2.374 F530.895 
G1 X6.296 Y-17.582 Z-2.816 F537.852 
G1 X6.286 Y-17.728 Z-3.009 F547.813 
G1 X6.260 Y-17.933 Z-3.267 F558.224 
G1 X6.245 Y-18.139 Z-3.509 F569.550 
G1 X6.228 Y-18.274 Z-3.660 F580.998 
G1 X6.209 Y-18.560 Z-3.954 F595.112 
G1 X6.207 Y-18.579 Z-3.973 F609.375 
G1 X6.192 Y-18.827 Z-4.189 F626.909 
G1 X6.192 Y-18.838 Z-4.197 F646.981 
G1 X5.987 Y-18.967 Z-3.976 F617.589 
G1 X5.699 Y-19.191 Z-3.638 F614.868 
G1 X5.579 Y-19.290 Z-3.500 F623.372 
G1 X5.493 Y-19.367 Z-3.392 F612.576 
G1 X5.076 Y-19.779 Z-2.892 F630.239 
G1 X4.916 Y-19.975 Z-2.698 F650.040 
G1 X4.765 Y-20.172 Z-2.518 F659.892 
G1 X4.603 Y-20.400 Z-2.330 F674.074 
G1 X4.445 Y-20.675 Z-2.144 F697.013 
G1 X4.328 Y-20.901 Z-2.013 F718.590 
G1 X4.216 Y-21.139 Z-1.893 F737.008 
G1 X4.165 Y-21.275 Z-1.837 F760.346 
G1 X4.071 Y-21.543 Z-1.741 F774.261 
G1 X3.991 Y-21.811 Z-1.666 F801.092 
G1 X3.952 Y-21.970 Z-1.636 F829.544 
G1 X3.916 Y-22.126 Z-1.601 F818.693 
G1 X3.880 Y-22.315 Z-1.571 F840.949 
G1 X3.821 Y-22.683 Z-1.535 F863.152 
G1 X3.802 Y-22.824 Z-1.528 F879.930 
G1 X3.798 Y-22.864 Z-1.528 F898.085 
G1 X3.763 Y-23.248 Z-1.515 F887.430 
G1 X3.755 Y-23.363 Z-1.515 F900.000 
G1 X3.733 Y-23.798 Z-1.531 F885.990 
G1 X3.732 Y-23.845 Z-1.531 F895.871 
G1 X3.730 Y-23.930 Z-1.535 F885.716 
G1 X3.729 Y-24.534 Z-1.574 F874.984 
G1 X3.731 Y-24.657 Z-1.587 F860.980 
G1 X3.735 Y-24.757 Z-1.601 F847.180 
G1 X3.758 Y-25.184 Z-1.650 F856.051 
G1 X3.775 Y-25.371 Z-1.682 F835.405 
G1 X3.817 Y-25.724 Z-1.763 F814.492 
G1 X3.834 Y-25.857 Z-1.790 F823.607 
G1 X3.876 Y-26.097 Z-1.855 F800.455 
G1 X3.980 Y-26.581 Z-2.021 F776.762 
G1 X4.003 Y-26.684 Z-2.059 F768.126 
G1 X4.045 Y-26.832 Z-2.120 F755.040 
G1 X4.205 Y-27.350 Z-2.355 F743.601 
G1 X4.278 Y-27.562 Z-2.464 F727.922 
G1 X4.299 Y-27.618 Z-2.495 F714.005 
G1 X4.506 Y-28.151 Z-2.784 F721.578 
G1 X4.570 Y-28.304 Z-2.872 F712.361 
G1 X4.659 Y-28.511 Z-3.000 F702.628 
G1 X4.879 Y-28.996 Z-3.289 F710.390 
G1 X4.929 Y-29.102 Z-3.354 F705.700 
G1 X5.047 Y-29.348 Z-3.512 F700.392 
G1 X5.322 Y-29.894 Z-3.846 F708.918 
G1 X5.432 Y-30.117 Z-3.978 F713.654 
G1 X5.636 Y-30.512 Z-4.198 F724.332 
G1 X5.775 Y-30.811 Z-4.338 F746.272 
G1 X5.847 Y-30.956 Z-4.400 F759.857 
G1 X5.943 Y-31.177 Z-4.472 F789.364 
G1 X5.271 Y-31.460 Z-3.225 F502.155 
G1 X4.304 Y-31.831 Z-1.447 F501.430 
G0 Z3.000 
G0 X5.943 Y-31.177 Z3.000 
G1 X5.943 Y-31.177 Z-4.472 F300.000 
G1 X6.061 Y-31.360 Z-4.477 F892.078 
G1 X6.145 Y-31.503 Z-4.469 F880.962 
G1 X6.225 Y-31.649 Z-4.453 F863.317 
G1 X6.236 Y-31.669 Z-4.450 F848.822 
G1 X6.507 Y-32.178 Z-4.337 F826.191 
G1 X6.658 Y-32.494 Z-4.244 F801.154 
G1 X6.814 Y-32.810 Z-4.142 F792.052 
G1 X7.144 Y-33.528 Z-3.871 F773.705 
G1 X7.194 Y-33.633 Z-3.830 F770.776 
G1 X7.643 Y-34.653 Z-3.399 F759.177 
G1 X7.659 Y-34.691 Z-3.382 F747.950 
G1 X7.679 Y-34.739 Z-3.360 F750.800 
G1 X8.038 Y-35.624 Z-2.977 F754.087 
G1 X8.062 Y-35.687 Z-2.948 F741.659 
G1 X8.096 Y-35.780 Z-2.904 F747.312 
G1 X8.365 Y-36.540 Z-2.580 F753.378 
G1 X8.396 Y-36.633 Z-2.542 F759.685 
G1 X8.416 Y-36.698 Z-2.515 F758.465 
G1 X8.593 Y-37.323 Z-2.274 F763.826 
G1 X8.648 Y-37.544 Z-2.201 F781.688 
G1 X8.681 Y-37.696 Z-2.160 F800.884 
G1 X8.756 Y-38.080 Z-2.041 F787.628 
G1 X8.795 Y-38.330 Z-1.980 F810.026 
G1 X8.852 Y-38.815 Z-1.896 F834.336 
G1 X8.854 Y-38.839 Z-1.891 F821.997 
G1 X8.867 Y-39.034 Z-1.858 F840.762 
G1 X8.886 Y-39.577 Z-1.804 F860.632 
G1 X8.888 Y-39.695 Z-1.795 F873.216 
G1 X8.886 Y-39.982 Z-1.786 F885.910 
G1 X8.878 Y-40.327 Z-1.762 F873.520 
G1 X8.877 Y-40.392 Z-1.756 F880.304 
G1 X8.845 Y-41.084 Z-1.736 F887.812 
G1 X8.840 Y-41.177 Z-1.733 F897.532 
G1 X8.838 Y-41.195 Z-1.736 F891.645 
G1 X8.783 Y-41.789 Z-1.730 F896.226 
G1 X8.769 Y-41.906 Z-1.732 F890.913 
G1 X8.698 Y-42.439 Z-1.764 F877.862 
G1 X8.696 Y-42.453 Z-1.764 F878.045 
G1 X8.671 Y-42.596 Z-1.775 F870.063 
G1 X8.578 Y-43.048 Z-1.832 F854.385 
G1 X8.526 Y-43.266 Z-1.871 F831.116 
G1 X8.421 Y-43.639 Z-1.967 F809.013 
G1 X8.391 Y-43.740 Z-1.993 F799.294 
G1 X8.344 Y-43.874 Z-2.036 F787.023 
G1 X8.284 Y-44.032 Z-2.096 F774.894 
G1 X8.194 Y-44.246 Z-2.186 F756.088 
G1 X8.129 Y-44.388 Z-2.258 F738.415 
G1 X7.993 Y-44.657 Z-2.412 F718.041 
G1 X7.923 Y-44.784 Z-2.498 F699.593 
G1 X7.705 Y-45.136 Z-2.769 F677.882 
G1 X7.658 Y-45.203 Z-2.829 F658.936 
G1 X7.624 Y-45.251 Z-2.870 F666.419 
G1 X7.301 Y-45.658 Z-3.276 F646.073 
G1 X7.210 Y-45.761 Z-3.397 F628.658 
G1 X7.207 Y-45.764 Z-3.401 F632.503 
G1 X6.741 Y-46.223 Z-3.998 F616.591 
G1 X6.706 Y-46.253 Z-4.043 F606.371 
G1 X6.590 Y-46.350 Z-4.192 F605.628 
G1 X6.308 Y-46.577 Z-4.554 F598.566 
G1 X6.107 Y-46.717 Z-4.806 F595.006 
G0 Z3.000 
G0 X6.072 Y-47.654 Z3.000 
G1 X6.072 Y-47.654 Z-4.156 F300.000 
G1 X6.075 Y-47.631 Z-4.181 F594.949 
G1 X6.081 Y-47.555 Z-4.252 F611.672 
G1 X6.082 Y-47.527 Z-4.276 F627.821 
G1 X6.090 Y-47.409 Z-4.371 F641.632 
G1 X6.094 Y-47.238 Z-4.497 F657.941 
G1 X6.097 Y-47.187 Z-4.532 F671.441 
G1 X6.104 Y-46.890 Z-4.716 F687.947 
G1 X6.104 Y-46.882 Z-4.720 F702.664 
G1 X6.107 Y-46.717 Z-4.806 F716.227 
G1 X5.931 Y-46.574 Z-4.583 F604.286 
G1 X5.871 Y-46.523 Z-4.509 F608.213 
G1 X5.809 Y-46.469 Z-4.427 F601.578 
G1 X5.437 Y-46.116 Z-3.945 F611.718 
G1 X5.269 Y-45.929 Z-3.722 F623.194 
G1 X5.168 Y-45.812 Z-3.590 F629.510 
G1 X4.997 Y-45.605 Z-3.370 F637.729 
G1 X4.821 Y-45.359 Z-3.138 F650.236 
G1 X4.734 Y-45.230 Z-3.025 F661.220 
G1 X4.585 Y-44.994 Z-2.837 F673.164 
G1 X4.519 Y-44.875 Z-2.752 F686.142 
G1 X4.441 Y-44.729 Z-2.651 F692.361 
G1 X4.299 Y-44.433 Z-2.476 F711.322 
G1 X4.235 Y-44.287 Z-2.398 F730.976 
G1 X4.227 Y-44.269 Z-2.388 F725.244 
G1 X4.154 Y-44.079 Z-2.297 F738.517 
G1 X4.087 Y-43.894 Z-2.217 F753.059 
G1 X4.011 Y-43.653 Z-2.132 F772.775 
G1 X3.966 Y-43.495 Z-2.083 F793.939 
G1 X3.892 Y-43.216 Z-1.993 F784.758 
G1 X3.844 Y-43.006 Z-1.940 F804.686 
G1 X3.739 Y-42.474 Z-1.830 F824.692 
G1 X3.715 Y-42.337 Z-1.809 F839.255 
G1 X3.620 Y-41.709 Z-1.730 F853.536 
G1 X3.610 Y-41.627 Z-1.723 F863.236 
G1 X3.607 Y-41.610 Z-1.722 F866.670 
G1 X3.529 Y-40.885 Z-1.663 F870.205 
G1 X3.522 Y-40.807 Z-1.661 F878.423 
G1 X3.455 Y-39.986 Z-1.633 F887.770 
G1 X3.456 Y-39.985 Z-1.635 F900.000 
G1 X3.440 Y-39.800 Z-1.627 F887.865 
G0 Z3.000 
G0 X4.402 Y-38.327 Z3.000 
G1 X4.402 Y-38.327 Z0.428 F300.000 
G1 X4.629 Y-38.212 Z0.865 F501.154 
G0 Z3.000 
G0 X4.556 Y-38.102 Z3.000 
G1 X4.556 Y-38.102 Z0.866 F300.000 
G1 X4.440 Y-38.226 Z0.580 F504.569 
G1 X4.473 Y-38.055 Z0.865 F509.837 
G0 Z3.000 
G0 X4.380 Y-38.068 Z3.000 
G1 X4.380 Y-38.068 Z0.866 F300.000 
G1 X4.425 Y-38.260 Z0.526 F500.869 
G1 X4.402 Y-38.327 Z0.428 F539.867 
G1 X4.318 Y-38.501 Z0.187 F559.002 
G1 X4.292 Y-38.549 Z0.124 F570.861 
G1 X4.275 Y-38.578 Z0.086 F568.219 
G1 X4.172 Y-38.751 Z-0.157 F565.355 
G1 X4.021 Y-38.985 Z-0.480 F572.289 
G1 X3.997 Y-39.021 Z-0.527 F570.636 
G1 X3.966 Y-39.067 Z-0.596 F568.263 
G1 X3.440 Y-39.800 Z-1.629 F574.272 
G1 X3.255 Y-39.662 Z-1.321 F547.514 
G1 X3.214 Y-39.631 Z-1.255 F548.575 
G1 X1.926 Y-38.643 Z0.866 F549.620 
G0 Z3.000 
G0 X4.425 Y-38.260 Z3.000 
G1 X4.425 Y-38.260 Z0.526 F300.000 
G1 X4.440 Y-38.226 Z0.581 F528.209 
G0 Z3.000 
G0 X6.077 Y-47.661 Z3.000 
G1 X6.077 Y-47.661 Z-4.143 F300.000 
G1 X6.072 Y-47.654 Z-4.159 F500.658 
G1 X6.070 Y-47.662 Z-4.149 F565.829 
G1 X6.054 Y-47.710 Z-4.085 F555.924 
G1 X6.025 Y-47.781 Z-3.983 F547.408 
G1 X6.000 Y-47.856 Z-3.875 F540.300 
G1 X5.939 Y-48.011 Z-3.638 F534.175 
G1 X5.925 Y-48.055 Z-3.569 F527.796 
G1 X5.866 Y-48.203 Z-3.328 F522.041 
G1 X5.864 Y-48.207 Z-3.320 F517.878 
G1 X5.786 Y-48.402 Z-2.981 F512.091 
G1 X5.747 Y-48.522 Z-2.773 F508.150 
G1 X5.686 Y-48.676 Z-2.496 F505.163 
G1 X5.590 Y-48.981 Z-1.951 F502.778 
G1 X4.964 Y-50.490 Z0.865 F500.832 
G0 Z3.000 
G0 X-5.689 Y-48.289 Z3.000 
G1 X-5.689 Y-48.289 Z-3.313 F300.000 
G1 X-5.801 Y-48.036 Z-3.789 F500.855 
G1 X-5.834 Y-47.969 Z-3.918 F501.794 
G1 X-5.863 Y-47.916 Z-4.020 F502.918 
G1 X-5.890 Y-47.873 Z-4.106 F504.426 
G1 X-5.894 Y-47.883 Z-4.091 F554.089 
G1 X-5.930 Y-47.971 Z-3.966 F546.448 
G1 X-5.964 Y-48.041 Z-3.855 F535.565 
G1 X-5.974 Y-48.063 Z-3.821 F527.981 
G1 X-6.004 Y-48.123 Z-3.718 F520.305 
G1 X-6.042 Y-48.208 Z-3.570 F514.986 
G1 X-6.089 Y-48.338 Z-3.346 F510.573 
G0 Z3.000 
G0 X-6.105 Y-48.493 Z3.000 
G1 X-6.105 Y-48.493 Z-3.076 F300.000 
G1 X-6.089 Y-48.338 Z-3.346 F500.908 
G1 X-6.117 Y-48.396 Z-3.237 F505.292 
G1 X-6.167 Y-48.488 Z-3.059 F503.481 
G1 X-6.205 Y-48.550 Z-2.934 F501.989 
G1 X-6.246 Y-48.611 Z-2.808 F500.976 
G0 Z3.000 
G0 X-5.890 Y-47.873 Z3.000 
G1 X-5.890 Y-47.873 Z-4.107 F300.000 
G1 X-5.873 Y-47.793 Z-4.186 F605.857 
G1 X-5.857 Y-47.700 Z-4.273 F615.179 
G1 X-5.848 Y-47.634 Z-4.330 F627.772 
G1 X-5.845 Y-47.613 Z-4.348 F640.823 
G1 X-5.830 Y-47.507 Z-4.428 F653.242 
G1 X-5.819 Y-47.391 Z-4.510 F667.018 
G1 X-5.811 Y-47.283 Z-4.580 F681.300 
G1 X-5.811 Y-47.254 Z-4.597 F700.243 
G1 X-5.789 Y-46.816 Z-4.828 F713.890 
G1 X-5.856 Y-46.757 Z-4.741 F608.386 
G1 X-5.863 Y-46.751 Z-4.732 F605.050 
G1 X-5.980 Y-46.642 Z-4.578 F605.155 
G1 X-6.372 Y-46.248 Z-4.067 F616.251 
G1 X-6.408 Y-46.207 Z-4.018 F622.984 
G1 X-6.652 Y-45.924 Z-3.689 F623.892 
G1 X-6.955 Y-45.542 Z-3.289 F638.034 
G1 X-7.023 Y-45.446 Z-3.202 F653.813 
G1 X-7.051 Y-45.407 Z-3.164 F644.842 
G1 X-7.278 Y-45.044 Z-2.854 F661.516 
G1 X-7.363 Y-44.893 Z-2.743 F679.856 
G1 X-7.509 Y-44.612 Z-2.554 F695.967 
G1 X-7.588 Y-44.445 Z-2.458 F713.665 
G1 X-7.617 Y-44.383 Z-2.421 F717.647 
G1 X-7.680 Y-44.230 Z-2.339 F724.985 
G1 X-7.751 Y-44.044 Z-2.250 F736.070 
G1 X-7.834 Y-43.802 Z-2.146 F754.830 
G1 X-7.964 Y-43.375 Z-1.997 F775.243 
G1 X-8.022 Y-43.160 Z-1.932 F795.116 
G1 X-8.024 Y-43.153 Z-1.930 F808.489 
G1 X-8.132 Y-42.652 Z-1.808 F808.977 
G1 X-8.162 Y-42.499 Z-1.774 F824.946 
G1 X-8.256 Y-41.929 Z-1.687 F840.960 
G1 X-8.259 Y-41.910 Z-1.682 F843.831 
G1 X-8.272 Y-41.807 Z-1.668 F848.010 
G1 X-8.340 Y-41.174 Z-1.602 F859.452 
G1 X-8.350 Y-41.070 Z-1.593 F871.524 
G1 X-8.371 Y-40.758 Z-1.581 F883.503 
G1 X-8.391 Y-40.382 Z-1.552 F871.398 
G1 X-8.395 Y-40.293 Z-1.545 F881.838 
G1 X-8.404 Y-39.835 Z-1.539 F892.262 
G0 Z3.000 
G0 X-9.480 Y-38.954 Z3.000 
G1 X-9.480 Y-38.954 Z0.452 F300.000 
G1 X-9.293 Y-39.104 Z0.084 F520.577 
G1 X-9.232 Y-39.159 Z-0.037 F526.456 
G1 X-8.872 Y-39.453 Z-0.705 F532.202 
G1 X-8.872 Y-39.453 Z-0.705 F900.000 
G1 X-8.434 Y-39.811 Z-1.485 F539.572 
G1 X-8.404 Y-39.835 Z-1.538 F542.751 
G1 X-8.385 Y-39.809 Z-1.503 F582.933 
G1 X-8.179 Y-39.551 Z-1.132 F577.861 
G1 X-8.150 Y-39.515 Z-1.080 F579.675 
G1 X-8.019 Y-39.355 Z-0.853 F581.378 
G1 X-7.028 Y-38.176 Z0.865 F579.248 
G0 Z3.000 
G0 X-9.649 Y-38.767 Z3.000 
G1 X-9.649 Y-38.767 Z0.866 F300.000 
G1 X-9.480 Y-38.954 Z0.452 F509.109 
G1 X-9.707 Y-38.870 Z0.866 F501.998 
G0 Z3.000 
G0 X-14.084 Y-34.456 Z3.000 
G1 X-14.084 Y-34.456 Z-4.374 F300.000 
G1 X-13.545 Y-33.818 Z-3.445 F579.685 
G1 X-13.166 Y-33.237 Z-2.791 F611.028 
G1 X-13.154 Y-33.216 Z-2.765 F617.115 
G1 X-12.910 Y-32.709 Z-2.465 F710.923 
G1 X-12.749 Y-32.213 Z-2.168 F702.168 
G1 X-12.709 Y-32.032 Z-2.059 F697.769 
G1 X-12.680 Y-31.851 Z-1.951 F696.046 
G1 X-12.670 Y-31.779 Z-1.935 F821.259 
G1 X-12.647 Y-31.534 Z-1.896 F838.682 
G1 X-12.628 Y-31.222 Z-1.866 F863.921 
G1 X-12.625 Y-31.122 Z-1.859 F874.156 
G1 X-12.594 Y-29.910 Z-1.810 F884.342 
G1 X-12.593 Y-29.868 Z-1.809 F889.015 
G1 X-12.571 Y-28.025 Z-1.776 F893.246 
G1 X-12.572 Y-28.003 Z-1.776 F896.593 
G1 X-12.568 Y-27.248 Z-1.773 F898.380 
G1 X-12.565 Y-25.716 Z-1.760 F896.909 
G1 X-12.565 Y-25.714 Z-1.760 F900.000 
G1 X-12.561 Y-23.256 Z-1.741 F897.032 
G1 X-12.551 Y-21.768 Z-1.715 F893.405 
G1 X-12.548 Y-20.944 Z-1.696 F891.004 
G1 X-12.529 Y-19.041 Z-1.629 F886.660 
G1 X-12.505 Y-17.955 Z-1.568 F878.435 
G1 X-12.503 Y-17.811 Z-1.558 F873.409 
G1 X-12.478 Y-17.007 Z-1.480 F863.029 
G0 Z3.000 
G0 X-11.967 Y-16.497 Z3.000 
G1 X-11.967 Y-16.497 Z-0.552 F300.000 
G1 X-11.160 Y-16.337 Z0.865 F500.893 
G0 Z3.000 
G0 X-11.291 Y-15.987 Z3.000 
G1 X-11.291 Y-15.987 Z0.866 F300.000 
G1 X-11.789 Y-16.299 Z-0.144 F501.319 
G1 X-11.869 Y-16.387 Z-0.334 F513.341 
G1 X-11.873 Y-16.392 Z-0.344 F519.975 
G1 X-11.967 Y-16.497 Z-0.552 F527.621 
G1 X-11.999 Y-16.528 Z-0.614 F539.243 
G1 X-12.032 Y-16.563 Z-0.676 F548.753 
G1 X-12.329 Y-16.861 Z-1.215 F553.367 
G1 X-12.478 Y-17.007 Z-1.479 F555.569 
G1 X-12.550 Y-16.926 Z-1.344 F557.467 
G1 X-13.719 Y-15.650 Z0.866 F553.790 
G0 Z3.000 
G0 X-11.789 Y-16.299 Z3.000 
G1 X-11.789 Y-16.299 Z-0.143 F300.000 
G1 X-11.784 Y-16.293 Z-0.130 F505.760 
G0 Z3.000 
G0 X-11.518 Y-15.777 Z3.000 
G1 X-11.518 Y-15.777 Z0.865 F300.000 
G1 X-11.784 Y-16.293 Z-0.130 F501.729 
G1 X-11.388 Y-15.866 Z0.864 F502.352 
G0 Z3.000 
G0 X-9.900 Y-15.584 Z3.000 
G1 X-9.900 Y-15.584 Z0.864 F300.000 
G1 X-9.403 Y-16.126 Z-0.071 F554.442 
G1 X-10.102 Y-17.898 Z0.866 F725.122 
G0 Z3.000 
G0 X-9.403 Y-16.126 Z3.000 
G1 X-9.403 Y-16.126 Z-0.071 F300.000 
G1 X-8.291 Y-15.584 Z0.864 F652.759 
G0 Z3.000 
G0 X-5.751 Y-18.070 Z3.000 
G1 X-5.751 Y-18.070 Z-3.189 F300.000 
G1 X-5.665 Y-18.213 Z-3.475 F502.065 
G1 X-5.654 Y-18.183 Z-3.433 F549.081 
G1 X-5.599 Y-18.049 Z-3.234 F539.151 
G1 X-5.555 Y-17.958 Z-3.087 F531.038 
G1 X-5.514 Y-17.867 Z-2.940 F527.017 
G1 X-5.404 Y-17.655 Z-2.573 F520.846 
G1 X-5.332 Y-17.538 Z-2.356 F515.257 
G1 X-5.272 Y-17.429 Z-2.156 F511.992 
G1 X-5.134 Y-17.219 Z-1.739 F507.600 
G0 Z3.000 
G0 X-5.077 Y-17.146 Z3.000 
G1 X-5.077 Y-17.146 Z-1.580 F300.000 
G1 X-4.075 Y-16.140 Z0.864 F500.931 
G0 Z3.000 
G0 X-4.303 Y-15.952 Z3.000 
G1 X-4.303 Y-15.952 Z0.865 F300.000 
G1 X-5.077 Y-17.146 Z-1.580 F501.243 
G1 X-5.134 Y-17.219 Z-1.738 F503.669 
G1 X-4.587 Y-15.811 Z0.866 F500.711 
G0 Z3.000 
G0 X-5.665 Y-18.213 Z3.000 
G1 X-5.665 Y-18.213 Z-3.474 F300.000 
G1 X-5.666 Y-18.223 Z-3.486 F577.675 
G1 X-5.675 Y-18.317 Z-3.582 F596.514 
G1 X-5.679 Y-18.341 Z-3.606 F605.202 
G1 X-5.693 Y-18.550 Z-3.793 F621.946 
G1 X-5.695 Y-18.641 Z-3.867 F638.287 
G1 X-5.705 Y-18.831 Z-4.015 F647.653 
G1 X-5.706 Y-19.000 Z-4.135 F663.653 
G1 X-5.710 Y-19.128 Z-4.221 F674.219 
G1 X-5.759 Y-19.161 Z-4.168 F617.889 
G1 X-5.850 Y-19.227 Z-4.062 F611.021 
G1 X-6.132 Y-19.438 Z-3.735 F613.696 
G1 X-6.145 Y-19.448 Z-3.720 F613.903 
G1 X-6.573 Y-19.825 Z-3.206 F619.747 
G1 X-6.600 Y-19.852 Z-3.172 F628.188 
G1 X-6.801 Y-20.062 Z-2.924 F629.654 
G1 X-7.011 Y-20.295 Z-2.671 F640.694 
G1 X-7.234 Y-20.598 Z-2.398 F660.888 
G1 X-7.373 Y-20.806 Z-2.235 F678.966 
G1 X-7.410 Y-20.862 Z-2.192 F683.051 
G1 X-7.649 Y-21.322 Z-1.912 F710.767 
G1 X-7.733 Y-21.517 Z-1.825 F751.622 
G1 X-7.748 Y-21.555 Z-1.807 F741.491 
G1 X-7.879 Y-21.952 Z-1.668 F777.604 
G1 X-7.952 Y-22.236 Z-1.605 F818.285 
G1 X-7.955 Y-22.248 Z-1.602 F817.918 
G1 X-7.999 Y-22.480 Z-1.563 F838.042 
G1 X-8.051 Y-22.838 Z-1.531 F865.756 
G1 X-8.070 Y-22.989 Z-1.524 F883.510 
G1 X-8.074 Y-23.043 Z-1.524 F898.592 
G1 X-8.104 Y-23.435 Z-1.516 F892.021 
G1 X-8.109 Y-23.525 Z-1.517 F897.028 
G1 X-8.125 Y-23.894 Z-1.530 F886.283 
G1 X-8.130 Y-24.068 Z-1.532 F895.391 
G1 X-8.131 Y-24.112 Z-1.534 F889.406 
G1 X-8.139 Y-24.659 Z-1.555 F884.929 
G1 X-8.139 Y-24.737 Z-1.560 F876.216 
G1 X-8.138 Y-24.790 Z-1.565 F865.876 
G1 X-8.127 Y-25.182 Z-1.591 F874.077 
G1 X-8.116 Y-25.369 Z-1.614 F853.547 
G1 X-8.083 Y-25.725 Z-1.678 F832.455 
G1 X-8.079 Y-25.759 Z-1.683 F841.787 
G1 X-8.038 Y-26.029 Z-1.747 F812.340 
G1 X-7.959 Y-26.421 Z-1.870 F785.668 
G1 X-7.896 Y-26.679 Z-1.971 F761.241 
G1 X-7.767 Y-27.132 Z-2.183 F738.984 
G1 X-7.708 Y-27.321 Z-2.280 F725.374 
G1 X-7.653 Y-27.480 Z-2.370 F712.805 
G1 X-7.505 Y-27.890 Z-2.592 F720.382 
G1 X-7.458 Y-28.013 Z-2.662 F712.365 
G1 X-7.377 Y-28.217 Z-2.785 F705.000 
G1 X-7.104 Y-28.880 Z-3.171 F711.268 
G1 X-6.852 Y-29.462 Z-3.495 F719.787 
G1 X-6.760 Y-29.663 Z-3.600 F730.333 
G1 X-6.619 Y-29.975 Z-3.760 F732.617 
G1 X-6.403 Y-30.427 Z-3.976 F744.664 
G1 X-6.264 Y-30.698 Z-4.094 F758.789 
G1 X-6.203 Y-30.824 Z-4.143 F771.165 
G1 X-6.076 Y-31.069 Z-4.227 F788.175 
G1 X-6.023 Y-31.177 Z-4.259 F800.798 
G1 X-5.904 Y-31.399 Z-4.312 F820.302 
G1 X-5.849 Y-31.509 Z-4.333 F835.628 
G1 X-5.753 Y-31.686 Z-4.357 F854.598 
G1 X-5.678 Y-31.835 Z-4.369 F872.857 
G1 X-5.615 Y-31.952 Z-4.371 F893.659 
G1 X-5.506 Y-32.168 Z-4.362 F885.635 
G1 X-5.485 Y-32.206 Z-4.358 F867.136 
G1 X-5.352 Y-32.473 Z-4.318 F848.379 
G1 X-5.326 Y-32.527 Z-4.306 F828.686 
G1 X-5.205 Y-32.772 Z-4.243 F812.562 
G1 X-5.132 Y-32.929 Z-4.195 F796.967 
G1 X-5.039 Y-33.119 Z-4.129 F784.533 
G1 X-4.917 Y-33.382 Z-4.027 F770.552 
G1 X-4.845 Y-33.530 Z-3.963 F759.737 
G1 X-4.662 Y-33.927 Z-3.782 F749.365 
G1 X-4.650 Y-33.953 Z-3.771 F751.026 
G1 X-4.630 Y-33.996 Z-3.750 F752.252 
G1 X-4.422 Y-34.479 Z-3.518 F740.772 
G1 X-4.386 Y-34.564 Z-3.481 F745.507 
G1 X-4.121 Y-35.211 Z-3.189 F750.375 
G1 X-4.116 Y-35.222 Z-3.187 F751.421 
G1 X-4.089 Y-35.294 Z-3.154 F746.806 
G1 X-3.594 Y-36.638 Z-2.564 F751.288 
G1 X-3.564 Y-36.722 Z-2.531 F756.931 
G1 X-3.548 Y-36.768 Z-2.511 F764.046 
G1 X-3.413 Y-37.180 Z-2.339 F755.478 
G1 X-3.384 Y-37.274 Z-2.303 F762.613 
G1 X-3.268 Y-37.660 Z-2.159 F770.138 
G1 X-3.221 Y-37.832 Z-2.107 F784.677 
G1 X-3.136 Y-38.177 Z-2.009 F800.390 
G1 X-3.095 Y-38.375 Z-1.967 F818.996 
G1 X-3.092 Y-38.389 Z-1.964 F824.492 
G1 X-3.040 Y-38.728 Z-1.896 F826.314 
G1 X-3.016 Y-38.934 Z-1.869 F847.322 
G1 X-3.006 Y-39.041 Z-1.858 F868.723 
G1 X-2.989 Y-39.300 Z-1.827 F854.925 
G1 X-2.984 Y-39.454 Z-1.817 F870.781 
G1 X-2.979 Y-39.693 Z-1.808 F887.576 
G1 X-2.980 Y-39.882 Z-1.795 F873.732 
G1 X-2.984 Y-40.002 Z-1.792 F885.952 
G1 X-3.000 Y-40.374 Z-1.790 F899.488 
G1 X-3.047 Y-41.124 Z-1.765 F887.039 
G1 X-3.050 Y-41.167 Z-1.762 F875.347 
G1 X-3.054 Y-41.216 Z-1.760 F880.562 
G1 X-3.130 Y-41.998 Z-1.730 F885.708 
G1 X-3.137 Y-42.057 Z-1.729 F891.660 
G1 X-3.209 Y-42.672 Z-1.727 F898.828 
G1 X-3.226 Y-42.794 Z-1.732 F887.942 
G1 X-3.265 Y-43.041 Z-1.748 F873.927 
G1 X-3.302 Y-43.257 Z-1.758 F881.896 
G1 X-3.353 Y-43.494 Z-1.787 F855.832 
G1 X-3.437 Y-43.827 Z-1.850 F830.368 
G1 X-3.543 Y-44.165 Z-1.950 F795.794 
G1 X-3.591 Y-44.291 Z-1.999 F763.961 
G1 X-3.647 Y-44.433 Z-2.063 F751.565 
G1 X-3.747 Y-44.639 Z-2.172 F730.095 
G1 X-3.803 Y-44.746 Z-2.234 F714.000 
G1 X-4.068 Y-45.183 Z-2.560 F683.988 
G1 X-4.135 Y-45.280 Z-2.646 F658.230 
G1 X-4.310 Y-45.516 Z-2.877 F646.284 
G1 X-4.564 Y-45.800 Z-3.203 F629.852 
G1 X-4.651 Y-45.891 Z-3.317 F618.234 
G1 X-5.077 Y-46.294 Z-3.891 F604.089 
G1 X-5.209 Y-46.398 Z-4.063 F596.781 
G1 X-5.325 Y-46.487 Z-4.214 F593.626 
G1 X-5.749 Y-46.792 Z-4.776 F585.305 
G1 X-5.789 Y-46.816 Z-4.827 F587.522 
G0 Z3.000 
G0 X-11.120 Y-50.626 Z3.000 
G1 X-11.120 Y-50.626 Z0.866 F300.000 
G1 X-12.370 Y-49.466 Z-1.306 F554.170 
G1 X-12.539 Y-49.302 Z-1.601 F558.225 
G1 X-12.848 Y-49.714 Z-0.903 F543.119 
G1 X-12.852 Y-49.720 Z-0.894 F538.445 
G1 X-12.972 Y-49.870 Z-0.617 F531.304 
G1 X-13.046 Y-49.951 Z-0.452 F523.921 
G0 Z3.000 
G0 X-13.059 Y-49.970 Z3.000 
G1 X-13.059 Y-49.970 Z-0.415 F300.000 
G1 X-13.082 Y-49.995 Z-0.360 F508.963 
G0 Z3.000 
G0 X-13.104 Y-50.025 Z3.000 
G1 X-13.104 Y-50.025 Z-0.296 F300.000 
G1 X-13.439 Y-50.611 Z0.865 F501.066 
G0 Z3.000 
G0 X-13.562 Y-50.521 Z3.000 
G1 X-13.562 Y-50.521 Z0.865 F300.000 
G1 X-13.104 Y-50.025 Z-0.296 F501.060 
G1 X-13.082 Y-49.995 Z-0.360 F504.287 
G1 X-13.662 Y-50.405 Z0.865 F500.759 
G0 Z3.000 
G0 X-13.745 Y-50.260 Z3.000 
G1 X-13.745 Y-50.260 Z0.865 F300.000 
G1 X-13.046 Y-49.951 Z-0.452 F500.900 
G1 X-13.059 Y-49.970 Z-0.415 F514.784 
G1 X-13.288 Y-50.676 Z0.866 F500.691 
G0 Z3.000 
G0 X-12.539 Y-49.302 Z3.000 
G1 X-12.539 Y-49.302 Z-1.602 F300.000 
G1 X-12.562 Y-49.122 Z-1.642 F816.115 
G1 X-12.763 Y-47.355 Z-2.002 F823.724 
G1 X-13.029 Y-44.869 Z-2.480 F827.862 
G1 X-13.331 Y-41.933 Z-3.021 F830.716 
G1 X-14.083 Y-34.462 Z-4.375 F831.864 
G1 X-14.084 Y-34.456 Z-4.376 F827.435 
G1 X-16.641 Y-32.504 Z-3.645 F814.602 
G1 X-16.701 Y-32.459 Z-3.707 F634.150 
G1 X-17.051 Y-32.199 Z-4.119 F611.108 
G1 X-17.060 Y-32.192 Z-4.131 F593.206 
G0 Z3.000 
G0 X-21.984 Y-35.811 Z3.000 
G1 X-21.984 Y-35.811 Z0.866 F300.000 
G1 X-23.959 Y-33.836 Z-2.555 F561.543 
G1 X-25.651 Y-32.144 Z-5.485 F561.549 
G0 Z3.000 
G0 X-25.650 Y-31.840 Z3.000 
G1 X-25.650 Y-31.840 Z-5.484 F300.000 
G1 X-24.100 Y-30.290 Z-2.798 F561.540 
G1 X-21.984 Y-28.174 Z0.865 F561.616 
G0 Z3.000 
G0 X-21.560 Y-23.439 Z3.000 
G1 X-21.560 Y-23.439 Z0.865 F300.000 
G1 X-23.980 Y-21.109 Z-3.327 F558.068 
G1 X-25.416 Y-19.728 Z-5.812 F558.065 
G0 Z3.000 
G0 X-25.415 Y-19.459 Z3.000 
G1 X-25.415 Y-19.459 Z-5.810 F300.000 
G1 X-25.258 Y-19.296 Z-5.539 F564.723 
G1 X-21.560 Y-15.497 Z0.865 F564.150 
G0 Z3.000 
G0 X-20.013 Y-16.025 Z3.000 
G1 X-20.013 Y-16.025 Z0.865 F300.000 
G1 X-19.063 Y-16.832 Z-0.772 F548.642 
G1 X-18.698 Y-17.151 Z-1.402 F550.254 
G1 X-18.548 Y-16.871 Z-0.956 F536.302 
G1 X-18.548 Y-16.870 Z-0.954 F527.303 
G1 X-18.458 Y-16.693 Z-0.649 F520.187 
G1 X-18.382 Y-15.817 Z0.865 F501.016 
G0 Z3.000 
G0 X-18.169 Y-15.856 Z3.000 
G1 X-18.169 Y-15.856 Z0.864 F300.000 
G1 X-18.408 Y-16.594 Z-0.465 F501.868 
G1 X-17.978 Y-15.947 Z0.865 F502.054 
G0 Z3.000 
G0 X-17.804 Y-16.102 Z3.000 
G1 X-17.804 Y-16.102 Z0.866 F300.000 
G1 X-18.450 Y-16.681 Z-0.627 F501.215 
G1 X-18.408 Y-16.594 Z-0.465 F506.334 
G0 Z3.000 
G0 X-18.450 Y-16.681 Z3.000 
G1 X-18.450 Y-16.681 Z-0.627 F300.000 
G1 X-18.458 Y-16.693 Z-0.649 F513.353 
G0 Z3.000 
G0 X-18.698 Y-17.151 Z3.000 
G1 X-18.698 Y-17.151 Z-1.402 F300.000 
G1 X-18.695 Y-17.165 Z-1.408 F758.112 
G1 X-18.635 Y-17.496 Z-1.509 F788.113 
G1 X-18.567 Y-17.959 Z-1.624 F807.807 
G1 X-18.399 Y-19.359 Z-1.904 F825.233 
G1 X-18.191 Y-21.371 Z-2.250 F835.321 
G1 X-17.923 Y-24.088 Z-2.692 F838.695 
G1 X-17.923 Y-24.093 Z-2.693 F838.856 
G1 X-17.624 Y-27.091 Z-3.188 F837.765 
G1 X-17.622 Y-27.111 Z-3.191 F836.218 
G1 X-17.364 Y-29.602 Z-3.622 F835.006 
G1 X-17.360 Y-29.639 Z-3.628 F832.370 
G1 X-17.168 Y-31.361 Z-3.947 F830.496 
G1 X-17.159 Y-31.441 Z-3.963 F826.320 
G1 X-17.097 Y-31.934 Z-4.066 F821.713 
G1 X-17.079 Y-32.062 Z-4.095 F814.708 
G1 X-17.060 Y-32.192 Z-4.128 F806.369 
G1 X-17.507 Y-32.686 Z-3.422 F588.312 
G1 X-17.861 Y-33.164 Z-2.735 F572.681 
G1 X-18.144 Y-33.657 Z-2.447 F720.811 
G1 X-18.338 Y-34.136 Z-2.168 F710.373 
G1 X-18.451 Y-34.603 Z-1.894 F702.541 
G1 X-18.489 Y-35.049 Z-1.633 F698.296 
G1 X-18.543 Y-42.673 Z-1.482 F892.465 
G1 X-18.588 Y-49.036 Z-1.358 F892.510 
G0 Z3.000 
G0 X-17.328 Y-50.320 Z3.000 
G1 X-17.328 Y-50.320 Z0.865 F300.000 
G1 X-18.588 Y-49.036 Z-1.359 F559.817 
G1 X-18.597 Y-49.045 Z-1.344 F561.123 
G1 X-19.867 Y-50.320 Z0.865 F561.145 
G0 Z3.000 
G0 X-21.121 Y-50.473 Z3.000 
G1 X-21.121 Y-50.473 Z0.865 F300.000 
G1 X-25.198 Y-46.472 Z-6.065 F563.321 
G1 X-25.271 Y-46.400 Z-6.188 F564.444 
G1 X-26.751 Y-47.862 Z-3.626 F560.509 
G1 X-27.442 Y-48.528 Z-2.429 F558.087 
G1 X-28.042 Y-49.108 Z-1.386 F557.783 
G1 X-28.702 Y-49.718 Z-0.240 F553.927 
G1 X-28.956 Y-49.955 Z0.206 F553.081 
G1 X-29.216 Y-50.176 Z0.662 F545.629 
G1 X-29.281 Y-50.222 Z0.775 F534.533 
G0 Z3.000 
G0 X-29.310 Y-50.267 Z3.000 
G1 X-29.310 Y-50.267 Z0.864 F300.000 
G1 X-29.281 Y-50.222 Z0.775 F504.675 
G1 X-29.333 Y-50.244 Z0.865 F511.687 
G0 Z3.000 
G0 X-31.046 Y-50.476 Z3.000 
G1 X-31.046 Y-50.476 Z0.866 F300.000 
G1 X-31.478 Y-50.208 Z-0.007 F501.530 
G1 X-31.473 Y-50.217 Z0.010 F508.520 
G0 Z3.000 
G0 X-31.478 Y-50.208 Z3.000 
G1 X-31.478 Y-50.208 Z-0.008 F300.000 
G1 X-31.562 Y-50.109 Z-0.211 F517.140 
G0 Z3.000 
G0 X-31.455 Y-50.724 Z3.000 
G1 X-31.455 Y-50.724 Z0.866 F300.000 
G1 X-31.562 Y-50.109 Z-0.211 F500.678 
G1 X-31.573 Y-50.094 Z-0.238 F525.360 
G1 X-31.690 Y-49.952 Z-0.501 F533.764 
G1 X-31.711 Y-49.930 Z-0.542 F544.966 
G1 X-31.758 Y-49.876 Z-0.633 F554.803 
G1 X-32.033 Y-49.574 Z-1.137 F560.128 
G1 X-32.307 Y-49.281 Z-1.627 F562.233 
G1 X-32.312 Y-49.286 Z-1.617 F554.337 
G1 X-33.694 Y-50.626 Z0.866 F551.881 
G0 Z3.000 
G0 X-35.010 Y-50.428 Z3.000 
G1 X-35.010 Y-50.428 Z0.866 F300.000 
G1 X-35.566 Y-50.105 Z-0.240 F501.031 
G1 X-35.635 Y-50.012 Z-0.416 F523.341 
G1 X-35.670 Y-49.959 Z-0.509 F530.346 
G1 X-35.770 Y-49.830 Z-0.733 F540.010 
G1 X-35.839 Y-49.733 Z-0.893 F544.875 
G1 X-36.075 Y-49.432 Z-1.386 F551.925 
G1 X-36.228 Y-49.251 Z-1.681 F558.630 
G1 X-36.250 Y-49.225 Z-1.723 F559.075 
G1 X-37.645 Y-50.626 Z0.866 F549.086 
G0 Z3.000 
G0 X-39.249 Y-50.778 Z3.000 
G1 X-39.249 Y-50.778 Z0.865 F300.000 
G1 X-40.591 Y-49.350 Z-1.610 F555.869 
G1 X-40.634 Y-49.393 Z-1.534 F561.403 
G1 X-42.019 Y-50.778 Z0.865 F561.543 
G0 Z3.000 
G0 X-40.591 Y-49.350 Z3.000 
G1 X-40.591 Y-49.350 Z-1.608 F300.000 
G1 X-40.539 Y-47.707 Z-1.697 F879.284 
G1 X-40.539 Y-47.700 Z-1.697 F879.215 
G1 X-40.416 Y-44.077 Z-1.910 F877.647 
G1 X-40.415 Y-44.053 Z-1.912 F874.387 
G1 X-40.311 Y-41.517 Z-2.093 F872.758 
G1 X-40.309 Y-41.476 Z-2.096 F868.678 
G1 X-40.266 Y-40.668 Z-2.171 F864.819 
G1 X-40.261 Y-40.594 Z-2.178 F857.375 
G1 X-40.226 Y-40.122 Z-2.240 F851.143 
G1 X-40.200 Y-39.886 Z-2.284 F829.715 
G1 X-40.185 Y-39.781 Z-2.310 F809.579 
G1 X-40.077 Y-39.268 Z-2.680 F664.915 
G1 X-39.893 Y-38.750 Z-3.054 F671.625 
G1 X-39.629 Y-38.224 Z-3.434 F680.836 
G1 X-39.358 Y-37.795 Z-3.744 F690.617 
G1 X-39.340 Y-37.769 Z-3.775 F602.995 
G1 X-38.932 Y-37.238 Z-4.550 F572.201 
G1 X-38.439 Y-36.698 Z-5.337 F586.019 
G1 X-37.854 Y-36.148 Z-6.138 F600.357 
G1 X-37.172 Y-35.589 Z-6.954 F614.832 
G1 X-36.380 Y-35.013 Z-7.794 F629.215 
G1 X-35.865 Y-35.826 Z-7.455 F770.357 
G1 X-35.445 Y-36.622 Z-7.122 F764.786 
G1 X-35.347 Y-36.835 Z-7.033 F761.491 
G1 X-35.254 Y-37.048 Z-6.944 F760.163 
G1 X-35.500 Y-37.946 Z-5.580 F528.728 
G1 X-35.507 Y-37.974 Z-5.539 F534.492 
G1 X-35.995 Y-39.741 Z-3.399 F570.615 
G1 X-36.021 Y-39.836 Z-3.321 F641.620 
G1 X-36.108 Y-40.176 Z-3.081 F671.532 
G1 X-36.153 Y-40.363 Z-2.978 F712.358 
G1 X-36.161 Y-40.402 Z-2.959 F726.934 
G1 X-36.215 Y-40.699 Z-2.833 F749.366 
G1 X-36.222 Y-40.752 Z-2.814 F772.512 
G1 X-36.259 Y-41.120 Z-2.709 F794.068 
G1 X-36.272 Y-41.342 Z-2.663 F821.993 
G1 X-36.278 Y-41.498 Z-2.636 F833.174 
G1 X-36.293 Y-42.361 Z-2.510 F844.863 
G1 X-36.294 Y-42.420 Z-2.503 F850.528 
G1 X-36.294 Y-42.577 Z-2.484 F855.485 
G1 X-36.294 Y-43.734 Z-2.342 F853.201 
G1 X-36.294 Y-43.767 Z-2.338 F856.007 
G1 X-36.278 Y-45.398 Z-2.161 F858.834 
G1 X-36.278 Y-45.409 Z-2.160 F858.359 
G1 X-36.270 Y-46.071 Z-2.093 F861.299 
G1 X-36.253 Y-47.227 Z-1.973 F860.532 
G1 X-36.242 Y-48.541 Z-1.824 F856.912 
G1 X-36.250 Y-49.225 Z-1.722 F843.203 
G0 Z3.000 
G0 X-35.566 Y-50.105 Z3.000 
G1 X-35.566 Y-50.105 Z-0.240 F300.000 
G1 X-35.550 Y-50.132 Z-0.191 F514.076 
G0 Z3.000 
G0 X-35.515 Y-50.179 Z3.000 
G1 X-35.515 Y-50.179 Z-0.094 F300.000 
G1 X-35.118 Y-50.574 Z0.866 F501.771 
G0 Z3.000 
G0 X-35.248 Y-50.671 Z3.000 
G1 X-35.248 Y-50.671 Z0.865 F300.000 
G1 X-35.515 Y-50.179 Z-0.094 F501.824 
G1 X-35.550 Y-50.132 Z-0.191 F507.242 
G1 X-35.403 Y-50.728 Z0.866 F500.963 
G0 Z3.000 
G0 X-32.307 Y-49.281 Z3.000 
G1 X-32.307 Y-49.281 Z-1.626 F300.000 
G1 X-32.311 Y-48.470 Z-1.674 F877.417 
G1 X-32.341 Y-46.047 Z-1.786 F882.355 
G1 X-32.341 Y-46.038 Z-1.787 F879.567 
G1 X-32.362 Y-44.636 Z-1.860 F880.237 
G1 X-32.369 Y-44.268 Z-1.876 F882.662 
G1 X-32.370 Y-44.246 Z-1.877 F880.892 
G1 X-32.408 Y-42.774 Z-1.963 F877.911 
G1 X-32.410 Y-42.734 Z-1.965 F873.685 
G1 X-32.449 Y-41.710 Z-2.044 F870.598 
G1 X-32.452 Y-41.639 Z-2.051 F863.685 
G1 X-32.469 Y-41.342 Z-2.087 F854.577 
G1 X-32.491 Y-41.110 Z-2.127 F834.438 
G1 X-32.507 Y-40.981 Z-2.157 F813.306 
G1 X-32.609 Y-40.479 Z-2.508 F670.221 
G1 X-32.784 Y-39.972 Z-2.863 F676.946 
G1 X-33.039 Y-39.456 Z-3.224 F686.259 
G1 X-33.244 Y-39.123 Z-3.456 F695.189 
G1 X-33.628 Y-38.608 Z-4.322 F543.513 
G1 X-34.093 Y-38.086 Z-5.200 F557.107 
G1 X-34.647 Y-37.557 Z-6.090 F571.393 
G1 X-35.254 Y-37.048 Z-6.944 F585.562 
G0 Z3.000 
G0 X-36.380 Y-35.013 Z3.000 
G1 X-36.380 Y-35.013 Z-7.794 F300.000 
G1 X-36.378 Y-33.815 Z-7.794 F900.000 
G0 Z3.000 
G0 X-39.703 Y-17.966 Z3.000 
G1 X-39.703 Y-17.966 Z-3.144 F300.000 
G1 X-39.457 Y-24.029 Z-3.570 F873.215 
G1 X-39.457 Y-24.042 Z-3.571 F873.606 
G1 X-39.384 Y-25.738 Z-3.698 F871.482 
G1 X-39.381 Y-25.790 Z-3.703 F868.392 
G1 X-39.307 Y-27.181 Z-3.829 F865.344 
G1 X-39.302 Y-27.269 Z-3.839 F860.181 
G1 X-39.237 Y-28.213 Z-3.951 F854.760 
G1 X-39.221 Y-28.399 Z-3.979 F843.826 
G1 X-39.194 Y-28.660 Z-4.026 F832.296 
G1 X-39.143 Y-29.031 Z-4.113 F812.407 
G1 X-39.132 Y-29.101 Z-4.133 F794.462 
G1 X-38.986 Y-29.743 Z-4.435 F735.747 
G1 X-38.819 Y-30.250 Z-4.674 F739.536 
G1 X-38.808 Y-30.281 Z-4.694 F688.648 
G1 X-38.528 Y-30.931 Z-5.381 F605.728 
G1 X-38.168 Y-31.589 Z-6.076 F614.456 
G1 X-37.724 Y-32.255 Z-6.780 F624.339 
G1 X-37.356 Y-32.734 Z-7.287 F633.422 
G1 X-36.948 Y-33.214 Z-7.794 F641.220 
G1 X-36.379 Y-33.815 Z-7.794 F900.000 
G1 X-35.696 Y-33.085 Z-7.303 F725.498 
G1 X-35.233 Y-32.521 Z-6.924 F716.782 
G1 X-34.745 Y-31.834 Z-6.299 F656.491 
G1 X-34.348 Y-31.159 Z-5.687 F646.379 
G1 X-34.037 Y-30.494 Z-5.084 F637.274 
G1 X-33.781 Y-29.753 Z-4.411 F629.130 
G1 X-33.769 Y-29.714 Z-4.388 F720.103 
G1 X-33.601 Y-28.898 Z-4.098 F771.319 
G1 X-33.587 Y-28.799 Z-4.076 F816.049 
G1 X-33.558 Y-28.532 Z-4.025 F828.405 
G1 X-33.525 Y-28.161 Z-3.969 F842.970 
G1 X-33.516 Y-28.029 Z-3.952 F851.025 
G1 X-33.430 Y-26.672 Z-3.804 F858.687 
G1 X-33.427 Y-26.611 Z-3.798 F862.437 
G1 X-33.323 Y-24.610 Z-3.620 F866.071 
G1 X-33.321 Y-24.575 Z-3.617 F868.934 
G1 X-33.211 Y-22.134 Z-3.428 F870.449 
G1 X-33.211 Y-22.120 Z-3.426 F870.468 
G1 X-33.035 Y-17.953 Z-3.124 F872.344 
G1 X-35.152 Y-15.650 Z0.865 F554.038 
G0 Z3.000 
G0 X-37.582 Y-15.650 Z3.000 
G1 X-37.582 Y-15.650 Z0.866 F300.000 
G1 X-39.491 Y-17.735 Z-2.745 F553.717 
G1 X-39.703 Y-17.966 Z-3.144 F554.312 
G1 X-39.800 Y-17.869 Z-2.977 F561.552 
G1 X-42.019 Y-15.650 Z0.866 F561.544 
G0 Z3.000 
G0 X-42.019 Y-13.817 Z3.000 
G1 X-42.019 Y-13.817 Z0.866 F300.000 
G1 X-38.939 Y-10.737 Z-4.468 F561.543 
G1 X-39.267 Y-10.127 Z-4.148 F735.233 
G1 X-39.506 Y-9.531 Z-3.837 F727.673 
G1 X-39.665 Y-8.946 Z-3.531 F721.685 
G1 X-39.748 Y-8.369 Z-3.230 F717.742 
G1 X-39.762 Y-8.013 Z-3.044 F716.289 
G1 X-39.761 Y-3.804 Z-3.044 F900.000 
G1 X-39.761 Y0.229 Z-3.044 F900.000 
G1 X-39.766 Y3.420 Z-3.036 F898.970 
G1 X-39.775 Y4.865 Z-3.021 F896.222 
G1 X-42.019 Y6.209 Z0.866 F526.254 
G0 Z3.000 
G0 X-39.775 Y4.865 Z3.000 
G1 X-39.775 Y4.865 Z-3.022 F300.000 
G1 X-39.148 Y5.925 Z-1.915 F620.454 
G1 X-39.085 Y6.030 Z-1.804 F618.784 
G1 X-38.118 Y7.670 Z-0.062 F616.841 
G1 X-38.031 Y7.813 Z0.094 F612.882 
G1 X-37.785 Y8.231 Z0.559 F608.541 
G1 X-37.742 Y8.303 Z0.641 F602.685 
G1 X-37.687 Y8.397 Z0.752 F596.032 
G1 X-37.666 Y8.429 Z0.794 F584.536 
G0 Z3.000 
G0 X-37.626 Y8.438 Z3.000 
G1 X-37.626 Y8.438 Z0.865 F300.000 
G1 X-37.666 Y8.429 Z0.796 F505.744 
G1 X-37.640 Y8.481 Z0.865 F562.243 
G0 Z3.000 
G0 X-42.981 Y-0.259 Z3.000 
G1 X-42.981 Y-0.259 Z0.865 F300.000 
G1 X-43.398 Y-0.241 Z0.149 F501.637 
G0 Z3.000 
G0 X-43.414 Y-0.239 Z3.000 
G1 X-43.414 Y-0.239 Z0.122 F300.000 
G1 X-43.398 Y-0.241 Z0.149 F504.304 
G1 X-42.997 Y-0.355 Z0.865 F501.506 
G0 Z3.000 
G0 X-43.034 Y-0.446 Z3.000 
G1 X-43.034 Y-0.446 Z0.865 F300.000 
G1 X-43.414 Y-0.239 Z0.123 F501.473 
G1 X-43.454 Y-0.228 Z0.055 F509.985 
G0 Z3.000 
G0 X-43.520 Y-0.204 Z3.000 
G1 X-43.520 Y-0.204 Z-0.056 F300.000 
G1 X-43.454 Y-0.228 Z0.055 F516.750 
G1 X-43.095 Y-0.533 Z0.865 F500.992 
G0 Z3.000 
G0 X-43.182 Y-0.618 Z3.000 
G1 X-43.182 Y-0.618 Z0.865 F300.000 
G1 X-43.520 Y-0.204 Z-0.057 F500.701 
G1 X-43.649 Y-0.141 Z-0.272 F525.311 
G1 X-43.883 Y-0.050 Z-0.629 F534.097 
G1 X-44.011 Y0.009 Z-0.820 F542.332 
G1 X-44.125 Y0.065 Z-0.994 F539.673 
G1 X-44.413 Y0.213 Z-1.448 F537.167 
G1 X-44.620 Y0.328 Z-1.771 F541.667 
G1 X-44.976 Y0.497 Z-2.282 F550.965 
G1 X-45.319 Y0.640 Z-2.741 F559.613 
G1 X-45.629 Y0.752 Z-3.130 F568.796 
G1 X-45.836 Y0.817 Z-3.374 F578.218 
G0 Z3.000 
G0 X-45.355 Y1.739 Z3.000 
G1 X-45.355 Y1.739 Z-1.683 F300.000 
G1 X-45.395 Y1.666 Z-1.824 F501.384 
G1 X-45.459 Y1.525 Z-2.087 F503.572 
G1 X-45.624 Y1.229 Z-2.651 F506.891 
G1 X-45.639 Y1.206 Z-2.695 F510.298 
G1 X-45.777 Y0.943 Z-3.164 F515.844 
G1 X-45.801 Y0.889 Z-3.254 F521.903 
G1 X-45.836 Y0.817 Z-3.373 F526.724 
G1 X-45.958 Y0.787 Z-3.409 F796.802 
G1 X-46.152 Y0.727 Z-3.444 F833.376 
G1 X-46.176 Y0.720 Z-3.449 F832.044 
G1 X-46.231 Y0.703 Z-3.460 F829.986 
G1 X-46.583 Y0.573 Z-3.498 F860.892 
G1 X-47.007 Y0.398 Z-3.513 F888.011 
G1 X-47.146 Y0.334 Z-3.508 F888.985 
G0 Z3.000 
G0 X-47.291 Y-1.217 Z3.000 
G1 X-47.291 Y-1.217 Z-1.059 F300.000 
G1 X-47.307 Y-1.299 Z-0.919 F504.669 
G0 Z3.000 
G0 X-47.640 Y-2.280 Z3.000 
G1 X-47.640 Y-2.280 Z0.865 F300.000 
G1 X-47.307 Y-1.299 Z-0.919 F500.950 
G1 X-47.404 Y-2.333 Z0.865 F501.386 
G0 Z3.000 
G0 X-47.141 Y-2.324 Z3.000 
G1 X-47.141 Y-2.324 Z0.865 F300.000 
G1 X-47.291 Y-1.217 Z-1.059 F500.810 
G1 X-47.270 Y-1.013 Z-1.396 F509.570 
G1 X-47.243 Y-0.830 Z-1.692 F512.856 
G1 X-47.202 Y-0.408 Z-2.357 F517.076 
G1 X-47.178 Y-0.159 Z-2.747 F517.221 
G1 X-47.149 Y0.281 Z-3.426 F520.046 
G1 X-47.146 Y0.334 Z-3.509 F519.798 
G1 X-47.310 Y0.339 Z-3.379 F644.711 
G1 X-47.591 Y0.343 Z-3.164 F650.453 
G1 X-47.597 Y0.343 Z-3.160 F647.596 
G1 X-47.952 Y0.326 Z-2.893 F654.002 
G1 X-48.185 Y0.306 Z-2.730 F668.343 
G1 X-48.635 Y0.245 Z-2.453 F690.862 
G1 X-48.842 Y0.204 Z-2.343 F716.673 
G1 X-48.843 Y0.204 Z-2.343 F690.219 
G1 X-49.237 Y0.098 Z-2.154 F734.051 
G1 X-49.450 Y0.027 Z-2.070 F764.233 
G1 X-49.701 Y-0.068 Z-1.989 F787.205 
G1 X-49.947 Y-0.172 Z-1.925 F811.420 
G1 X-49.959 Y-0.177 Z-1.923 F811.391 
G1 X-50.106 Y-0.247 Z-1.886 F816.739 
G1 X-50.782 Y-0.595 Z-1.752 F833.111 
G1 X-50.871 Y-0.643 Z-1.737 F843.062 
G1 X-50.964 Y-0.695 Z-1.724 F853.510 
G1 X-51.164 Y-0.812 Z-1.687 F839.379 
G1 X-51.261 Y-0.871 Z-1.672 F852.665 
G1 X-51.543 Y-1.051 Z-1.643 F866.109 
G1 X-51.642 Y-1.118 Z-1.636 F878.136 
G1 X-51.880 Y-1.283 Z-1.630 F891.701 
G1 X-51.918 Y-1.312 Z-1.627 F875.993 
G1 X-52.006 Y-1.379 Z-1.624 F889.699 
G1 X-52.273 Y-1.591 Z-1.626 F897.310 
G1 X-52.357 Y-1.660 Z-1.630 F885.269 
G1 X-52.621 Y-1.887 Z-1.656 F872.037 
G1 X-52.690 Y-1.948 Z-1.665 F862.560 
G1 X-52.702 Y-1.959 Z-1.666 F866.591 
G1 X-52.958 Y-2.208 Z-1.700 F864.175 
G1 X-53.030 Y-2.280 Z-1.712 F853.008 
G1 X-53.286 Y-2.545 Z-1.769 F841.681 
G1 X-53.353 Y-2.618 Z-1.787 F831.219 
G1 X-53.396 Y-2.665 Z-1.800 F821.501 
G1 X-53.602 Y-2.906 Z-1.853 F837.303 
G1 X-53.660 Y-2.975 Z-1.870 F828.504 
G1 X-54.006 Y-3.402 Z-1.988 F819.080 
G1 X-54.321 Y-3.816 Z-2.075 F836.912 
G1 X-54.393 Y-3.913 Z-2.099 F826.069 
G1 X-54.545 Y-4.127 Z-2.158 F815.006 
G1 X-54.915 Y-4.683 Z-2.275 F833.663 
G1 X-54.983 Y-4.789 Z-2.301 F822.800 
G1 X-55.011 Y-4.835 Z-2.314 F811.448 
G1 X-55.192 Y-5.151 Z-2.380 F831.511 
G1 X-55.247 Y-5.250 Z-2.403 F823.223 
G1 X-55.393 Y-5.525 Z-2.474 F814.193 
G1 X-55.429 Y-5.598 Z-2.487 F836.970 
G1 X-55.483 Y-5.713 Z-2.513 F825.807 
G1 X-55.634 Y-6.050 Z-2.595 F815.678 
G1 X-55.692 Y-6.186 Z-2.633 F804.584 
G1 X-55.693 Y-6.188 Z-2.634 F777.409 
G1 X-55.810 Y-6.515 Z-2.711 F816.640 
G1 X-55.868 Y-6.689 Z-2.758 F804.316 
G1 X-55.908 Y-6.817 Z-2.796 F792.335 
G1 X-55.959 Y-7.010 Z-2.839 F819.483 
G1 X-56.003 Y-7.194 Z-2.887 F804.710 
G1 X-56.047 Y-7.399 Z-2.949 F790.867 
G1 X-56.066 Y-7.511 Z-2.973 F821.085 
G1 X-56.096 Y-7.723 Z-3.026 F807.273 
G1 X-56.123 Y-7.962 Z-3.096 F792.353 
G1 X-56.129 Y-8.038 Z-3.112 F816.896 
G1 X-56.138 Y-8.176 Z-3.146 F807.845 
G1 X-56.138 Y-8.264 Z-3.167 F811.013 
G1 X-56.138 Y-8.400 Z-3.202 F805.375 
G1 X-56.133 Y-8.578 Z-3.237 F824.678 
G1 X-56.131 Y-8.613 Z-3.244 F822.855 
G1 X-56.114 Y-8.802 Z-3.281 F826.665 
G1 X-56.110 Y-8.838 Z-3.290 F814.333 
G1 X-56.074 Y-9.114 Z-3.342 F829.411 
G1 X-56.063 Y-9.189 Z-3.357 F824.246 
G1 X-56.038 Y-9.320 Z-3.383 F825.649 
G1 X-56.017 Y-9.428 Z-3.408 F815.601 
G1 X-55.993 Y-9.525 Z-3.424 F839.731 
G1 X-56.049 Y-9.548 Z-3.324 F504.747 
G1 X-56.082 Y-9.563 Z-3.264 F502.898 
G1 X-56.236 Y-9.626 Z-2.978 F501.427 
G0 Z3.000 
G0 X-55.993 Y-9.525 Z3.000 
G1 X-55.993 Y-9.525 Z-3.424 F300.000 
G1 X-55.952 Y-9.605 Z-3.401 F804.883 
G1 X-55.941 Y-9.625 Z-3.394 F785.137 
G1 X-55.862 Y-9.762 Z-3.348 F792.649 
G1 X-55.835 Y-9.802 Z-3.333 F778.761 
G1 X-55.646 Y-10.081 Z-3.225 F781.609 
G1 X-55.624 Y-10.113 Z-3.212 F783.712 
G1 X-55.541 Y-10.218 Z-3.163 F765.799 
G1 X-55.318 Y-10.493 Z-3.041 F773.220 
G1 X-55.313 Y-10.500 Z-3.039 F774.972 
G1 X-55.202 Y-10.621 Z-2.976 F761.780 
G1 X-55.026 Y-10.806 Z-2.887 F771.314 
G1 X-54.915 Y-10.919 Z-2.836 F782.087 
G1 X-54.891 Y-10.941 Z-2.825 F775.016 
G1 X-54.708 Y-11.105 Z-2.744 F778.100 
G1 X-54.545 Y-11.244 Z-2.682 F791.577 
G1 X-54.447 Y-11.323 Z-2.650 F805.686 
G1 X-54.357 Y-11.391 Z-2.615 F785.457 
G1 X-54.198 Y-11.506 Z-2.563 F801.446 
G1 X-54.006 Y-11.637 Z-2.512 F817.703 
G1 X-53.936 Y-11.683 Z-2.495 F823.052 
G1 X-53.823 Y-11.749 Z-2.467 F817.971 
G1 X-53.622 Y-11.860 Z-2.422 F826.032 
G1 X-53.453 Y-11.949 Z-2.394 F844.264 
G1 X-53.410 Y-11.970 Z-2.389 F860.965 
G1 X-53.244 Y-12.043 Z-2.358 F835.978 
G1 X-53.067 Y-12.117 Z-2.334 F852.015 
G1 X-52.907 Y-12.178 Z-2.320 F869.633 
G1 X-52.849 Y-12.197 Z-2.310 F838.201 
G1 X-52.672 Y-12.250 Z-2.287 F853.555 
G1 X-52.442 Y-12.313 Z-2.269 F870.336 
G1 X-52.440 Y-12.313 Z-2.269 F883.480 
G1 X-52.270 Y-12.348 Z-2.249 F857.506 
G1 X-52.030 Y-12.390 Z-2.231 F871.696 
G1 X-51.926 Y-12.408 Z-2.227 F883.052 
G1 X-51.880 Y-12.412 Z-2.224 F878.414 
G1 X-51.627 Y-12.438 Z-2.213 F883.634 
G1 X-51.483 Y-12.451 Z-2.212 F896.560 
G1 X-51.379 Y-12.457 Z-2.215 F889.407 
G1 X-51.218 Y-12.463 Z-2.211 F891.687 
G1 X-51.080 Y-12.465 Z-2.213 F895.855 
G1 X-50.832 Y-12.464 Z-2.223 F884.741 
G1 X-50.802 Y-12.463 Z-2.222 F896.243 
G1 X-50.629 Y-12.454 Z-2.229 F885.396 
G1 X-50.289 Y-12.427 Z-2.256 F869.831 
G1 X-50.032 Y-12.399 Z-2.264 F888.351 
G1 X-49.834 Y-12.372 Z-2.280 F870.025 
G1 X-49.751 Y-12.358 Z-2.290 F851.945 
G1 X-49.223 Y-12.257 Z-2.334 F869.166 
G1 X-49.181 Y-12.247 Z-2.335 F887.518 
G1 X-49.060 Y-12.219 Z-2.343 F877.168 
G1 X-48.707 Y-12.128 Z-2.375 F866.371 
G1 X-48.308 Y-12.014 Z-2.392 F884.550 
G1 X-48.213 Y-11.985 Z-2.398 F875.726 
G1 X-48.201 Y-11.982 Z-2.399 F866.235 
G1 X-47.713 Y-11.813 Z-2.419 F884.863 
G1 X-47.599 Y-11.770 Z-2.418 F895.588 
G1 X-47.446 Y-11.708 Z-2.422 F890.073 
G1 X-47.239 Y-11.619 Z-2.436 F876.647 
G1 X-46.955 Y-11.488 Z-2.440 F894.987 
G1 X-46.785 Y-11.404 Z-2.451 F877.719 
G1 X-46.731 Y-11.373 Z-2.455 F877.177 
G1 X-46.360 Y-11.155 Z-2.487 F871.915 
G1 X-46.348 Y-11.147 Z-2.487 F891.885 
G1 X-46.130 Y-11.000 Z-2.508 F869.036 
G1 X-45.972 Y-10.885 Z-2.537 F845.322 
G1 X-45.963 Y-10.878 Z-2.538 F848.598 
G1 X-45.796 Y-10.740 Z-2.568 F848.071 
G1 X-45.658 Y-10.620 Z-2.601 F831.064 
G1 X-45.604 Y-10.572 Z-2.616 F824.647 
G1 X-45.481 Y-10.447 Z-2.650 F826.398 
G1 X-45.361 Y-10.321 Z-2.691 F811.699 
G1 X-45.286 Y-10.240 Z-2.719 F805.128 
G1 X-45.252 Y-10.198 Z-2.731 F814.280 
G1 X-43.500 Y-11.405 Z0.865 F504.103 
G0 Z3.000 
G0 X-42.863 Y-9.829 Z3.000 
G1 X-42.863 Y-9.829 Z0.865 F300.000 
G1 X-44.912 Y-9.400 Z-2.702 F502.730 
G1 X-44.966 Y-9.543 Z-2.696 F880.680 
G1 X-45.027 Y-9.700 Z-2.691 F892.995 
G1 X-45.127 Y-9.936 Z-2.701 F886.584 
G1 X-45.199 Y-10.089 Z-2.715 F865.936 
G1 X-45.252 Y-10.198 Z-2.731 F856.733 
G0 Z3.000 
G0 X-44.912 Y-9.400 Z3.000 
G1 X-44.912 Y-9.400 Z-2.704 F300.000 
G1 X-44.896 Y-9.284 Z-2.681 F824.609 
G1 X-44.872 Y-9.111 Z-2.648 F830.118 
G1 X-44.856 Y-8.961 Z-2.632 F857.759 
G1 X-44.845 Y-8.811 Z-2.615 F857.662 
G1 X-44.824 Y-8.439 Z-2.597 F881.963 
G1 X-44.817 Y-8.196 Z-2.598 F897.961 
G1 X-44.820 Y-7.676 Z-2.629 F877.534 
G1 X-44.826 Y-7.477 Z-2.658 F845.680 
G1 X-44.842 Y-7.277 Z-2.686 F845.892 
G1 X-44.859 Y-7.113 Z-2.723 F816.132 
G1 X-44.913 Y-6.748 Z-2.863 F761.890 
G1 X-44.999 Y-6.382 Z-3.002 F764.247 
G1 X-45.033 Y-6.259 Z-3.069 F714.614 
G1 X-45.045 Y-6.217 Z-3.092 F716.655 
G1 X-45.291 Y-5.556 Z-3.543 F682.863 
G1 X-45.911 Y-5.474 Z-3.061 F649.438 
G1 X-45.949 Y-5.472 Z-3.035 F668.266 
G1 X-46.075 Y-5.466 Z-2.948 F669.114 
G1 X-46.646 Y-5.475 Z-2.648 F715.207 
G1 X-46.941 Y-5.510 Z-2.487 F710.300 
G1 X-47.093 Y-5.533 Z-2.432 F767.710 
G1 X-47.515 Y-5.624 Z-2.319 F802.436 
G1 X-47.975 Y-5.751 Z-2.242 F838.681 
G1 X-48.055 Y-5.774 Z-2.230 F846.271 
G1 X-48.443 Y-5.890 Z-2.180 F853.738 
G0 Z3.000 
G0 X-50.202 Y-4.676 Z3.000 
G1 X-50.202 Y-4.676 Z0.866 F300.000 
G1 X-48.443 Y-5.890 Z-2.180 F533.709 
G1 X-48.837 Y-6.383 Z-1.498 F585.021 
G1 X-49.508 Y-7.222 Z-0.336 F585.006 
G1 X-50.202 Y-8.090 Z0.866 F585.029 
G0 Z3.000 
G0 X-45.291 Y-5.556 Z3.000 
G1 X-45.291 Y-5.556 Z-3.540 F300.000 
G1 X-45.209 Y-5.444 Z-3.403 F601.541 
G1 X-44.726 Y-4.764 Z-2.559 F597.815 
G1 X-44.310 Y-4.152 Z-1.789 F592.257 
G1 X-44.213 Y-4.000 Z-1.593 F584.409 
G1 X-44.209 Y-3.994 Z-1.585 F584.744 
G1 X-43.976 Y-3.624 Z-1.112 F584.827 
G1 X-43.721 Y-3.168 Z-0.509 F573.007 
G1 X-43.645 Y-3.010 Z-0.295 F560.744 
G1 X-43.589 Y-2.873 Z-0.102 F550.345 
G1 X-43.558 Y-2.773 Z0.044 F537.671 
G0 Z3.000 
G0 X-43.546 Y-2.709 Z3.000 
G1 X-43.546 Y-2.709 Z0.143 F300.000 
G1 X-43.558 Y-2.773 Z0.045 F524.420 
G1 X-43.207 Y-2.449 Z0.864 F501.716 
G0 Z3.000 
G0 X-43.318 Y-2.353 Z3.000 
G1 X-43.318 Y-2.353 Z0.864 F300.000 
G1 X-43.546 Y-2.709 Z0.143 F502.582 
G1 X-43.543 Y-2.657 Z0.227 F512.382 
G0 Z3.000 
G0 X-43.444 Y-2.296 Z3.000 
G1 X-43.444 Y-2.296 Z0.864 F300.000 
G1 X-43.543 Y-2.657 Z0.228 F502.889 
G1 X-43.585 Y-2.280 Z0.865 F504.490 
G0 Z3.000 
G0 X-38.939 Y-10.737 Z3.000 
G1 X-38.939 Y-10.737 Z-4.467 F300.000 
G1 X-38.282 Y-10.863 Z-4.326 F820.789 
G1 X-37.504 Y-10.916 Z-4.159 F819.571 
G1 X-35.891 Y-10.915 Z-4.159 F900.000 
G1 X-32.989 Y-13.817 Z0.866 F561.574 
G0 Z3.000 
G0 X-32.142 Y-13.714 Z3.000 
G1 X-32.142 Y-13.714 Z0.865 F300.000 
G1 X-32.084 Y-13.684 Z0.773 F536.965 
G1 X-32.100 Y-13.735 Z0.865 F501.813 
G0 Z3.000 
G0 X-32.084 Y-13.684 Z3.000 
G1 X-32.084 Y-13.684 Z0.773 F300.000 
G1 X-31.959 Y-13.592 Z0.584 F561.227 
G1 X-31.928 Y-13.567 Z0.537 F568.762 
G1 X-31.504 Y-13.233 Z-0.096 F570.079 
G1 X-31.434 Y-13.174 Z-0.200 F575.532 
G1 X-30.041 Y-12.018 Z-2.251 F576.197 
G1 X-29.774 Y-11.793 Z-2.642 F578.437 
G1 X-27.975 Y-13.817 Z0.865 F551.315 
G0 Z3.000 
G0 X-29.238 Y-15.765 Z3.000 
G1 X-29.238 Y-15.765 Z0.866 F300.000 
G1 X-29.135 Y-15.856 Z0.683 F545.517 
G1 X-29.121 Y-15.869 Z0.657 F552.051 
G1 X-28.892 Y-16.085 Z0.254 F553.346 
G1 X-28.818 Y-16.157 Z0.124 F555.310 
G1 X-28.026 Y-16.918 Z-1.260 F556.085 
G1 X-27.697 Y-17.239 Z-1.835 F557.627 
G1 X-25.415 Y-19.459 Z-5.810 F557.956 
G1 X-25.415 Y-19.468 Z-5.809 F895.954 
G1 X-25.416 Y-19.728 Z-5.811 F898.090 
G1 X-26.329 Y-20.671 Z-4.240 F565.735 
G1 X-26.689 Y-21.071 Z-3.619 F572.888 
G1 X-27.077 Y-21.589 Z-3.248 F700.774 
G1 X-27.370 Y-22.091 Z-2.887 F687.941 
G1 X-27.576 Y-22.581 Z-2.536 F676.799 
G1 X-27.701 Y-23.062 Z-2.191 F668.355 
G1 X-27.752 Y-23.617 Z-1.793 F663.289 
G1 X-27.756 Y-25.895 Z-1.800 F898.843 
G1 X-27.760 Y-28.174 Z-1.807 F898.844 
G1 X-27.725 Y-28.648 Z-2.219 F626.901 
G1 X-27.616 Y-29.124 Z-2.633 F631.277 
G1 X-27.432 Y-29.604 Z-3.051 F639.445 
G1 X-27.169 Y-30.093 Z-3.476 F650.538 
G1 X-26.820 Y-30.592 Z-3.910 F663.584 
G1 X-26.537 Y-30.932 Z-4.205 F675.273 
G1 X-26.216 Y-31.273 Z-4.501 F684.794 
G1 X-25.650 Y-31.840 Z-5.484 F561.219 
G1 X-25.651 Y-31.992 Z-5.485 F898.740 
G1 X-25.651 Y-32.144 Z-5.485 F898.995 
G1 X-25.934 Y-32.426 Z-4.997 F561.907 
G1 X-26.223 Y-32.727 Z-4.498 F566.238 
G1 X-26.680 Y-33.277 Z-4.065 F691.916 
G1 X-27.038 Y-33.811 Z-3.644 F678.729 
G1 X-27.306 Y-34.332 Z-3.234 F666.685 
G1 X-27.491 Y-34.842 Z-2.833 F656.628 
G1 X-27.598 Y-35.345 Z-2.437 F649.423 
G1 X-27.622 Y-35.578 Z-2.254 F646.367 
G1 X-27.630 Y-35.811 Z-2.070 F645.508 
G1 X-27.633 Y-38.853 Z-2.076 F899.347 
G1 X-27.636 Y-41.895 Z-2.081 F899.360 
G1 X-27.601 Y-42.392 Z-2.414 F675.006 
G1 X-27.492 Y-42.892 Z-2.748 F678.698 
G1 X-27.307 Y-43.396 Z-3.086 F685.606 
G1 X-27.042 Y-43.910 Z-3.430 F694.994 
G1 X-26.625 Y-44.524 Z-3.841 F707.008 
G1 X-26.059 Y-45.176 Z-4.820 F575.955 
G1 X-25.275 Y-45.992 Z-6.180 F565.138 
G1 X-23.700 Y-44.448 Z-3.404 F556.413 
G1 X-21.278 Y-42.073 Z0.866 F556.426 
G0 Z3.000 
G0 X-25.275 Y-45.992 Z3.000 
G1 X-25.275 Y-45.992 Z-6.181 F300.000 
G1 X-25.271 Y-46.349 Z-6.187 F893.683 
G1 X-25.272 Y-46.350 Z-6.187 F900.000 
G1 X-25.271 Y-46.400 Z-6.188 F893.130 
G0 Z3.000 
G0 X-31.143 Y-50.595 Z3.000 
G1 X-31.143 Y-50.595 Z0.866 F300.000 
G1 X-31.473 Y-50.217 Z0.010 F502.475 
G1 X-31.276 Y-50.676 Z0.866 F501.717 
G0 Z3.000 
G0 X-33.035 Y-17.953 Z3.000 
G1 X-33.035 Y-17.953 Z-3.123 F300.000 
G1 X-32.942 Y-17.860 Z-2.962 F561.539 
G1 X-30.731 Y-15.650 Z0.865 F561.622 
G0 Z3.000 
G0 X-29.774 Y-11.793 Z3.000 
G1 X-29.774 Y-11.793 Z-2.642 F300.000 
G1 X-29.767 Y-11.741 Z-2.640 F884.658 
G1 X-29.735 Y-11.518 Z-2.630 F883.556 
G1 X-29.735 Y-11.517 Z-2.628 F900.000 
G1 X-29.439 Y-9.461 Z-2.542 F883.772 
G1 X-29.328 Y-8.937 Z-2.891 F677.852 
G1 X-29.143 Y-8.425 Z-3.244 F680.468 
G1 X-28.884 Y-7.921 Z-3.599 F685.989 
G1 X-28.547 Y-7.422 Z-3.960 F693.876 
G1 X-28.126 Y-6.927 Z-4.328 F703.474 
G1 X-27.930 Y-6.727 Z-4.479 F710.856 
G1 X-27.721 Y-6.529 Z-4.630 F715.254 
G1 X-27.714 Y-6.523 Z-4.640 F588.114 
G1 X-27.508 Y-6.342 Z-4.940 F582.876 
G1 X-27.874 Y-5.696 Z-4.486 F691.007 
G1 X-28.146 Y-5.081 Z-4.046 F678.562 
G1 X-28.332 Y-4.495 Z-3.617 F667.188 
G1 X-28.437 Y-3.932 Z-3.196 F657.615 
G1 X-28.467 Y-3.391 Z-2.781 F650.584 
G1 X-28.455 Y-3.138 Z-2.584 F647.394 
G1 X-28.427 Y-2.888 Z-2.387 F646.337 
G1 X-28.214 Y-1.441 Z-2.340 F887.316 
G1 X-28.208 Y-1.404 Z-2.337 F890.867 
G1 X-27.969 Y0.112 Z-2.315 F894.027 
G1 X-27.962 Y0.159 Z-2.313 F898.402 
G1 X-27.852 Y0.799 Z-2.319 F897.351 
G1 X-27.852 Y0.809 Z-2.319 F896.058 
G1 X-27.689 Y1.773 Z-2.331 F895.587 
G1 X-27.684 Y1.802 Z-2.329 F893.608 
G1 X-27.386 Y3.487 Z-2.375 F890.245 
G1 X-27.260 Y3.995 Z-2.783 F646.590 
G1 X-27.061 Y4.493 Z-3.193 F650.462 
G1 X-26.787 Y4.984 Z-3.608 F657.421 
G1 X-26.433 Y5.470 Z-4.028 F666.824 
G1 X-25.995 Y5.953 Z-4.457 F677.938 
G1 X-25.709 Y6.222 Z-4.701 F687.314 
G1 X-25.399 Y6.488 Z-4.945 F694.225 
G1 X-24.870 Y5.972 Z-4.525 F702.309 
G1 X-24.438 Y5.456 Z-4.115 F691.159 
G1 X-24.095 Y4.939 Z-3.715 F681.202 
G1 X-23.833 Y4.420 Z-3.322 F673.100 
G1 X-23.649 Y3.895 Z-2.935 F667.492 
G1 X-23.598 Y3.689 Z-2.785 F665.333 
G1 X-23.558 Y3.482 Z-2.636 F664.793 
G1 X-23.222 Y1.495 Z-2.616 F896.341 
G1 X-23.220 Y1.477 Z-2.617 F897.932 
G1 X-23.096 Y0.726 Z-2.614 F899.398 
G1 X-22.712 Y-1.654 Z-2.600 F897.798 
G1 X-22.707 Y-1.686 Z-2.602 F900.000 
G1 X-22.531 Y-2.831 Z-2.610 F896.868 
G1 X-22.486 Y-3.371 Z-3.010 F657.452 
G1 X-22.512 Y-3.924 Z-3.410 F660.790 
G1 X-22.611 Y-4.494 Z-3.814 F667.012 
G1 X-22.787 Y-5.083 Z-4.224 F675.559 
G1 X-23.045 Y-5.695 Z-4.641 F685.778 
G1 X-23.224 Y-6.047 Z-4.877 F694.445 
G1 X-23.429 Y-6.402 Z-5.113 F700.835 
G1 X-23.245 Y-6.605 Z-4.852 F609.710 
G1 X-22.905 Y-7.006 Z-4.418 F635.929 
G1 X-22.608 Y-7.415 Z-3.983 F628.131 
G1 X-22.499 Y-7.578 Z-3.838 F660.117 
G1 X-22.176 Y-8.127 Z-3.491 F707.821 
G1 X-21.969 Y-8.582 Z-3.206 F701.968 
G1 X-21.908 Y-8.737 Z-3.140 F763.029 
G1 X-21.806 Y-9.022 Z-3.045 F781.477 
G1 X-21.698 Y-9.432 Z-2.965 F828.459 
G1 X-21.657 Y-9.620 Z-2.943 F859.483 
G1 X-21.601 Y-9.937 Z-2.931 F883.267 
G1 X-21.567 Y-10.178 Z-2.934 F892.174 
G1 X-21.561 Y-10.216 Z-2.937 F889.930 
G1 X-21.381 Y-11.594 Z-2.984 F886.569 
G1 X-22.059 Y-12.352 Z-1.673 F551.847 
G1 X-23.360 Y-13.817 Z0.865 F551.120 
G0 Z3.000 
G0 X-21.381 Y-11.594 Z3.000 
G1 X-21.381 Y-11.594 Z-2.984 F300.000 
G1 X-21.141 Y-11.801 Z-2.626 F576.905 
G1 X-20.639 Y-12.223 Z-1.877 F574.637 
G1 X-20.147 Y-12.642 Z-1.134 F573.555 
G1 X-19.789 Y-12.930 Z-0.591 F568.189 
G1 X-19.602 Y-13.073 Z-0.305 F562.957 
G1 X-19.500 Y-13.153 Z-0.145 F560.270 
G1 X-19.282 Y-13.308 Z0.200 F551.604 
G1 X-19.135 Y-13.395 Z0.437 F539.421 
G1 X-19.004 Y-13.610 Z0.866 F502.194 
G0 Z3.000 
G0 X-18.911 Y-13.530 Z3.000 
G1 X-18.911 Y-13.530 Z0.866 F300.000 
G1 X-19.085 Y-13.415 Z0.518 F506.636 
G1 X-19.135 Y-13.395 Z0.436 F521.280 
G0 Z3.000 
G0 X-19.085 Y-13.415 Z3.000 
G1 X-19.085 Y-13.415 Z0.519 F300.000 
G1 X-18.881 Y-13.435 Z0.866 F503.971 
G0 Z3.000 
G0 X-18.033 Y-14.122 Z3.000 
G1 X-18.033 Y-14.122 Z0.865 F300.000 
G1 X-14.892 Y-10.981 Z-4.575 F561.542 
G1 X-14.062 Y-10.151 Z-6.013 F561.544 
G1 X-14.365 Y-9.848 Z-5.488 F561.548 
G1 X-14.898 Y-9.270 Z-4.985 F683.466 
G1 X-15.328 Y-8.708 Z-4.498 F670.015 
G1 X-15.665 Y-8.159 Z-4.024 F657.265 
G1 X-15.916 Y-7.623 Z-3.559 F645.906 
G1 X-16.085 Y-7.095 Z-3.103 F636.709 
G1 X-16.178 Y-6.575 Z-2.652 F630.412 
G1 X-16.199 Y-6.180 Z-2.310 F627.724 
G1 X-16.199 Y1.105 Z-2.311 F900.000 
G1 X-16.199 Y1.114 Z-2.310 F900.000 
G1 X-16.197 Y2.020 Z-2.315 F898.313 
G1 X-16.191 Y4.092 Z-2.324 F898.341 
G1 X-16.191 Y4.109 Z-2.322 F897.770 
G1 X-16.172 Y6.831 Z-2.358 F895.270 
G1 X-16.172 Y6.854 Z-2.357 F893.417 
G1 X-16.143 Y9.019 Z-2.409 F891.127 
G1 X-16.142 Y9.069 Z-2.408 F887.173 
G1 X-16.107 Y10.377 Z-2.471 F882.291 
G1 X-16.101 Y10.501 Z-2.479 F871.779 
G1 X-16.042 Y11.504 Z-2.583 F861.128 
G1 X-16.030 Y11.657 Z-2.602 F848.556 
G1 X-15.996 Y12.004 Z-2.663 F836.310 
G1 X-15.967 Y12.235 Z-2.711 F818.351 
G1 X-15.926 Y12.503 Z-2.785 F800.985 
G1 X-15.843 Y12.906 Z-2.925 F772.700 
G1 X-15.790 Y13.117 Z-3.020 F746.634 
G1 X-15.579 Y13.758 Z-3.383 F710.524 
G1 X-15.505 Y13.941 Z-3.513 F679.651 
G1 X-15.335 Y14.320 Z-3.835 F647.398 
G1 X-15.131 Y14.699 Z-4.159 F653.780 
G1 X-15.025 Y14.883 Z-4.345 F626.759 
G1 X-14.624 Y15.501 Z-5.038 F611.334 
G1 X-14.474 Y15.710 Z-5.300 F598.186 
G1 X-14.347 Y15.883 Z-5.518 F595.013 
G1 X-18.033 Y18.163 Z0.865 F527.814 
G0 Z3.000 
G0 X-14.347 Y15.883 Z3.000 
G1 X-14.347 Y15.883 Z-5.518 F300.000 
G1 X-13.869 Y16.050 Z-5.628 F818.155 
G1 X-13.584 Y16.139 Z-5.712 F797.369 
G1 X-13.528 Y16.157 Z-5.726 F794.650 
G1 X-12.803 Y16.331 Z-5.986 F771.859 
G1 X-12.501 Y16.388 Z-6.120 F745.749 
G1 X-12.351 Y16.415 Z-6.185 F740.777 
G1 X-12.275 Y16.426 Z-6.217 F746.911 
G1 X-12.214 Y16.547 Z-6.066 F575.866 
G1 X-11.910 Y17.193 Z-5.228 F569.519 
G1 X-11.739 Y17.597 Z-4.693 F562.309 
G1 X-11.678 Y17.731 Z-4.510 F558.078 
G1 X-11.524 Y18.117 Z-3.968 F549.915 
G1 X-11.507 Y18.156 Z-3.911 F546.807 
G1 X-11.394 Y18.474 Z-3.441 F537.990 
G1 X-11.358 Y18.608 Z-3.238 F528.909 
G1 X-11.312 Y18.756 Z-3.007 F525.366 
G0 Z3.000 
G0 X-11.294 Y18.792 Z3.000 
G1 X-11.294 Y18.792 Z-2.942 F300.000 
G1 X-11.280 Y18.830 Z-2.874 F506.032 
G1 X-11.261 Y18.894 Z-2.761 F503.825 
G1 X-11.248 Y18.945 Z-2.671 F502.454 
G1 X-11.214 Y19.110 Z-2.381 F501.125 
G0 Z3.000 
G0 X-11.223 Y18.873 Z3.000 
G1 X-11.223 Y18.873 Z-2.755 F300.000 
G1 X-11.294 Y18.792 Z-2.941 F501.079 
G1 X-11.312 Y18.756 Z-3.006 F511.976 
G1 X-11.359 Y19.392 Z-1.916 F502.064 
G1 X-11.380 Y21.005 Z0.865 F500.792 
G0 Z3.000 
G0 X-12.275 Y16.426 Z3.000 
G1 X-12.275 Y16.426 Z-6.217 F300.000 
G1 X-11.796 Y15.975 Z-5.602 F612.759 
G1 X-11.769 Y15.946 Z-5.566 F617.088 
G1 X-11.546 Y15.708 Z-5.269 F617.840 
G1 X-11.168 Y15.272 Z-4.774 F629.402 
G1 X-11.081 Y15.158 Z-4.658 F639.239 
G1 X-10.997 Y15.044 Z-4.545 F642.598 
G1 X-10.667 Y14.556 Z-4.115 F658.963 
G1 X-10.602 Y14.450 Z-4.033 F677.405 
G1 X-10.569 Y14.397 Z-3.992 F680.329 
G1 X-10.283 Y13.833 Z-3.626 F699.690 
G1 X-10.206 Y13.656 Z-3.532 F727.062 
G1 X-10.085 Y13.354 Z-3.391 F743.745 
G1 X-10.027 Y13.180 Z-3.324 F764.396 
G1 X-9.956 Y12.952 Z-3.241 F774.815 
G1 X-9.878 Y12.666 Z-3.157 F793.400 
G1 X-9.809 Y12.384 Z-3.089 F812.539 
G1 X-9.767 Y12.195 Z-3.051 F825.642 
G1 X-9.759 Y12.154 Z-3.044 F839.476 
G1 X-9.703 Y11.855 Z-2.990 F832.630 
G1 X-9.672 Y11.666 Z-2.964 F846.528 
G1 X-9.549 Y10.815 Z-2.873 F860.355 
G1 X-9.549 Y10.813 Z-2.874 F855.490 
G1 X-9.532 Y10.664 Z-2.860 F866.620 
G1 X-9.424 Y9.584 Z-2.797 F877.988 
G1 X-9.416 Y9.484 Z-2.795 F885.862 
G1 X-9.406 Y9.349 Z-2.791 F893.804 
G1 X-9.330 Y8.179 Z-2.749 F886.257 
G1 X-9.327 Y8.110 Z-2.749 F891.720 
G1 X-9.294 Y7.419 Z-2.742 F897.186 
G1 X-9.265 Y6.586 Z-2.717 F888.448 
G1 X-9.264 Y6.534 Z-2.718 F893.433 
G1 X-9.238 Y5.404 Z-2.706 F896.822 
G1 X-9.232 Y4.799 Z-2.689 F889.207 
G1 X-9.233 Y4.758 Z-2.691 F892.682 
G1 X-9.232 Y3.358 Z-2.673 F895.935 
G1 X-9.238 Y2.818 Z-2.657 F888.543 
G1 X-9.239 Y2.789 Z-2.656 F890.629 
G1 X-9.265 Y1.336 Z-2.630 F893.114 
G1 X-9.283 Y0.747 Z-2.608 F885.484 
G1 X-9.284 Y0.714 Z-2.609 F888.499 
G1 X-9.334 Y-0.601 Z-2.576 F890.915 
G1 X-9.353 Y-0.966 Z-2.559 F882.270 
G1 X-9.357 Y-1.022 Z-2.560 F887.113 
G1 X-9.445 Y-2.383 Z-2.527 F891.678 
G1 X-9.446 Y-2.393 Z-2.528 F892.859 
G1 X-9.454 Y-2.472 Z-2.526 F889.394 
G1 X-9.567 Y-3.551 Z-2.513 F895.953 
G1 X-9.579 Y-3.653 Z-2.516 F895.503 
G1 X-9.621 Y-3.974 Z-2.525 F886.815 
G1 X-9.641 Y-4.101 Z-2.525 F898.208 
G1 X-9.656 Y-4.195 Z-2.529 F894.018 
G1 X-9.727 Y-4.587 Z-2.542 F885.420 
G1 X-9.751 Y-4.707 Z-2.552 F875.499 
