(Exported by FreeCAD)
(Post Processor: linuxcnc_post)
(Output Time:2022-04-15 16:08:35.157660)
(begin preamble)
G17 G54 G40 G49 G80 G90
G21
(begin operation: Fixture)
(machine units: mm/min)
G54 
(finish operation: Fixture)
(begin operation: 60 Deg. V-Bit003)
(machine units: mm/min)
(60 Deg. V-Bit003) 
M5
M6 T2 
G43 H2 
M3 S15000 
(finish operation: 60 Deg. V-Bit003)
(begin operation: Vcarve002)
(machine units: mm/min)
(starting) 
G0 Z3.000 
G0 X-1.865 Y-2.306 Z3.000 
G1 X-1.865 Y-2.306 Z0.865 F300.000 
G1 X-1.937 Y-2.384 Z0.693 F512.435 
G0 Z3.000 
G0 X-1.950 Y-2.404 Z3.000 
G1 X-1.950 Y-2.404 Z0.658 F300.000 
G1 X-1.837 Y-2.361 Z0.865 F501.954 
G0 Z3.000 
G0 X-1.916 Y-2.285 Z3.000 
G1 X-1.916 Y-2.285 Z0.866 F300.000 
G1 X-1.937 Y-2.384 Z0.693 F503.787 
G1 X-1.950 Y-2.404 Z0.658 F525.397 
G1 X-1.997 Y-2.463 Z0.554 F538.077 
G1 X-2.007 Y-2.282 Z0.866 F501.232 
G0 Z3.000 
G0 X-1.997 Y-2.463 Z3.000 
G1 X-1.997 Y-2.463 Z0.554 F300.000 
G1 X-2.022 Y-2.502 Z0.494 F551.712 
G1 X-2.204 Y-2.747 Z0.121 F561.971 
G1 X-2.249 Y-2.815 Z0.026 F571.543 
G1 X-2.468 Y-3.118 Z-0.391 F579.082 
G1 X-2.532 Y-3.211 Z-0.513 F585.696 
G1 X-2.766 Y-3.536 Z-0.931 F591.586 
G1 X-2.860 Y-3.673 Z-1.100 F596.782 
G1 X-3.054 Y-3.954 Z-1.447 F597.531 
G1 X-3.125 Y-4.062 Z-1.573 F603.845 
G1 X-3.518 Y-3.793 Z-0.885 F531.077 
G1 X-3.954 Y-3.515 Z-0.121 F527.188 
G1 X-3.984 Y-3.494 Z-0.064 F521.793 
G1 X-4.251 Y-3.331 Z0.430 F515.444 
G0 Z3.000 
G0 X-4.497 Y-3.268 Z3.000 
G1 X-4.497 Y-3.268 Z0.866 F300.000 
G1 X-4.251 Y-3.331 Z0.430 F501.363 
G1 X-4.457 Y-3.167 Z0.865 F507.641 
G0 Z3.000 
G0 X-3.125 Y-4.062 Z3.000 
G1 X-3.125 Y-4.062 Z-1.573 F300.000 
G1 X-3.125 Y-4.147 Z-1.576 F886.906 
G1 X-3.124 Y-4.181 Z-1.576 F893.251 
G1 X-3.122 Y-4.237 Z-1.576 F900.000 
G1 X-3.098 Y-4.705 Z-1.585 F892.165 
G1 X-3.093 Y-4.773 Z-1.588 F885.039 
G1 X-3.071 Y-5.073 Z-1.606 F877.024 
G1 X-3.058 Y-5.207 Z-1.610 F888.060 
G1 X-3.050 Y-5.283 Z-1.614 F878.487 
G1 X-3.003 Y-5.679 Z-1.646 F869.888 
G1 X-2.991 Y-5.770 Z-1.656 F859.821 
G1 X-2.936 Y-6.131 Z-1.704 F849.496 
G1 X-2.918 Y-6.238 Z-1.722 F837.809 
G1 X-2.917 Y-6.242 Z-1.723 F834.481 
G1 X-2.850 Y-6.566 Z-1.779 F836.123 
G1 X-2.820 Y-6.697 Z-1.807 F821.473 
G1 X-2.748 Y-6.986 Z-1.881 F806.455 
G1 X-2.697 Y-7.166 Z-1.936 F790.481 
G1 X-2.623 Y-7.401 Z-2.021 F773.633 
G1 X-2.616 Y-7.422 Z-2.028 F786.859 
G1 X-2.527 Y-7.656 Z-2.120 F764.765 
G1 X-2.434 Y-7.878 Z-2.223 F746.364 
G1 X-2.288 Y-8.185 Z-2.394 F721.419 
G1 X-2.201 Y-8.350 Z-2.502 F699.844 
G1 X-2.184 Y-8.379 Z-2.520 F714.278 
G1 X-1.915 Y-8.795 Z-2.829 F686.883 
G1 X-1.793 Y-8.964 Z-2.977 F664.567 
G1 X-1.704 Y-9.082 Z-3.086 F657.718 
G1 X-1.347 Y-9.467 Z-3.493 F647.854 
G1 X-1.199 Y-9.612 Z-3.671 F630.087 
G1 X-1.183 Y-9.628 Z-3.690 F630.629 
G1 X-0.986 Y-9.798 Z-3.906 F634.863 
G1 X-0.783 Y-9.951 Z-4.124 F629.937 
G1 X-0.602 Y-10.070 Z-4.311 F627.959 
G1 X-0.486 Y-10.137 Z-4.426 F629.377 
G1 X-0.435 Y-10.167 Z-4.477 F625.976 
G1 X-0.299 Y-10.238 Z-4.604 F636.456 
G1 X-0.280 Y-10.248 Z-4.621 F635.393 
G1 X-0.174 Y-10.298 Z-4.715 F643.945 
G1 X-0.059 Y-10.344 Z-4.807 F654.288 
G1 X-0.023 Y-10.562 Z-4.600 F611.119 
G1 X-0.002 Y-10.745 Z-4.413 F596.719 
G1 X-0.002 Y-10.746 Z-4.412 F572.639 
G0 Z3.000 
G0 X-0.059 Y-10.344 Z3.000 
G1 X-0.059 Y-10.344 Z-4.807 F300.000 
G1 X0.163 Y-10.179 Z-4.569 F628.596 
G1 X0.439 Y-9.935 Z-4.255 F630.712 
G1 X0.607 Y-9.778 Z-4.069 F639.333 
G1 X0.679 Y-9.709 Z-3.989 F642.755 
G1 X1.034 Y-9.313 Z-3.582 F650.749 
G1 X1.192 Y-9.120 Z-3.409 F667.478 
G1 X1.247 Y-9.052 Z-3.349 F671.978 
G1 X1.440 Y-8.778 Z-3.131 F679.196 
G1 X1.594 Y-8.543 Z-2.962 F693.656 
G1 X1.782 Y-8.230 Z-2.767 F712.881 
G1 X1.792 Y-8.211 Z-2.758 F735.073 
G1 X1.961 Y-7.887 Z-2.576 F724.402 
G1 X2.109 Y-7.572 Z-2.428 F746.233 
G1 X2.264 Y-7.199 Z-2.286 F770.793 
G1 X2.265 Y-7.195 Z-2.284 F761.850 
G1 X2.355 Y-6.944 Z-2.200 F783.090 
G1 X2.488 Y-6.523 Z-2.089 F805.466 
G1 X2.544 Y-6.326 Z-2.047 F824.024 
G1 X2.618 Y-6.031 Z-2.002 F844.031 
G1 X2.658 Y-5.856 Z-1.971 F832.708 
G1 X2.692 Y-5.693 Z-1.948 F848.544 
G1 X2.763 Y-5.298 Z-1.910 F864.069 
G1 X2.783 Y-5.170 Z-1.893 F850.898 
G1 X2.801 Y-5.045 Z-1.882 F864.700 
G1 X2.860 Y-4.539 Z-1.853 F878.505 
G1 X2.867 Y-4.464 Z-1.846 F866.727 
G1 X2.877 Y-4.355 Z-1.840 F877.331 
G1 X2.915 Y-3.756 Z-1.821 F888.291 
G1 X2.917 Y-3.715 Z-1.819 F876.843 
G1 X2.920 Y-3.629 Z-1.816 F886.243 
G1 X2.932 Y-2.958 Z-1.808 F895.615 
G1 X2.932 Y-2.929 Z-1.807 F885.753 
G1 X2.931 Y-2.825 Z-1.806 F895.966 
G1 X2.911 Y-2.202 Z-1.816 F893.620 
G1 X2.909 Y-2.154 Z-1.818 F888.217 
G1 X2.901 Y-2.050 Z-1.823 F882.762 
G1 X2.845 Y-1.480 Z-1.865 F871.661 
G1 X2.830 Y-1.348 Z-1.880 F857.542 
G1 X2.820 Y-1.291 Z-1.888 F847.863 
G1 X2.728 Y-0.760 Z-1.971 F841.823 
G1 X2.684 Y-0.552 Z-2.015 F821.824 
G1 X2.679 Y-0.534 Z-2.019 F811.143 
G1 X2.545 Y-0.027 Z-2.146 F809.469 
G1 X2.471 Y0.216 Z-2.223 F786.913 
G1 X2.470 Y0.221 Z-2.225 F769.958 
G1 X2.291 Y0.716 Z-2.403 F775.867 
G1 X2.194 Y0.961 Z-2.507 F756.308 
G1 X2.193 Y0.964 Z-2.508 F737.490 
G1 X1.960 Y1.471 Z-2.743 F747.657 
G1 X1.864 Y1.667 Z-2.844 F734.477 
G1 X1.845 Y1.700 Z-2.863 F728.756 
G1 X1.550 Y2.233 Z-3.161 F725.719 
G1 X1.499 Y2.323 Z-3.214 F720.614 
G1 X1.431 Y2.433 Z-3.281 F718.764 
G1 X1.116 Y2.922 Z-3.593 F711.785 
G1 X1.064 Y2.998 Z-3.639 F722.478 
G1 X1.027 Y3.052 Z-3.672 F719.586 
G1 X0.740 Y3.466 Z-3.934 F716.732 
G1 X0.388 Y3.951 Z-4.223 F728.249 
G1 X0.149 Y4.262 Z-4.396 F742.221 
G1 X0.070 Y4.370 Z-4.449 F755.070 
G1 X-0.105 Y4.594 Z-4.548 F772.139 
G1 X-0.210 Y4.738 Z-4.601 F788.483 
G1 X-0.270 Y4.815 Z-4.626 F806.399 
G1 X-0.362 Y4.942 Z-4.654 F831.165 
G1 X-0.421 Y5.031 Z-4.665 F861.079 
G1 X-0.493 Y5.153 Z-4.669 F890.072 
G1 X-0.506 Y5.176 Z-4.668 F888.244 
G1 X-0.612 Y5.358 Z-4.651 F870.174 
G1 X-0.695 Y5.509 Z-4.630 F853.369 
G1 X-0.718 Y5.557 Z-4.620 F825.847 
G1 X-0.746 Y5.622 Z-4.600 F791.341 
G1 X-0.751 Y5.634 Z-4.595 F762.821 
G1 X-0.831 Y5.836 Z-4.503 F747.486 
G1 X-0.925 Y6.097 Z-4.371 F729.941 
G1 X-0.999 Y6.284 Z-4.265 F715.284 
G1 X-1.076 Y6.493 Z-4.141 F705.931 
G1 X-1.126 Y6.615 Z-4.060 F689.754 
G0 Z3.000 
G0 X-0.156 Y8.685 Z3.000 
G1 X-0.156 Y8.685 Z-0.225 F300.000 
G1 X-0.184 Y8.610 Z-0.360 F503.667 
G1 X-0.323 Y8.192 Z-1.100 F505.034 
G1 X-0.395 Y7.985 Z-1.469 F503.950 
G1 X-0.612 Y7.527 Z-2.352 F499.109 
G1 X-0.756 Y7.246 Z-2.843 F518.382 
G1 X-0.781 Y7.200 Z-2.932 F504.746 
G1 X-0.988 Y6.847 Z-3.610 F506.955 
G1 X-1.126 Y6.615 Z-4.059 F506.684 
G1 X-1.382 Y6.965 Z-3.633 F603.318 
G1 X-1.399 Y6.991 Z-3.606 F612.968 
G1 X-1.466 Y7.092 Z-3.490 F609.306 
G1 X-1.699 Y7.475 Z-3.088 F621.114 
G1 X-1.770 Y7.604 Z-2.966 F634.676 
G1 X-1.996 Y8.071 Z-2.576 F654.207 
G1 X-2.110 Y8.348 Z-2.380 F677.438 
G1 X-2.258 Y8.772 Z-2.125 F703.569 
G1 X-2.346 Y9.085 Z-1.975 F733.671 
G1 X-2.400 Y9.307 Z-1.880 F751.827 
G1 X-2.414 Y9.377 Z-1.856 F774.306 
G1 X-2.478 Y9.739 Z-1.739 F780.792 
G1 X-2.508 Y9.938 Z-1.683 F800.694 
G1 X-2.553 Y10.353 Z-1.598 F821.540 
G1 X-2.566 Y10.505 Z-1.572 F838.695 
G1 X-2.593 Y10.976 Z-1.519 F855.977 
G1 X-2.597 Y11.097 Z-1.508 F869.903 
G1 X-2.604 Y11.624 Z-1.488 F884.729 
G1 X-2.604 Y11.700 Z-1.485 F893.470 
G1 X-2.603 Y11.737 Z-1.488 F896.866 
G1 X-2.583 Y12.402 Z-1.475 F892.942 
G1 X-2.580 Y12.477 Z-1.475 F897.974 
G1 X-2.575 Y12.550 Z-1.478 F888.521 
G1 X-2.533 Y13.070 Z-1.474 F896.997 
G1 X-2.522 Y13.181 Z-1.475 F890.398 
G1 X-2.520 Y13.195 Z-1.478 F875.779 
G1 X-2.447 Y13.670 Z-1.481 F897.300 
G1 X-2.434 Y13.746 Z-1.481 F887.968 
G1 X-2.415 Y13.829 Z-1.483 F890.163 
G1 X-2.316 Y14.222 Z-1.507 F879.681 
G1 X-2.297 Y14.292 Z-1.510 F871.470 
G1 X-2.239 Y14.461 Z-1.530 F857.752 
G1 X-2.122 Y14.770 Z-1.588 F836.598 
G1 X-2.061 Y14.917 Z-1.620 F819.614 
G1 X-2.009 Y15.025 Z-1.653 F797.493 
G1 X-1.943 Y15.155 Z-1.701 F785.149 
G1 X-1.817 Y15.377 Z-1.797 F760.874 
G1 X-1.745 Y15.495 Z-1.860 F738.444 
G1 X-1.645 Y15.645 Z-1.947 F724.397 
G1 X-1.584 Y15.728 Z-2.002 F711.032 
G1 X-1.502 Y15.836 Z-2.082 F703.835 
G1 X-1.274 Y16.106 Z-2.306 F682.185 
G1 X-1.180 Y16.207 Z-2.407 F663.099 
G1 X-0.905 Y16.479 Z-2.708 F646.183 
G1 X-0.844 Y16.534 Z-2.780 F630.911 
G1 X-0.793 Y16.578 Z-2.834 F640.912 
G1 X-0.488 Y16.820 Z-3.169 F627.392 
G1 X-0.357 Y16.916 Z-3.321 F615.943 
G1 X-0.001 Y17.158 Z-3.738 F605.166 
G1 X0.154 Y17.245 Z-3.913 F602.152 
G1 X0.211 Y17.277 Z-3.981 F598.410 
G0 Z3.000 
G0 X0.692 Y20.176 Z3.000 
G1 X0.692 Y20.176 Z-0.765 F300.000 
G1 X0.605 Y19.835 Z-1.275 F530.752 
G1 X0.593 Y19.768 Z-1.369 F539.127 
G1 X0.512 Y19.450 Z-1.800 F548.732 
G1 X0.462 Y19.197 Z-2.123 F557.266 
G1 X0.423 Y19.037 Z-2.320 F565.548 
G1 X0.343 Y18.637 Z-2.786 F574.683 
G1 X0.331 Y18.555 Z-2.876 F584.978 
G1 X0.279 Y18.277 Z-3.170 F593.296 
G1 X0.238 Y17.985 Z-3.455 F605.859 
G1 X0.234 Y17.936 Z-3.498 F623.188 
G1 X0.232 Y17.893 Z-3.534 F636.640 
G1 X0.225 Y17.783 Z-3.620 F647.522 
G1 X0.211 Y17.277 Z-3.981 F663.288 
G1 X0.238 Y17.256 Z-3.952 F626.402 
G1 X0.404 Y17.123 Z-3.757 F617.448 
G1 X0.777 Y16.798 Z-3.335 F630.818 
G1 X0.999 Y16.559 Z-3.079 F646.043 
G1 X1.179 Y16.352 Z-2.879 F657.843 
G1 X1.237 Y16.285 Z-2.814 F661.468 
G1 X1.574 Y15.793 Z-2.426 F679.929 
G1 X1.649 Y15.663 Z-2.348 F712.681 
G1 X1.711 Y15.553 Z-2.276 F703.172 
G1 X1.917 Y15.120 Z-2.055 F736.072 
G1 X2.030 Y14.835 Z-1.951 F773.262 
G1 X2.036 Y14.820 Z-1.944 F775.118 
G1 X2.125 Y14.545 Z-1.861 F794.227 
G1 X2.223 Y14.191 Z-1.788 F822.655 
G1 X2.270 Y13.999 Z-1.756 F843.109 
G1 X2.301 Y13.846 Z-1.744 F864.689 
G1 X2.356 Y13.565 Z-1.712 F857.090 
G1 X2.378 Y13.442 Z-1.700 F871.569 
G1 X2.458 Y12.919 Z-1.681 F884.562 
G1 X2.469 Y12.840 Z-1.679 F893.739 
G1 X2.470 Y12.832 Z-1.679 F895.488 
G1 X2.539 Y12.208 Z-1.675 F897.625 
G1 X2.543 Y12.180 Z-1.673 F900.000 
G1 X2.571 Y11.892 Z-1.679 F895.772 
G1 X2.578 Y11.807 Z-1.677 F894.606 
G1 X1.214 Y10.658 Z0.865 F533.918 
G0 Z3.000 
G0 X0.129 Y9.249 Z3.000 
G1 X0.129 Y9.249 Z0.865 F300.000 
G1 X-0.156 Y8.685 Z-0.225 F500.818 
G1 X0.004 Y9.297 Z0.866 F500.982 
G0 Z3.000 
G0 X2.578 Y11.807 Z3.000 
G1 X2.578 Y11.807 Z-1.677 F300.000 
G1 X2.904 Y11.414 Z-1.169 F600.724 
G1 X3.154 Y11.121 Z-0.777 F596.793 
G1 X3.351 Y10.880 Z-0.450 F590.695 
G1 X3.664 Y10.528 Z0.071 F580.371 
G1 X3.699 Y10.486 Z0.136 F572.566 
G1 X3.822 Y10.353 Z0.357 F561.043 
G1 X3.847 Y10.328 Z0.404 F549.654 
G1 X3.921 Y10.249 Z0.551 F540.791 
G0 Z3.000 
G0 X3.974 Y10.204 Z3.000 
G1 X3.974 Y10.204 Z0.656 F300.000 
G1 X4.088 Y10.153 Z0.865 F505.601 
G0 Z3.000 
G0 X4.047 Y10.102 Z3.000 
G1 X4.047 Y10.102 Z0.865 F300.000 
G1 X3.974 Y10.204 Z0.658 F508.287 
G1 X3.921 Y10.249 Z0.553 F524.718 
G1 X3.960 Y10.071 Z0.866 F501.918 
G0 Z3.000 
G0 X5.229 Y10.657 Z3.000 
G1 X5.229 Y10.657 Z0.865 F300.000 
G1 X7.655 Y12.279 Z-3.336 F531.950 
G1 X8.879 Y13.097 Z-5.454 F531.861 
G1 X7.821 Y14.783 Z-3.622 F615.820 
G1 X5.606 Y18.314 Z0.213 F615.825 
G1 X5.229 Y18.909 Z0.865 F615.013 
G0 Z3.000 
G0 X0.795 Y20.537 Z3.000 
G1 X0.795 Y20.537 Z-0.172 F300.000 
G1 X0.811 Y20.592 Z-0.074 F503.647 
G0 Z3.000 
G0 X0.904 Y21.129 Z3.000 
G1 X0.904 Y21.129 Z0.865 F300.000 
G1 X0.811 Y20.592 Z-0.074 F500.883 
G1 X1.018 Y21.097 Z0.866 F501.081 
G0 Z3.000 
G0 X0.774 Y21.138 Z3.000 
G1 X0.774 Y21.138 Z0.864 F300.000 
G1 X0.795 Y20.537 Z-0.172 F500.988 
G1 X0.781 Y20.460 Z-0.300 F508.723 
G1 X0.739 Y20.308 Z-0.550 F514.104 
G1 X0.692 Y20.176 Z-0.765 F520.715 
G1 X0.472 Y21.096 Z0.866 F500.769 
G0 Z3.000 
G0 X-7.957 Y15.509 Z3.000 
G1 X-7.957 Y15.509 Z0.866 F300.000 
G1 X-8.960 Y13.921 Z-2.373 F500.792 
G1 X-8.287 Y15.675 Z0.866 F500.796 
G0 Z3.000 
G0 X-8.642 Y15.772 Z3.000 
G1 X-8.642 Y15.772 Z0.865 F300.000 
G1 X-8.968 Y13.930 Z-2.362 F500.719 
G1 X-9.004 Y14.420 Z-1.521 F502.101 
G1 X-9.023 Y15.804 Z0.865 F500.776 
G0 Z3.000 
G0 X-8.968 Y13.930 Z3.000 
G1 X-8.968 Y13.930 Z-2.362 F300.000 
G1 X-8.969 Y13.904 Z-2.405 F505.268 
G1 X-8.984 Y13.832 Z-2.520 F517.275 
G1 X-8.992 Y13.808 Z-2.558 F524.996 
G1 X-9.032 Y13.656 Z-2.786 F530.314 
G1 X-9.124 Y13.387 Z-3.178 F539.675 
G1 X-9.274 Y13.020 Z-3.699 F548.298 
G1 X-9.343 Y12.870 Z-3.907 F556.211 
G1 X-9.473 Y12.564 Z-4.313 F562.314 
G1 X-9.730 Y12.018 Z-5.021 F569.495 
G1 X-9.784 Y11.913 Z-5.155 F575.964 
G1 X-9.849 Y11.903 Z-5.127 F747.294 
G1 X-9.980 Y11.879 Z-5.068 F740.925 
G1 X-10.237 Y11.830 Z-4.956 F745.063 
G1 X-10.848 Y11.684 Z-4.737 F771.867 
G1 X-10.901 Y11.667 Z-4.721 F795.359 
G1 X-11.143 Y11.591 Z-4.653 F798.501 
G1 X-11.545 Y11.451 Z-4.560 F818.403 
G0 Z3.000 
G0 X-9.784 Y11.913 Z3.000 
G1 X-9.784 Y11.913 Z-5.155 F300.000 
G1 X-9.374 Y11.527 Z-4.630 F612.843 
G1 X-9.344 Y11.495 Z-4.590 F617.759 
G1 X-9.155 Y11.292 Z-4.337 F618.385 
G1 X-8.843 Y10.932 Z-3.929 F629.882 
G1 X-8.622 Y10.627 Z-3.635 F646.563 
G1 X-8.496 Y10.442 Z-3.471 F658.811 
G1 X-8.334 Y10.187 Z-3.263 F669.827 
G1 X-8.094 Y9.714 Z-2.956 F699.390 
G1 X-8.027 Y9.563 Z-2.875 F726.383 
G1 X-7.922 Y9.300 Z-2.753 F743.506 
G1 X-7.872 Y9.152 Z-2.695 F764.650 
G1 X-7.812 Y8.958 Z-2.625 F775.217 
G1 X-7.747 Y8.721 Z-2.555 F793.162 
G1 X-7.688 Y8.481 Z-2.496 F811.608 
G1 X-7.652 Y8.314 Z-2.464 F825.504 
G1 X-7.645 Y8.281 Z-2.457 F839.612 
G1 X-7.597 Y8.026 Z-2.410 F832.748 
G1 X-7.571 Y7.866 Z-2.390 F846.659 
G1 X-7.466 Y7.143 Z-2.311 F860.341 
G1 X-7.466 Y7.141 Z-2.314 F872.117 
G1 X-7.452 Y7.013 Z-2.302 F866.648 
G1 X-7.361 Y6.095 Z-2.247 F878.243 
G1 X-7.354 Y6.011 Z-2.246 F886.413 
G1 X-7.345 Y5.896 Z-2.242 F893.680 
G1 X-7.281 Y4.902 Z-2.206 F886.320 
G1 X-7.278 Y4.844 Z-2.206 F891.525 
G1 X-7.250 Y4.257 Z-2.201 F897.271 
G1 X-7.225 Y3.548 Z-2.180 F888.583 
G1 X-7.224 Y3.505 Z-2.180 F892.927 
G1 X-7.203 Y2.544 Z-2.171 F896.699 
G1 X-7.197 Y2.030 Z-2.156 F889.007 
G1 X-7.198 Y1.994 Z-2.157 F892.727 
G1 X-7.197 Y0.804 Z-2.143 F895.954 
G1 X-7.202 Y0.344 Z-2.129 F888.535 
G1 X-7.203 Y0.320 Z-2.128 F890.628 
G1 X-7.225 Y-0.914 Z-2.106 F893.191 
G1 X-7.240 Y-1.414 Z-2.087 F885.572 
G1 X-7.242 Y-1.442 Z-2.088 F887.711 
G1 X-7.284 Y-2.560 Z-2.060 F891.025 
G1 X-7.300 Y-2.871 Z-2.046 F882.231 
G1 X-7.303 Y-2.918 Z-2.045 F886.309 
G1 X-7.379 Y-4.075 Z-2.018 F891.562 
G1 X-7.379 Y-4.085 Z-2.019 F892.763 
G1 X-7.386 Y-4.151 Z-2.017 F889.050 
G1 X-7.482 Y-5.069 Z-2.006 F895.901 
G1 X-7.497 Y-5.192 Z-2.010 F891.714 
G1 X-7.531 Y-5.427 Z-2.022 F879.247 
G1 X-7.611 Y-5.906 Z-2.030 F894.025 
G1 X-7.638 Y-6.050 Z-2.039 F879.679 
G1 X-7.700 Y-6.342 Z-2.065 F865.166 
G1 X-7.729 Y-6.466 Z-2.082 F853.448 
G1 X-7.749 Y-6.546 Z-2.094 F841.096 
G1 X-7.797 Y-6.722 Z-2.116 F854.304 
G1 X-7.843 Y-6.877 Z-2.143 F839.425 
G1 X-7.916 Y-7.102 Z-2.189 F824.435 
G1 X-7.983 Y-7.292 Z-2.240 F807.296 
G1 X-8.062 Y-7.494 Z-2.303 F789.826 
G1 X-8.135 Y-7.670 Z-2.368 F774.887 
G1 X-8.149 Y-7.700 Z-2.380 F765.857 
G1 X-8.235 Y-7.882 Z-2.456 F763.486 
G1 X-8.358 Y-8.121 Z-2.572 F744.956 
G1 X-8.454 Y-8.292 Z-2.666 F727.401 
G1 X-8.627 Y-8.576 Z-2.848 F708.568 
G1 X-8.635 Y-8.589 Z-2.858 F691.268 
G1 X-8.813 Y-8.846 Z-3.038 F700.099 
G1 X-9.054 Y-9.167 Z-3.297 F681.807 
G1 X-9.161 Y-9.298 Z-3.416 F665.209 
G1 X-9.283 Y-9.439 Z-3.539 F676.464 
G1 X-9.559 Y-9.736 Z-3.831 F661.896 
G1 X-9.640 Y-9.818 Z-3.920 F648.525 
G1 X-9.808 Y-9.975 Z-4.085 F662.557 
G1 X-10.031 Y-10.174 Z-4.310 F653.545 
G1 X-10.300 Y-10.373 Z-4.562 F652.527 
G1 X-10.338 Y-10.399 Z-4.600 F643.516 
G1 X-10.547 Y-10.530 Z-4.776 F663.313 
G1 X-10.576 Y-10.549 Z-4.799 F662.688 
G1 X-10.820 Y-10.676 Z-4.983 F675.497 
G0 Z3.000 
G0 X-11.303 Y-10.678 Z3.000 
G1 X-11.303 Y-10.678 Z-4.979 F300.000 
G1 X-10.987 Y-10.678 Z-4.979 F900.000 
G1 X-10.820 Y-10.676 Z-4.983 F891.757 
G1 X-10.756 Y-10.813 Z-4.747 F516.796 
G1 X-9.338 Y-14.054 Z0.866 F514.806 
G0 Z3.000 
G0 X-9.140 Y-15.461 Z3.000 
G1 X-9.140 Y-15.461 Z0.865 F300.000 
G1 X-9.366 Y-15.900 Z0.018 F501.565 
G1 X-9.030 Y-15.536 Z0.865 F502.268 
G0 Z3.000 
G0 X-8.947 Y-15.639 Z3.000 
G1 X-8.947 Y-15.639 Z0.865 F300.000 
G1 X-9.367 Y-15.902 Z0.014 F501.480 
G1 X-9.439 Y-15.979 Z-0.155 F512.999 
G1 X-9.441 Y-15.983 Z-0.161 F521.451 
G1 X-9.521 Y-16.072 Z-0.338 F527.915 
G1 X-9.550 Y-16.099 Z-0.392 F539.172 
G1 X-9.578 Y-16.129 Z-0.446 F548.345 
G1 X-9.831 Y-16.383 Z-0.905 F553.622 
G1 X-9.956 Y-16.506 Z-1.127 F555.376 
G1 X-10.018 Y-16.436 Z-1.011 F557.601 
G1 X-11.011 Y-15.352 Z0.866 F553.778 
G0 Z3.000 
G0 X-9.956 Y-16.506 Z3.000 
G1 X-9.956 Y-16.506 Z-1.127 F300.000 
G1 X-9.977 Y-17.189 Z-1.193 F862.999 
G1 X-9.979 Y-17.311 Z-1.202 F873.604 
G1 X-10.000 Y-18.235 Z-1.254 F878.453 
G1 X-10.016 Y-19.854 Z-1.310 F886.698 
G1 X-10.018 Y-20.552 Z-1.327 F890.818 
G1 X-10.027 Y-21.818 Z-1.349 F893.420 
G1 X-10.030 Y-23.906 Z-1.364 F897.202 
G1 X-10.031 Y-23.908 Z-1.366 F900.000 
G1 X-10.032 Y-25.211 Z-1.375 F896.893 
G1 X-10.035 Y-25.852 Z-1.377 F898.331 
G1 X-10.037 Y-25.872 Z-1.380 F896.237 
G1 X-10.054 Y-27.438 Z-1.406 F893.149 
G1 X-10.055 Y-27.473 Z-1.408 F888.878 
G1 X-10.081 Y-28.504 Z-1.449 F884.530 
G1 X-10.084 Y-28.591 Z-1.456 F873.741 
G1 X-10.100 Y-28.856 Z-1.480 F863.088 
G1 X-10.117 Y-29.040 Z-1.510 F841.264 
G1 X-10.124 Y-29.101 Z-1.522 F819.638 
G1 X-10.217 Y-29.546 Z-1.796 F693.787 
G1 X-10.385 Y-29.997 Z-2.072 F701.071 
G1 X-10.471 Y-30.173 Z-2.180 F707.869 
G1 X-10.568 Y-30.348 Z-2.287 F712.100 
G1 X-10.579 Y-30.367 Z-2.306 F625.413 
G1 X-10.864 Y-30.795 Z-2.798 F608.649 
G1 X-11.322 Y-31.337 Z-3.587 F579.684 
G0 Z3.000 
G0 X-13.851 Y-29.414 Z3.000 
G1 X-13.851 Y-29.414 Z-3.380 F300.000 
G1 X-13.850 Y-29.415 Z-3.379 F594.286 
G1 X-13.529 Y-29.653 Z-3.002 F611.775 
G1 X-13.479 Y-29.691 Z-2.951 F636.764 
G1 X-11.322 Y-31.337 Z-3.587 F811.780 
G1 X-11.321 Y-31.342 Z-3.588 F827.741 
G1 X-10.681 Y-37.693 Z-2.437 F831.912 
G1 X-10.425 Y-40.188 Z-1.976 F830.640 
G1 X-10.198 Y-42.302 Z-1.570 F827.902 
G1 X-10.028 Y-43.803 Z-1.265 F823.831 
G1 X-10.008 Y-43.956 Z-1.230 F815.624 
G0 Z3.000 
G0 X-10.442 Y-44.511 Z3.000 
G1 X-10.442 Y-44.511 Z-0.248 F300.000 
G1 X-10.376 Y-44.439 Z-0.395 F524.129 
G1 X-10.273 Y-44.311 Z-0.632 F531.266 
G1 X-10.271 Y-44.307 Z-0.638 F538.677 
G1 X-10.008 Y-43.956 Z-1.232 F543.084 
G1 X-9.864 Y-44.097 Z-0.980 F558.399 
G1 X-8.802 Y-45.082 Z0.866 F554.207 
G0 Z3.000 
G0 X-10.451 Y-44.524 Z3.000 
G1 X-10.451 Y-44.524 Z-0.223 F300.000 
G1 X-10.470 Y-44.545 Z-0.177 F508.696 
G0 Z3.000 
G0 X-10.489 Y-44.570 Z3.000 
G1 X-10.489 Y-44.570 Z-0.123 F300.000 
G1 X-10.773 Y-45.069 Z0.865 F501.072 
G0 Z3.000 
G0 X-10.877 Y-44.993 Z3.000 
G1 X-10.877 Y-44.993 Z0.864 F300.000 
G1 X-10.489 Y-44.570 Z-0.123 F501.115 
G1 X-10.470 Y-44.545 Z-0.177 F504.306 
G1 X-10.963 Y-44.894 Z0.865 F500.754 
G0 Z3.000 
G0 X-11.033 Y-44.771 Z3.000 
G1 X-11.033 Y-44.771 Z0.865 F300.000 
G1 X-10.442 Y-44.511 Z-0.248 F500.862 
G1 X-10.451 Y-44.524 Z-0.224 F514.986 
G1 X-10.645 Y-45.124 Z0.865 F500.686 
G0 Z3.000 
G0 X-14.078 Y-44.822 Z3.000 
G1 X-14.078 Y-44.822 Z0.865 F300.000 
G1 X-15.150 Y-43.730 Z-1.026 F559.830 
G1 X-15.158 Y-43.738 Z-1.012 F561.984 
G1 X-16.237 Y-44.822 Z0.865 F561.141 
G0 Z3.000 
G0 X-17.303 Y-44.952 Z3.000 
G1 X-17.303 Y-44.952 Z0.865 F300.000 
G1 X-20.768 Y-41.552 Z-5.024 F563.317 
G1 X-20.830 Y-41.490 Z-5.130 F564.364 
G1 X-22.087 Y-42.732 Z-2.954 F560.530 
G1 X-22.674 Y-43.297 Z-1.938 F558.009 
G1 X-23.186 Y-43.794 Z-1.044 F557.487 
G1 X-23.962 Y-44.513 Z0.307 F553.682 
G1 X-24.185 Y-44.700 Z0.694 F546.330 
G1 X-24.240 Y-44.740 Z0.790 F534.223 
G0 Z3.000 
G0 X-24.264 Y-44.777 Z3.000 
G1 X-24.264 Y-44.777 Z0.865 F300.000 
G1 X-24.240 Y-44.740 Z0.790 F504.166 
G1 X-24.283 Y-44.757 Z0.865 F512.613 
G0 Z3.000 
G0 X-25.739 Y-44.954 Z3.000 
G1 X-25.739 Y-44.954 Z0.866 F300.000 
G1 X-26.108 Y-44.724 Z0.118 F501.355 
G1 X-26.102 Y-44.734 Z0.138 F508.335 
G0 Z3.000 
G0 X-26.108 Y-44.724 Z3.000 
G1 X-26.108 Y-44.724 Z0.118 F300.000 
G1 X-26.178 Y-44.642 Z-0.051 F517.221 
G0 Z3.000 
G0 X-26.087 Y-45.165 Z3.000 
G1 X-26.087 Y-45.165 Z0.865 F300.000 
G1 X-26.178 Y-44.642 Z-0.051 F500.662 
G1 X-26.187 Y-44.629 Z-0.074 F525.740 
G1 X-26.286 Y-44.509 Z-0.295 F533.683 
G1 X-26.305 Y-44.490 Z-0.332 F545.349 
G1 X-26.344 Y-44.445 Z-0.407 F554.891 
G1 X-26.579 Y-44.186 Z-0.840 F559.975 
G1 X-26.811 Y-43.938 Z-1.254 F562.252 
G1 X-26.816 Y-43.943 Z-1.244 F555.679 
G1 X-27.990 Y-45.082 Z0.866 F551.870 
G0 Z3.000 
G0 X-29.108 Y-44.914 Z3.000 
G1 X-29.108 Y-44.914 Z0.865 F300.000 
G1 X-29.578 Y-44.642 Z-0.069 F501.282 
G1 X-29.641 Y-44.558 Z-0.228 F523.684 
G1 X-29.669 Y-44.516 Z-0.301 F530.700 
G1 X-29.755 Y-44.404 Z-0.495 F539.989 
G1 X-29.813 Y-44.322 Z-0.630 F544.724 
G1 X-30.013 Y-44.067 Z-1.048 F551.855 
G1 X-30.144 Y-43.913 Z-1.300 F558.613 
G1 X-30.163 Y-43.891 Z-1.335 F558.728 
G1 X-31.348 Y-45.082 Z0.866 F549.067 
G0 Z3.000 
G0 X-32.712 Y-45.212 Z3.000 
G1 X-32.712 Y-45.212 Z0.866 F300.000 
G1 X-33.852 Y-43.998 Z-1.237 F555.871 
G1 X-33.889 Y-44.035 Z-1.173 F561.385 
G1 X-35.066 Y-45.212 Z0.866 F561.546 
G0 Z3.000 
G0 X-33.852 Y-43.998 Z3.000 
G1 X-33.852 Y-43.998 Z-1.237 F300.000 
G1 X-33.808 Y-42.601 Z-1.313 F879.276 
G1 X-33.808 Y-42.595 Z-1.313 F876.655 
G1 X-33.703 Y-39.515 Z-1.494 F877.568 
G1 X-33.703 Y-39.495 Z-1.494 F874.600 
G1 X-33.614 Y-37.340 Z-1.649 F872.865 
G1 X-33.612 Y-37.304 Z-1.652 F868.877 
G1 X-33.576 Y-36.618 Z-1.715 F864.843 
G1 X-33.572 Y-36.554 Z-1.722 F857.767 
G1 X-33.541 Y-36.152 Z-1.775 F850.661 
G1 X-33.522 Y-35.965 Z-1.808 F830.818 
G1 X-33.509 Y-35.876 Z-1.831 F811.748 
G1 X-33.408 Y-35.403 Z-2.169 F666.733 
G1 X-33.231 Y-34.925 Z-2.511 F674.156 
G1 X-32.975 Y-34.438 Z-2.859 F684.413 
G1 X-32.812 Y-34.188 Z-3.038 F693.384 
G1 X-32.797 Y-34.165 Z-3.065 F603.473 
G1 X-32.424 Y-33.680 Z-3.966 F527.871 
G1 X-31.969 Y-33.189 Z-4.878 F541.928 
G1 X-31.428 Y-32.691 Z-5.802 F556.717 
G1 X-30.795 Y-32.185 Z-6.741 F571.821 
G1 X-30.273 Y-31.811 Z-7.437 F584.876 
G1 X-29.815 Y-32.538 Z-6.737 F639.056 
G1 X-29.315 Y-33.542 Z-5.771 F628.358 
G1 X-29.501 Y-34.222 Z-4.733 F527.956 
G1 X-29.508 Y-34.247 Z-4.698 F534.829 
G1 X-29.947 Y-35.832 Z-2.757 F568.722 
G1 X-29.968 Y-35.912 Z-2.691 F642.383 
G1 X-30.044 Y-36.209 Z-2.484 F672.746 
G1 X-30.082 Y-36.368 Z-2.398 F714.746 
G1 X-30.087 Y-36.391 Z-2.386 F727.959 
G1 X-30.133 Y-36.647 Z-2.278 F749.424 
G1 X-30.139 Y-36.691 Z-2.262 F771.526 
G1 X-30.171 Y-37.002 Z-2.173 F793.979 
G1 X-30.181 Y-37.190 Z-2.134 F821.804 
G1 X-30.186 Y-37.322 Z-2.111 F832.745 
G1 X-30.199 Y-38.056 Z-2.004 F844.678 
G1 X-30.200 Y-38.107 Z-1.997 F849.473 
G1 X-30.200 Y-38.241 Z-1.981 F855.396 
G1 X-30.200 Y-39.223 Z-1.860 F853.245 
G1 X-30.200 Y-39.252 Z-1.857 F855.021 
G1 X-30.186 Y-40.639 Z-1.707 F858.867 
G1 X-30.186 Y-40.642 Z-1.707 F848.086 
G1 X-30.180 Y-41.211 Z-1.647 F859.851 
G1 X-30.156 Y-43.313 Z-1.420 F858.983 
G1 X-30.163 Y-43.891 Z-1.333 F843.126 
G0 Z3.000 
G0 X-29.578 Y-44.642 Z3.000 
G1 X-29.578 Y-44.642 Z-0.069 F300.000 
G1 X-29.565 Y-44.664 Z-0.028 F513.764 
G0 Z3.000 
G0 X-29.535 Y-44.704 Z3.000 
G1 X-29.535 Y-44.704 Z0.056 F300.000 
G1 X-29.200 Y-45.038 Z0.866 F501.948 
G0 Z3.000 
G0 X-29.311 Y-45.121 Z3.000 
G1 X-29.311 Y-45.121 Z0.866 F300.000 
G1 X-29.535 Y-44.704 Z0.055 F501.770 
G1 X-29.565 Y-44.664 Z-0.029 F507.106 
G1 X-29.442 Y-45.168 Z0.865 F500.993 
G0 Z3.000 
G0 X-26.811 Y-43.938 Z3.000 
G1 X-26.811 Y-43.938 Z-1.253 F300.000 
G1 X-26.814 Y-43.249 Z-1.294 F877.417 
G1 X-26.840 Y-41.190 Z-1.389 F882.367 
G1 X-26.840 Y-41.182 Z-1.389 F881.114 
G1 X-26.858 Y-39.991 Z-1.451 F880.303 
G1 X-26.864 Y-39.678 Z-1.465 F882.660 
G1 X-26.864 Y-39.659 Z-1.466 F879.587 
G1 X-26.897 Y-38.407 Z-1.538 F877.921 
G1 X-26.898 Y-38.374 Z-1.541 F874.428 
G1 X-26.931 Y-37.503 Z-1.608 F870.486 
G1 X-26.934 Y-37.439 Z-1.614 F862.976 
G1 X-26.949 Y-37.187 Z-1.644 F855.445 
G1 X-26.968 Y-36.993 Z-1.678 F833.923 
G1 X-26.982 Y-36.884 Z-1.703 F813.382 
G1 X-27.078 Y-36.421 Z-2.027 F670.464 
G1 X-27.249 Y-35.953 Z-2.354 F678.028 
G1 X-27.410 Y-35.629 Z-2.581 F686.675 
G1 X-27.608 Y-35.305 Z-2.807 F694.708 
G1 X-27.964 Y-34.830 Z-3.605 F544.090 
G1 X-28.403 Y-34.349 Z-4.415 F558.912 
G1 X-28.931 Y-33.859 Z-5.238 F574.481 
G1 X-29.315 Y-33.542 Z-5.770 F587.417 
G0 Z3.000 
G0 X-30.273 Y-31.811 Z3.000 
G1 X-30.273 Y-31.811 Z-7.436 F300.000 
G1 X-30.272 Y-30.792 Z-7.438 F899.250 
G0 Z3.000 
G0 X-21.153 Y-29.372 Z3.000 
G1 X-21.153 Y-29.372 Z-4.532 F300.000 
G1 X-19.715 Y-30.810 Z-2.041 F561.544 
G1 X-18.036 Y-32.489 Z0.865 F561.647 
G0 Z3.000 
G0 X-21.153 Y-29.115 Z3.000 
G1 X-21.153 Y-29.115 Z-4.532 F300.000 
G1 X-19.835 Y-27.797 Z-2.250 F561.550 
G1 X-18.036 Y-25.998 Z0.866 F561.589 
G0 Z3.000 
G0 X-17.676 Y-21.973 Z3.000 
G1 X-17.676 Y-21.973 Z0.865 F300.000 
G1 X-19.733 Y-19.993 Z-2.698 F558.084 
G1 X-20.953 Y-18.819 Z-4.811 F558.032 
G0 Z3.000 
G0 X-20.953 Y-18.590 Z3.000 
G1 X-20.953 Y-18.590 Z-4.809 F300.000 
G1 X-20.819 Y-18.451 Z-4.577 F564.749 
G1 X-17.676 Y-15.222 Z0.864 F564.188 
G0 Z3.000 
G0 X-16.361 Y-15.671 Z3.000 
G1 X-16.361 Y-15.671 Z0.864 F300.000 
G1 X-15.554 Y-16.358 Z-0.527 F548.679 
G1 X-15.243 Y-16.628 Z-1.062 F550.340 
G1 X-15.116 Y-16.390 Z-0.683 F536.188 
G1 X-15.115 Y-16.388 Z-0.680 F530.598 
G1 X-15.041 Y-16.244 Z-0.431 F520.492 
G1 X-14.975 Y-15.495 Z0.866 F500.788 
G0 Z3.000 
G0 X-14.794 Y-15.528 Z3.000 
G1 X-14.794 Y-15.528 Z0.865 F300.000 
G1 X-14.997 Y-16.160 Z-0.273 F501.647 
G1 X-14.631 Y-15.605 Z0.865 F502.017 
G0 Z3.000 
G0 X-14.483 Y-15.736 Z3.000 
G1 X-14.483 Y-15.736 Z0.864 F300.000 
G1 X-15.029 Y-16.226 Z-0.394 F501.551 
G1 X-14.997 Y-16.160 Z-0.274 F506.282 
G0 Z3.000 
G0 X-15.029 Y-16.226 Z3.000 
G1 X-15.029 Y-16.226 Z-0.394 F300.000 
G1 X-15.041 Y-16.244 Z-0.430 F513.385 
G0 Z3.000 
G0 X-15.243 Y-16.628 Z3.000 
G1 X-15.243 Y-16.628 Z-1.061 F300.000 
G1 X-15.241 Y-16.640 Z-1.066 F758.946 
G1 X-15.190 Y-16.921 Z-1.153 F787.823 
G1 X-15.131 Y-17.316 Z-1.251 F808.009 
G1 X-14.989 Y-18.505 Z-1.489 F825.025 
G1 X-14.812 Y-20.215 Z-1.782 F835.411 
G1 X-14.585 Y-22.525 Z-2.158 F838.686 
G1 X-14.584 Y-22.529 Z-2.159 F837.834 
G1 X-14.331 Y-25.077 Z-2.580 F837.752 
G1 X-14.329 Y-25.094 Z-2.583 F837.014 
G1 X-14.109 Y-27.212 Z-2.948 F835.039 
G1 X-14.106 Y-27.242 Z-2.954 F832.886 
G1 X-13.943 Y-28.707 Z-3.225 F830.403 
G1 X-13.935 Y-28.777 Z-3.239 F825.846 
G1 X-13.882 Y-29.195 Z-3.326 F821.939 
G1 X-13.869 Y-29.295 Z-3.349 F815.010 
G1 X-13.851 Y-29.414 Z-3.379 F805.618 
G1 X-14.260 Y-29.869 Z-2.728 F587.642 
G1 X-14.532 Y-30.239 Z-2.195 F572.047 
G1 X-14.789 Y-30.694 Z-1.930 F720.500 
G1 X-14.959 Y-31.134 Z-1.673 F709.373 
G1 X-15.048 Y-31.564 Z-1.422 F701.475 
G1 X-15.066 Y-31.842 Z-1.259 F698.204 
G1 X-15.111 Y-38.322 Z-1.130 F892.426 
G1 X-15.150 Y-43.730 Z-1.024 F892.473 
G0 Z3.000 
G0 X-20.830 Y-41.490 Z3.000 
G1 X-20.830 Y-41.490 Z-5.130 F300.000 
G1 X-20.831 Y-41.447 Z-5.130 F893.725 
G1 X-20.831 Y-41.446 Z-5.129 F860.734 
G1 X-20.834 Y-41.143 Z-5.125 F893.819 
G0 Z3.000 
G0 X-17.436 Y-37.812 Z3.000 
G1 X-17.436 Y-37.812 Z0.865 F300.000 
G1 X-19.495 Y-39.830 Z-2.763 F556.500 
G1 X-20.834 Y-41.143 Z-5.124 F556.396 
G1 X-21.500 Y-40.451 Z-3.971 F565.157 
G1 X-21.982 Y-39.895 Z-3.135 F575.954 
G1 X-22.324 Y-39.395 Z-2.800 F707.244 
G1 X-22.573 Y-38.909 Z-2.475 F694.891 
G1 X-22.738 Y-38.436 Z-2.158 F684.652 
G1 X-22.825 Y-37.972 Z-1.847 F677.602 
G1 X-22.841 Y-37.661 Z-1.639 F674.785 
G1 X-22.838 Y-35.075 Z-1.636 F899.321 
G1 X-22.836 Y-32.489 Z-1.631 F899.335 
G1 X-22.799 Y-32.031 Z-1.990 F645.967 
G1 X-22.689 Y-31.572 Z-2.352 F650.479 
G1 X-22.503 Y-31.107 Z-2.718 F658.913 
G1 X-22.237 Y-30.634 Z-3.090 F670.289 
G1 X-21.883 Y-30.150 Z-3.471 F683.531 
G1 X-21.765 Y-30.009 Z-3.583 F692.529 
G1 X-21.640 Y-29.868 Z-3.694 F696.598 
G1 X-21.394 Y-29.612 Z-4.118 F566.252 
G1 X-21.153 Y-29.372 Z-4.533 F561.890 
G1 X-21.153 Y-29.243 Z-4.533 F898.814 
G1 X-21.153 Y-29.115 Z-4.532 F898.809 
G1 X-21.634 Y-28.632 Z-3.696 F561.221 
G1 X-22.078 Y-28.141 Z-3.269 F681.514 
G1 X-22.420 Y-27.666 Z-2.857 F665.642 
G1 X-22.671 Y-27.205 Z-2.456 F651.002 
G1 X-22.839 Y-26.755 Z-2.065 F638.796 
G1 X-22.928 Y-26.313 Z-1.680 F630.288 
G1 X-22.942 Y-26.155 Z-1.543 F627.158 
G1 X-22.946 Y-25.998 Z-1.406 F626.461 
G1 X-22.943 Y-24.061 Z-1.401 F898.837 
G1 X-22.939 Y-22.124 Z-1.395 F898.856 
G1 X-22.902 Y-21.688 Z-1.707 F663.156 
G1 X-22.792 Y-21.251 Z-2.020 F667.971 
G1 X-22.605 Y-20.808 Z-2.338 F676.906 
G1 X-22.336 Y-20.356 Z-2.662 F688.804 
G1 X-22.036 Y-19.960 Z-2.947 F701.399 
G1 X-21.729 Y-19.620 Z-3.476 F572.882 
G1 X-20.953 Y-18.819 Z-4.811 F565.691 
G1 X-20.953 Y-18.598 Z-4.810 F898.096 
G1 X-20.953 Y-18.590 Z-4.810 F900.000 
G1 X-22.892 Y-16.703 Z-1.432 F557.986 
G1 X-23.173 Y-16.429 Z-0.941 F557.551 
G1 X-23.845 Y-15.784 Z0.233 F556.177 
G1 X-23.908 Y-15.722 Z0.345 F555.606 
G1 X-24.102 Y-15.539 Z0.686 F553.357 
G1 X-24.115 Y-15.527 Z0.709 F550.821 
G1 X-24.202 Y-15.450 Z0.865 F543.845 
G0 Z3.000 
G0 X-25.471 Y-15.352 Z3.000 
G1 X-25.471 Y-15.352 Z0.864 F300.000 
G1 X-27.350 Y-17.230 Z-2.386 F561.755 
G1 X-27.429 Y-17.310 Z-2.523 F561.614 
G0 Z3.000 
G0 X-29.229 Y-15.352 Z3.000 
G1 X-29.229 Y-15.352 Z0.865 F300.000 
G1 X-27.429 Y-17.310 Z-2.524 F554.175 
G1 X-27.579 Y-20.852 Z-2.781 F872.285 
G1 X-27.580 Y-20.864 Z-2.784 F870.898 
G1 X-27.673 Y-22.939 Z-2.943 F870.438 
G1 X-27.674 Y-22.968 Z-2.947 F867.526 
G1 X-27.762 Y-24.669 Z-3.097 F866.070 
G1 X-27.765 Y-24.720 Z-3.104 F863.278 
G1 X-27.838 Y-25.873 Z-3.227 F858.799 
G1 X-27.847 Y-25.991 Z-3.245 F850.866 
G1 X-27.874 Y-26.307 Z-3.291 F842.722 
G1 X-27.898 Y-26.524 Z-3.334 F828.380 
G1 X-27.910 Y-26.608 Z-3.352 F814.401 
G1 X-27.976 Y-26.992 Z-3.494 F766.752 
G1 X-28.074 Y-27.376 Z-3.636 F768.740 
G1 X-28.083 Y-27.409 Z-3.652 F726.845 
G1 X-28.296 Y-28.007 Z-4.203 F627.170 
G1 X-28.587 Y-28.611 Z-4.759 F635.543 
G1 X-28.960 Y-29.225 Z-5.324 F645.459 
G1 X-29.298 Y-29.693 Z-5.755 F655.017 
G1 X-29.812 Y-30.308 Z-6.696 F569.401 
G1 X-30.272 Y-30.792 Z-7.437 F580.151 
G1 X-30.756 Y-30.282 Z-6.600 F566.693 
G1 X-31.284 Y-29.644 Z-5.904 F633.096 
G1 X-31.719 Y-29.018 Z-5.221 F621.085 
G1 X-32.068 Y-28.403 Z-4.550 F609.969 
G1 X-32.353 Y-27.745 Z-3.832 F599.841 
G1 X-32.362 Y-27.721 Z-3.817 F695.335 
G1 X-32.545 Y-27.117 Z-3.536 F740.384 
G1 X-32.611 Y-26.792 Z-3.385 F737.076 
G1 X-32.621 Y-26.731 Z-3.369 F791.441 
G1 X-32.665 Y-26.412 Z-3.292 F812.113 
G1 X-32.688 Y-26.191 Z-3.254 F832.850 
G1 X-32.702 Y-26.030 Z-3.229 F843.922 
G1 X-32.757 Y-25.228 Z-3.134 F854.773 
G1 X-32.761 Y-25.154 Z-3.125 F859.995 
G1 X-32.824 Y-23.971 Z-3.018 F865.132 
G1 X-32.826 Y-23.927 Z-3.013 F868.054 
G1 X-32.888 Y-22.485 Z-2.907 F871.564 
G1 X-32.888 Y-22.475 Z-2.904 F871.854 
G1 X-33.098 Y-17.320 Z-2.543 F873.202 
G0 Z3.000 
G0 X-31.294 Y-15.352 Z3.000 
G1 X-31.294 Y-15.352 Z0.865 F300.000 
G1 X-32.917 Y-17.125 Z-2.204 F553.836 
G1 X-33.098 Y-17.320 Z-2.542 F554.256 
G1 X-33.180 Y-17.238 Z-2.401 F561.591 
G1 X-35.066 Y-15.352 Z0.866 F561.546 
G0 Z3.000 
G0 X-35.066 Y-13.794 Z3.000 
G1 X-35.066 Y-13.794 Z0.866 F300.000 
G1 X-32.449 Y-11.177 Z-3.668 F561.544 
G1 X-32.747 Y-10.614 Z-3.372 F734.886 
G1 X-32.958 Y-10.066 Z-3.086 F726.803 
G1 X-33.090 Y-9.528 Z-2.805 F720.648 
G1 X-33.147 Y-8.861 Z-2.457 F716.745 
G1 X-33.147 Y-5.283 Z-2.458 F900.000 
G1 X-33.147 Y-1.854 Z-2.458 F900.000 
G1 X-33.151 Y0.856 Z-2.450 F898.901 
G1 X-33.158 Y2.085 Z-2.438 F896.301 
G1 X-35.066 Y3.227 Z0.866 F526.249 
G0 Z3.000 
G0 X-33.158 Y2.085 Z3.000 
G1 X-33.158 Y2.085 Z-2.439 F300.000 
G1 X-32.625 Y2.987 Z-1.498 F620.457 
G1 X-32.572 Y3.076 Z-1.405 F618.892 
G1 X-31.750 Y4.470 Z0.078 F616.765 
G1 X-31.676 Y4.591 Z0.211 F612.550 
G1 X-31.468 Y4.947 Z0.605 F608.428 
G1 X-31.430 Y5.007 Z0.675 F603.877 
G1 X-31.384 Y5.087 Z0.769 F596.968 
G1 X-31.366 Y5.115 Z0.805 F583.331 
G0 Z3.000 
G0 X-31.332 Y5.122 Z3.000 
G1 X-31.332 Y5.122 Z0.865 F300.000 
G1 X-31.366 Y5.115 Z0.807 F506.527 
G1 X-31.344 Y5.159 Z0.865 F561.678 
G0 Z3.000 
G0 X-37.243 Y0.496 Z3.000 
G1 X-37.243 Y0.496 Z0.866 F300.000 
G1 X-37.924 Y-0.677 Z-1.470 F500.960 
G1 X-38.043 Y-0.849 Z-1.826 F502.959 
G1 X-37.549 Y0.632 Z0.865 F500.790 
G0 Z3.000 
G0 X-38.043 Y-0.849 Z3.000 
G1 X-38.043 Y-0.849 Z-1.826 F300.000 
G1 X-38.133 Y-1.010 Z-2.132 F506.834 
G1 X-38.145 Y-1.028 Z-2.167 F510.052 
G1 X-38.260 Y-1.248 Z-2.558 F515.933 
G1 X-38.281 Y-1.297 Z-2.639 F521.830 
G1 X-38.311 Y-1.355 Z-2.736 F526.536 
G0 Z3.000 
G0 X-39.433 Y-1.770 Z3.000 
G1 X-39.433 Y-1.770 Z-2.852 F300.000 
G1 X-39.306 Y-1.712 Z-2.856 F889.086 
G1 X-38.945 Y-1.563 Z-2.844 F888.159 
G1 X-38.645 Y-1.452 Z-2.811 F860.956 
G1 X-38.599 Y-1.438 Z-2.802 F830.436 
G1 X-38.580 Y-1.432 Z-2.798 F831.477 
G1 X-38.415 Y-1.381 Z-2.768 F832.893 
G1 X-38.311 Y-1.355 Z-2.738 F797.604 
G1 X-38.136 Y-1.410 Z-2.532 F578.207 
G1 X-37.870 Y-1.506 Z-2.198 F568.657 
G1 X-37.578 Y-1.627 Z-1.807 F559.714 
G1 X-37.279 Y-1.770 Z-1.377 F550.968 
G1 X-37.102 Y-1.868 Z-1.102 F541.535 
G1 X-36.855 Y-1.994 Z-0.714 F537.167 
G1 X-36.761 Y-2.041 Z-0.569 F539.732 
G1 X-36.650 Y-2.092 Z-0.403 F542.659 
G1 X-36.452 Y-2.170 Z-0.101 F534.142 
G1 X-36.388 Y-2.201 Z0.005 F525.142 
G1 X-36.055 Y-2.576 Z0.866 F501.630 
G0 Z3.000 
G0 X-35.929 Y-2.429 Z3.000 
G1 X-35.929 Y-2.429 Z0.866 F300.000 
G1 X-36.302 Y-2.229 Z0.150 F504.139 
G1 X-36.388 Y-2.201 Z0.005 F513.374 
G0 Z3.000 
G0 X-36.302 Y-2.229 Z3.000 
G1 X-36.302 Y-2.229 Z0.150 F300.000 
G1 X-35.884 Y-2.270 Z0.866 F502.854 
G0 Z3.000 
G0 X-36.277 Y-4.002 Z3.000 
G1 X-36.277 Y-4.002 Z0.865 F300.000 
G1 X-36.362 Y-4.310 Z0.320 F502.691 
G1 X-36.397 Y-3.988 Z0.866 F504.483 
G0 Z3.000 
G0 X-36.170 Y-4.050 Z3.000 
G1 X-36.170 Y-4.050 Z0.864 F300.000 
G1 X-36.364 Y-4.353 Z0.252 F502.772 
G1 X-36.362 Y-4.310 Z0.319 F512.170 
G0 Z3.000 
G0 X-36.364 Y-4.353 Z3.000 
G1 X-36.364 Y-4.353 Z0.252 F300.000 
G1 X-36.374 Y-4.406 Z0.170 F524.239 
G1 X-36.076 Y-4.132 Z0.865 F501.541 
G0 Z3.000 
G0 X-36.374 Y-4.406 Z3.000 
G1 X-36.374 Y-4.406 Z0.170 F300.000 
G1 X-36.401 Y-4.493 Z0.043 F537.673 
G1 X-36.450 Y-4.611 Z-0.124 F549.921 
G1 X-36.513 Y-4.743 Z-0.304 F560.823 
G1 X-36.730 Y-5.130 Z-0.815 F572.853 
G1 X-36.928 Y-5.444 Z-1.218 F584.796 
G1 X-36.931 Y-5.448 Z-1.222 F586.312 
G1 X-37.014 Y-5.580 Z-1.392 F584.317 
G1 X-37.360 Y-6.088 Z-2.032 F592.446 
G1 X-37.852 Y-6.771 Z-2.874 F599.808 
G0 Z3.000 
G0 X-40.527 Y-7.056 Z3.000 
G1 X-40.527 Y-7.056 Z-1.722 F300.000 
G1 X-40.198 Y-6.957 Z-1.764 F853.819 
G1 X-40.127 Y-6.937 Z-1.776 F846.172 
G1 X-39.736 Y-6.830 Z-1.841 F838.338 
G1 X-39.376 Y-6.753 Z-1.938 F802.111 
G1 X-39.247 Y-6.733 Z-1.984 F768.276 
G1 X-38.893 Y-6.697 Z-2.176 F711.770 
G1 X-38.526 Y-6.696 Z-2.367 F716.763 
G1 X-38.419 Y-6.700 Z-2.440 F670.832 
G1 X-38.374 Y-6.703 Z-2.472 F668.542 
G1 X-37.852 Y-6.771 Z-2.877 F649.615 
G1 X-37.635 Y-7.348 Z-2.492 F686.457 
G1 X-37.634 Y-7.349 Z-2.491 F727.677 
G1 X-37.604 Y-7.453 Z-2.431 F715.958 
G1 X-37.480 Y-8.099 Z-2.185 F761.426 
G1 X-37.465 Y-8.238 Z-2.150 F815.426 
G1 X-37.447 Y-8.574 Z-2.106 F845.637 
G1 X-37.444 Y-9.017 Z-2.077 F877.930 
G1 X-37.450 Y-9.227 Z-2.078 F898.182 
G1 X-37.468 Y-9.543 Z-2.092 F881.234 
G1 X-37.508 Y-9.908 Z-2.144 F846.493 
G1 X-37.530 Y-10.039 Z-2.175 F812.741 
G0 Z3.000 
G0 X-37.818 Y-10.716 Z3.000 
G1 X-37.818 Y-10.716 Z-2.199 F300.000 
G1 X-37.761 Y-10.604 Z-2.180 F842.867 
G1 X-37.583 Y-10.188 Z-2.164 F885.995 
G1 X-37.530 Y-10.039 Z-2.175 F871.725 
G1 X-35.784 Y-10.405 Z0.866 F502.694 
G0 Z3.000 
G0 X-36.325 Y-11.744 Z3.000 
G1 X-36.325 Y-11.744 Z0.866 F300.000 
G1 X-37.818 Y-10.716 Z-2.199 F504.058 
G1 X-37.847 Y-10.750 Z-2.188 F813.253 
G1 X-37.928 Y-10.842 Z-2.153 F792.957 
G1 X-38.114 Y-11.037 Z-2.093 F815.403 
G1 X-38.235 Y-11.141 Z-2.065 F834.680 
G1 X-38.421 Y-11.295 Z-2.033 F849.268 
G1 X-38.485 Y-11.344 Z-2.018 F829.208 
G1 X-38.745 Y-11.525 Z-1.985 F859.685 
G1 X-38.755 Y-11.532 Z-1.985 F890.279 
G1 X-39.071 Y-11.717 Z-1.957 F871.256 
G1 X-39.116 Y-11.743 Z-1.954 F875.949 
G1 X-39.263 Y-11.815 Z-1.944 F878.113 
G1 X-39.502 Y-11.926 Z-1.942 F895.496 
G1 X-39.680 Y-12.002 Z-1.930 F876.007 
G1 X-39.809 Y-12.054 Z-1.925 F889.554 
G1 X-39.905 Y-12.090 Z-1.927 F895.557 
G1 X-40.322 Y-12.235 Z-1.910 F885.281 
G1 X-40.330 Y-12.237 Z-1.910 F868.432 
G1 X-40.412 Y-12.262 Z-1.903 F875.399 
G1 X-40.751 Y-12.359 Z-1.890 F884.502 
G1 X-41.052 Y-12.436 Z-1.862 F866.210 
G1 X-41.153 Y-12.460 Z-1.854 F876.779 
G1 X-41.190 Y-12.468 Z-1.855 F888.008 
G1 X-41.638 Y-12.554 Z-1.819 F869.698 
G1 X-41.708 Y-12.566 Z-1.810 F851.493 
G1 X-41.876 Y-12.589 Z-1.794 F869.474 
G1 X-42.094 Y-12.612 Z-1.789 F887.635 
G1 X-42.384 Y-12.635 Z-1.767 F870.277 
G1 X-42.556 Y-12.645 Z-1.759 F887.584 
G1 X-42.588 Y-12.645 Z-1.758 F892.803 
G1 X-43.023 Y-12.637 Z-1.756 F895.871 
G1 X-43.049 Y-12.636 Z-1.755 F876.728 
G1 X-43.297 Y-12.615 Z-1.755 F895.395 
G1 X-43.487 Y-12.592 Z-1.773 F869.116 
G1 X-43.716 Y-12.556 Z-1.781 F887.016 
G1 X-43.923 Y-12.516 Z-1.798 F865.295 
G1 X-44.000 Y-12.494 Z-1.806 F862.292 
G1 X-44.320 Y-12.398 Z-1.849 F853.716 
G1 X-44.381 Y-12.377 Z-1.851 F885.186 
G1 X-44.597 Y-12.291 Z-1.872 F861.644 
G1 X-44.748 Y-12.224 Z-1.903 F836.966 
G1 X-44.775 Y-12.211 Z-1.906 F863.687 
G1 X-44.934 Y-12.128 Z-1.930 F844.803 
G1 X-45.105 Y-12.033 Z-1.969 F827.602 
G1 X-45.195 Y-11.981 Z-1.991 F816.966 
G1 X-45.326 Y-11.891 Z-2.027 F814.997 
G1 X-45.628 Y-11.674 Z-2.128 F800.185 
G1 X-45.649 Y-11.658 Z-2.133 F821.546 
G1 X-45.910 Y-11.435 Z-2.230 F791.854 
G1 X-46.025 Y-11.327 Z-2.292 F763.821 
G1 X-46.214 Y-11.136 Z-2.376 F784.685 
G1 X-46.366 Y-10.974 Z-2.452 F767.636 
G1 X-46.368 Y-10.971 Z-2.453 F780.123 
G1 X-46.558 Y-10.738 Z-2.559 F774.630 
G1 X-46.630 Y-10.646 Z-2.601 F765.547 
G1 X-46.650 Y-10.616 Z-2.612 F784.387 
G1 X-46.811 Y-10.378 Z-2.705 F781.440 
G1 X-46.833 Y-10.346 Z-2.716 F778.175 
G1 X-46.897 Y-10.235 Z-2.753 F792.222 
G1 X-46.910 Y-10.212 Z-2.764 F784.116 
G1 X-46.944 Y-10.147 Z-2.782 F805.238 
G0 Z3.000 
G0 X-47.158 Y-10.234 Z3.000 
G1 X-47.158 Y-10.234 Z-2.388 F300.000 
G1 X-47.011 Y-10.174 Z-2.660 F501.361 
G1 X-47.009 Y-10.173 Z-2.665 F503.213 
G1 X-46.944 Y-10.147 Z-2.783 F504.721 
G1 X-46.957 Y-10.091 Z-2.774 F840.829 
G1 X-46.979 Y-9.975 Z-2.745 F808.184 
G1 X-47.010 Y-9.797 Z-2.705 F822.575 
G1 X-47.042 Y-9.571 Z-2.668 F835.384 
G1 X-47.046 Y-9.531 Z-2.658 F804.147 
G1 X-47.060 Y-9.333 Z-2.614 F819.430 
G1 X-47.066 Y-9.189 Z-2.590 F835.118 
G1 X-47.064 Y-9.067 Z-2.557 F797.236 
G1 X-47.058 Y-8.885 Z-2.512 F811.731 
G1 X-47.052 Y-8.789 Z-2.495 F825.619 
G1 X-47.032 Y-8.618 Z-2.445 F792.509 
G1 X-47.007 Y-8.440 Z-2.398 F805.962 
G1 X-46.990 Y-8.340 Z-2.379 F820.886 
G1 X-46.954 Y-8.171 Z-2.328 F790.291 
G1 X-46.913 Y-8.001 Z-2.282 F805.085 
G1 X-46.872 Y-7.844 Z-2.248 F819.252 
G1 X-46.835 Y-7.727 Z-2.213 F792.259 
G1 X-46.789 Y-7.590 Z-2.174 F804.787 
G1 X-46.689 Y-7.312 Z-2.111 F817.131 
G1 X-46.689 Y-7.310 Z-2.109 F822.380 
G1 X-46.639 Y-7.192 Z-2.076 F804.273 
G1 X-46.511 Y-6.907 Z-2.007 F815.645 
G1 X-46.442 Y-6.763 Z-1.977 F830.887 
G1 X-46.434 Y-6.747 Z-1.975 F845.701 
G1 X-46.110 Y-6.161 Z-1.838 F823.003 
G1 X-46.109 Y-6.160 Z-1.837 F802.661 
G1 X-46.027 Y-6.030 Z-1.804 F818.314 
G1 X-45.713 Y-5.558 Z-1.705 F833.489 
G1 X-45.584 Y-5.376 Z-1.654 F814.608 
G1 X-45.523 Y-5.293 Z-1.634 F826.285 
G1 X-45.255 Y-4.942 Z-1.560 F836.968 
G1 X-44.961 Y-4.579 Z-1.460 F819.609 
G1 X-44.913 Y-4.522 Z-1.445 F828.012 
G1 X-44.736 Y-4.315 Z-1.401 F837.041 
G1 X-44.702 Y-4.277 Z-1.390 F819.898 
G1 X-44.642 Y-4.212 Z-1.374 F831.367 
G1 X-44.424 Y-3.986 Z-1.326 F841.950 
G1 X-44.364 Y-3.926 Z-1.315 F853.738 
G1 X-44.147 Y-3.716 Z-1.286 F863.633 
G1 X-44.137 Y-3.705 Z-1.286 F866.234 
G1 X-44.079 Y-3.655 Z-1.278 F862.107 
G1 X-43.855 Y-3.462 Z-1.256 F872.048 
G1 X-43.782 Y-3.402 Z-1.253 F884.537 
G1 X-43.556 Y-3.222 Z-1.250 F897.362 
G1 X-43.479 Y-3.164 Z-1.253 F890.059 
G1 X-43.447 Y-3.141 Z-1.255 F876.047 
G1 X-43.245 Y-2.999 Z-1.260 F891.951 
G1 X-43.163 Y-2.945 Z-1.266 F878.210 
G1 X-42.923 Y-2.791 Z-1.291 F865.596 
G1 X-42.837 Y-2.739 Z-1.305 F852.169 
G1 X-42.668 Y-2.640 Z-1.335 F839.646 
G1 X-42.589 Y-2.595 Z-1.346 F853.282 
G1 X-42.517 Y-2.557 Z-1.359 F843.051 
G1 X-41.942 Y-2.261 Z-1.473 F833.132 
G1 X-41.816 Y-2.200 Z-1.505 F816.891 
G1 X-41.801 Y-2.194 Z-1.509 F812.193 
G1 X-41.591 Y-2.105 Z-1.562 F810.439 
G1 X-41.386 Y-2.028 Z-1.629 F787.218 
G1 X-41.205 Y-1.968 Z-1.699 F765.090 
G1 X-40.867 Y-1.876 Z-1.862 F734.425 
G1 X-40.863 Y-1.875 Z-1.864 F715.113 
G1 X-40.686 Y-1.841 Z-1.958 F716.137 
G1 X-40.302 Y-1.789 Z-2.194 F690.444 
G1 X-40.104 Y-1.773 Z-2.333 F667.696 
G1 X-39.807 Y-1.759 Z-2.555 F653.903 
G1 X-39.724 Y-1.761 Z-2.620 F646.916 
G1 X-39.433 Y-1.770 Z-2.852 F643.824 
G1 X-39.453 Y-2.181 Z-2.212 F518.617 
G1 X-39.461 Y-2.277 Z-2.061 F515.885 
G1 X-39.471 Y-2.389 Z-1.885 F516.447 
G1 X-39.505 Y-2.756 Z-1.308 F517.091 
G1 X-39.530 Y-2.913 Z-1.053 F512.958 
G1 X-39.547 Y-3.085 Z-0.770 F509.622 
G1 X-39.420 Y-4.025 Z0.865 F500.840 
G0 Z3.000 
G0 X-39.643 Y-4.033 Z3.000 
G1 X-39.643 Y-4.033 Z0.864 F300.000 
G1 X-39.562 Y-3.160 Z-0.641 F501.412 
G1 X-39.844 Y-3.988 Z0.865 F500.925 
G0 Z3.000 
G0 X-39.562 Y-3.160 Z3.000 
G1 X-39.562 Y-3.160 Z-0.641 F300.000 
G1 X-39.547 Y-3.085 Z-0.770 F504.545 
G0 Z3.000 
G0 X-42.022 Y-6.024 Z3.000 
G1 X-42.022 Y-6.024 Z0.865 F300.000 
G1 X-40.527 Y-7.056 Z-1.722 F533.847 
G1 X-40.862 Y-7.475 Z-1.144 F584.988 
G1 X-41.432 Y-8.188 Z-0.157 F584.996 
G1 X-42.022 Y-8.926 Z0.865 F585.070 
G0 Z3.000 
G0 X-32.449 Y-11.177 Z3.000 
G1 X-32.449 Y-11.177 Z-3.666 F300.000 
G1 X-31.843 Y-11.290 Z-3.537 F820.802 
G1 X-31.228 Y-11.328 Z-3.405 F819.622 
G1 X-29.857 Y-11.328 Z-3.405 F900.000 
G1 X-29.856 Y-11.328 Z-3.404 F554.372 
G1 X-27.390 Y-13.794 Z0.865 F561.668 
G0 Z3.000 
G0 X-26.671 Y-13.707 Z3.000 
G1 X-26.671 Y-13.707 Z0.866 F300.000 
G1 X-26.621 Y-13.681 Z0.787 F536.340 
G1 X-26.635 Y-13.725 Z0.866 F501.892 
G0 Z3.000 
G0 X-26.621 Y-13.681 Z3.000 
G1 X-26.621 Y-13.681 Z0.787 F300.000 
G1 X-26.515 Y-13.604 Z0.626 F560.940 
G1 X-26.488 Y-13.582 Z0.585 F568.655 
G1 X-26.129 Y-13.298 Z0.050 F570.206 
G1 X-26.068 Y-13.248 Z-0.040 F575.927 
G1 X-24.885 Y-12.265 Z-1.783 F576.259 
G1 X-24.658 Y-12.073 Z-2.116 F578.447 
G1 X-23.129 Y-13.794 Z0.865 F551.277 
G0 Z3.000 
G0 X-24.658 Y-12.073 Z3.000 
G1 X-24.658 Y-12.073 Z-2.116 F300.000 
G1 X-24.652 Y-12.029 Z-2.114 F884.358 
G1 X-24.624 Y-11.840 Z-2.106 F883.659 
G1 X-24.373 Y-10.092 Z-2.030 F883.743 
G1 X-24.268 Y-9.610 Z-2.353 F677.941 
G1 X-24.089 Y-9.139 Z-2.678 F681.057 
G1 X-23.836 Y-8.675 Z-3.007 F687.515 
G1 X-23.503 Y-8.217 Z-3.341 F696.594 
G1 X-22.913 Y-7.600 Z-3.805 F709.527 
G1 X-22.908 Y-7.595 Z-3.813 F587.770 
G1 X-22.732 Y-7.440 Z-4.070 F582.892 
G1 X-23.066 Y-6.845 Z-3.651 F690.428 
G1 X-23.306 Y-6.282 Z-3.246 F676.989 
G1 X-23.461 Y-5.746 Z-2.851 F664.923 
G1 X-23.537 Y-5.233 Z-2.465 F655.172 
G1 X-23.538 Y-4.740 Z-2.084 F648.658 
G1 X-23.528 Y-4.622 Z-1.991 F646.560 
G1 X-23.513 Y-4.505 Z-1.899 F646.178 
G1 X-23.331 Y-3.274 Z-1.859 F887.233 
G1 X-23.327 Y-3.243 Z-1.857 F891.689 
G1 X-23.124 Y-1.954 Z-1.838 F893.996 
G1 X-23.118 Y-1.914 Z-1.836 F898.139 
G1 X-23.024 Y-1.370 Z-1.842 F897.301 
G1 X-23.024 Y-1.362 Z-1.842 F895.280 
G1 X-22.885 Y-0.542 Z-1.851 F895.546 
G1 X-22.881 Y-0.516 Z-1.850 F892.582 
G1 X-22.628 Y0.915 Z-1.890 F890.093 
G1 X-22.509 Y1.383 Z-2.264 F646.581 
G1 X-22.317 Y1.841 Z-2.643 F651.091 
G1 X-22.049 Y2.292 Z-3.026 F659.141 
G1 X-21.700 Y2.738 Z-3.416 F669.881 
G1 X-21.265 Y3.182 Z-3.814 F682.377 
G1 X-21.106 Y3.324 Z-3.944 F691.125 
G1 X-20.939 Y3.464 Z-4.074 F695.441 
G1 X-20.455 Y2.988 Z-3.686 F701.867 
G1 X-20.067 Y2.512 Z-3.309 F689.851 
G1 X-19.767 Y2.035 Z-2.942 F679.341 
G1 X-19.548 Y1.554 Z-2.581 F671.188 
G1 X-19.374 Y0.910 Z-2.111 F665.696 
G1 X-19.089 Y-0.779 Z-2.093 F896.297 
G1 X-19.087 Y-0.795 Z-2.095 F897.625 
G1 X-18.982 Y-1.432 Z-2.091 F899.408 
G1 X-18.655 Y-3.457 Z-2.080 F897.933 
G1 X-18.651 Y-3.482 Z-2.082 F900.000 
G1 X-18.502 Y-4.456 Z-2.088 F897.013 
G1 X-18.462 Y-4.954 Z-2.458 F657.638 
G1 X-18.495 Y-5.465 Z-2.827 F661.531 
G1 X-18.601 Y-5.994 Z-3.200 F668.739 
G1 X-18.785 Y-6.542 Z-3.579 F678.520 
G1 X-19.051 Y-7.116 Z-3.966 F690.038 
G1 X-19.154 Y-7.303 Z-4.091 F698.149 
G1 X-19.265 Y-7.492 Z-4.216 F702.141 
G1 X-19.103 Y-7.671 Z-3.986 F610.110 
G1 X-18.813 Y-8.013 Z-3.617 F636.521 
G1 X-18.561 Y-8.361 Z-3.247 F628.718 
G1 X-18.469 Y-8.499 Z-3.126 F660.997 
G1 X-18.175 Y-9.006 Z-2.805 F707.564 
G1 X-18.026 Y-9.339 Z-2.596 F701.887 
G1 X-17.974 Y-9.472 Z-2.541 F762.234 
G1 X-17.885 Y-9.719 Z-2.458 F781.189 
G1 X-17.793 Y-10.069 Z-2.390 F828.796 
G1 X-17.758 Y-10.229 Z-2.371 F859.467 
G1 X-17.710 Y-10.499 Z-2.361 F883.718 
G1 X-17.682 Y-10.703 Z-2.364 F891.869 
G1 X-17.678 Y-10.732 Z-2.366 F889.348 
G1 X-17.523 Y-11.905 Z-2.406 F886.864 
G1 X-18.100 Y-12.549 Z-1.292 F551.776 
G1 X-19.206 Y-13.794 Z0.864 F551.182 
G0 Z3.000 
G0 X-17.523 Y-11.905 Z3.000 
G1 X-17.523 Y-11.905 Z-2.406 F300.000 
G1 X-17.320 Y-12.080 Z-2.102 F576.856 
G1 X-16.893 Y-12.440 Z-1.464 F574.619 
G1 X-16.487 Y-12.784 Z-0.852 F573.536 
G1 X-16.007 Y-13.162 Z-0.121 F565.787 
G1 X-15.915 Y-13.237 Z0.023 F562.985 
G1 X-15.739 Y-13.362 Z0.301 F551.907 
G1 X-15.616 Y-13.435 Z0.500 F539.168 
G1 X-15.504 Y-13.619 Z0.866 F502.232 
G0 Z3.000 
G0 X-15.424 Y-13.551 Z3.000 
G1 X-15.424 Y-13.551 Z0.865 F300.000 
G1 X-15.571 Y-13.453 Z0.572 F507.071 
G1 X-15.616 Y-13.435 Z0.498 F520.995 
G0 Z3.000 
G0 X-15.571 Y-13.453 Z3.000 
G1 X-15.571 Y-13.453 Z0.573 F300.000 
G1 X-15.398 Y-13.470 Z0.864 F505.666 
G0 Z3.000 
G0 X-14.678 Y-14.054 Z3.000 
G1 X-14.678 Y-14.054 Z0.865 F300.000 
G1 X-12.008 Y-11.384 Z-3.759 F561.547 
G1 X-11.303 Y-10.678 Z-4.981 F561.538 
G1 X-11.560 Y-10.421 Z-4.535 F561.545 
G1 X-12.048 Y-9.888 Z-4.072 F682.872 
G1 X-12.434 Y-9.371 Z-3.624 F668.306 
G1 X-12.727 Y-8.867 Z-3.188 F654.668 
G1 X-12.935 Y-8.375 Z-2.762 F642.863 
G1 X-13.064 Y-7.891 Z-2.343 F633.877 
G1 X-13.106 Y-7.597 Z-2.088 F629.292 
G1 X-13.119 Y-7.303 Z-1.834 F627.632 
G1 X-13.119 Y-1.110 Z-1.835 F900.000 
G1 X-13.119 Y-1.103 Z-1.834 F900.000 
G1 X-13.117 Y-0.332 Z-1.838 F898.414 
G1 X-13.113 Y1.427 Z-1.845 F898.437 
G1 X-13.113 Y1.443 Z-1.844 F895.099 
G1 X-13.096 Y3.756 Z-1.875 F895.146 
G1 X-13.096 Y3.775 Z-1.873 F893.932 
G1 X-13.071 Y5.616 Z-1.918 F891.203 
G1 X-13.070 Y5.660 Z-1.917 F886.123 
G1 X-13.040 Y6.771 Z-1.971 F882.151 
G1 X-13.036 Y6.876 Z-1.977 F871.541 
G1 X-12.986 Y7.728 Z-2.066 F861.237 
G1 X-12.975 Y7.858 Z-2.081 F848.791 
G1 X-12.947 Y8.153 Z-2.134 F836.200 
G1 X-12.923 Y8.343 Z-2.172 F818.993 
G1 X-12.888 Y8.570 Z-2.235 F802.082 
G1 X-12.814 Y8.930 Z-2.361 F772.553 
G1 X-12.769 Y9.109 Z-2.442 F745.154 
G1 X-12.594 Y9.639 Z-2.741 F710.284 
G1 X-12.531 Y9.794 Z-2.853 F680.256 
G1 X-12.209 Y10.449 Z-3.409 F650.530 
G1 X-12.119 Y10.604 Z-3.567 F626.471 
G1 X-11.782 Y11.124 Z-4.150 F611.271 
G1 X-11.654 Y11.301 Z-4.372 F598.314 
G1 X-11.545 Y11.450 Z-4.560 F595.085 
G1 X-14.678 Y13.389 Z0.865 F527.833 
G0 Z3.000 
G0 X-19.285 Y10.752 Z3.000 
G1 X-19.285 Y10.752 Z0.865 F300.000 
G1 X-19.338 Y10.692 Z0.751 F533.903 
G0 Z3.000 
G0 X-19.339 Y10.759 Z3.000 
G1 X-19.339 Y10.759 Z0.865 F300.000 
G1 X-19.338 Y10.692 Z0.750 F502.030 
G1 X-19.365 Y10.648 Z0.684 F552.273 
G1 X-19.416 Y10.573 Z0.573 F558.936 
G1 X-19.517 Y10.408 Z0.345 F569.070 
G1 X-19.681 Y10.145 Z-0.016 F571.316 
G1 X-20.036 Y9.532 Z-0.810 F578.170 
G1 X-20.439 Y8.844 Z-1.698 F579.426 
G1 X-20.939 Y7.947 Z-2.811 F584.705 
G1 X-21.576 Y8.464 Z-1.566 F522.486 
G1 X-22.019 Y8.804 Z-0.707 F520.168 
G1 X-22.288 Y9.017 Z-0.175 F519.037 
G1 X-22.565 Y9.213 Z0.364 F514.753 
G1 X-22.810 Y9.404 Z0.865 F511.912 
G0 Z3.000 
G0 X-20.939 Y7.947 Z3.000 
G1 X-20.939 Y7.947 Z-2.811 F300.000 
G1 X-20.941 Y7.502 Z-2.944 F789.086 
G1 X-20.938 Y6.618 Z-3.196 F794.159 
G1 X-20.939 Y3.871 Z-3.961 F796.159 
G1 X-20.939 Y3.464 Z-4.074 F796.816 
G0 Z3.000 
G0 X-22.732 Y-7.440 Z3.000 
G1 X-22.732 Y-7.440 Z-4.068 F300.000 
G1 X-22.713 Y-7.443 Z-4.063 F808.113 
G1 X-21.928 Y-7.498 Z-3.968 F853.921 
G1 X-21.154 Y-7.498 Z-3.968 F900.000 
G1 X-21.106 Y-7.499 Z-3.970 F896.817 
G1 X-21.059 Y-7.499 Z-3.969 F894.311 
G1 X-20.234 Y-7.506 Z-3.981 F894.307 
G1 X-20.189 Y-7.506 Z-3.983 F891.488 
G1 X-20.011 Y-7.509 Z-3.997 F867.969 
G1 X-19.730 Y-7.507 Z-4.048 F831.254 
G1 X-19.265 Y-7.492 Z-4.215 F768.023 
G1 X-19.265 Y-7.492 Z-4.216 F657.975 
G0 Z3.000 
G0 X-27.390 Y-8.861 Z3.000 
G1 X-27.390 Y-8.861 Z0.865 F300.000 
G1 X-29.309 Y-10.780 Z-2.456 F561.701 
G1 X-29.857 Y-11.328 Z-3.405 F561.543 
G0 Z3.000 
G0 X-9.521 Y-16.072 Z3.000 
G1 X-9.521 Y-16.072 Z-0.338 F300.000 
G1 X-8.836 Y-15.936 Z0.865 F500.955 
G0 Z3.000 
G0 X-9.366 Y-15.900 Z3.000 
G1 X-9.366 Y-15.900 Z0.018 F300.000 
G1 X-9.367 Y-15.902 Z0.015 F506.669 
G0 Z3.000 
G0 X-7.765 Y-15.297 Z3.000 
G1 X-7.765 Y-15.297 Z0.866 F300.000 
G1 X-7.343 Y-15.758 Z0.069 F553.991 
G1 X-7.936 Y-17.263 Z0.866 F725.139 
G0 Z3.000 
G0 X-7.343 Y-15.758 Z3.000 
G1 X-7.343 Y-15.758 Z0.069 F300.000 
G1 X-6.397 Y-15.297 Z0.866 F652.307 
G0 Z3.000 
G0 X-4.241 Y-17.408 Z3.000 
G1 X-4.241 Y-17.408 Z-2.577 F300.000 
G1 X-4.165 Y-17.532 Z-2.825 F502.117 
G1 X-4.155 Y-17.501 Z-2.783 F549.049 
G1 X-4.110 Y-17.393 Z-2.621 F539.193 
G1 X-4.069 Y-17.310 Z-2.487 F531.511 
G1 X-4.037 Y-17.239 Z-2.371 F527.203 
G1 X-3.940 Y-17.052 Z-2.048 F520.709 
G1 X-3.885 Y-16.961 Z-1.879 F515.328 
G1 X-3.833 Y-16.867 Z-1.707 F511.954 
G1 X-3.714 Y-16.685 Z-1.346 F507.533 
G0 Z3.000 
G0 X-3.668 Y-16.626 Z3.000 
G1 X-3.668 Y-16.626 Z-1.220 F300.000 
G1 X-2.814 Y-15.769 Z0.865 F500.882 
G0 Z3.000 
G0 X-3.007 Y-15.609 Z3.000 
G1 X-3.007 Y-15.609 Z0.864 F300.000 
G1 X-3.668 Y-16.626 Z-1.220 F501.355 
G1 X-3.714 Y-16.685 Z-1.346 F503.638 
G1 X-3.249 Y-15.489 Z0.865 F500.799 
G0 Z3.000 
G0 X-4.165 Y-17.532 Z3.000 
G1 X-4.165 Y-17.532 Z-2.825 F300.000 
G1 X-4.166 Y-17.536 Z-2.829 F581.991 
G1 X-4.174 Y-17.618 Z-2.914 F596.044 
G1 X-4.177 Y-17.640 Z-2.935 F605.184 
G1 X-4.189 Y-17.817 Z-3.093 F622.171 
G1 X-4.190 Y-17.867 Z-3.134 F638.448 
G1 X-4.202 Y-18.057 Z-3.278 F652.591 
G1 X-4.207 Y-18.311 Z-3.454 F668.372 
G1 X-4.248 Y-18.338 Z-3.411 F617.960 
G1 X-4.325 Y-18.395 Z-3.321 F611.311 
G1 X-4.565 Y-18.574 Z-3.042 F613.509 
G1 X-4.571 Y-18.579 Z-3.034 F614.334 
G1 X-4.936 Y-18.900 Z-2.595 F619.441 
G1 X-4.960 Y-18.925 Z-2.566 F628.973 
G1 X-5.130 Y-19.102 Z-2.356 F629.856 
G1 X-5.310 Y-19.301 Z-2.140 F640.856 
G1 X-5.494 Y-19.552 Z-1.914 F660.307 
G1 X-5.613 Y-19.729 Z-1.775 F679.826 
G1 X-5.648 Y-19.782 Z-1.735 F682.435 
G1 X-5.854 Y-20.179 Z-1.493 F710.942 
G1 X-5.922 Y-20.339 Z-1.421 F750.244 
G1 X-5.938 Y-20.377 Z-1.403 F740.546 
G1 X-6.047 Y-20.706 Z-1.288 F777.911 
G1 X-6.109 Y-20.948 Z-1.235 F819.242 
G1 X-6.112 Y-20.960 Z-1.232 F820.396 
G1 X-6.150 Y-21.159 Z-1.199 F838.081 
G1 X-6.194 Y-21.462 Z-1.171 F865.557 
G1 X-6.209 Y-21.591 Z-1.166 F883.211 
G1 X-6.213 Y-21.637 Z-1.166 F898.365 
G1 X-6.238 Y-21.969 Z-1.159 F892.080 
G1 X-6.243 Y-22.043 Z-1.159 F897.422 
G1 X-6.257 Y-22.361 Z-1.171 F885.339 
G1 X-6.261 Y-22.506 Z-1.173 F894.750 
G1 X-6.262 Y-22.547 Z-1.174 F890.605 
G1 X-6.268 Y-23.012 Z-1.192 F885.390 
G1 X-6.268 Y-23.078 Z-1.196 F875.753 
G1 X-6.267 Y-23.121 Z-1.200 F865.267 
G1 X-6.258 Y-23.456 Z-1.223 F874.751 
G1 X-6.249 Y-23.611 Z-1.241 F854.103 
G1 X-6.220 Y-23.916 Z-1.296 F832.073 
G1 X-6.217 Y-23.943 Z-1.301 F839.677 
G1 X-6.182 Y-24.174 Z-1.355 F812.753 
G1 X-6.116 Y-24.506 Z-1.460 F785.479 
G1 X-6.061 Y-24.730 Z-1.548 F761.002 
G1 X-5.950 Y-25.116 Z-1.727 F739.677 
G1 X-5.902 Y-25.269 Z-1.806 F725.311 
G1 X-5.858 Y-25.398 Z-1.879 F712.253 
G1 X-5.728 Y-25.751 Z-2.066 F723.252 
G1 X-5.687 Y-25.858 Z-2.126 F716.035 
G1 X-5.383 Y-26.609 Z-2.572 F708.089 
G1 X-5.174 Y-27.093 Z-2.840 F719.949 
G1 X-5.096 Y-27.263 Z-2.929 F730.270 
G1 X-4.976 Y-27.530 Z-3.066 F732.293 
G1 X-4.792 Y-27.914 Z-3.250 F744.444 
G1 X-4.686 Y-28.120 Z-3.340 F758.573 
G1 X-4.625 Y-28.250 Z-3.388 F777.007 
G1 X-4.472 Y-28.551 Z-3.484 F794.522 
G1 X-4.356 Y-28.764 Z-3.540 F813.213 
G1 X-4.321 Y-28.833 Z-3.553 F835.622 
G1 X-4.238 Y-28.987 Z-3.574 F855.253 
G1 X-4.177 Y-29.109 Z-3.583 F874.055 
G1 X-4.123 Y-29.207 Z-3.585 F893.813 
G1 X-4.029 Y-29.394 Z-3.578 F887.060 
G1 X-4.014 Y-29.423 Z-3.575 F868.608 
G1 X-3.898 Y-29.654 Z-3.540 F848.028 
G1 X-3.877 Y-29.699 Z-3.530 F828.565 
G1 X-3.773 Y-29.907 Z-3.476 F812.428 
G1 X-3.722 Y-30.017 Z-3.443 F797.001 
G1 X-3.642 Y-30.178 Z-3.383 F778.525 
G1 X-3.296 Y-30.926 Z-3.066 F759.406 
G1 X-3.283 Y-30.953 Z-3.056 F761.687 
G1 X-3.278 Y-30.965 Z-3.049 F764.040 
G1 X-2.865 Y-31.949 Z-2.595 F746.186 
G1 X-2.849 Y-31.989 Z-2.579 F749.026 
G1 X-2.826 Y-32.049 Z-2.552 F746.723 
G1 X-2.405 Y-33.191 Z-2.050 F751.085 
G1 X-2.379 Y-33.264 Z-2.021 F757.542 
G1 X-2.365 Y-33.303 Z-2.004 F763.790 
G1 X-2.250 Y-33.654 Z-1.857 F755.702 
G1 X-2.224 Y-33.738 Z-1.826 F762.882 
G1 X-2.126 Y-34.067 Z-1.704 F771.291 
G1 X-2.089 Y-34.205 Z-1.661 F784.886 
G1 X-2.017 Y-34.497 Z-1.579 F799.531 
G1 X-1.981 Y-34.669 Z-1.542 F818.107 
G1 X-1.979 Y-34.679 Z-1.540 F826.012 
G1 X-1.935 Y-34.968 Z-1.482 F825.980 
G1 X-1.914 Y-35.142 Z-1.459 F847.286 
G1 X-1.905 Y-35.234 Z-1.449 F867.861 
G1 X-1.891 Y-35.454 Z-1.423 F854.893 
G1 X-1.886 Y-35.585 Z-1.415 F870.330 
G1 X-1.882 Y-35.790 Z-1.406 F887.511 
G1 X-1.883 Y-35.948 Z-1.395 F873.063 
G1 X-1.886 Y-36.051 Z-1.394 F885.952 
G1 X-1.899 Y-36.369 Z-1.391 F899.158 
G1 X-1.939 Y-37.005 Z-1.369 F887.176 
G1 X-1.942 Y-37.042 Z-1.367 F874.471 
G1 X-1.946 Y-37.082 Z-1.366 F879.382 
G1 X-2.010 Y-37.747 Z-1.340 F885.598 
G1 X-2.016 Y-37.799 Z-1.340 F891.990 
G1 X-2.078 Y-38.322 Z-1.337 F899.129 
G1 X-2.092 Y-38.424 Z-1.342 F887.755 
G1 X-2.125 Y-38.635 Z-1.355 F874.027 
G1 X-2.157 Y-38.818 Z-1.364 F881.739 
G1 X-2.200 Y-39.019 Z-1.389 F856.361 
G1 X-2.271 Y-39.302 Z-1.442 F830.229 
G1 X-2.362 Y-39.590 Z-1.527 F796.127 
G1 X-2.402 Y-39.697 Z-1.570 F763.618 
G1 X-2.450 Y-39.817 Z-1.623 F752.011 
G1 X-2.535 Y-39.994 Z-1.716 F729.999 
G1 X-2.583 Y-40.085 Z-1.771 F713.641 
G1 X-2.806 Y-40.453 Z-2.044 F683.937 
G1 X-2.864 Y-40.536 Z-2.118 F658.296 
G1 X-3.015 Y-40.739 Z-2.317 F646.259 
G1 X-3.231 Y-40.982 Z-2.595 F629.623 
G1 X-3.306 Y-41.060 Z-2.692 F618.213 
G1 X-3.666 Y-41.400 Z-3.179 F603.859 
G1 X-4.018 Y-41.665 Z-3.641 F590.611 
G1 X-4.241 Y-41.821 Z-3.939 F582.159 
G1 X-4.241 Y-41.821 Z-3.940 F561.329 
G1 X-4.270 Y-41.839 Z-3.975 F592.351 
G0 Z3.000 
G0 X-4.527 Y-43.113 Z3.000 
G1 X-4.527 Y-43.113 Z-2.744 F300.000 
G1 X-4.489 Y-43.032 Z-2.894 F506.019 
G1 X-4.474 Y-43.005 Z-2.944 F509.513 
G1 X-4.449 Y-42.947 Z-3.045 F514.768 
G1 X-4.429 Y-42.908 Z-3.110 F520.294 
G1 X-4.419 Y-42.883 Z-3.151 F528.369 
G1 X-4.391 Y-42.827 Z-3.239 F535.440 
G1 X-4.368 Y-42.769 Z-3.322 F546.491 
G1 X-4.363 Y-42.755 Z-3.340 F560.321 
G1 X-4.363 Y-42.753 Z-3.343 F577.545 
G1 X-4.358 Y-42.736 Z-3.362 F589.392 
G1 X-4.331 Y-42.593 Z-3.500 F610.194 
G1 X-4.325 Y-42.540 Z-3.544 F633.033 
G1 X-4.308 Y-42.431 Z-3.630 F646.944 
G1 X-4.290 Y-42.215 Z-3.775 F674.528 
G1 X-4.288 Y-42.192 Z-3.789 F686.341 
G1 X-4.270 Y-41.839 Z-3.977 F713.795 
G1 X-4.324 Y-41.794 Z-3.905 F602.634 
G1 X-4.766 Y-41.361 Z-3.326 F612.664 
G1 X-4.794 Y-41.328 Z-3.288 F622.520 
G1 X-5.001 Y-41.088 Z-3.011 F623.626 
G1 X-5.255 Y-40.769 Z-2.674 F637.515 
G1 X-5.320 Y-40.679 Z-2.592 F652.814 
G1 X-5.337 Y-40.654 Z-2.568 F644.491 
G1 X-5.537 Y-40.337 Z-2.295 F661.019 
G1 X-5.609 Y-40.208 Z-2.201 F680.078 
G1 X-5.780 Y-39.867 Z-1.984 F703.398 
G1 X-5.820 Y-39.774 Z-1.938 F730.350 
G1 X-5.906 Y-39.567 Z-1.825 F721.928 
G1 X-6.009 Y-39.282 Z-1.694 F747.536 
G1 X-6.119 Y-38.920 Z-1.568 F774.856 
G1 X-6.169 Y-38.735 Z-1.512 F795.516 
G1 X-6.169 Y-38.734 Z-1.512 F779.948 
G1 X-6.262 Y-38.307 Z-1.407 F808.366 
G1 X-6.288 Y-38.173 Z-1.379 F824.915 
G1 X-6.368 Y-37.689 Z-1.303 F841.277 
G1 X-6.370 Y-37.674 Z-1.301 F845.001 
G1 X-6.382 Y-37.583 Z-1.288 F848.267 
G1 X-6.439 Y-37.046 Z-1.232 F859.941 
G1 X-6.447 Y-36.961 Z-1.224 F871.699 
G1 X-6.466 Y-36.695 Z-1.213 F882.968 
G1 X-6.483 Y-36.376 Z-1.189 F871.241 
G1 X-6.486 Y-36.299 Z-1.184 F881.807 
G1 X-6.493 Y-35.917 Z-1.178 F892.707 
G0 Z3.000 
G0 X-7.405 Y-35.163 Z3.000 
G1 X-7.405 Y-35.163 Z0.509 F300.000 
G1 X-7.248 Y-35.289 Z0.200 F520.631 
G1 X-7.207 Y-35.326 Z0.117 F526.445 
G1 X-6.906 Y-35.564 Z-0.428 F534.279 
G1 X-6.509 Y-35.904 Z-1.149 F539.473 
G1 X-6.493 Y-35.917 Z-1.176 F544.111 
G1 X-6.299 Y-35.667 Z-0.825 F580.367 
G1 X-6.275 Y-35.638 Z-0.784 F582.202 
G1 X-6.160 Y-35.494 Z-0.584 F583.862 
G1 X-5.324 Y-34.500 Z0.866 F579.103 
G0 Z3.000 
G0 X-7.551 Y-35.002 Z3.000 
G1 X-7.551 Y-35.002 Z0.866 F300.000 
G1 X-7.405 Y-35.163 Z0.509 F508.797 
G1 X-7.601 Y-35.090 Z0.866 F502.118 
G0 Z3.000 
G0 X-4.800 Y-43.607 Z3.000 
G1 X-4.800 Y-43.607 Z-1.778 F300.000 
G1 X-4.728 Y-43.463 Z-2.056 F501.344 
G1 X-4.527 Y-43.113 Z-2.744 F502.712 
G1 X-5.047 Y-45.139 Z0.865 F500.664 
G0 Z3.000 
G0 X4.869 Y-44.967 Z3.000 
G1 X4.869 Y-44.967 Z0.866 F300.000 
G1 X5.400 Y-43.683 Z-1.529 F500.855 
G1 X5.478 Y-43.437 Z-1.968 F502.789 
G1 X5.538 Y-43.287 Z-2.238 F505.208 
G1 X5.570 Y-43.188 Z-2.411 F508.065 
G1 X5.635 Y-43.027 Z-2.691 F512.126 
G1 X5.636 Y-43.021 Z-2.700 F517.309 
G1 X5.685 Y-42.898 Z-2.900 F521.869 
G1 X5.697 Y-42.862 Z-2.957 F527.853 
G1 X5.750 Y-42.727 Z-3.164 F534.175 
G1 X5.772 Y-42.664 Z-3.254 F540.314 
G1 X5.795 Y-42.606 Z-3.337 F547.356 
G1 X5.811 Y-42.558 Z-3.401 F556.038 
G1 X5.811 Y-42.556 Z-3.403 F566.023 
G1 X5.831 Y-42.582 Z-3.348 F501.429 
G0 Z3.000 
G0 X5.811 Y-42.556 Z3.000 
G1 X5.811 Y-42.556 Z-3.403 F300.000 
G1 X5.813 Y-42.539 Z-3.421 F594.759 
G1 X5.819 Y-42.472 Z-3.484 F611.603 
G1 X5.819 Y-42.449 Z-3.504 F627.711 
G1 X5.826 Y-42.348 Z-3.585 F641.338 
G1 X5.830 Y-42.202 Z-3.692 F658.245 
G1 X5.832 Y-42.161 Z-3.720 F672.726 
G1 X5.838 Y-41.905 Z-3.879 F688.060 
G1 X5.838 Y-41.899 Z-3.883 F701.409 
G1 X5.841 Y-41.760 Z-3.955 F716.023 
G1 X5.685 Y-41.633 Z-3.759 F604.397 
G1 X5.640 Y-41.595 Z-3.702 F608.427 
G1 X5.582 Y-41.544 Z-3.626 F602.048 
G1 X5.271 Y-41.248 Z-3.223 F611.913 
G1 X5.133 Y-41.094 Z-3.039 F623.109 
G1 X5.046 Y-40.995 Z-2.926 F629.214 
G1 X4.897 Y-40.814 Z-2.734 F637.450 
G1 X4.748 Y-40.606 Z-2.538 F650.232 
G1 X4.673 Y-40.495 Z-2.441 F661.129 
G1 X4.554 Y-40.306 Z-2.290 F672.394 
G1 X4.487 Y-40.184 Z-2.201 F683.150 
G1 X4.422 Y-40.059 Z-2.114 F691.034 
G1 X4.271 Y-39.729 Z-1.925 F715.352 
G1 X4.154 Y-39.432 Z-1.784 F742.533 
G1 X4.061 Y-39.157 Z-1.681 F768.798 
G1 X4.019 Y-39.013 Z-1.638 F797.024 
G1 X3.958 Y-38.786 Z-1.565 F784.479 
G1 X3.917 Y-38.607 Z-1.520 F804.153 
G1 X3.828 Y-38.155 Z-1.426 F824.527 
G1 X3.808 Y-38.035 Z-1.408 F839.240 
G1 X3.727 Y-37.502 Z-1.341 F853.897 
G1 X3.718 Y-37.433 Z-1.335 F862.993 
G1 X3.716 Y-37.417 Z-1.333 F868.022 
G1 X3.650 Y-36.800 Z-1.284 F870.402 
G1 X3.644 Y-36.734 Z-1.281 F879.874 
G1 X3.587 Y-36.036 Z-1.259 F887.998 
G1 X3.575 Y-35.880 Z-1.253 F887.601 
G0 Z3.000 
G0 X4.389 Y-34.630 Z3.000 
G1 X4.389 Y-34.630 Z0.489 F300.000 
G1 X4.585 Y-34.530 Z0.866 F501.133 
G0 Z3.000 
G0 X4.522 Y-34.436 Z3.000 
G1 X4.522 Y-34.436 Z0.866 F300.000 
G1 X4.424 Y-34.543 Z0.622 F504.790 
G0 Z3.000 
G0 X4.452 Y-34.397 Z3.000 
G1 X4.452 Y-34.397 Z0.866 F300.000 
G1 X4.424 Y-34.543 Z0.622 F508.953 
G1 X4.409 Y-34.576 Z0.568 F527.835 
G1 X4.389 Y-34.630 Z0.489 F538.227 
G1 X4.320 Y-34.769 Z0.292 F556.137 
G1 X4.079 Y-35.166 Z-0.247 F571.840 
G1 X4.047 Y-35.217 Z-0.317 F568.319 
G1 X4.013 Y-35.270 Z-0.393 F565.221 
G1 X3.575 Y-35.880 Z-1.254 F574.184 
G1 X3.415 Y-35.761 Z-0.990 F547.580 
G1 X3.383 Y-35.737 Z-0.937 F548.805 
G1 X2.287 Y-34.897 Z0.866 F549.565 
G0 Z3.000 
G0 X4.300 Y-29.109 Z3.000 
G1 X4.300 Y-29.109 Z-1.084 F300.000 
G1 X5.134 Y-28.788 Z-2.618 F501.429 
G1 X5.701 Y-28.550 Z-3.670 F502.151 
G1 X5.620 Y-28.363 Z-3.609 F789.060 
G1 X5.559 Y-28.240 Z-3.556 F759.663 
G1 X5.439 Y-27.984 Z-3.436 F746.042 
G1 X5.267 Y-27.650 Z-3.250 F724.611 
G1 X5.173 Y-27.458 Z-3.137 F714.234 
G1 X4.940 Y-26.995 Z-2.854 F709.181 
G1 X4.839 Y-26.785 Z-2.720 F700.079 
G1 X4.800 Y-26.701 Z-2.668 F705.371 
G1 X4.610 Y-26.284 Z-2.419 F710.310 
G1 X4.536 Y-26.114 Z-2.314 F702.679 
G1 X4.478 Y-25.974 Z-2.235 F712.170 
G1 X4.304 Y-25.526 Z-1.991 F722.069 
G1 X4.284 Y-25.473 Z-1.961 F714.272 
G1 X4.225 Y-25.298 Z-1.872 F728.573 
G1 X4.089 Y-24.858 Z-1.671 F742.609 
G1 X4.053 Y-24.731 Z-1.621 F755.207 
G1 X4.032 Y-24.643 Z-1.588 F768.039 
G1 X3.944 Y-24.232 Z-1.445 F776.946 
G1 X3.910 Y-24.029 Z-1.392 F800.369 
G1 X3.894 Y-23.916 Z-1.367 F824.131 
G1 X3.858 Y-23.616 Z-1.299 F815.258 
G1 X3.845 Y-23.456 Z-1.273 F835.540 
G1 X3.825 Y-23.093 Z-1.230 F856.547 
G1 X3.821 Y-23.007 Z-1.218 F846.686 
G1 X3.820 Y-22.904 Z-1.208 F861.157 
G1 X3.821 Y-22.391 Z-1.173 F874.779 
G1 X3.823 Y-22.318 Z-1.172 F885.867 
G1 X3.823 Y-22.278 Z-1.170 F895.250 
G1 X3.841 Y-21.909 Z-1.156 F885.865 
G1 X3.848 Y-21.811 Z-1.158 F899.610 
G1 X3.878 Y-21.484 Z-1.168 F886.390 
G1 X3.882 Y-21.450 Z-1.168 F897.756 
G1 X3.898 Y-21.330 Z-1.175 F879.500 
G1 X3.947 Y-21.018 Z-1.205 F863.205 
G1 X3.979 Y-20.855 Z-1.232 F840.712 
G1 X4.009 Y-20.724 Z-1.259 F819.397 
G1 X4.043 Y-20.587 Z-1.285 F829.847 
G1 X4.110 Y-20.364 Z-1.348 F801.228 
G1 X4.189 Y-20.136 Z-1.430 F773.935 
G1 X4.233 Y-20.019 Z-1.479 F760.888 
G1 X4.328 Y-19.816 Z-1.581 F736.997 
G1 X4.427 Y-19.625 Z-1.690 F718.005 
G1 X4.562 Y-19.390 Z-1.851 F697.121 
G1 X4.699 Y-19.198 Z-2.009 F674.118 
G1 X4.827 Y-19.030 Z-2.160 F660.645 
G1 X4.964 Y-18.861 Z-2.330 F649.900 
G1 X5.324 Y-18.507 Z-2.761 F629.988 
G1 X5.391 Y-18.447 Z-2.842 F612.882 
G1 X5.498 Y-18.359 Z-2.965 F623.819 
G1 X5.738 Y-18.172 Z-3.249 F614.668 
G1 X5.914 Y-18.062 Z-3.438 F617.662 
G1 X5.914 Y-18.053 Z-3.428 F649.869 
G1 X5.926 Y-17.843 Z-3.246 F626.946 
G1 X5.928 Y-17.828 Z-3.232 F609.341 
G1 X5.944 Y-17.584 Z-2.981 F595.301 
G1 X5.958 Y-17.471 Z-2.855 F581.132 
G1 X5.970 Y-17.293 Z-2.646 F569.632 
G1 X5.993 Y-17.119 Z-2.427 F558.072 
G1 X6.001 Y-16.993 Z-2.260 F547.468 
G1 X6.029 Y-16.789 Z-1.973 F537.800 
G1 X6.034 Y-16.704 Z-1.848 F528.461 
G1 X6.078 Y-16.392 Z-1.365 F520.306 
G1 X6.082 Y-16.344 Z-1.288 F514.804 
G1 X6.084 Y-16.332 Z-1.269 F508.990 
G1 X6.087 Y-16.293 Z-1.203 F506.486 
G1 X6.098 Y-16.219 Z-1.076 F503.909 
G1 X6.103 Y-16.161 Z-0.977 F502.001 
G0 Z3.000 
G0 X5.914 Y-18.062 Z3.000 
G1 X5.914 Y-18.062 Z-3.438 F300.000 
G1 X6.019 Y-18.130 Z-3.329 F626.581 
G1 X6.259 Y-18.319 Z-3.059 F623.494 
G1 X6.311 Y-18.362 Z-3.001 F632.792 
G1 X6.325 Y-18.375 Z-2.984 F614.253 
G1 X6.653 Y-18.712 Z-2.581 F629.542 
G1 X6.792 Y-18.889 Z-2.403 F644.292 
G1 X6.847 Y-18.964 Z-2.334 F653.678 
G1 X7.106 Y-19.362 Z-2.023 F678.804 
G1 X7.146 Y-19.438 Z-1.974 F704.844 
G1 X7.245 Y-19.633 Z-1.857 F711.069 
G1 X7.390 Y-19.966 Z-1.694 F739.802 
G1 X7.478 Y-20.204 Z-1.607 F772.698 
G1 X7.484 Y-20.221 Z-1.601 F766.092 
G1 X7.545 Y-20.416 Z-1.537 F785.055 
G1 X7.630 Y-20.725 Z-1.458 F807.100 
G1 X7.662 Y-20.857 Z-1.429 F822.693 
G1 X7.720 Y-21.120 Z-1.387 F839.007 
G1 X7.738 Y-21.208 Z-1.370 F830.630 
G1 X7.759 Y-21.318 Z-1.353 F844.119 
G1 X7.820 Y-21.697 Z-1.312 F858.518 
G1 X7.835 Y-21.802 Z-1.304 F872.197 
G1 X7.858 Y-21.998 Z-1.297 F886.271 
G1 X7.878 Y-22.196 Z-1.284 F874.839 
G1 X7.887 Y-22.309 Z-1.281 F889.561 
G1 X7.893 Y-22.417 Z-1.282 F895.080 
G1 X7.804 Y-22.514 Z-1.121 F560.806 
G1 X7.609 Y-22.719 Z-0.767 F557.174 
G1 X7.565 Y-22.764 Z-0.687 F559.512 
G1 X6.668 Y-23.661 Z0.865 F561.549 
G0 Z3.000 
G0 X7.893 Y-22.417 Z3.000 
G1 X7.893 Y-22.417 Z-1.282 F300.000 
G1 X8.229 Y-22.720 Z-0.735 F563.717 
G1 X8.634 Y-23.109 Z-0.034 F557.964 
G1 X8.790 Y-23.246 Z0.236 F550.314 
G1 X8.920 Y-23.375 Z0.487 F541.483 
G1 X8.953 Y-23.405 Z0.550 F534.007 
G0 Z3.000 
G0 X9.013 Y-23.472 Z3.000 
G1 X9.013 Y-23.472 Z0.689 F300.000 
G1 X8.953 Y-23.405 Z0.551 F520.465 
G1 X9.131 Y-23.449 Z0.864 F501.309 
G0 Z3.000 
G0 X9.094 Y-23.545 Z3.000 
G1 X9.094 Y-23.545 Z0.865 F300.000 
G1 X9.013 Y-23.472 Z0.689 F511.238 
G1 X9.049 Y-23.568 Z0.865 F501.128 
G0 Z3.000 
G0 X5.701 Y-28.550 Z3.000 
G1 X5.701 Y-28.550 Z-3.672 F300.000 
G1 X5.783 Y-28.677 Z-3.675 F892.180 
G1 X5.939 Y-28.953 Z-3.652 F872.187 
G1 X5.966 Y-28.997 Z-3.646 F858.296 
G1 X6.181 Y-29.402 Z-3.557 F826.146 
G1 X6.308 Y-29.669 Z-3.478 F800.368 
G1 X6.443 Y-29.939 Z-3.390 F791.507 
G1 X6.723 Y-30.549 Z-3.160 F773.781 
G1 X6.764 Y-30.637 Z-3.126 F771.269 
G1 X7.146 Y-31.505 Z-2.760 F759.542 
G1 X7.161 Y-31.540 Z-2.744 F748.768 
G1 X7.176 Y-31.577 Z-2.726 F750.670 
G1 X7.482 Y-32.330 Z-2.400 F753.714 
G1 X7.502 Y-32.382 Z-2.376 F741.139 
G1 X7.532 Y-32.463 Z-2.339 F747.371 
G1 X7.761 Y-33.110 Z-2.063 F753.556 
G1 X7.787 Y-33.187 Z-2.031 F760.029 
G1 X7.804 Y-33.247 Z-2.007 F759.172 
G1 X7.954 Y-33.776 Z-1.803 F764.094 
G1 X8.001 Y-33.963 Z-1.740 F781.956 
G1 X8.029 Y-34.092 Z-1.706 F800.893 
G1 X8.092 Y-34.419 Z-1.606 F787.771 
G1 X8.125 Y-34.629 Z-1.553 F809.932 
G1 X8.174 Y-35.043 Z-1.482 F833.946 
G1 X8.176 Y-35.062 Z-1.478 F820.025 
G1 X8.187 Y-35.230 Z-1.449 F840.410 
G1 X8.202 Y-35.692 Z-1.404 F861.096 
G1 X8.204 Y-35.790 Z-1.395 F873.115 
G1 X8.203 Y-36.035 Z-1.388 F885.674 
G1 X8.197 Y-36.326 Z-1.368 F872.763 
G1 X8.195 Y-36.385 Z-1.363 F880.629 
G1 X8.168 Y-36.973 Z-1.346 F887.928 
G1 X8.164 Y-37.050 Z-1.343 F898.033 
G1 X8.162 Y-37.066 Z-1.346 F892.932 
G1 X8.115 Y-37.571 Z-1.341 F896.458 
G1 X8.103 Y-37.671 Z-1.342 F891.262 
G1 X8.043 Y-38.124 Z-1.371 F877.489 
G1 X8.041 Y-38.134 Z-1.369 F876.358 
G1 X8.020 Y-38.253 Z-1.378 F870.541 
G1 X7.943 Y-38.635 Z-1.426 F855.625 
G1 X7.897 Y-38.827 Z-1.460 F831.767 
G1 X7.808 Y-39.143 Z-1.542 F808.833 
G1 X7.783 Y-39.229 Z-1.564 F799.338 
G1 X7.708 Y-39.428 Z-1.634 F777.980 
G1 X7.602 Y-39.683 Z-1.745 F756.744 
G1 X7.440 Y-40.015 Z-1.924 F725.925 
G1 X7.380 Y-40.123 Z-1.999 F698.360 
G1 X7.208 Y-40.401 Z-2.210 F678.412 
G1 X7.168 Y-40.461 Z-2.265 F660.797 
G1 X7.140 Y-40.499 Z-2.298 F670.758 
G1 X6.851 Y-40.857 Z-2.649 F649.445 
G1 X6.771 Y-40.947 Z-2.754 F630.950 
G1 X6.362 Y-41.355 Z-3.292 F613.130 
G1 X6.349 Y-41.366 Z-3.308 F605.969 
G1 X6.252 Y-41.448 Z-3.433 F605.585 
G1 X6.012 Y-41.640 Z-3.740 F598.662 
G1 X5.841 Y-41.760 Z-3.955 F594.976 
G0 Z3.000 
G0 X10.506 Y-44.719 Z3.000 
G1 X10.506 Y-44.719 Z0.866 F300.000 
G1 X11.666 Y-43.484 Z-1.143 F567.704 
G1 X11.766 Y-43.376 Z-1.315 F569.607 
G1 X12.020 Y-43.614 Z-0.869 F552.811 
G1 X12.378 Y-43.965 Z-0.211 F548.602 
G1 X12.529 Y-44.095 Z0.065 F539.072 
G1 X12.987 Y-44.180 Z0.866 F501.141 
G0 Z3.000 
G0 X12.936 Y-44.344 Z3.000 
G1 X12.936 Y-44.344 Z0.865 F300.000 
G1 X12.612 Y-44.169 Z0.238 F503.005 
G0 Z3.000 
G0 X12.543 Y-44.111 Z3.000 
G1 X12.543 Y-44.111 Z0.095 F300.000 
G1 X12.529 Y-44.095 Z0.064 F525.354 
G0 Z3.000 
G0 X12.692 Y-44.533 Z3.000 
G1 X12.692 Y-44.533 Z0.864 F300.000 
G1 X12.543 Y-44.111 Z0.095 F501.334 
G1 X12.612 Y-44.169 Z0.239 F514.040 
G1 X12.842 Y-44.458 Z0.864 F503.803 
G0 Z3.000 
G0 X11.766 Y-43.376 Z3.000 
G1 X11.766 Y-43.376 Z-1.315 F300.000 
G1 X11.780 Y-41.527 Z-1.340 F894.835 
G1 X11.801 Y-37.734 Z-1.376 F896.345 
G1 X11.825 Y-32.736 Z-1.418 F896.820 
G1 X11.864 Y-32.298 Z-1.801 F627.299 
G1 X11.976 Y-31.858 Z-2.184 F632.479 
G1 X12.164 Y-31.413 Z-2.571 F641.956 
G1 X12.432 Y-30.960 Z-2.965 F654.592 
G1 X12.788 Y-30.496 Z-3.369 F669.171 
G1 X12.959 Y-30.303 Z-3.536 F679.951 
G1 X13.144 Y-30.111 Z-3.703 F686.242 
G1 X13.233 Y-30.022 Z-3.857 F561.486 
G1 X13.882 Y-29.373 Z-4.980 F561.549 
G1 X13.154 Y-28.646 Z-3.720 F561.539 
G1 X12.709 Y-28.155 Z-3.292 F681.185 
G1 X12.364 Y-27.679 Z-2.878 F665.400 
G1 X12.111 Y-27.217 Z-2.476 F650.850 
G1 X11.942 Y-26.766 Z-2.083 F638.723 
G1 X11.850 Y-26.322 Z-1.696 F630.264 
G1 X11.836 Y-26.168 Z-1.562 F627.156 
G1 X11.831 Y-26.014 Z-1.428 F626.456 
G1 X11.798 Y-20.756 Z-1.370 F895.911 
G1 X11.772 Y-16.673 Z-1.327 F895.912 
G0 Z3.000 
G0 X13.024 Y-15.482 Z3.000 
G1 X13.024 Y-15.482 Z0.865 F300.000 
G1 X11.772 Y-16.673 Z-1.329 F554.876 
G1 X11.692 Y-16.587 Z-1.187 F567.477 
G1 X11.691 Y-16.586 Z-1.186 F558.656 
G1 X10.506 Y-15.325 Z0.866 F567.708 
G0 Z3.000 
G0 X10.899 Y-13.890 Z3.000 
G1 X10.899 Y-13.890 Z0.865 F300.000 
G1 X10.762 Y-13.314 Z-0.155 F500.953 
G1 X11.007 Y-13.852 Z0.864 F500.691 
G0 Z3.000 
G0 X11.106 Y-13.796 Z3.000 
G1 X11.106 Y-13.796 Z0.865 F300.000 
G1 X10.759 Y-13.304 Z-0.174 F500.768 
G1 X10.762 Y-13.314 Z-0.156 F503.281 
G0 Z3.000 
G0 X10.759 Y-13.304 Z3.000 
G1 X10.759 Y-13.304 Z-0.173 F300.000 
G1 X10.756 Y-13.296 Z-0.187 F507.425 
G1 X11.195 Y-13.719 Z0.865 F500.725 
G0 Z3.000 
G0 X11.275 Y-13.619 Z3.000 
G1 X11.275 Y-13.619 Z0.865 F300.000 
G1 X10.753 Y-13.292 Z-0.194 F501.059 
G1 X10.756 Y-13.296 Z-0.187 F514.110 
G0 Z3.000 
G0 X10.753 Y-13.292 Z3.000 
G1 X10.753 Y-13.292 Z-0.194 F300.000 
G1 X10.612 Y-13.097 Z-0.561 F522.362 
G1 X10.575 Y-13.035 Z-0.665 F530.684 
G0 Z3.000 
G0 X11.409 Y-13.338 Z3.000 
G1 X11.409 Y-13.338 Z0.865 F300.000 
G1 X10.575 Y-13.035 Z-0.665 F500.784 
G1 X10.421 Y-12.830 Z-1.011 F543.525 
G1 X10.330 Y-12.700 Z-1.221 F547.554 
G1 X9.968 Y-12.247 Z-1.948 F557.015 
G1 X9.729 Y-12.467 Z-1.532 F553.270 
G1 X9.694 Y-12.500 Z-1.470 F554.323 
G1 X8.352 Y-13.767 Z0.864 F555.489 
G0 Z3.000 
G0 X9.968 Y-12.247 Z3.000 
G1 X9.968 Y-12.247 Z-1.946 F300.000 
G1 X9.971 Y-12.210 Z-1.951 F852.466 
G1 X9.993 Y-11.574 Z-1.995 F873.356 
G1 X10.007 Y-10.719 Z-2.028 F885.359 
G1 X10.014 Y-9.642 Z-2.050 F892.266 
G1 X9.999 Y-2.748 Z-2.088 F897.872 
G1 X10.000 Y-2.743 Z-2.090 F892.627 
G1 X9.999 Y-2.165 Z-2.093 F896.895 
G1 X9.999 Y-2.165 Z-2.093 F900.000 
G1 X9.996 Y1.457 Z-2.123 F896.899 
G1 X9.996 Y1.472 Z-2.123 F897.489 
G1 X10.009 Y4.894 Z-2.177 F893.983 
G1 X10.009 Y4.922 Z-2.180 F891.975 
G1 X10.036 Y7.224 Z-2.246 F888.606 
G1 X10.038 Y7.284 Z-2.251 F883.382 
G1 X10.055 Y7.910 Z-2.285 F877.653 
G1 X10.061 Y8.030 Z-2.298 F867.317 
G1 X10.071 Y8.195 Z-2.315 F856.133 
G1 X10.130 Y8.665 Z-2.424 F815.438 
G1 X10.141 Y8.725 Z-2.442 F777.779 
G1 X10.225 Y9.076 Z-2.620 F726.185 
G1 X10.342 Y9.428 Z-2.797 F729.997 
G1 X11.145 Y11.542 Z-5.384 F574.228 
G1 X10.993 Y11.956 Z-5.634 F702.908 
G0 Z3.000 
G0 X11.145 Y11.542 Z3.000 
G1 X11.145 Y11.542 Z-5.386 F300.000 
G1 X11.714 Y11.059 Z-4.466 F560.315 
G1 X12.051 Y10.731 Z-3.844 F547.150 
G1 X12.368 Y10.381 Z-3.306 F575.264 
G1 X12.505 Y10.219 Z-3.076 F583.329 
G1 X12.674 Y10.008 Z-2.788 F589.117 
G1 X12.897 Y9.715 Z-2.413 F595.381 
G1 X12.967 Y9.621 Z-2.291 F598.699 
G1 X13.079 Y9.465 Z-2.105 F602.256 
G1 X13.555 Y8.795 Z-1.282 F599.964 
G1 X13.576 Y8.765 Z-1.244 F601.488 
G1 X13.719 Y8.558 Z-0.999 F603.305 
G1 X13.978 Y8.157 Z-0.508 F594.609 
G1 X14.124 Y7.947 Z-0.231 F585.361 
G1 X14.232 Y7.770 Z0.009 F571.282 
G1 X14.244 Y7.746 Z0.044 F555.600 
G0 Z3.000 
G0 X14.303 Y7.652 Z3.000 
G1 X14.303 Y7.652 Z0.197 F300.000 
G1 X14.304 Y7.650 Z0.200 F522.265 
G0 Z3.000 
G0 X14.337 Y7.597 Z3.000 
G1 X14.337 Y7.597 Z0.299 F300.000 
G1 X14.563 Y7.352 Z0.866 F503.179 
G0 Z3.000 
G0 X14.454 Y7.285 Z3.000 
G1 X14.454 Y7.285 Z0.866 F300.000 
G1 X14.337 Y7.597 Z0.300 F503.300 
G1 X14.304 Y7.650 Z0.201 F512.875 
G1 X14.318 Y7.262 Z0.866 F501.689 
G0 Z3.000 
G0 X14.153 Y7.278 Z3.000 
G1 X14.153 Y7.278 Z0.865 F300.000 
G1 X14.244 Y7.746 Z0.045 F501.169 
G1 X14.303 Y7.652 Z0.197 F540.682 
G1 X14.647 Y7.467 Z0.866 F501.614 
G0 Z3.000 
G0 X19.136 Y9.417 Z3.000 
G1 X19.136 Y9.417 Z-4.238 F300.000 
G1 X19.184 Y9.398 Z-4.199 F652.766 
G1 X19.263 Y9.364 Z-4.136 F654.623 
G1 X19.338 Y9.329 Z-4.070 F643.298 
G1 X19.520 Y9.242 Z-3.913 F649.064 
G1 X19.810 Y9.077 Z-3.664 F655.412 
G1 X19.965 Y8.974 Z-3.531 F663.146 
G1 X20.103 Y8.878 Z-3.417 F669.810 
G1 X20.116 Y8.869 Z-3.405 F670.184 
G1 X20.516 Y8.545 Z-3.073 F681.178 
G1 X20.543 Y8.518 Z-3.050 F694.851 
G1 X20.669 Y8.396 Z-2.949 F696.194 
G1 X20.899 Y8.158 Z-2.771 F713.826 
G1 X20.954 Y8.092 Z-2.729 F725.702 
G1 X21.074 Y7.946 Z-2.641 F730.860 
G1 X21.256 Y7.708 Z-2.515 F750.088 
G1 X21.258 Y7.705 Z-2.513 F762.449 
G1 X21.375 Y7.531 Z-2.435 F759.684 
G1 X21.500 Y7.331 Z-2.354 F776.897 
G1 X21.579 Y7.197 Z-2.313 F795.595 
G1 X21.618 Y7.128 Z-2.288 F784.266 
G1 X21.700 Y6.975 Z-2.238 F798.616 
G1 X21.816 Y6.741 Z-2.180 F812.985 
G1 X21.867 Y6.636 Z-2.154 F823.726 
G1 X21.872 Y6.625 Z-2.151 F823.494 
G1 X21.988 Y6.358 Z-2.096 F825.595 
G1 X22.049 Y6.209 Z-2.069 F839.819 
G1 X22.116 Y6.030 Z-2.049 F855.648 
G1 X22.281 Y5.577 Z-1.979 F844.974 
G1 X22.326 Y5.445 Z-1.961 F859.037 
G1 X22.343 Y5.391 Z-1.960 F872.537 
G1 X22.508 Y4.838 Z-1.904 F862.957 
G1 X22.537 Y4.739 Z-1.894 F873.692 
G1 X22.538 Y4.733 Z-1.896 F888.771 
G1 X22.697 Y4.076 Z-1.844 F870.894 
G1 X22.716 Y3.994 Z-1.838 F879.914 
G1 X22.862 Y3.313 Z-1.819 F888.485 
G1 X22.867 Y3.287 Z-1.817 F872.730 
G1 X22.880 Y3.216 Z-1.812 F879.870 
G1 X23.002 Y2.471 Z-1.788 F887.317 
G1 X23.012 Y2.412 Z-1.785 F894.218 
G1 X23.094 Y1.839 Z-1.787 F899.802 
G1 X23.119 Y1.636 Z-1.779 F884.814 
G1 X23.126 Y1.580 Z-1.776 F891.212 
G1 X23.207 Y0.785 Z-1.772 F897.181 
G1 X23.211 Y0.732 Z-1.770 F897.113 
G1 X23.246 Y0.322 Z-1.782 F891.379 
G1 X23.271 Y-0.075 Z-1.775 F893.556 
G1 X23.274 Y-0.124 Z-1.773 F899.222 
G1 X23.312 Y-0.933 Z-1.784 F895.707 
G1 X23.314 Y-0.985 Z-1.785 F889.890 
G1 X23.320 Y-1.209 Z-1.795 F884.305 
G1 X23.324 Y-1.788 Z-1.797 F898.615 
G1 X23.324 Y-1.841 Z-1.796 F892.753 
G1 X23.316 Y-2.626 Z-1.824 F887.312 
G1 X23.315 Y-2.683 Z-1.825 F881.788 
G1 X23.314 Y-2.732 Z-1.830 F875.105 
G1 X23.277 Y-3.444 Z-1.848 F890.248 
G1 X23.273 Y-3.509 Z-1.849 F883.623 
G1 X23.221 Y-4.224 Z-1.895 F876.538 
G1 X23.220 Y-4.236 Z-1.895 F893.395 
G1 X23.212 Y-4.311 Z-1.896 F884.824 
G1 X23.130 Y-4.994 Z-1.940 F877.064 
G1 X23.118 Y-5.085 Z-1.945 F867.637 
G1 X23.031 Y-5.669 Z-2.012 F858.530 
G1 X23.022 Y-5.719 Z-2.015 F871.316 
G1 X23.001 Y-5.833 Z-2.026 F859.586 
G1 X22.896 Y-6.343 Z-2.098 F848.519 
G1 X22.882 Y-6.407 Z-2.106 F857.864 
G1 X22.844 Y-6.561 Z-2.128 F842.751 
G1 X22.726 Y-7.000 Z-2.216 F828.143 
G1 X22.706 Y-7.070 Z-2.228 F837.578 
G1 X22.661 Y-7.218 Z-2.258 F824.279 
G1 X22.526 Y-7.624 Z-2.362 F810.469 
G1 X22.485 Y-7.741 Z-2.388 F821.013 
G1 X22.428 Y-7.892 Z-2.425 F807.714 
G1 X22.300 Y-8.212 Z-2.525 F794.637 
G1 X22.262 Y-8.303 Z-2.550 F805.507 
G1 X22.136 Y-8.576 Z-2.642 F783.339 
G1 X22.043 Y-8.757 Z-2.722 F761.524 
G1 X21.975 Y-8.884 Z-2.772 F772.995 
G1 X21.765 Y-9.237 Z-2.944 F746.620 
G1 X21.756 Y-9.251 Z-2.955 F723.498 
G1 X21.683 Y-9.356 Z-3.014 F733.742 
G1 X21.443 Y-9.673 Z-3.223 F712.772 
G1 X21.435 Y-9.683 Z-3.234 F694.421 
G1 X21.359 Y-9.771 Z-3.299 F704.902 
G1 X21.100 Y-10.050 Z-3.534 F687.981 
G1 X20.958 Y-10.181 Z-3.661 F677.016 
G1 X20.866 Y-10.262 Z-3.747 F669.599 
G1 X20.764 Y-10.350 Z-3.841 F665.131 
G1 X20.441 Y-10.590 Z-4.134 F659.674 
G1 X20.258 Y-10.703 Z-4.296 F653.188 
G1 X20.255 Y-10.705 Z-4.300 F642.949 
G0 Z3.000 
G0 X20.341 Y-12.145 Z3.000 
G1 X20.341 Y-12.145 Z-2.431 F300.000 
G1 X20.341 Y-12.129 Z-2.458 F502.012 
G1 X20.338 Y-12.085 Z-2.532 F504.296 
G1 X20.338 Y-12.065 Z-2.564 F507.730 
G1 X20.332 Y-11.983 Z-2.697 F511.710 
G1 X20.332 Y-11.964 Z-2.728 F516.390 
G1 X20.323 Y-11.842 Z-2.914 F522.143 
G1 X20.323 Y-11.817 Z-2.950 F528.428 
G1 X20.312 Y-11.656 Z-3.179 F534.817 
G1 X20.311 Y-11.625 Z-3.222 F541.699 
G1 X20.298 Y-11.431 Z-3.476 F549.149 
G1 X20.297 Y-11.396 Z-3.519 F556.376 
G1 X20.282 Y-11.167 Z-3.795 F564.581 
G1 X20.281 Y-11.125 Z-3.845 F572.173 
G1 X20.264 Y-10.862 Z-4.136 F580.281 
G1 X20.262 Y-10.811 Z-4.191 F588.139 
G1 X20.255 Y-10.705 Z-4.299 F596.960 
G1 X20.146 Y-10.659 Z-4.204 F643.588 
G1 X20.108 Y-10.642 Z-4.171 F645.199 
G1 X19.798 Y-10.486 Z-3.897 F644.618 
G1 X19.513 Y-10.312 Z-3.647 F655.017 
G1 X19.462 Y-10.279 Z-3.606 F666.678 
G1 X19.410 Y-10.243 Z-3.559 F656.420 
G1 X19.110 Y-10.021 Z-3.303 F670.613 
G1 X18.965 Y-9.896 Z-3.181 F684.022 
G1 X18.869 Y-9.810 Z-3.103 F691.916 
G1 X18.765 Y-9.714 Z-3.021 F699.207 
G1 X18.493 Y-9.420 Z-2.813 F716.753 
G1 X18.436 Y-9.352 Z-2.773 F740.161 
G1 X18.303 Y-9.189 Z-2.673 F729.930 
G1 X18.127 Y-8.957 Z-2.552 F749.156 
G1 X18.068 Y-8.867 Z-2.511 F762.136 
G1 X17.867 Y-8.548 Z-2.376 F769.652 
G1 X17.756 Y-8.358 Z-2.310 F786.853 
G1 X17.627 Y-8.124 Z-2.241 F804.451 
G1 X17.563 Y-8.003 Z-2.211 F816.156 
G1 X17.551 Y-7.976 Z-2.204 F811.876 
G1 X17.430 Y-7.711 Z-2.137 F814.911 
G1 X17.379 Y-7.592 Z-2.113 F826.841 
G1 X17.260 Y-7.302 Z-2.061 F838.454 
G1 X17.223 Y-7.208 Z-2.047 F848.422 
G1 X17.117 Y-6.926 Z-2.014 F857.829 
G1 X17.105 Y-6.892 Z-2.008 F840.700 
G1 X17.066 Y-6.773 Z-1.994 F853.395 
G1 X16.851 Y-6.068 Z-1.925 F865.068 
G1 X16.819 Y-5.950 Z-1.920 F878.147 
G1 X16.764 Y-5.746 Z-1.912 F890.233 
G1 X16.625 Y-5.158 Z-1.872 F874.439 
G1 X16.605 Y-5.065 Z-1.870 F884.343 
G1 X16.486 Y-4.492 Z-1.859 F894.260 
G1 X16.433 Y-4.202 Z-1.843 F879.253 
G1 X16.421 Y-4.126 Z-1.842 F887.551 
G1 X16.276 Y-3.206 Z-1.830 F895.489 
G1 X16.273 Y-3.181 Z-1.831 F898.482 
G1 X16.268 Y-3.139 Z-1.830 F891.066 
G1 X16.159 Y-2.178 Z-1.817 F895.497 
G1 X16.153 Y-2.116 Z-1.819 F898.157 
G1 X16.126 Y-1.833 Z-1.824 F891.143 
G1 X16.076 Y-1.132 Z-1.814 F894.618 
G1 X16.073 Y-1.072 Z-1.816 F898.725 
G1 X16.041 Y-0.460 Z-1.826 F892.523 
G1 X16.029 Y-0.083 Z-1.819 F893.431 
G1 X16.028 Y-0.023 Z-1.820 F899.358 
G1 X16.018 Y0.920 Z-1.835 F893.888 
G1 X16.018 Y0.956 Z-1.834 F891.396 
G1 X16.020 Y1.021 Z-1.834 F898.247 
G1 X16.050 Y1.973 Z-1.847 F894.588 
G1 X16.053 Y2.047 Z-1.850 F887.065 
G1 X16.067 Y2.298 Z-1.863 F879.054 
G1 X16.118 Y2.954 Z-1.873 F894.313 
G1 X16.126 Y3.040 Z-1.877 F885.776 
G1 X16.191 Y3.656 Z-1.915 F876.396 
G1 X16.221 Y3.887 Z-1.920 F892.163 
G1 X16.238 Y3.999 Z-1.928 F881.368 
G1 X16.366 Y4.772 Z-1.989 F869.147 
G1 X16.394 Y4.920 Z-2.008 F854.663 
G1 X16.406 Y4.975 Z-2.016 F839.913 
G1 X16.557 Y5.601 Z-2.089 F856.840 
G1 X16.596 Y5.747 Z-2.112 F842.615 
G1 X16.684 Y6.052 Z-2.172 F828.563 
G1 X16.725 Y6.185 Z-2.204 F816.285 
G1 X16.741 Y6.234 Z-2.216 F804.343 
G1 X16.824 Y6.462 Z-2.266 F822.094 
G1 X16.880 Y6.606 Z-2.305 F809.085 
G1 X16.985 Y6.862 Z-2.381 F796.129 
G1 X17.049 Y7.009 Z-2.431 F783.758 
G1 X17.144 Y7.215 Z-2.511 F771.336 
G1 X17.153 Y7.234 Z-2.517 F789.829 
G1 X17.265 Y7.440 Z-2.599 F773.361 
G1 X17.375 Y7.632 Z-2.685 F756.520 
G1 X17.537 Y7.890 Z-2.824 F737.412 
G1 X17.630 Y8.029 Z-2.909 F719.114 
G1 X17.649 Y8.054 Z-2.924 F737.947 
G1 X17.905 Y8.375 Z-3.138 F715.864 
G1 X18.024 Y8.511 Z-3.246 F695.184 
G1 X18.184 Y8.686 Z-3.396 F684.936 
G1 X18.426 Y8.909 Z-3.615 F675.410 
G1 X18.431 Y8.915 Z-3.621 F661.486 
G1 X18.556 Y9.018 Z-3.730 F672.577 
G1 X18.682 Y9.119 Z-3.843 F667.584 
G1 X18.913 Y9.283 Z-4.047 F662.502 
G1 X19.114 Y9.405 Z-4.220 F657.097 
G1 X19.136 Y9.417 Z-4.238 F661.716 
G1 X19.133 Y9.520 Z-4.127 F583.075 
G1 X19.125 Y9.622 Z-4.009 F575.110 
G1 X19.120 Y9.748 Z-3.860 F567.650 
G1 X19.114 Y9.828 Z-3.761 F561.019 
G1 X19.110 Y9.946 Z-3.612 F554.481 
G1 X19.105 Y10.001 Z-3.538 F547.449 
G1 X19.101 Y10.113 Z-3.386 F541.202 
G1 X19.098 Y10.156 Z-3.325 F535.407 
G1 X19.094 Y10.258 Z-3.177 F529.780 
G1 X19.092 Y10.287 Z-3.133 F524.567 
G1 X19.089 Y10.367 Z-3.009 F519.570 
G1 X19.086 Y10.399 Z-2.959 F514.867 
G1 X19.084 Y10.449 Z-2.876 F511.232 
G1 X19.082 Y10.471 Z-2.840 F507.554 
G1 X19.081 Y10.504 Z-2.784 F505.190 
G1 X19.080 Y10.513 Z-2.768 F502.955 
G1 X19.079 Y10.543 Z-2.717 F501.054 
G0 Z3.000 
G0 X14.703 Y14.329 Z3.000 
G1 X14.703 Y14.329 Z0.865 F300.000 
G1 X10.993 Y11.956 Z-5.638 F527.411 
G1 X10.381 Y12.367 Z-5.533 F847.605 
G1 X9.613 Y12.768 Z-5.412 F847.115 
G1 X8.916 Y13.080 Z-5.451 F880.259 
G1 X8.879 Y13.097 Z-5.454 F880.495 
G0 Z3.000 
G0 X-8.960 Y13.921 Z3.000 
G1 X-8.960 Y13.921 Z-2.373 F300.000 
G1 X-8.969 Y13.904 Z-2.405 F503.114 
G0 Z3.000 
G0 X-0.537 Y-12.061 Z3.000 
G1 X-0.537 Y-12.061 Z-2.081 F300.000 
G1 X-0.537 Y-12.061 Z-2.081 F900.000 
G1 X-0.425 Y-11.784 Z-2.587 F504.050 
G1 X-0.424 Y-11.784 Z-2.588 F514.361 
G1 X-0.230 Y-11.307 Z-3.436 F508.618 
G1 X-0.228 Y-11.301 Z-3.447 F510.358 
G1 X-0.002 Y-10.746 Z-4.414 F511.917 
G1 X0.032 Y-10.804 Z-4.312 F525.969 
G1 X0.160 Y-11.014 Z-3.939 F523.205 
G1 X0.177 Y-11.046 Z-3.884 F518.592 
G1 X0.235 Y-11.165 Z-3.675 F515.151 
G1 X0.469 Y-11.684 Z-2.761 F512.820 
G1 X0.617 Y-12.042 Z-2.131 F510.864 
G1 X0.635 Y-12.080 Z-2.061 F507.464 
G1 X0.711 Y-12.260 Z-1.732 F504.792 
G1 X0.734 Y-12.305 Z-1.646 F502.123 
G0 Z3.000 
G0 X-4.207 Y-18.311 Z3.000 
G1 X-4.207 Y-18.311 Z-3.456 F300.000 
G1 X-4.000 Y-18.452 Z-3.217 F609.513 
G1 X-3.661 Y-18.740 Z-2.807 F615.387 
G1 X-3.609 Y-18.788 Z-2.745 F629.022 
G1 X-3.392 Y-19.004 Z-2.501 F640.407 
G1 X-3.084 Y-19.402 Z-2.140 F662.439 
G1 X-3.039 Y-19.468 Z-2.088 F689.335 
G1 X-2.884 Y-19.720 Z-1.928 F709.206 
G1 X-2.802 Y-19.889 Z-1.837 F728.010 
G1 X-2.717 Y-20.080 Z-1.744 F743.155 
G1 X-2.611 Y-20.356 Z-1.642 F770.219 
G1 X-2.544 Y-20.554 Z-1.583 F799.655 
G1 X-2.526 Y-20.616 Z-1.562 F780.357 
G1 X-2.485 Y-20.771 Z-1.520 F796.951 
G1 X-2.410 Y-21.090 Z-1.444 F815.081 
G1 X-2.387 Y-21.193 Z-1.425 F826.830 
G1 X-2.337 Y-21.453 Z-1.382 F840.305 
G1 X-2.321 Y-21.551 Z-1.361 F819.120 
G1 X-2.309 Y-21.642 Z-1.345 F830.181 
G1 X-2.261 Y-22.021 Z-1.285 F841.760 
G1 X-2.252 Y-22.110 Z-1.276 F853.342 
G1 X-2.227 Y-22.396 Z-1.248 F865.267 
G1 X-2.220 Y-22.490 Z-1.237 F854.299 
G1 X-2.216 Y-22.596 Z-1.230 F867.735 
G1 X-2.212 Y-22.715 Z-1.223 F882.952 
G0 Z3.000 
G0 X-3.404 Y-23.921 Z3.000 
G1 X-3.404 Y-23.921 Z0.864 F300.000 
G1 X-2.507 Y-23.024 Z-0.689 F561.537 
G1 X-2.459 Y-22.975 Z-0.774 F559.071 
G1 X-2.212 Y-22.715 Z-1.225 F556.819 
G1 X-2.205 Y-22.722 Z-1.210 F561.933 
G1 X-1.006 Y-23.921 Z0.865 F561.663 
G0 Z3.000 
G0 X13.882 Y-29.373 Z3.000 
G1 X13.882 Y-29.373 Z-4.980 F300.000 
G1 X14.344 Y-29.373 Z-4.980 F900.000 
G1 X14.348 Y-29.373 Z-4.980 F900.000 
G1 X14.806 Y-29.373 Z-4.980 F900.000 
G1 X15.543 Y-30.111 Z-3.704 F561.542 
G1 X15.584 Y-30.152 Z-3.634 F562.474 
G1 X16.020 Y-30.642 Z-3.216 F683.561 
G1 X16.356 Y-31.115 Z-2.813 F667.907 
G1 X16.602 Y-31.576 Z-2.420 F653.563 
G1 X16.763 Y-32.026 Z-2.036 F641.739 
G1 X16.848 Y-32.468 Z-1.659 F633.687 
G1 X16.859 Y-32.609 Z-1.539 F630.935 
G1 X16.862 Y-32.749 Z-1.420 F630.403 
G1 X16.862 Y-38.850 Z-1.420 F900.000 
G1 X16.862 Y-43.633 Z-1.420 F900.000 
G0 Z3.000 
G0 X15.543 Y-44.952 Z3.000 
G1 X15.543 Y-44.952 Z0.866 F300.000 
G1 X16.862 Y-43.633 Z-1.418 F561.623 
G1 X18.181 Y-44.952 Z0.865 F561.541 
G0 Z3.000 
G0 X19.540 Y-44.779 Z3.000 
G1 X19.540 Y-44.779 Z0.865 F300.000 
G1 X19.671 Y-44.668 Z0.612 F527.704 
G1 X19.679 Y-44.661 Z0.596 F531.887 
G0 Z3.000 
G0 X19.643 Y-44.814 Z3.000 
G1 X19.643 Y-44.814 Z0.866 F300.000 
G1 X19.679 Y-44.661 Z0.595 F500.762 
G1 X19.916 Y-44.441 Z0.162 F544.570 
G1 X19.935 Y-44.422 Z0.127 F549.707 
G1 X20.727 Y-43.658 Z-1.288 F552.431 
G1 X20.872 Y-43.513 Z-1.548 F555.541 
G1 X21.842 Y-42.559 Z-3.254 F557.126 
G1 X23.010 Y-41.385 Z-5.309 F559.135 
G1 X23.010 Y-41.333 Z-5.309 F894.819 
G1 X23.006 Y-40.896 Z-5.315 F894.841 
G1 X22.428 Y-40.287 Z-4.331 F569.715 
G1 X22.416 Y-40.274 Z-4.310 F568.913 
G1 X21.959 Y-39.741 Z-3.877 F689.010 
G1 X21.601 Y-39.222 Z-3.457 F675.270 
G1 X21.334 Y-38.717 Z-3.048 F662.701 
G1 X21.150 Y-38.221 Z-2.647 F652.215 
G1 X21.044 Y-37.732 Z-2.252 F644.750 
G1 X21.022 Y-37.525 Z-2.085 F641.702 
G1 X21.013 Y-37.318 Z-1.918 F640.880 
G1 X20.991 Y-35.585 Z-1.901 F897.003 
G1 X20.989 Y-35.371 Z-1.899 F895.186 
G1 X20.990 Y-35.366 Z-1.901 F892.100 
G1 X20.981 Y-34.322 Z-1.889 F896.269 
G1 X20.982 Y-34.277 Z-1.891 F898.329 
G1 X20.986 Y-33.494 Z-1.900 F894.245 
G1 X20.990 Y-33.355 Z-1.909 F879.549 
G1 X21.018 Y-32.794 Z-1.958 F865.809 
G1 X21.039 Y-32.555 Z-1.997 F841.689 
G1 X21.065 Y-32.342 Z-2.041 F819.000 
G1 X21.109 Y-32.071 Z-2.121 F794.226 
G1 X21.146 Y-31.892 Z-2.183 F771.038 
G1 X21.257 Y-31.476 Z-2.379 F738.458 
G1 X21.308 Y-31.319 Z-2.467 F709.908 
G1 X21.519 Y-30.796 Z-2.835 F679.562 
G1 X21.591 Y-30.646 Z-2.958 F654.045 
G1 X21.932 Y-30.039 Z-3.555 F630.301 
G1 X22.033 Y-29.882 Z-3.728 F611.069 
G1 X22.057 Y-29.846 Z-3.772 F610.441 
G1 X22.430 Y-29.332 Z-4.418 F596.570 
G1 X22.571 Y-29.155 Z-4.659 F585.710 
G1 X22.658 Y-29.047 Z-4.813 F583.764 
G1 X22.642 Y-29.030 Z-4.783 F567.135 
G1 X22.176 Y-28.489 Z-4.111 F611.661 
G1 X21.802 Y-27.959 Z-3.453 F597.361 
G1 X21.661 Y-27.723 Z-3.160 F587.722 
G1 X21.536 Y-27.487 Z-2.867 F582.180 
G1 X21.501 Y-27.418 Z-2.807 F649.816 
G1 X21.285 Y-26.899 Z-2.487 F702.107 
G1 X21.168 Y-26.482 Z-2.229 F695.039 
G1 X21.141 Y-26.365 Z-2.183 F764.189 
G1 X21.077 Y-25.953 Z-2.073 F798.964 
G1 X21.037 Y-25.553 Z-2.002 F836.544 
G1 X21.025 Y-25.362 Z-1.982 F855.499 
G1 X21.000 Y-24.761 Z-1.939 F874.164 
G1 X20.999 Y-24.659 Z-1.938 F884.595 
G1 X20.992 Y-23.881 Z-1.925 F894.895 
G1 X20.993 Y-23.843 Z-1.927 F898.987 
G1 X21.000 Y-21.960 Z-1.937 F897.383 
G1 X21.038 Y-21.475 Z-2.345 F634.798 
G1 X21.150 Y-20.987 Z-2.752 F639.010 
G1 X21.337 Y-20.495 Z-3.162 F646.813 
G1 X21.604 Y-19.996 Z-3.580 F657.404 
G1 X21.955 Y-19.485 Z-4.006 F669.876 
G1 X22.209 Y-19.175 Z-4.266 F680.589 
G1 X22.492 Y-18.864 Z-4.525 F688.765 
G1 X22.815 Y-18.528 Z-5.081 F565.459 
G1 X19.380 Y-15.093 Z0.864 F561.649 
G0 Z3.000 
G0 X18.181 Y-15.352 Z3.000 
G1 X18.181 Y-15.352 Z0.865 F300.000 
G1 X17.032 Y-16.501 Z-1.125 F561.544 
G1 X16.901 Y-16.638 Z-1.353 F565.528 
G1 X16.628 Y-16.366 Z-0.861 F554.292 
G1 X16.538 Y-16.273 Z-0.693 F551.218 
G1 X16.380 Y-16.124 Z-0.401 F543.962 
G1 X16.251 Y-16.015 Z-0.164 F537.097 
G1 X16.248 Y-16.012 Z-0.158 F529.885 
G1 X16.154 Y-15.937 Z0.022 F523.926 
G0 Z3.000 
G0 X16.099 Y-15.901 Z3.000 
G1 X16.099 Y-15.901 Z0.127 F300.000 
G1 X16.154 Y-15.937 Z0.023 F515.248 
G1 X15.928 Y-15.502 Z0.864 F501.609 
G0 Z3.000 
G0 X15.820 Y-15.573 Z3.000 
G1 X15.820 Y-15.573 Z0.865 F300.000 
G1 X16.099 Y-15.901 Z0.127 F501.951 
G1 X16.064 Y-15.885 Z0.191 F507.197 
G0 Z3.000 
G0 X15.740 Y-15.660 Z3.000 
G1 X15.740 Y-15.660 Z0.864 F300.000 
G1 X16.064 Y-15.885 Z0.191 F502.405 
G1 X15.688 Y-15.763 Z0.864 F502.754 
G0 Z3.000 
G0 X16.901 Y-16.638 Z3.000 
G1 X16.901 Y-16.638 Z-1.353 F300.000 
G1 X16.883 Y-17.534 Z-1.383 F887.172 
G1 X16.867 Y-19.162 Z-1.410 F893.598 
G1 X16.862 Y-21.090 Z-1.420 F898.117 
G1 X16.862 Y-25.998 Z-1.420 F900.000 
G1 X16.826 Y-26.436 Z-1.797 F628.015 
G1 X16.717 Y-26.876 Z-2.178 F633.056 
G1 X16.531 Y-27.320 Z-2.563 F642.422 
G1 X16.265 Y-27.773 Z-2.955 F654.981 
G1 X15.912 Y-28.237 Z-3.357 F669.511 
G1 X15.735 Y-28.436 Z-3.530 F680.392 
G1 X15.543 Y-28.636 Z-3.703 F686.916 
G1 X14.806 Y-29.373 Z-4.982 F561.542 
G0 Z3.000 
G0 X22.658 Y-29.047 Z3.000 
G1 X22.658 Y-29.047 Z-4.813 F300.000 
G1 X22.852 Y-29.037 Z-4.775 F826.059 
G1 X23.249 Y-28.656 Z-4.071 F553.889 
G1 X23.329 Y-28.577 Z-3.928 F555.040 
G1 X24.397 Y-27.521 Z-2.037 F556.347 
G1 X24.841 Y-27.086 Z-1.250 F555.310 
G1 X24.928 Y-26.997 Z-1.089 F551.663 
G1 X25.388 Y-26.547 Z-0.242 F548.386 
G1 X25.576 Y-26.374 Z0.103 F543.244 
G1 X25.747 Y-26.205 Z0.436 F538.421 
G1 X25.800 Y-26.158 Z0.538 F532.039 
G0 Z3.000 
G0 X25.858 Y-26.097 Z3.000 
G1 X25.858 Y-26.097 Z0.664 F300.000 
G1 X25.800 Y-26.158 Z0.536 F521.943 
G1 X25.986 Y-26.116 Z0.865 F500.625 
G0 Z3.000 
G0 X25.954 Y-26.017 Z3.000 
G1 X25.954 Y-26.017 Z0.865 F300.000 
G1 X25.858 Y-26.097 Z0.664 F512.908 
G1 X25.901 Y-25.989 Z0.866 F501.784 
G0 Z3.000 
G0 X26.336 Y-21.822 Z3.000 
G1 X26.336 Y-21.822 Z0.866 F300.000 
G1 X24.399 Y-19.961 Z-2.491 F557.772 
G1 X24.398 Y-19.960 Z-2.493 F563.085 
G1 X22.903 Y-18.526 Z-5.081 F557.826 
G1 X22.858 Y-18.527 Z-5.083 F886.502 
G1 X22.815 Y-18.528 Z-5.084 F885.939 
G0 Z3.000 
G0 X22.903 Y-18.526 Z3.000 
G1 X22.903 Y-18.526 Z-5.079 F300.000 
G1 X22.972 Y-18.457 Z-4.960 F561.513 
G1 X26.336 Y-15.093 Z0.866 F561.557 
G0 Z3.000 
G0 X26.576 Y-14.338 Z3.000 
G1 X26.576 Y-14.338 Z0.865 F300.000 
G1 X28.122 Y-12.717 Z-1.810 F566.264 
G1 X28.215 Y-12.619 Z-1.972 F566.082 
G1 X29.814 Y-14.184 Z0.865 F554.901 
G0 Z3.000 
G0 X28.215 Y-12.619 Z3.000 
G1 X28.215 Y-12.619 Z-1.972 F300.000 
G1 X28.255 Y-9.596 Z-2.041 F891.272 
G1 X28.256 Y-9.596 Z-2.044 F900.000 
G1 X28.315 Y-5.051 Z-2.145 F891.269 
G1 X28.359 Y-4.548 Z-2.395 F725.800 
G1 X28.475 Y-4.042 Z-2.644 F729.132 
G1 X28.668 Y-3.530 Z-2.896 F735.080 
G1 X28.852 Y-3.165 Z-3.076 F741.694 
G1 X29.179 Y-2.648 Z-3.700 F596.405 
G1 X29.541 Y-2.181 Z-4.263 F609.061 
G1 X29.225 Y-0.228 Z-3.701 F794.573 
G1 X28.992 Y1.203 Z-3.289 F794.188 
G1 X28.434 Y4.735 Z-2.245 F791.540 
G1 X28.391 Y5.019 Z-2.158 F786.892 
G1 X28.349 Y5.273 Z-2.073 F778.223 
G1 X28.322 Y5.405 Z-2.020 F756.911 
G1 X28.310 Y5.452 Z-1.996 F724.799 
G1 X28.305 Y5.467 Z-1.986 F689.273 
G1 X28.282 Y5.519 Z-1.945 F658.476 
G1 X28.217 Y5.647 Z-1.826 F636.504 
G1 X27.819 Y6.338 Z-1.103 F618.630 
G1 X27.336 Y7.119 Z-0.228 F609.367 
G1 X27.155 Y7.424 Z0.117 F604.619 
G1 X26.934 Y7.773 Z0.536 F597.501 
G1 X26.919 Y7.800 Z0.569 F589.070 
G1 X26.823 Y7.943 Z0.764 F576.123 
G0 Z3.000 
G0 X26.765 Y7.958 Z3.000 
G1 X26.765 Y7.958 Z0.865 F300.000 
G1 X26.823 Y7.943 Z0.764 F503.826 
G1 X26.787 Y8.015 Z0.865 F555.451 
G0 Z3.000 
G0 X33.150 Y4.899 Z3.000 
G1 X33.150 Y4.899 Z0.865 F300.000 
G1 X33.161 Y4.871 Z0.827 F553.642 
G1 X33.140 Y4.878 Z0.866 F506.265 
G0 Z3.000 
G0 X33.161 Y4.871 Z3.000 
G1 X33.161 Y4.871 Z0.827 F300.000 
G1 X33.198 Y4.808 Z0.746 F581.675 
G1 X33.260 Y4.711 Z0.625 F591.411 
G1 X33.348 Y4.562 Z0.453 F600.008 
G1 X33.512 Y4.300 Z0.152 F605.763 
G1 X33.889 Y3.678 Z-0.541 F609.126 
G1 X34.298 Y3.024 Z-1.262 F612.940 
G1 X34.736 Y2.315 Z-2.035 F614.303 
G1 X36.410 Y3.363 Z0.865 F528.407 
G0 Z3.000 
G0 X37.819 Y2.562 Z3.000 
G1 X37.819 Y2.562 Z0.864 F300.000 
G1 X37.846 Y2.504 Z0.779 F545.626 
G0 Z3.000 
G0 X37.798 Y2.519 Z3.000 
G1 X37.798 Y2.519 Z0.866 F300.000 
G1 X37.846 Y2.504 Z0.781 F502.680 
G1 X37.929 Y2.374 Z0.600 F571.715 
G1 X37.933 Y2.368 Z0.592 F581.154 
G1 X38.152 Y2.012 Z0.164 F595.694 
G1 X38.229 Y1.879 Z0.013 F602.647 
G1 X38.952 Y0.694 Z-1.314 F608.656 
G1 X39.317 Y0.079 Z-1.986 F611.843 
G1 X40.249 Y-1.454 Z-3.645 F614.929 
G1 X40.417 Y-1.734 Z-3.944 F616.435 
G1 X40.395 Y-1.811 Z-3.909 F742.059 
G1 X40.376 Y-1.880 Z-3.878 F743.074 
G1 X40.238 Y-2.546 Z-3.659 F780.772 
G1 X40.237 Y-2.554 Z-3.657 F815.703 
G1 X40.206 Y-2.781 Z-3.607 F818.436 
G1 X40.171 Y-3.147 Z-3.548 F839.148 
G1 X40.150 Y-3.476 Z-3.515 F861.683 
G1 X40.142 Y-3.681 Z-3.502 F875.695 
G1 X40.133 Y-4.079 Z-3.492 F890.125 
G1 X40.132 Y-4.174 Z-3.491 F895.564 
G1 X40.129 Y-5.199 Z-3.495 F898.249 
G1 X40.136 Y-5.475 Z-3.523 F862.189 
G1 X40.158 Y-5.752 Z-3.550 F862.300 
G1 X40.262 Y-6.359 Z-3.798 F753.925 
G1 X40.457 Y-7.021 Z-4.068 F757.540 
G1 X40.389 Y-7.262 Z-3.950 F730.360 
G1 X40.367 Y-7.343 Z-3.911 F737.398 
G1 X40.223 Y-8.111 Z-3.661 F781.700 
G1 X40.192 Y-8.379 Z-3.609 F827.200 
G1 X40.163 Y-8.783 Z-3.558 F851.333 
G1 X40.149 Y-9.175 Z-3.534 F877.099 
G1 X40.147 Y-9.402 Z-3.529 F891.919 
G1 X40.151 Y-9.887 Z-3.539 F892.600 
G1 X40.153 Y-9.985 Z-3.542 F886.749 
G1 X40.190 Y-11.221 Z-3.605 F880.419 
G1 X40.202 Y-11.461 Z-3.627 F865.288 
G1 X37.609 Y-14.054 Z0.865 F561.546 
G0 Z3.000 
G0 X36.410 Y-14.054 Z3.000 
G1 X36.410 Y-14.054 Z0.865 F300.000 
G1 X34.672 Y-12.315 Z-2.145 F561.585 
G1 X34.399 Y-12.041 Z-2.619 F561.569 
G1 X32.932 Y-14.052 Z0.865 F536.942 
G0 Z3.000 
G0 X31.988 Y-15.829 Z3.000 
G1 X31.988 Y-15.829 Z0.865 F300.000 
G1 X31.358 Y-16.960 Z-1.361 F501.257 
G0 Z3.000 
G0 X31.736 Y-15.724 Z3.000 
G1 X31.736 Y-15.724 Z0.866 F300.000 
G1 X31.358 Y-16.960 Z-1.362 F500.867 
G1 X31.330 Y-17.025 Z-1.481 F503.700 
G1 X31.189 Y-17.288 Z-1.976 F507.061 
G1 X31.115 Y-17.449 Z-2.265 F510.375 
G1 X30.897 Y-17.887 Z-3.052 F512.630 
G1 X30.834 Y-18.025 Z-3.292 F515.138 
G1 X30.633 Y-18.427 Z-3.992 F518.013 
G1 X30.527 Y-18.612 Z-4.315 F523.039 
G1 X29.714 Y-17.790 Z-2.906 F562.577 
G1 X27.536 Y-15.612 Z0.866 F561.552 
G0 Z3.000 
G0 X30.527 Y-18.612 Z3.000 
G1 X30.527 Y-18.612 Z-4.315 F300.000 
G1 X30.549 Y-18.693 Z-4.354 F733.850 
G1 X30.610 Y-18.960 Z-4.459 F760.123 
G1 X30.677 Y-19.318 Z-4.574 F782.689 
G1 X30.698 Y-19.460 Z-4.612 F802.664 
G1 X30.246 Y-19.912 Z-3.829 F561.563 
G1 X29.796 Y-20.408 Z-3.386 F676.528 
G1 X29.446 Y-20.888 Z-2.956 F660.796 
G1 X29.187 Y-21.356 Z-2.537 F646.278 
G1 X29.012 Y-21.813 Z-2.128 F634.113 
G1 X28.915 Y-22.262 Z-1.726 F625.501 
G1 X28.901 Y-22.398 Z-1.605 F622.286 
G1 X28.893 Y-22.533 Z-1.484 F621.506 
G1 X28.814 Y-24.915 Z-1.349 F878.387 
G1 X28.814 Y-24.941 Z-1.348 F882.154 
G1 X28.783 Y-26.283 Z-1.296 F885.215 
G1 X28.783 Y-26.308 Z-1.295 F887.496 
G1 X28.758 Y-28.202 Z-1.252 F891.253 
G1 X28.758 Y-28.215 Z-1.251 F893.981 
G1 X28.742 Y-30.282 Z-1.224 F895.029 
G1 X28.741 Y-30.411 Z-1.223 F894.980 
G1 X28.742 Y-30.424 Z-1.223 F896.874 
G1 X28.735 Y-32.669 Z-1.212 F898.145 
G1 X28.735 Y-32.675 Z-1.212 F900.000 
G1 X28.735 Y-37.974 Z-1.212 F900.000 
G1 X28.772 Y-38.392 Z-1.613 F608.539 
G1 X28.881 Y-38.811 Z-2.015 F614.119 
G1 X29.066 Y-39.235 Z-2.422 F624.458 
G1 X29.332 Y-39.666 Z-2.836 F638.256 
G1 X29.685 Y-40.109 Z-3.261 F654.138 
G1 X29.934 Y-40.372 Z-3.513 F667.336 
G1 X30.211 Y-40.635 Z-3.766 F677.066 
G1 X30.771 Y-41.139 Z-4.736 F552.289 
G1 X30.728 Y-41.407 Z-4.663 F796.412 
G1 X30.668 Y-41.709 Z-4.560 F776.069 
G1 X30.635 Y-41.842 Z-4.504 F752.431 
G0 Z3.000 
G0 X30.771 Y-41.139 Z3.000 
G1 X30.771 Y-41.139 Z-4.736 F300.000 
G1 X30.887 Y-41.046 Z-4.597 F612.192 
G1 X31.028 Y-40.926 Z-4.415 F603.978 
G1 X31.267 Y-40.713 Z-4.112 F610.174 
G1 X31.327 Y-40.657 Z-4.037 F617.466 
G1 X31.591 Y-40.399 Z-3.687 F610.056 
G1 X31.822 Y-40.160 Z-3.384 F617.908 
G1 X31.950 Y-40.009 Z-3.211 F625.967 
G1 X32.070 Y-39.861 Z-3.050 F631.741 
G1 X32.290 Y-39.571 Z-2.762 F644.644 
G1 X32.305 Y-39.548 Z-2.742 F659.117 
G1 X32.387 Y-39.426 Z-2.631 F652.338 
G1 X32.573 Y-39.124 Z-2.385 F668.345 
G1 X32.653 Y-38.981 Z-2.281 F684.994 
G1 X32.736 Y-38.822 Z-2.176 F697.068 
G1 X32.783 Y-38.720 Z-2.114 F708.382 
G1 X32.849 Y-38.569 Z-2.029 F717.381 
G1 X32.942 Y-38.336 Z-1.913 F734.821 
G1 X32.999 Y-38.176 Z-1.845 F755.579 
G1 X33.060 Y-37.987 Z-1.777 F772.564 
G1 X33.061 Y-37.984 Z-1.776 F793.248 
G1 X33.108 Y-37.811 Z-1.719 F782.857 
G1 X33.250 Y-37.542 Z-1.567 F762.588 
G1 X33.214 Y-37.280 Z-1.613 F841.768 
G1 X33.237 Y-37.126 Z-1.596 F858.963 
G1 X33.247 Y-37.046 Z-1.592 F877.141 
G1 X33.284 Y-36.705 Z-1.564 F869.580 
G1 X33.292 Y-36.620 Z-1.560 F879.876 
G1 X33.338 Y-36.025 Z-1.543 F889.563 
G1 X33.380 Y-35.379 Z-1.510 F880.545 
G1 X33.383 Y-35.330 Z-1.509 F886.838 
G1 X33.457 Y-33.713 Z-1.477 F892.497 
G1 X33.458 Y-33.696 Z-1.476 F882.092 
G1 X33.459 Y-33.667 Z-1.475 F887.867 
G1 X33.500 Y-31.808 Z-1.429 F890.594 
G1 X33.501 Y-31.785 Z-1.429 F895.139 
G1 X33.510 Y-31.064 Z-1.422 F896.237 
G1 X33.514 Y-29.872 Z-1.389 F889.404 
G1 X33.514 Y-29.848 Z-1.389 F893.583 
G1 X33.503 Y-28.075 Z-1.369 F895.821 
G1 X33.502 Y-28.048 Z-1.368 F887.200 
G1 X33.502 Y-28.012 Z-1.368 F892.490 
G1 X33.452 Y-26.496 Z-1.353 F896.298 
G1 X33.450 Y-26.452 Z-1.353 F897.420 
G1 X33.421 Y-25.853 Z-1.366 F892.046 
G1 X33.417 Y-25.796 Z-1.368 F884.366 
G1 X33.394 Y-25.470 Z-1.387 F877.847 
G1 X33.382 Y-25.331 Z-1.392 F885.501 
G1 X33.377 Y-25.276 Z-1.395 F878.702 
G1 X33.277 Y-24.322 Z-1.468 F871.143 
G1 X33.198 Y-23.633 Z-1.508 F877.815 
G1 X33.189 Y-23.566 Z-1.514 F869.844 
G1 X33.147 Y-23.262 Z-1.544 F862.520 
G1 X33.116 Y-23.055 Z-1.560 F869.900 
G1 X33.092 Y-22.922 Z-1.577 F853.358 
G1 X33.021 Y-22.571 Z-1.637 F836.541 
G1 X32.953 Y-22.300 Z-1.706 F807.900 
G1 X32.933 Y-22.239 Z-1.726 F781.057 
G1 X32.854 Y-22.006 Z-1.809 F776.380 
G1 X32.659 Y-21.550 Z-2.041 F733.039 
G1 X32.612 Y-21.460 Z-2.101 F695.562 
G1 X32.609 Y-21.453 Z-2.106 F698.532 
G1 X32.361 Y-21.054 Z-2.418 F675.725 
G1 X32.302 Y-20.971 Z-2.495 F653.373 
G1 X32.123 Y-20.735 Z-2.734 F640.102 
G1 X31.853 Y-20.439 Z-3.091 F622.456 
G1 X31.687 Y-20.271 Z-3.314 F610.385 
G1 X31.565 Y-20.152 Z-3.479 F606.536 
G1 X31.251 Y-19.883 Z-3.893 F599.656 
G1 X31.017 Y-19.695 Z-4.207 F591.232 
G1 X31.007 Y-19.688 Z-4.219 F598.314 
G1 X30.925 Y-19.626 Z-4.324 F596.806 
G1 X30.698 Y-19.460 Z-4.613 F594.976 
G0 Z3.000 
G0 X34.399 Y-12.041 Z3.000 
G1 X34.399 Y-12.041 Z-2.617 F300.000 
G1 X33.891 Y-8.803 Z-3.496 F799.895 
G1 X33.891 Y-8.803 Z-3.496 F692.814 
G1 X33.479 Y-6.176 Z-4.209 F799.917 
G1 X32.918 Y-5.790 Z-3.699 F654.424 
G1 X32.448 Y-5.389 Z-3.202 F640.861 
G1 X32.064 Y-4.972 Z-2.714 F628.870 
G1 X31.764 Y-4.547 Z-2.245 F619.387 
G1 X31.338 Y-3.850 Z-2.234 F895.464 
G1 X31.036 Y-3.423 Z-2.705 F619.765 
G1 X30.660 Y-3.016 Z-3.182 F628.934 
G1 X30.203 Y-2.626 Z-3.667 F640.474 
G1 X29.541 Y-2.181 Z-4.263 F654.964 
G0 Z3.000 
G0 X33.479 Y-6.176 Z3.000 
G1 X33.479 Y-6.176 Z-4.210 F300.000 
G1 X33.891 Y-5.649 Z-3.539 F599.248 
G1 X34.090 Y-5.345 Z-3.151 F588.120 
G1 X34.372 Y-4.817 Z-2.871 F732.675 
G1 X34.568 Y-4.303 Z-2.598 F723.974 
G1 X34.683 Y-3.799 Z-2.330 F717.524 
G1 X34.723 Y-3.283 Z-2.056 F713.987 
G1 X34.727 Y0.798 Z-2.049 F899.326 
G1 X34.736 Y2.315 Z-2.033 F895.896 
G0 Z3.000 
G0 X40.417 Y-1.734 Z3.000 
G1 X40.417 Y-1.734 Z-3.945 F300.000 
G1 X41.054 Y-1.584 Z-3.309 F605.698 
G1 X41.845 Y-1.500 Z-2.462 F587.830 
G1 X41.893 Y-1.499 Z-2.421 F637.713 
G1 X42.427 Y-1.522 Z-2.141 F714.902 
G1 X42.913 Y-1.614 Z-1.866 F706.402 
G1 X43.031 Y-1.648 Z-1.796 F702.650 
G1 X43.146 Y-1.687 Z-1.727 F701.534 
G1 X43.241 Y-1.720 Z-1.703 F816.253 
G1 X43.345 Y-1.759 Z-1.684 F827.896 
G1 X43.461 Y-1.805 Z-1.662 F839.935 
G1 X43.465 Y-1.807 Z-1.661 F843.673 
G1 X43.545 Y-1.839 Z-1.648 F841.056 
G1 X43.580 Y-1.853 Z-1.644 F844.908 
G1 X44.251 Y-2.129 Z-1.546 F849.327 
G1 X44.275 Y-2.139 Z-1.544 F851.986 
G1 X45.715 Y-2.748 Z-1.360 F855.589 
G1 X45.731 Y-2.755 Z-1.358 F858.385 
G1 X46.350 Y-3.012 Z-1.288 F860.350 
G1 X47.389 Y-3.442 Z-1.169 F859.763 
G1 X47.834 Y-3.635 Z-1.102 F847.209 
G1 X48.187 Y-3.812 Z-1.011 F813.737 
G1 X48.380 Y-3.925 Z-0.934 F773.375 
G1 X48.592 Y-3.798 Z-0.525 F507.604 
G1 X48.774 Y-3.708 Z-0.182 F504.073 
G0 Z3.000 
G0 X48.380 Y-3.925 Z3.000 
G1 X48.380 Y-3.925 Z-0.936 F300.000 
G1 X48.380 Y-3.925 Z-0.936 F634.570 
G1 X48.400 Y-3.951 Z-0.905 F614.545 
G1 X48.503 Y-4.076 Z-0.752 F610.702 
G1 X48.650 Y-4.278 Z-0.497 F595.914 
G1 X48.798 Y-4.501 Z-0.206 F584.076 
G1 X48.913 Y-4.697 Z0.056 F572.732 
G1 X48.926 Y-4.720 Z0.087 F569.684 
G1 X49.023 Y-4.909 Z0.355 F556.095 
G0 Z3.000 
G0 X49.086 Y-5.068 Z3.000 
G1 X49.086 Y-5.068 Z0.599 F300.000 
G1 X49.046 Y-4.972 Z0.449 F532.421 
G1 X49.023 Y-4.909 Z0.356 F537.151 
G1 X49.288 Y-5.042 Z0.864 F501.276 
G0 Z3.000 
G0 X49.198 Y-5.177 Z3.000 
G1 X49.198 Y-5.177 Z0.865 F300.000 
G1 X49.086 Y-5.068 Z0.598 F502.726 
G1 X49.090 Y-5.086 Z0.628 F514.615 
G0 Z3.000 
G0 X49.147 Y-5.213 Z3.000 
G1 X49.147 Y-5.213 Z0.864 F300.000 
G1 X49.090 Y-5.086 Z0.628 F503.275 
G1 X49.092 Y-5.226 Z0.865 F503.727 
G0 Z3.000 
G0 X49.344 Y-3.492 Z3.000 
G1 X49.344 Y-3.492 Z0.865 F300.000 
G1 X48.774 Y-3.708 Z-0.182 F501.207 
G1 X49.283 Y-3.376 Z0.865 F500.815 
G0 Z3.000 
G0 X48.943 Y-7.444 Z3.000 
G1 X48.943 Y-7.444 Z0.866 F300.000 
G1 X48.758 Y-7.812 Z0.157 F501.202 
G1 X49.033 Y-7.503 Z0.865 F502.049 
G0 Z3.000 
G0 X49.113 Y-7.599 Z3.000 
G1 X49.113 Y-7.599 Z0.865 F300.000 
G1 X48.713 Y-7.875 Z0.027 F500.720 
G1 X48.758 Y-7.812 Z0.157 F505.777 
G0 Z3.000 
G0 X48.713 Y-7.875 Z3.000 
G1 X48.713 Y-7.875 Z0.027 F300.000 
G1 X48.605 Y-8.001 Z-0.243 F510.823 
G1 X48.491 Y-8.119 Z-0.503 F515.185 
G1 X48.206 Y-8.374 Z-1.088 F520.981 
G1 X48.203 Y-8.373 Z-1.088 F828.101 
G1 X47.372 Y-8.149 Z-1.222 F840.870 
G1 X46.156 Y-7.828 Z-1.405 F844.612 
G1 X45.118 Y-7.554 Z-1.560 F845.318 
G1 X44.115 Y-7.291 Z-1.707 F846.389 
G1 X44.097 Y-7.287 Z-1.709 F843.124 
G1 X43.423 Y-7.114 Z-1.817 F841.503 
G1 X43.373 Y-7.102 Z-1.826 F836.476 
G1 X43.061 Y-7.027 Z-1.884 F831.365 
G1 X42.580 Y-6.951 Z-2.104 F738.154 
G1 X42.031 Y-6.945 Z-2.342 F743.604 
G1 X41.978 Y-6.948 Z-2.379 F667.795 
G1 X41.919 Y-6.951 Z-2.420 F660.032 
G1 X40.457 Y-7.021 Z-4.069 F577.453 
G0 Z3.000 
G0 X40.202 Y-11.461 Z3.000 
G1 X40.202 Y-11.461 Z-3.627 F300.000 
G1 X40.714 Y-11.856 Z-3.218 F684.160 
G1 X41.210 Y-12.156 Z-2.820 F670.364 
G1 X41.694 Y-12.369 Z-2.432 F658.268 
G1 X42.169 Y-12.502 Z-2.051 F648.924 
G1 X42.570 Y-12.555 Z-1.730 F643.575 
G1 X43.486 Y-12.615 Z-1.626 F856.767 
G1 X43.783 Y-12.634 Z-1.592 F856.680 
G1 X43.807 Y-12.636 Z-1.589 F859.620 
G1 X45.282 Y-12.720 Z-1.444 F862.493 
G1 X45.304 Y-12.721 Z-1.442 F864.986 
G1 X47.146 Y-12.812 Z-1.285 F867.660 
G1 X47.155 Y-12.812 Z-1.285 F869.033 
G1 X48.165 Y-12.857 Z-1.206 F870.328 
G1 X48.217 Y-12.909 Z-1.119 F561.492 
G1 X49.362 Y-14.054 Z0.865 F561.543 
G0 Z3.000 
G0 X48.165 Y-12.857 Z3.000 
G1 X48.165 Y-12.857 Z-1.206 F300.000 
G1 X49.362 Y-11.764 Z0.866 F553.626 
G0 Z3.000 
G0 X49.063 Y-9.639 Z3.000 
G1 X49.063 Y-9.639 Z0.866 F300.000 
G1 X49.049 Y-9.430 Z0.510 F502.910 
G1 X49.148 Y-9.617 Z0.865 F504.601 
G0 Z3.000 
G0 X49.220 Y-9.554 Z3.000 
G1 X49.220 Y-9.554 Z0.865 F300.000 
G1 X49.042 Y-9.407 Z0.471 F502.133 
G1 X49.049 Y-9.430 Z0.509 F515.589 
G0 Z3.000 
G0 X49.042 Y-9.407 Z3.000 
G1 X49.042 Y-9.407 Z0.471 F300.000 
G1 X49.002 Y-9.327 Z0.341 F530.868 
G1 X49.278 Y-9.455 Z0.864 F500.808 
G0 Z3.000 
G0 X49.324 Y-9.326 Z3.000 
G1 X49.324 Y-9.326 Z0.866 F300.000 
G1 X48.942 Y-9.229 Z0.186 F500.635 
