(Exported by FreeCAD)
(Post Processor: linuxcnc_post)
(Output Time:2022-08-30 16:03:25.103018)
(begin preamble)
G17 G54 G40 G49 G80 G90
G21
(begin operation: G54)
(machine units: mm/min)
G54 
G0 Z17.700 
(finish operation: G54)
(begin operation: 10mm_Endmill001)
(machine units: mm/min)
(10mm_Endmill001) 
M5
M6 T2 
G43 H2 
M3 S12000 
(finish operation: 10mm_Endmill001)
(begin operation: Axle)
(machine units: mm/min)
(Axle) 
(Compensated Tool Path. Diameter: 10.0) 
G0 Z17.700 
G0 X261.629 Y261.629 
G0 Z15.700 
G1 X261.629 Y261.629 Z2.700 F300.000 
G2 X10.761 Y-369.843 Z2.700 I-261.629 J-261.629 F600.000 
G2 X-369.843 Y-10.761 Z2.700 I-10.761 J369.843 F600.000 
G2 X-10.761 Y369.843 Z2.700 I369.843 J10.761 F600.000 
G2 X261.629 Y261.629 Z2.700 I10.761 J-369.843 F600.000 
G1 X261.629 Y261.629 Z0.000 F300.000 
G2 X10.761 Y-369.843 Z0.000 I-261.629 J-261.629 F600.000 
G2 X-369.843 Y-10.761 Z0.000 I-10.761 J369.843 F600.000 
G2 X-10.761 Y369.843 Z0.000 I369.843 J10.761 F600.000 
G2 X261.629 Y261.629 Z0.000 I10.761 J-369.843 F600.000 
G0 Z17.700 
G0 Z17.700 
(finish operation: Axle)
(begin operation: Spoke)
(machine units: mm/min)
(Spoke) 
(Compensated Tool Path. Diameter: 10.0) 
G0 Z17.700 
G0 X34.330 Y318.279 
G0 Z15.700 
G1 X34.330 Y318.279 Z12.700 F300.000 
G2 X47.513 Y273.969 Z12.700 I-34.330 J-34.330 F600.000 
G1 X2.122 Y56.831 Z12.700 F600.000 
G2 X0.445 Y55.054 Z12.700 I-2.138 J0.338 F600.000 
G2 X-2.122 Y56.831 Z12.700 I-0.442 J2.103 F600.000 
G1 X-47.513 Y273.969 Z12.700 F600.000 
G2 X-47.391 Y294.489 Z12.700 I47.536 J9.979 F600.000 
G2 X34.330 Y318.279 Z12.700 I47.392 J-10.540 F600.000 
G0 Z17.700 
G0 Z17.700 
(finish operation: Spoke)
(begin operation: Circumference)
(machine units: mm/min)
(Circumference) 
(Compensated Tool Path. Diameter: 10.0) 
G0 Z17.700 
G0 X268.700 Y268.700 
G0 Z15.700 
G1 X268.700 Y268.700 Z2.700 F300.000 
G2 X11.089 Y-379.838 Z2.700 I-268.700 J-268.700 F600.000 
G2 X-379.838 Y-11.089 Z2.700 I-11.089 J379.838 F600.000 
G2 X-11.089 Y379.838 Z2.700 I379.838 J11.089 F600.000 
G2 X268.700 Y268.700 Z2.700 I11.089 J-379.838 F600.000 
G1 X268.700 Y268.700 Z0.000 F300.000 
G2 X11.089 Y-379.838 Z0.000 I-268.700 J-268.700 F600.000 
G2 X-379.838 Y-11.089 Z0.000 I-11.089 J379.838 F600.000 
G2 X-11.089 Y379.838 Z0.000 I379.838 J11.089 F600.000 
G2 X268.700 Y268.700 Z0.000 I11.089 J-379.838 F600.000 
G0 Z17.700 
G0 Z17.700 
(finish operation: Circumference)
(begin operation: Array)
(machine units: mm/min)
(Spoke) 
(Compensated Tool Path. Diameter: 10.0) 
G0 X0.000 Y0.000 Z17.700 
G0 X-143.194 Y286.314 
G0 X-143.194 Y286.314 Z15.700 
G1 X-143.194 Y286.314 Z12.700 F300.000 
G2 X-108.148 Y256.164 Z12.700 I-10.320 J-47.440 F600.000 
G1 X-28.940 Y48.956 Z12.700 F600.000 
G2 X-29.390 Y46.555 Z12.700 I-1.982 J-0.871 F600.000 
G2 X-32.510 Y46.662 Z12.700 I-1.509 J1.531 F600.000 
G1 X-188.089 Y204.790 Z12.700 F600.000 
G2 X-199.081 Y222.119 Z12.700 I34.595 J34.095 F600.000 
G2 X-143.194 Y286.314 Z12.700 I45.567 J16.755 F600.000 
G0 X-143.194 Y286.314 Z17.700 
G0 X-143.194 Y286.314 Z17.700 
(Spoke) 
(Compensated Tool Path. Diameter: 10.0) 
G0 X0.000 Y0.000 Z17.700 
G0 X-275.256 Y163.446 
G0 X-275.256 Y163.446 Z15.700 
G1 X-275.256 Y163.446 Z12.700 F300.000 
G2 X-229.473 Y157.030 Z12.700 I16.966 J-45.488 F600.000 
G1 X-50.814 Y25.538 Z12.700 F600.000 
G2 X-49.894 Y23.275 Z12.700 I-1.196 J-1.805 F600.000 
G2 X-52.576 Y21.678 Z12.700 I-2.097 J0.472 F600.000 
G1 X-268.948 Y70.592 Z12.700 F600.000 
G2 X-287.564 Y79.227 Z12.700 I10.670 J47.386 F600.000 
G2 X-275.256 Y163.446 Z12.700 I29.275 J38.730 F600.000 
G0 X-275.256 Y163.446 Z17.700 
G0 X-275.256 Y163.446 Z17.700 
(Spoke) 
(Compensated Tool Path. Diameter: 10.0) 
G0 X0.000 Y0.000 Z17.700 
G0 X-319.925 Y-11.315 
G0 X-319.925 Y-11.315 Z15.700 
G1 X-319.925 Y-11.315 Z12.700 F300.000 
G2 X-277.942 Y8.039 Z12.700 I38.866 J-29.095 F600.000 
G1 X-56.554 Y-5.988 Z12.700 F600.000 
G2 X-54.557 Y-7.395 Z12.700 I-0.031 J-2.165 F600.000 
G2 X-55.950 Y-10.188 Z12.700 I-2.019 J-0.737 F600.000 
G1 X-264.418 Y-86.019 Z12.700 F600.000 
G2 X-284.747 Y-88.819 Z12.700 I-16.643 J45.632 F600.000 
G2 X-319.925 Y-11.315 Z12.700 I3.688 J48.409 F600.000 
G0 X-319.925 Y-11.315 Z17.700 
G0 X-319.925 Y-11.315 Z17.700 
(Spoke) 
(Compensated Tool Path. Diameter: 10.0) 
G0 X0.000 Y0.000 Z17.700 
G0 X-263.021 Y-182.484 
G0 X-263.021 Y-182.484 Z15.700 
G1 X-263.021 Y-182.484 Z12.700 F300.000 
G2 X-238.166 Y-143.504 Z12.700 I48.426 J-3.463 F600.000 
G1 X-44.339 Y-35.613 Z12.700 F600.000 
G2 X-41.898 Y-35.717 Z12.700 I1.145 J-1.838 F600.000 
G2 X-41.560 Y-38.819 Z12.700 I-1.300 J-1.711 F600.000 
G1 X-175.937 Y-215.319 Z12.700 F600.000 
G2 X-191.526 Y-228.665 Z12.700 I-38.671 J29.390 F600.000 
G2 X-263.021 Y-182.484 Z12.700 I-23.069 J42.718 F600.000 
G0 X-263.021 Y-182.484 Z17.700 
G0 X-263.021 Y-182.484 Z17.700 
(Spoke) 
(Compensated Tool Path. Diameter: 10.0) 
G0 X0.000 Y0.000 Z17.700 
G0 X-122.609 Y-295.715 
G0 X-122.609 Y-295.715 Z15.700 
G1 X-122.609 Y-295.715 Z12.700 F300.000 
G2 X-122.774 Y-249.485 Z12.700 I42.611 J23.267 F600.000 
G1 X-18.047 Y-53.931 Z12.700 F600.000 
G2 X-15.937 Y-52.698 Z12.700 I1.956 J-0.927 F600.000 
G2 X-13.975 Y-55.126 Z12.700 I-0.169 J-2.143 F600.000 
G1 X-31.598 Y-276.257 Z12.700 F600.000 
G2 X-37.496 Y-295.912 Z12.700 I-48.422 J3.818 F600.000 
G2 X-122.609 Y-295.715 Z12.700 I-42.502 J23.465 F600.000 
G0 X-122.609 Y-295.715 Z17.700 
G0 X-122.609 Y-295.715 Z17.700 
(Spoke) 
(Compensated Tool Path. Diameter: 10.0) 
G0 X0.000 Y0.000 Z17.700 
G0 X56.730 Y-315.059 
G0 X56.730 Y-315.059 Z15.700 
G1 X56.730 Y-315.059 Z12.700 F300.000 
G2 X31.598 Y-276.257 Z12.700 I23.267 J42.611 F600.000 
G1 X13.975 Y-55.126 Z12.700 F600.000 
G2 X15.084 Y-52.949 Z12.700 I2.147 J0.278 F600.000 
G2 X18.047 Y-53.931 Z12.700 I1.017 J-1.894 F600.000 
G1 X122.774 Y-249.485 Z12.700 F600.000 
G2 X128.439 Y-269.209 Z12.700 I-42.799 J-22.967 F600.000 
G2 X56.730 Y-315.059 Z12.700 I-48.441 J-3.239 F600.000 
G0 X56.730 Y-315.059 Z17.700 
G0 X56.730 Y-315.059 Z17.700 
(Spoke) 
(Compensated Tool Path. Diameter: 10.0) 
G0 X0.000 Y0.000 Z17.700 
G0 X218.058 Y-234.373 
G0 X218.058 Y-234.373 Z15.700 
G1 X218.058 Y-234.373 Z12.700 F300.000 
G2 X175.937 Y-215.319 Z12.700 I-3.463 J48.426 F600.000 
G1 X41.560 Y-38.819 Z12.700 F600.000 
G2 X41.316 Y-36.389 Z12.700 I1.656 J1.394 F600.000 
G2 X44.339 Y-35.613 Z12.700 I1.879 J-1.043 F600.000 
G1 X238.166 Y-143.504 Z12.700 F600.000 
G2 X253.595 Y-157.034 Z12.700 I-23.588 J-42.460 F600.000 
G2 X218.058 Y-234.373 Z12.700 I-39.000 J-28.914 F600.000 
G0 X218.058 Y-234.373 Z17.700 
G0 X218.058 Y-234.373 Z17.700 
(Spoke) 
(Compensated Tool Path. Diameter: 10.0) 
G0 X0.000 Y0.000 Z17.700 
G0 X310.154 Y-79.276 
G0 X310.154 Y-79.276 Z15.700 
G1 X310.154 Y-79.276 Z12.700 F300.000 
G2 X264.418 Y-86.019 Z12.700 I-29.095 J38.866 F600.000 
G1 X55.950 Y-10.188 Z12.700 F600.000 
G2 X54.430 Y-8.275 Z12.700 I0.639 J2.068 F600.000 
G2 X56.554 Y-5.988 Z12.700 I2.145 J0.138 F600.000 
G1 X277.942 Y8.039 Z12.700 F600.000 
G2 X298.236 Y4.999 Z12.700 I3.112 J-48.472 F600.000 
G2 X310.154 Y-79.276 Z12.700 I-17.177 J-45.409 F600.000 
G0 X310.154 Y-79.276 Z17.700 
G0 X310.154 Y-79.276 Z17.700 
(Spoke) 
(Compensated Tool Path. Diameter: 10.0) 
G0 X0.000 Y0.000 Z17.700 
G0 X303.778 Y100.990 
G0 X303.778 Y100.990 Z15.700 
G1 X303.778 Y100.990 Z12.700 F300.000 
G2 X268.948 Y70.592 Z12.700 I-45.488 J16.966 F600.000 
G1 X52.576 Y21.678 Z12.700 F600.000 
G2 X50.263 Y22.466 Z12.700 I-0.580 J2.086 F600.000 
G2 X50.814 Y25.538 Z12.700 I1.730 J1.276 F600.000 
G1 X229.473 Y157.030 Z12.700 F600.000 
G2 X248.190 Y165.444 Z12.700 I28.825 J-39.095 F600.000 
G2 X303.778 Y100.990 Z12.700 I10.100 J-47.487 F600.000 
G0 X303.778 Y100.990 Z17.700 
G0 X303.778 Y100.990 Z17.700 
(Spoke) 
(Compensated Tool Path. Diameter: 10.0) 
G0 X0.000 Y0.000 Z17.700 
G0 X200.955 Y249.193 
G0 X200.955 Y249.193 Z15.700 
G1 X200.955 Y249.193 Z12.700 F300.000 
G2 X188.089 Y204.790 Z12.700 I-47.440 J-10.320 F600.000 
G1 X32.510 Y46.662 Z12.700 F600.000 
G2 X30.138 Y46.074 Z12.700 I-1.616 J1.441 F600.000 
G2 X28.940 Y48.956 Z12.700 I0.765 J2.008 F600.000 
G1 X108.148 Y256.164 Z12.700 F600.000 
G2 X119.345 Y273.362 Z12.700 I45.385 J-17.305 F600.000 
G2 X200.955 Y249.193 Z12.700 I34.170 J-34.489 F600.000 
G0 X200.955 Y249.193 Z17.700 
G0 X200.955 Y249.193 Z17.700 
(Spoke) 
(Compensated Tool Path. Diameter: 10.0) 
G0 X0.000 Y0.000 Z17.700 
G0 X34.330 Y318.279 
G0 X34.330 Y318.279 Z15.700 
G1 X34.330 Y318.279 Z12.700 F300.000 
G2 X47.513 Y273.969 Z12.700 I-34.330 J-34.330 F600.000 
G1 X2.122 Y56.831 Z12.700 F600.000 
G2 X0.445 Y55.054 Z12.700 I-2.138 J0.338 F600.000 
G2 X-2.122 Y56.831 Z12.700 I-0.442 J2.103 F600.000 
G1 X-47.513 Y273.969 Z12.700 F600.000 
G2 X-47.391 Y294.489 Z12.700 I47.536 J9.979 F600.000 
G2 X34.330 Y318.279 Z12.700 I47.392 J-10.540 F600.000 
G0 X34.330 Y318.279 Z17.700 
G0 X34.330 Y318.279 Z17.700 
(finish operation: Array)
(begin postamble)
M05
G17 G54 G90 G80 G40
M2
