(Exported by FreeCAD)
(Post Processor: linuxcnc_post)
(Output Time:2022-04-14 12:08:32.341875)
(begin preamble)
G17 G54 G40 G49 G80 G90
G21
(begin operation: Fixture)
(machine units: mm/min)
G54 
(finish operation: Fixture)
(begin operation: 6.4mm Endmill001)
(machine units: mm/min)
(6.4mm Endmill001) 
M5
M6 T2 
G43 H2 
M3 S12682 
(finish operation: 6.4mm Endmill001)
(begin operation: BaseInner)
(machine units: mm/min)
(BaseInner) 
(Compensated Tool Path. Diameter: 6.4) 
G0 Z11.252 
G0 X94.359 Y99.729 
G0 Z9.252 
G1 X94.359 Y99.729 Z4.000 F405.000 
G1 X114.660 Y40.856 Z4.000 F811.000 
G2 X111.483 Y36.400 Z4.000 I-3.102 J-1.148 F811.000 
G1 X19.584 Y36.400 Z4.000 F811.000 
G2 X16.200 Y39.784 Z4.000 I-0.071 J3.313 F811.000 
G1 X16.200 Y103.416 Z4.000 F811.000 
G2 X19.584 Y106.800 Z4.000 I3.313 J0.071 F811.000 
G1 X89.485 Y106.800 Z4.000 F811.000 
G2 X92.715 Y104.498 Z4.000 I0.067 J-3.322 F811.000 
G1 X94.359 Y99.729 Z4.000 F811.000 
G1 X94.359 Y99.729 Z1.000 F405.000 
G1 X114.660 Y40.856 Z1.000 F811.000 
G2 X111.483 Y36.400 Z1.000 I-3.102 J-1.148 F811.000 
G1 X19.584 Y36.400 Z1.000 F811.000 
G2 X16.200 Y39.784 Z1.000 I-0.071 J3.313 F811.000 
G1 X16.200 Y103.416 Z1.000 F811.000 
G2 X19.584 Y106.800 Z1.000 I3.313 J0.071 F811.000 
G1 X89.485 Y106.800 Z1.000 F811.000 
G2 X92.715 Y104.498 Z1.000 I0.067 J-3.322 F811.000 
G1 X94.359 Y99.729 Z1.000 F811.000 
G1 X94.359 Y99.729 Z0.200 F405.000 
G1 X114.660 Y40.856 Z0.200 F811.000 
G2 X111.483 Y36.400 Z0.200 I-3.102 J-1.148 F811.000 
G1 X19.584 Y36.400 Z0.200 F811.000 
G2 X16.200 Y39.784 Z0.200 I-0.071 J3.313 F811.000 
G1 X16.200 Y103.416 Z0.200 F811.000 
G2 X19.584 Y106.800 Z0.200 I3.313 J0.071 F811.000 
G1 X89.485 Y106.800 Z0.200 F811.000 
G2 X92.715 Y104.498 Z0.200 I0.067 J-3.322 F811.000 
G1 X94.359 Y99.729 Z0.200 F811.000 
G0 Z11.252 
G0 Z11.252 
G0 X94.359 Y99.729 
G0 X79.511 Y133.479 
G0 X79.511 Y133.479 Z9.252 
G1 X79.511 Y133.479 Z4.000 F405.000 
G2 X78.104 Y133.200 Z4.000 I-1.331 J3.026 F811.000 
G1 X19.584 Y133.200 Z4.000 F811.000 
G2 X16.200 Y136.584 Z4.000 I-0.071 J3.313 F811.000 
G1 X16.200 Y203.416 Z4.000 F811.000 
G2 X19.584 Y206.800 Z4.000 I3.313 J0.071 F811.000 
G1 X55.003 Y206.800 Z4.000 F811.000 
G2 X58.232 Y204.498 Z4.000 I0.067 J-3.322 F811.000 
G1 X81.288 Y137.636 Z4.000 F811.000 
G2 X81.437 Y137.069 Z4.000 I-3.491 J-1.221 F811.000 
G2 X79.511 Y133.479 Z4.000 I-3.257 J-0.565 F811.000 
G1 X79.511 Y133.479 Z1.000 F405.000 
G2 X78.104 Y133.200 Z1.000 I-1.331 J3.026 F811.000 
G1 X19.584 Y133.200 Z1.000 F811.000 
G2 X16.200 Y136.584 Z1.000 I-0.071 J3.313 F811.000 
G1 X16.200 Y203.416 Z1.000 F811.000 
G2 X19.584 Y206.800 Z1.000 I3.313 J0.071 F811.000 
G1 X55.003 Y206.800 Z1.000 F811.000 
G2 X58.232 Y204.498 Z1.000 I0.067 J-3.322 F811.000 
G1 X81.288 Y137.636 Z1.000 F811.000 
G2 X81.437 Y137.069 Z1.000 I-3.491 J-1.221 F811.000 
G2 X79.511 Y133.479 Z1.000 I-3.257 J-0.565 F811.000 
G1 X79.511 Y133.479 Z0.200 F405.000 
G2 X78.104 Y133.200 Z0.200 I-1.331 J3.026 F811.000 
G1 X19.584 Y133.200 Z0.200 F811.000 
G2 X16.200 Y136.584 Z0.200 I-0.071 J3.313 F811.000 
G1 X16.200 Y203.416 Z0.200 F811.000 
G2 X19.584 Y206.800 Z0.200 I3.313 J0.071 F811.000 
G1 X55.003 Y206.800 Z0.200 F811.000 
G2 X58.232 Y204.498 Z0.200 I0.067 J-3.322 F811.000 
G1 X81.288 Y137.636 Z0.200 F811.000 
G2 X81.437 Y137.069 Z0.200 I-3.491 J-1.221 F811.000 
G2 X79.511 Y133.479 Z0.200 I-3.257 J-0.565 F811.000 
G0 Z11.252 
G0 Z11.252 
G0 X79.511 Y133.479 
G0 X44.782 Y233.383 
G0 X44.782 Y233.383 Z9.252 
G1 X44.782 Y233.383 Z4.000 F405.000 
G2 X43.621 Y233.200 Z4.000 I-1.086 J3.125 F811.000 
G1 X22.584 Y233.200 Z4.000 F811.000 
G2 X19.200 Y236.584 Z4.000 I-0.071 J3.313 F811.000 
G1 X19.200 Y273.416 Z4.000 F811.000 
G2 X22.584 Y276.800 Z4.000 I3.313 J0.071 F811.000 
G1 X30.865 Y276.800 Z4.000 F811.000 
G2 X34.094 Y274.498 Z4.000 I0.067 J-3.322 F811.000 
G1 X46.798 Y237.656 Z4.000 F811.000 
G2 X44.782 Y233.383 Z4.000 I-3.102 J-1.148 F811.000 
G1 X44.782 Y233.383 Z1.000 F405.000 
G2 X43.621 Y233.200 Z1.000 I-1.086 J3.125 F811.000 
G1 X22.584 Y233.200 Z1.000 F811.000 
G2 X19.200 Y236.584 Z1.000 I-0.071 J3.313 F811.000 
G1 X19.200 Y273.416 Z1.000 F811.000 
G2 X22.584 Y276.800 Z1.000 I3.313 J0.071 F811.000 
G1 X30.865 Y276.800 Z1.000 F811.000 
G2 X34.094 Y274.498 Z1.000 I0.067 J-3.322 F811.000 
G1 X46.798 Y237.656 Z1.000 F811.000 
G2 X44.782 Y233.383 Z1.000 I-3.102 J-1.148 F811.000 
G1 X44.782 Y233.383 Z0.200 F405.000 
G2 X43.621 Y233.200 Z0.200 I-1.086 J3.125 F811.000 
G1 X22.584 Y233.200 Z0.200 F811.000 
G2 X19.200 Y236.584 Z0.200 I-0.071 J3.313 F811.000 
G1 X19.200 Y273.416 Z0.200 F811.000 
G2 X22.584 Y276.800 Z0.200 I3.313 J0.071 F811.000 
G1 X30.865 Y276.800 Z0.200 F811.000 
G2 X34.094 Y274.498 Z0.200 I0.067 J-3.322 F811.000 
G1 X46.798 Y237.656 Z0.200 F811.000 
G2 X44.782 Y233.383 Z0.200 I-3.102 J-1.148 F811.000 
G0 Z11.252 
G0 Z11.252 
(finish operation: BaseInner)
(begin operation: MirrorInner)
(machine units: mm/min)
(MirrorInner) 
(Compensated Tool Path. Diameter: 6.4) 
G0 Z11.252 
G0 X185.791 Y54.985 
G0 Z9.252 
G1 X185.791 Y54.985 Z4.000 F405.000 
G2 X186.707 Y53.037 Z4.000 I-2.370 J-2.304 F811.000 
G2 X186.826 Y15.765 Z4.000 I-4046.220 J-31.529 F811.000 
G2 X183.878 Y12.409 Z4.000 I-3.305 J-0.070 F811.000 
G2 X175.160 Y12.364 Z4.000 I-6.457 J406.599 F811.000 
G2 X172.094 Y14.267 Z4.000 I-0.068 J3.312 F811.000 
G2 X159.133 Y51.475 Z4.000 I6066.283 J2134.004 F811.000 
G2 X161.869 Y55.907 Z4.000 I3.096 J1.149 F811.000 
G2 X183.358 Y55.986 Z4.000 I16.335 J-1530.885 F811.000 
G2 X185.791 Y54.985 Z4.000 I0.064 J-3.305 F811.000 
G1 X185.791 Y54.985 Z1.000 F405.000 
G2 X186.707 Y53.037 Z1.000 I-2.370 J-2.304 F811.000 
G2 X186.826 Y15.765 Z1.000 I-4046.220 J-31.529 F811.000 
G2 X183.878 Y12.409 Z1.000 I-3.305 J-0.070 F811.000 
G2 X175.160 Y12.364 Z1.000 I-6.457 J406.599 F811.000 
G2 X172.094 Y14.267 Z1.000 I-0.068 J3.312 F811.000 
G2 X159.133 Y51.475 Z1.000 I6066.283 J2134.004 F811.000 
G2 X161.869 Y55.907 Z1.000 I3.096 J1.149 F811.000 
G2 X183.358 Y55.986 Z1.000 I16.335 J-1530.885 F811.000 
G2 X185.791 Y54.985 Z1.000 I0.064 J-3.305 F811.000 
G1 X185.791 Y54.985 Z0.200 F405.000 
G2 X186.707 Y53.037 Z0.200 I-2.370 J-2.304 F811.000 
G2 X186.826 Y15.765 Z0.200 I-4046.220 J-31.529 F811.000 
G2 X183.878 Y12.409 Z0.200 I-3.305 J-0.070 F811.000 
G2 X175.160 Y12.364 Z0.200 I-6.457 J406.599 F811.000 
G2 X172.094 Y14.267 Z0.200 I-0.068 J3.312 F811.000 
G2 X159.133 Y51.475 Z0.200 I6066.283 J2134.004 F811.000 
G2 X161.869 Y55.907 Z0.200 I3.096 J1.149 F811.000 
G2 X183.358 Y55.986 Z0.200 I16.335 J-1530.885 F811.000 
G2 X185.791 Y54.985 Z0.200 I0.064 J-3.305 F811.000 
G0 Z11.252 
G0 Z11.252 
G0 X185.791 Y54.985 
G0 X185.595 Y82.408 
G0 X185.595 Y82.408 Z9.252 
G1 X185.595 Y82.408 Z4.000 F405.000 
G2 X150.841 Y82.301 Z4.000 I-30.434 J4238.904 F811.000 
G2 X147.775 Y84.204 Z4.000 I-0.068 J3.312 F811.000 
G2 X124.392 Y151.385 Z4.000 I15666.366 J5490.587 F811.000 
G2 X127.128 Y155.817 Z4.000 I3.096 J1.149 F811.000 
G2 X186.087 Y155.993 Z4.000 I67.954 J-12951.199 F811.000 
G2 X189.449 Y153.045 Z4.000 I0.076 J-3.305 F811.000 
G2 X189.645 Y85.779 Z4.000 I-16094.865 J-80.601 F811.000 
G2 X186.698 Y82.416 Z4.000 I-3.305 J-0.076 F811.000 
G2 X185.595 Y82.408 Z4.000 I-31.537 J4238.896 F811.000 
G1 X185.595 Y82.408 Z1.000 F405.000 
G2 X150.841 Y82.301 Z1.000 I-30.434 J4238.904 F811.000 
G2 X147.775 Y84.204 Z1.000 I-0.068 J3.312 F811.000 
G2 X124.392 Y151.385 Z1.000 I15666.366 J5490.587 F811.000 
G2 X127.128 Y155.817 Z1.000 I3.096 J1.149 F811.000 
G2 X186.087 Y155.993 Z1.000 I67.954 J-12951.199 F811.000 
G2 X189.449 Y153.045 Z1.000 I0.076 J-3.305 F811.000 
G2 X189.645 Y85.779 Z1.000 I-16094.865 J-80.601 F811.000 
G2 X186.698 Y82.416 Z1.000 I-3.305 J-0.076 F811.000 
G2 X185.595 Y82.408 Z1.000 I-31.537 J4238.896 F811.000 
G1 X185.595 Y82.408 Z0.200 F405.000 
G2 X150.841 Y82.301 Z0.200 I-30.434 J4238.904 F811.000 
G2 X147.775 Y84.204 Z0.200 I-0.068 J3.312 F811.000 
G2 X124.392 Y151.385 Z0.200 I15666.366 J5490.587 F811.000 
G2 X127.128 Y155.817 Z0.200 I3.096 J1.149 F811.000 
G2 X186.087 Y155.993 Z0.200 I67.954 J-12951.199 F811.000 
G2 X189.449 Y153.045 Z0.200 I0.076 J-3.305 F811.000 
G2 X189.645 Y85.779 Z0.200 I-16094.865 J-80.601 F811.000 
G2 X186.698 Y82.416 Z0.200 I-3.305 J-0.076 F811.000 
G2 X185.595 Y82.408 Z0.200 I-31.537 J4238.896 F811.000 
G0 Z11.252 
G0 Z11.252 
G0 X185.595 Y82.408 
G0 X185.125 Y182.410 
G0 X185.125 Y182.410 Z9.252 
G1 X185.125 Y182.410 Z4.000 F405.000 
G2 X116.099 Y182.212 Z4.000 I-88.576 J18857.689 F811.000 
G2 X113.034 Y184.115 Z4.000 I-0.067 J3.312 F811.000 
G2 X90.762 Y248.098 Z4.000 I14591.577 J5114.948 F811.000 
G2 X93.498 Y252.531 Z4.000 I3.096 J1.149 F811.000 
G2 X185.836 Y252.792 Z4.000 I120.916 J-26407.615 F811.000 
G2 X189.199 Y249.845 Z4.000 I0.076 J-3.305 F811.000 
G2 X189.387 Y185.778 Z4.000 I-14875.850 J-75.692 F811.000 
G2 X186.439 Y182.416 Z4.000 I-3.305 J-0.076 F811.000 
G2 X185.125 Y182.410 Z4.000 I-89.891 J18857.683 F811.000 
G1 X185.125 Y182.410 Z1.000 F405.000 
G2 X116.099 Y182.212 Z1.000 I-88.576 J18857.689 F811.000 
G2 X113.034 Y184.115 Z1.000 I-0.067 J3.312 F811.000 
G2 X90.762 Y248.098 Z1.000 I14591.577 J5114.948 F811.000 
G2 X93.498 Y252.531 Z1.000 I3.096 J1.149 F811.000 
G2 X185.836 Y252.792 Z1.000 I120.916 J-26407.615 F811.000 
G2 X189.199 Y249.845 Z1.000 I0.076 J-3.305 F811.000 
G2 X189.387 Y185.778 Z1.000 I-14875.850 J-75.692 F811.000 
G2 X186.439 Y182.416 Z1.000 I-3.305 J-0.076 F811.000 
G2 X185.125 Y182.410 Z1.000 I-89.891 J18857.683 F811.000 
G1 X185.125 Y182.410 Z0.200 F405.000 
G2 X116.099 Y182.212 Z0.200 I-88.576 J18857.689 F811.000 
G2 X113.034 Y184.115 Z0.200 I-0.067 J3.312 F811.000 
G2 X90.762 Y248.098 Z0.200 I14591.577 J5114.948 F811.000 
G2 X93.498 Y252.531 Z0.200 I3.096 J1.149 F811.000 
G2 X185.836 Y252.792 Z0.200 I120.916 J-26407.615 F811.000 
G2 X189.199 Y249.845 Z0.200 I0.076 J-3.305 F811.000 
G2 X189.387 Y185.778 Z0.200 I-14875.850 J-75.692 F811.000 
G2 X186.439 Y182.416 Z0.200 I-3.305 J-0.076 F811.000 
G2 X185.125 Y182.410 Z0.200 I-89.891 J18857.683 F811.000 
G0 Z11.252 
G0 Z11.252 
(finish operation: MirrorInner)
(begin operation: Outer Profile)
(machine units: mm/min)
(Outer Profile) 
(Compensated Tool Path. Diameter: 6.4) 
G0 Z11.252 
G0 X60.725 Y262.903 
G0 Z9.252 
G1 X60.725 Y262.903 Z4.000 F405.000 
G1 X148.053 Y9.662 Z4.000 F811.000 
G2 X139.052 Y-3.196 Z4.000 I-9.172 J-3.158 F811.000 
G1 X124.500 Y-3.200 Z4.000 F811.000 
G2 X114.802 Y6.579 Z4.000 I0.007 J9.705 F811.000 
G3 X111.416 Y10.000 Z4.000 I-3.317 J0.104 F811.000 
G1 X34.586 Y10.000 Z4.000 F811.000 
G3 X31.199 Y6.425 Z4.000 I-0.067 J-3.328 F811.000 
G2 X21.667 Y-3.196 Z4.000 I-9.701 J0.079 F811.000 
G1 X4.500 Y-3.200 Z4.000 F811.000 
G2 X-5.196 Y6.333 Z4.000 I0.005 J9.702 F811.000 
G1 X-5.200 Y283.500 Z4.000 F811.000 
G2 X4.333 Y293.196 Z4.000 I9.702 J-0.005 F811.000 
G1 X43.366 Y293.200 Z4.000 F811.000 
G2 X52.478 Y286.817 Z4.000 I-0.007 J-9.705 F811.000 
G1 X60.725 Y262.903 Z4.000 F811.000 
G1 X60.725 Y262.903 Z1.000 F405.000 
G1 X148.053 Y9.662 Z1.000 F811.000 
G2 X139.052 Y-3.196 Z1.000 I-9.172 J-3.158 F811.000 
G1 X124.500 Y-3.200 Z1.000 F811.000 
G2 X114.802 Y6.579 Z1.000 I0.007 J9.705 F811.000 
G3 X111.416 Y10.000 Z1.000 I-3.317 J0.104 F811.000 
G1 X34.586 Y10.000 Z1.000 F811.000 
G3 X31.199 Y6.425 Z1.000 I-0.067 J-3.328 F811.000 
G2 X21.667 Y-3.196 Z1.000 I-9.701 J0.079 F811.000 
G1 X4.500 Y-3.200 Z1.000 F811.000 
G2 X-5.196 Y6.333 Z1.000 I0.005 J9.702 F811.000 
G1 X-5.200 Y283.500 Z1.000 F811.000 
G2 X4.333 Y293.196 Z1.000 I9.702 J-0.005 F811.000 
G1 X43.366 Y293.200 Z1.000 F811.000 
G2 X52.478 Y286.817 Z1.000 I-0.007 J-9.705 F811.000 
G1 X60.725 Y262.903 Z1.000 F811.000 
G1 X60.725 Y262.903 Z0.200 F405.000 
G1 X148.053 Y9.662 Z0.200 F811.000 
G2 X139.052 Y-3.196 Z0.200 I-9.172 J-3.158 F811.000 
G1 X124.500 Y-3.200 Z0.200 F811.000 
G2 X114.802 Y6.579 Z0.200 I0.007 J9.705 F811.000 
G3 X111.416 Y10.000 Z0.200 I-3.317 J0.104 F811.000 
G1 X34.586 Y10.000 Z0.200 F811.000 
G3 X31.199 Y6.425 Z0.200 I-0.067 J-3.328 F811.000 
G2 X21.667 Y-3.196 Z0.200 I-9.701 J0.079 F811.000 
G1 X4.500 Y-3.200 Z0.200 F811.000 
G2 X-5.196 Y6.333 Z0.200 I0.005 J9.702 F811.000 
G1 X-5.200 Y283.500 Z0.200 F811.000 
G2 X4.333 Y293.196 Z0.200 I9.702 J-0.005 F811.000 
G1 X43.366 Y293.200 Z0.200 F811.000 
G2 X52.478 Y286.817 Z0.200 I-0.007 J-9.705 F811.000 
G1 X60.725 Y262.903 Z0.200 F811.000 
G0 Z11.252 
G0 Z11.252 
G0 X60.725 Y262.903 
G0 X62.717 Y263.596 
G0 X62.717 Y263.596 Z9.252 
G1 X62.717 Y263.596 Z4.000 F405.000 
G1 X57.292 Y279.198 Z4.000 F811.000 
G2 X66.261 Y292.095 Z4.000 I9.175 J3.187 F811.000 
G1 X80.816 Y292.137 Z4.000 F811.000 
G2 X90.539 Y282.384 Z4.000 I0.018 J-9.706 F811.000 
G3 X93.934 Y278.971 Z4.000 I3.317 J-0.095 F811.000 
G1 X170.765 Y279.170 Z4.000 F811.000 
G3 X174.137 Y282.740 Z4.000 I0.062 J3.319 F811.000 
G2 X183.646 Y292.398 Z4.000 I9.710 J-0.049 F811.000 
G1 X200.816 Y292.447 Z4.000 F811.000 
G2 X210.536 Y282.940 Z4.000 I0.020 J-9.702 F811.000 
G1 X211.257 Y5.774 Z4.000 F811.000 
G2 X201.747 Y-3.963 Z4.000 I-9.712 J-0.027 F811.000 
G1 X162.711 Y-4.068 Z4.000 F811.000 
G2 X153.583 Y2.292 Z4.000 I-0.018 J9.705 F811.000 
G1 X62.717 Y263.596 Z4.000 F811.000 
G1 X62.717 Y263.596 Z1.000 F405.000 
G1 X57.292 Y279.198 Z1.000 F811.000 
G2 X66.261 Y292.095 Z1.000 I9.175 J3.187 F811.000 
G1 X80.816 Y292.137 Z1.000 F811.000 
G2 X90.539 Y282.384 Z1.000 I0.018 J-9.706 F811.000 
G3 X93.934 Y278.971 Z1.000 I3.317 J-0.095 F811.000 
G1 X170.765 Y279.170 Z1.000 F811.000 
G3 X174.137 Y282.740 Z1.000 I0.062 J3.319 F811.000 
G2 X183.646 Y292.398 Z1.000 I9.710 J-0.049 F811.000 
G1 X200.816 Y292.447 Z1.000 F811.000 
G2 X210.536 Y282.940 Z1.000 I0.020 J-9.702 F811.000 
G1 X211.257 Y5.774 Z1.000 F811.000 
G2 X201.747 Y-3.963 Z1.000 I-9.712 J-0.027 F811.000 
G1 X162.711 Y-4.068 Z1.000 F811.000 
G2 X153.583 Y2.292 Z1.000 I-0.018 J9.705 F811.000 
G1 X62.717 Y263.596 Z1.000 F811.000 
G1 X62.717 Y263.596 Z0.200 F405.000 
G1 X57.292 Y279.198 Z0.200 F811.000 
G2 X66.261 Y292.095 Z0.200 I9.175 J3.187 F811.000 
G1 X80.816 Y292.137 Z0.200 F811.000 
G2 X90.539 Y282.384 Z0.200 I0.018 J-9.706 F811.000 
G3 X93.934 Y278.971 Z0.200 I3.317 J-0.095 F811.000 
G1 X170.765 Y279.170 Z0.200 F811.000 
G3 X174.137 Y282.740 Z0.200 I0.062 J3.319 F811.000 
G2 X183.646 Y292.398 Z0.200 I9.710 J-0.049 F811.000 
G1 X200.816 Y292.447 Z0.200 F811.000 
G2 X210.536 Y282.940 Z0.200 I0.020 J-9.702 F811.000 
G1 X211.257 Y5.774 Z0.200 F811.000 
G2 X201.747 Y-3.963 Z0.200 I-9.712 J-0.027 F811.000 
G1 X162.711 Y-4.068 Z0.200 F811.000 
G2 X153.583 Y2.292 Z0.200 I-0.018 J9.705 F811.000 
G1 X62.717 Y263.596 Z0.200 F811.000 
G0 Z11.252 
G0 Z11.252 
G0 X62.717 Y263.596 
G0 X212.405 
G0 X212.405 Z9.252 
G1 X212.405 Y263.596 Z4.000 F405.000 
G1 X212.405 Y282.000 Z4.000 F811.000 
G2 X215.605 Y285.200 Z4.000 I3.200 J0.000 F811.000 
G1 X230.405 Y285.200 Z4.000 F811.000 
G1 X230.405 Y289.000 Z4.000 F811.000 
G2 X233.605 Y292.200 Z4.000 I3.200 J0.000 F811.000 
G1 X253.605 Y292.200 Z4.000 F811.000 
G2 X256.805 Y289.000 Z4.000 I0.000 J-3.200 F811.000 
G1 X256.805 Y285.200 Z4.000 F811.000 
G1 X280.605 Y285.200 Z4.000 F811.000 
G2 X283.805 Y282.000 Z4.000 I0.000 J-3.200 F811.000 
G1 X283.805 Y6.000 Z4.000 F811.000 
G2 X280.605 Y2.800 Z4.000 I-3.200 J0.000 F811.000 
G1 X256.805 Y2.800 Z4.000 F811.000 
G1 X256.805 Y-1.000 Z4.000 F811.000 
G2 X253.605 Y-4.200 Z4.000 I-3.200 J0.000 F811.000 
G1 X233.605 Y-4.200 Z4.000 F811.000 
G2 X230.405 Y-1.000 Z4.000 I0.000 J3.200 F811.000 
G1 X230.405 Y2.800 Z4.000 F811.000 
G1 X215.605 Y2.800 Z4.000 F811.000 
G2 X212.405 Y6.000 Z4.000 I0.000 J3.200 F811.000 
G1 X212.405 Y263.596 Z4.000 F811.000 
G1 X212.405 Y263.596 Z1.000 F405.000 
G1 X212.405 Y282.000 Z1.000 F811.000 
G2 X215.605 Y285.200 Z1.000 I3.200 J0.000 F811.000 
G1 X230.405 Y285.200 Z1.000 F811.000 
G1 X230.405 Y289.000 Z1.000 F811.000 
G2 X233.605 Y292.200 Z1.000 I3.200 J0.000 F811.000 
G1 X253.605 Y292.200 Z1.000 F811.000 
G2 X256.805 Y289.000 Z1.000 I0.000 J-3.200 F811.000 
G1 X256.805 Y285.200 Z1.000 F811.000 
G1 X280.605 Y285.200 Z1.000 F811.000 
G2 X283.805 Y282.000 Z1.000 I0.000 J-3.200 F811.000 
G1 X283.805 Y6.000 Z1.000 F811.000 
G2 X280.605 Y2.800 Z1.000 I-3.200 J0.000 F811.000 
G1 X256.805 Y2.800 Z1.000 F811.000 
G1 X256.805 Y-1.000 Z1.000 F811.000 
G2 X253.605 Y-4.200 Z1.000 I-3.200 J0.000 F811.000 
G1 X233.605 Y-4.200 Z1.000 F811.000 
G2 X230.405 Y-1.000 Z1.000 I0.000 J3.200 F811.000 
G1 X230.405 Y2.800 Z1.000 F811.000 
G1 X215.605 Y2.800 Z1.000 F811.000 
G2 X212.405 Y6.000 Z1.000 I0.000 J3.200 F811.000 
G1 X212.405 Y263.596 Z1.000 F811.000 
G1 X212.405 Y263.596 Z0.200 F405.000 
G1 X212.405 Y282.000 Z0.200 F811.000 
G2 X215.605 Y285.200 Z0.200 I3.200 J0.000 F811.000 
G1 X230.405 Y285.200 Z0.200 F811.000 
G1 X230.405 Y289.000 Z0.200 F811.000 
G2 X233.605 Y292.200 Z0.200 I3.200 J0.000 F811.000 
G1 X253.605 Y292.200 Z0.200 F811.000 
G2 X256.805 Y289.000 Z0.200 I0.000 J-3.200 F811.000 
G1 X256.805 Y285.200 Z0.200 F811.000 
G1 X280.605 Y285.200 Z0.200 F811.000 
G2 X283.805 Y282.000 Z0.200 I0.000 J-3.200 F811.000 
G1 X283.805 Y6.000 Z0.200 F811.000 
G2 X280.605 Y2.800 Z0.200 I-3.200 J0.000 F811.000 
G1 X256.805 Y2.800 Z0.200 F811.000 
G1 X256.805 Y-1.000 Z0.200 F811.000 
G2 X253.605 Y-4.200 Z0.200 I-3.200 J0.000 F811.000 
G1 X233.605 Y-4.200 Z0.200 F811.000 
G2 X230.405 Y-1.000 Z0.200 I0.000 J3.200 F811.000 
G1 X230.405 Y2.800 Z0.200 F811.000 
G1 X215.605 Y2.800 Z0.200 F811.000 
G2 X212.405 Y6.000 Z0.200 I0.000 J3.200 F811.000 
G1 X212.405 Y263.596 Z0.200 F811.000 
G0 Z11.252 
G0 Z11.252 
G0 X212.405 Y263.596 
G0 X286.076 
G0 X286.076 Z9.252 
G1 X286.076 Y263.596 Z4.000 F405.000 
G1 X286.076 Y282.000 Z4.000 F811.000 
G2 X289.276 Y285.200 Z4.000 I3.200 J0.000 F811.000 
G1 X304.076 Y285.200 Z4.000 F811.000 
G1 X304.076 Y289.000 Z4.000 F811.000 
G2 X307.276 Y292.200 Z4.000 I3.200 J0.000 F811.000 
G1 X327.276 Y292.200 Z4.000 F811.000 
G2 X330.476 Y289.000 Z4.000 I0.000 J-3.200 F811.000 
G1 X330.476 Y285.200 Z4.000 F811.000 
G1 X346.576 Y285.200 Z4.000 F811.000 
G1 X346.576 Y289.000 Z4.000 F811.000 
G2 X349.776 Y292.200 Z4.000 I3.200 J0.000 F811.000 
G1 X369.776 Y292.200 Z4.000 F811.000 
G2 X372.976 Y289.000 Z4.000 I0.000 J-3.200 F811.000 
G1 X372.976 Y285.200 Z4.000 F811.000 
G1 X384.276 Y285.200 Z4.000 F811.000 
G2 X387.476 Y282.000 Z4.000 I0.000 J-3.200 F811.000 
G1 X387.476 Y6.000 Z4.000 F811.000 
G2 X384.276 Y2.800 Z4.000 I-3.200 J0.000 F811.000 
G1 X372.976 Y2.800 Z4.000 F811.000 
G1 X372.976 Y-1.000 Z4.000 F811.000 
G2 X369.776 Y-4.200 Z4.000 I-3.200 J0.000 F811.000 
G1 X349.776 Y-4.200 Z4.000 F811.000 
G2 X346.576 Y-1.000 Z4.000 I0.000 J3.200 F811.000 
G1 X346.576 Y2.800 Z4.000 F811.000 
G1 X330.476 Y2.800 Z4.000 F811.000 
G1 X330.476 Y-1.000 Z4.000 F811.000 
G2 X327.276 Y-4.200 Z4.000 I-3.200 J0.000 F811.000 
G1 X307.276 Y-4.200 Z4.000 F811.000 
G2 X304.076 Y-1.000 Z4.000 I0.000 J3.200 F811.000 
G1 X304.076 Y2.800 Z4.000 F811.000 
G1 X289.276 Y2.800 Z4.000 F811.000 
G2 X286.076 Y6.000 Z4.000 I0.000 J3.200 F811.000 
G1 X286.076 Y263.596 Z4.000 F811.000 
G1 X286.076 Y263.596 Z1.000 F405.000 
G1 X286.076 Y282.000 Z1.000 F811.000 
G2 X289.276 Y285.200 Z1.000 I3.200 J0.000 F811.000 
G1 X304.076 Y285.200 Z1.000 F811.000 
G1 X304.076 Y289.000 Z1.000 F811.000 
G2 X307.276 Y292.200 Z1.000 I3.200 J0.000 F811.000 
G1 X327.276 Y292.200 Z1.000 F811.000 
G2 X330.476 Y289.000 Z1.000 I0.000 J-3.200 F811.000 
G1 X330.476 Y285.200 Z1.000 F811.000 
G1 X346.576 Y285.200 Z1.000 F811.000 
G1 X346.576 Y289.000 Z1.000 F811.000 
G2 X349.776 Y292.200 Z1.000 I3.200 J0.000 F811.000 
G1 X369.776 Y292.200 Z1.000 F811.000 
G2 X372.976 Y289.000 Z1.000 I0.000 J-3.200 F811.000 
G1 X372.976 Y285.200 Z1.000 F811.000 
G1 X384.276 Y285.200 Z1.000 F811.000 
G2 X387.476 Y282.000 Z1.000 I0.000 J-3.200 F811.000 
G1 X387.476 Y6.000 Z1.000 F811.000 
G2 X384.276 Y2.800 Z1.000 I-3.200 J0.000 F811.000 
G1 X372.976 Y2.800 Z1.000 F811.000 
G1 X372.976 Y-1.000 Z1.000 F811.000 
G2 X369.776 Y-4.200 Z1.000 I-3.200 J0.000 F811.000 
G1 X349.776 Y-4.200 Z1.000 F811.000 
G2 X346.576 Y-1.000 Z1.000 I0.000 J3.200 F811.000 
G1 X346.576 Y2.800 Z1.000 F811.000 
G1 X330.476 Y2.800 Z1.000 F811.000 
G1 X330.476 Y-1.000 Z1.000 F811.000 
G2 X327.276 Y-4.200 Z1.000 I-3.200 J0.000 F811.000 
G1 X307.276 Y-4.200 Z1.000 F811.000 
G2 X304.076 Y-1.000 Z1.000 I0.000 J3.200 F811.000 
G1 X304.076 Y2.800 Z1.000 F811.000 
G1 X289.276 Y2.800 Z1.000 F811.000 
G2 X286.076 Y6.000 Z1.000 I0.000 J3.200 F811.000 
G1 X286.076 Y263.596 Z1.000 F811.000 
G1 X286.076 Y263.596 Z0.200 F405.000 
G1 X286.076 Y282.000 Z0.200 F811.000 
G2 X289.276 Y285.200 Z0.200 I3.200 J0.000 F811.000 
G1 X304.076 Y285.200 Z0.200 F811.000 
G1 X304.076 Y289.000 Z0.200 F811.000 
G2 X307.276 Y292.200 Z0.200 I3.200 J0.000 F811.000 
G1 X327.276 Y292.200 Z0.200 F811.000 
G2 X330.476 Y289.000 Z0.200 I0.000 J-3.200 F811.000 
G1 X330.476 Y285.200 Z0.200 F811.000 
G1 X346.576 Y285.200 Z0.200 F811.000 
G1 X346.576 Y289.000 Z0.200 F811.000 
G2 X349.776 Y292.200 Z0.200 I3.200 J0.000 F811.000 
G1 X369.776 Y292.200 Z0.200 F811.000 
G2 X372.976 Y289.000 Z0.200 I0.000 J-3.200 F811.000 
G1 X372.976 Y285.200 Z0.200 F811.000 
G1 X384.276 Y285.200 Z0.200 F811.000 
G2 X387.476 Y282.000 Z0.200 I0.000 J-3.200 F811.000 
G1 X387.476 Y6.000 Z0.200 F811.000 
G2 X384.276 Y2.800 Z0.200 I-3.200 J0.000 F811.000 
G1 X372.976 Y2.800 Z0.200 F811.000 
G1 X372.976 Y-1.000 Z0.200 F811.000 
G2 X369.776 Y-4.200 Z0.200 I-3.200 J0.000 F811.000 
G1 X349.776 Y-4.200 Z0.200 F811.000 
G2 X346.576 Y-1.000 Z0.200 I0.000 J3.200 F811.000 
G1 X346.576 Y2.800 Z0.200 F811.000 
G1 X330.476 Y2.800 Z0.200 F811.000 
G1 X330.476 Y-1.000 Z0.200 F811.000 
G2 X327.276 Y-4.200 Z0.200 I-3.200 J0.000 F811.000 
G1 X307.276 Y-4.200 Z0.200 F811.000 
G2 X304.076 Y-1.000 Z0.200 I0.000 J3.200 F811.000 
G1 X304.076 Y2.800 Z0.200 F811.000 
G1 X289.276 Y2.800 Z0.200 F811.000 
G2 X286.076 Y6.000 Z0.200 I0.000 J3.200 F811.000 
G1 X286.076 Y263.596 Z0.200 F811.000 
G0 Z11.252 
G0 Z11.252 
G0 X286.076 Y263.596 
G0 X389.367 
G0 X389.367 Z9.252 
G1 X389.367 Y263.596 Z4.000 F405.000 
G1 X389.367 Y283.000 Z4.000 F811.000 
G2 X392.567 Y286.200 Z4.000 I3.200 J0.000 F811.000 
G1 X407.367 Y286.200 Z4.000 F811.000 
G1 X407.367 Y290.000 Z4.000 F811.000 
G2 X410.567 Y293.200 Z4.000 I3.200 J0.000 F811.000 
G1 X430.567 Y293.200 Z4.000 F811.000 
G2 X433.767 Y290.000 Z4.000 I0.000 J-3.200 F811.000 
G1 X433.767 Y286.200 Z4.000 F811.000 
G1 X490.367 Y286.200 Z4.000 F811.000 
G1 X490.367 Y290.000 Z4.000 F811.000 
G2 X493.567 Y293.200 Z4.000 I3.200 J0.000 F811.000 
G1 X513.567 Y293.200 Z4.000 F811.000 
G2 X516.767 Y290.000 Z4.000 I0.000 J-3.200 F811.000 
G1 X516.767 Y286.200 Z4.000 F811.000 
G1 X536.567 Y286.200 Z4.000 F811.000 
G2 X539.767 Y283.000 Z4.000 I0.000 J-3.200 F811.000 
G1 X539.767 Y7.000 Z4.000 F811.000 
G2 X536.567 Y3.800 Z4.000 I-3.200 J0.000 F811.000 
G1 X516.767 Y3.800 Z4.000 F811.000 
G1 X516.767 Y0.000 Z4.000 F811.000 
G2 X513.567 Y-3.200 Z4.000 I-3.200 J0.000 F811.000 
G1 X493.567 Y-3.200 Z4.000 F811.000 
G2 X490.367 Y0.000 Z4.000 I0.000 J3.200 F811.000 
G1 X490.367 Y3.800 Z4.000 F811.000 
G1 X433.767 Y3.800 Z4.000 F811.000 
G1 X433.767 Y0.000 Z4.000 F811.000 
G2 X430.567 Y-3.200 Z4.000 I-3.200 J0.000 F811.000 
G1 X410.567 Y-3.200 Z4.000 F811.000 
G2 X407.367 Y0.000 Z4.000 I0.000 J3.200 F811.000 
G1 X407.367 Y3.800 Z4.000 F811.000 
G1 X392.567 Y3.800 Z4.000 F811.000 
G2 X389.367 Y7.000 Z4.000 I0.000 J3.200 F811.000 
G1 X389.367 Y263.596 Z4.000 F811.000 
G1 X389.367 Y263.596 Z1.000 F405.000 
G1 X389.367 Y283.000 Z1.000 F811.000 
G2 X392.567 Y286.200 Z1.000 I3.200 J0.000 F811.000 
G1 X407.367 Y286.200 Z1.000 F811.000 
G1 X407.367 Y290.000 Z1.000 F811.000 
G2 X410.567 Y293.200 Z1.000 I3.200 J0.000 F811.000 
G1 X430.567 Y293.200 Z1.000 F811.000 
G2 X433.767 Y290.000 Z1.000 I0.000 J-3.200 F811.000 
G1 X433.767 Y286.200 Z1.000 F811.000 
G1 X490.367 Y286.200 Z1.000 F811.000 
G1 X490.367 Y290.000 Z1.000 F811.000 
G2 X493.567 Y293.200 Z1.000 I3.200 J0.000 F811.000 
G1 X513.567 Y293.200 Z1.000 F811.000 
G2 X516.767 Y290.000 Z1.000 I0.000 J-3.200 F811.000 
G1 X516.767 Y286.200 Z1.000 F811.000 
G1 X536.567 Y286.200 Z1.000 F811.000 
G2 X539.767 Y283.000 Z1.000 I0.000 J-3.200 F811.000 
G1 X539.767 Y7.000 Z1.000 F811.000 
G2 X536.567 Y3.800 Z1.000 I-3.200 J0.000 F811.000 
G1 X516.767 Y3.800 Z1.000 F811.000 
G1 X516.767 Y0.000 Z1.000 F811.000 
G2 X513.567 Y-3.200 Z1.000 I-3.200 J0.000 F811.000 
G1 X493.567 Y-3.200 Z1.000 F811.000 
G2 X490.367 Y0.000 Z1.000 I0.000 J3.200 F811.000 
G1 X490.367 Y3.800 Z1.000 F811.000 
G1 X433.767 Y3.800 Z1.000 F811.000 
G1 X433.767 Y0.000 Z1.000 F811.000 
G2 X430.567 Y-3.200 Z1.000 I-3.200 J0.000 F811.000 
G1 X410.567 Y-3.200 Z1.000 F811.000 
G2 X407.367 Y0.000 Z1.000 I0.000 J3.200 F811.000 
G1 X407.367 Y3.800 Z1.000 F811.000 
G1 X392.567 Y3.800 Z1.000 F811.000 
G2 X389.367 Y7.000 Z1.000 I0.000 J3.200 F811.000 
G1 X389.367 Y263.596 Z1.000 F811.000 
G1 X389.367 Y263.596 Z0.200 F405.000 
G1 X389.367 Y283.000 Z0.200 F811.000 
G2 X392.567 Y286.200 Z0.200 I3.200 J0.000 F811.000 
G1 X407.367 Y286.200 Z0.200 F811.000 
G1 X407.367 Y290.000 Z0.200 F811.000 
G2 X410.567 Y293.200 Z0.200 I3.200 J0.000 F811.000 
G1 X430.567 Y293.200 Z0.200 F811.000 
G2 X433.767 Y290.000 Z0.200 I0.000 J-3.200 F811.000 
G1 X433.767 Y286.200 Z0.200 F811.000 
G1 X490.367 Y286.200 Z0.200 F811.000 
G1 X490.367 Y290.000 Z0.200 F811.000 
G2 X493.567 Y293.200 Z0.200 I3.200 J0.000 F811.000 
G1 X513.567 Y293.200 Z0.200 F811.000 
G2 X516.767 Y290.000 Z0.200 I0.000 J-3.200 F811.000 
G1 X516.767 Y286.200 Z0.200 F811.000 
G1 X536.567 Y286.200 Z0.200 F811.000 
G2 X539.767 Y283.000 Z0.200 I0.000 J-3.200 F811.000 
G1 X539.767 Y7.000 Z0.200 F811.000 
G2 X536.567 Y3.800 Z0.200 I-3.200 J0.000 F811.000 
G1 X516.767 Y3.800 Z0.200 F811.000 
G1 X516.767 Y0.000 Z0.200 F811.000 
G2 X513.567 Y-3.200 Z0.200 I-3.200 J0.000 F811.000 
G1 X493.567 Y-3.200 Z0.200 F811.000 
G2 X490.367 Y0.000 Z0.200 I0.000 J3.200 F811.000 
G1 X490.367 Y3.800 Z0.200 F811.000 
G1 X433.767 Y3.800 Z0.200 F811.000 
G1 X433.767 Y0.000 Z0.200 F811.000 
G2 X430.567 Y-3.200 Z0.200 I-3.200 J0.000 F811.000 
G1 X410.567 Y-3.200 Z0.200 F811.000 
G2 X407.367 Y0.000 Z0.200 I0.000 J3.200 F811.000 
G1 X407.367 Y3.800 Z0.200 F811.000 
G1 X392.567 Y3.800 Z0.200 F811.000 
G2 X389.367 Y7.000 Z0.200 I0.000 J3.200 F811.000 
G1 X389.367 Y263.596 Z0.200 F811.000 
G0 Z11.252 
G0 Z11.252 
(finish operation: Outer Profile)
(begin postamble)
M05
G17 G54 G90 G80 G40
M2
