(Exported by FreeCAD)
(Post Processor: linuxcnc_post)
(Output Time:2022-04-14 12:08:38.380191)
(begin preamble)
G17 G54 G40 G49 G80 G90
G21
(begin operation: Fixture)
(machine units: mm/min)
G54 
(finish operation: Fixture)
(begin operation: 3mm_Endmill003)
(machine units: mm/min)
(3mm_Endmill003) 
M5
M6 T2 
G43 H2 
M3 S15000 
(finish operation: 3mm_Endmill003)
(begin operation: Slots001)
(machine units: mm/min)
(Slots001) 
(Compensated Tool Path. Diameter: 3.0) 
G0 Z10.502 
G0 X34.500 Y25.200 
G0 Z8.502 
G1 X34.500 Y25.200 Z5.000 F1200.000 
G1 X34.500 Y21.200 Z5.000 F600.000 
G1 X17.500 Y21.200 Z5.000 F600.000 
G1 X17.500 Y25.200 Z5.000 F600.000 
G1 X34.500 Y25.200 Z5.000 F600.000 
G1 X34.500 Y25.200 Z3.000 F1200.000 
G1 X34.500 Y21.200 Z3.000 F600.000 
G1 X17.500 Y21.200 Z3.000 F600.000 
G1 X17.500 Y25.200 Z3.000 F600.000 
G1 X34.500 Y25.200 Z3.000 F600.000 
G1 X34.500 Y25.200 Z1.000 F1200.000 
G1 X34.500 Y21.200 Z1.000 F600.000 
G1 X17.500 Y21.200 Z1.000 F600.000 
G1 X17.500 Y25.200 Z1.000 F600.000 
G1 X34.500 Y25.200 Z1.000 F600.000 
G1 X34.500 Y25.200 Z0.200 F1200.000 
G1 X34.500 Y21.200 Z0.200 F600.000 
G1 X17.500 Y21.200 Z0.200 F600.000 
G1 X17.500 Y25.200 Z0.200 F600.000 
G1 X34.500 Y25.200 Z0.200 F600.000 
G0 Z10.502 
G0 Z10.502 
G0 X34.500 Y25.200 
G0 X100.500 
G0 X100.500 Z8.502 
G1 X100.500 Y25.200 Z5.000 F1200.000 
G1 X117.500 Y25.200 Z5.000 F600.000 
G1 X117.500 Y21.200 Z5.000 F600.000 
G1 X100.500 Y21.200 Z5.000 F600.000 
G1 X100.500 Y25.200 Z5.000 F600.000 
G1 X100.500 Y25.200 Z3.000 F1200.000 
G1 X117.500 Y25.200 Z3.000 F600.000 
G1 X117.500 Y21.200 Z3.000 F600.000 
G1 X100.500 Y21.200 Z3.000 F600.000 
G1 X100.500 Y25.200 Z3.000 F600.000 
G1 X100.500 Y25.200 Z1.000 F1200.000 
G1 X117.500 Y25.200 Z1.000 F600.000 
G1 X117.500 Y21.200 Z1.000 F600.000 
G1 X100.500 Y21.200 Z1.000 F600.000 
G1 X100.500 Y25.200 Z1.000 F600.000 
G1 X100.500 Y25.200 Z0.200 F1200.000 
G1 X117.500 Y25.200 Z0.200 F600.000 
G1 X117.500 Y21.200 Z0.200 F600.000 
G1 X100.500 Y21.200 Z0.200 F600.000 
G1 X100.500 Y25.200 Z0.200 F600.000 
G0 Z10.502 
G0 Z10.502 
G0 X100.500 Y25.200 
G0 X77.000 Y118.000 
G0 X77.000 Y118.000 Z8.502 
G1 X77.000 Y118.000 Z5.000 F1200.000 
G1 X60.000 Y118.000 Z5.000 F600.000 
G1 X60.000 Y122.000 Z5.000 F600.000 
G1 X77.000 Y122.000 Z5.000 F600.000 
G1 X77.000 Y118.000 Z5.000 F600.000 
G1 X77.000 Y118.000 Z3.000 F1200.000 
G1 X60.000 Y118.000 Z3.000 F600.000 
G1 X60.000 Y122.000 Z3.000 F600.000 
G1 X77.000 Y122.000 Z3.000 F600.000 
G1 X77.000 Y118.000 Z3.000 F600.000 
G1 X77.000 Y118.000 Z1.000 F1200.000 
G1 X60.000 Y118.000 Z1.000 F600.000 
G1 X60.000 Y122.000 Z1.000 F600.000 
G1 X77.000 Y122.000 Z1.000 F600.000 
G1 X77.000 Y118.000 Z1.000 F600.000 
G1 X77.000 Y118.000 Z0.200 F1200.000 
G1 X60.000 Y118.000 Z0.200 F600.000 
G1 X60.000 Y122.000 Z0.200 F600.000 
G1 X77.000 Y122.000 Z0.200 F600.000 
G1 X77.000 Y118.000 Z0.200 F600.000 
G0 Z10.502 
G0 Z10.502 
G0 X77.000 Y118.000 
G0 X34.500 
G0 X34.500 Z8.502 
G1 X34.500 Y118.000 Z5.000 F1200.000 
G1 X17.500 Y118.000 Z5.000 F600.000 
G1 X17.500 Y122.000 Z5.000 F600.000 
G1 X34.500 Y122.000 Z5.000 F600.000 
G1 X34.500 Y118.000 Z5.000 F600.000 
G1 X34.500 Y118.000 Z3.000 F1200.000 
G1 X17.500 Y118.000 Z3.000 F600.000 
G1 X17.500 Y122.000 Z3.000 F600.000 
G1 X34.500 Y122.000 Z3.000 F600.000 
G1 X34.500 Y118.000 Z3.000 F600.000 
G1 X34.500 Y118.000 Z1.000 F1200.000 
G1 X17.500 Y118.000 Z1.000 F600.000 
G1 X17.500 Y122.000 Z1.000 F600.000 
G1 X34.500 Y122.000 Z1.000 F600.000 
G1 X34.500 Y118.000 Z1.000 F600.000 
G1 X34.500 Y118.000 Z0.200 F1200.000 
G1 X17.500 Y118.000 Z0.200 F600.000 
G1 X17.500 Y122.000 Z0.200 F600.000 
G1 X34.500 Y122.000 Z0.200 F600.000 
G1 X34.500 Y118.000 Z0.200 F600.000 
G0 Z10.502 
G0 Z10.502 
G0 X34.500 Y118.000 
G0 X34.500 Y218.000 
G0 X34.500 Y218.000 Z8.502 
G1 X34.500 Y218.000 Z5.000 F1200.000 
G1 X17.500 Y218.000 Z5.000 F600.000 
G1 X17.500 Y222.000 Z5.000 F600.000 
G1 X34.500 Y222.000 Z5.000 F600.000 
G1 X34.500 Y218.000 Z5.000 F600.000 
G1 X34.500 Y218.000 Z3.000 F1200.000 
G1 X17.500 Y218.000 Z3.000 F600.000 
G1 X17.500 Y222.000 Z3.000 F600.000 
G1 X34.500 Y222.000 Z3.000 F600.000 
G1 X34.500 Y218.000 Z3.000 F600.000 
G1 X34.500 Y218.000 Z1.000 F1200.000 
G1 X17.500 Y218.000 Z1.000 F600.000 
G1 X17.500 Y222.000 Z1.000 F600.000 
G1 X34.500 Y222.000 Z1.000 F600.000 
G1 X34.500 Y218.000 Z1.000 F600.000 
G1 X34.500 Y218.000 Z0.200 F1200.000 
G1 X17.500 Y218.000 Z0.200 F600.000 
G1 X17.500 Y222.000 Z0.200 F600.000 
G1 X34.500 Y222.000 Z0.200 F600.000 
G1 X34.500 Y218.000 Z0.200 F600.000 
G0 Z10.502 
G0 Z10.502 
(finish operation: Slots001)
(begin operation: SlotsMirror)
(machine units: mm/min)
(Profile005) 
(Compensated Tool Path. Diameter: 3.0) 
G0 Z10.502 
G0 X188.383 Y71.198 
G0 Z8.502 
G1 X188.383 Y71.198 Z5.000 F1200.000 
G1 X188.393 Y67.198 Z5.000 F600.000 
G1 X171.393 Y67.154 Z5.000 F600.000 
G1 X171.383 Y71.154 Z5.000 F600.000 
G1 X188.383 Y71.198 Z5.000 F600.000 
G1 X188.383 Y71.198 Z3.000 F1200.000 
G1 X188.393 Y67.198 Z3.000 F600.000 
G1 X171.393 Y67.154 Z3.000 F600.000 
G1 X171.383 Y71.154 Z3.000 F600.000 
G1 X188.383 Y71.198 Z3.000 F600.000 
G1 X188.383 Y71.198 Z1.000 F1200.000 
G1 X188.393 Y67.198 Z1.000 F600.000 
G1 X171.393 Y67.154 Z1.000 F600.000 
G1 X171.383 Y71.154 Z1.000 F600.000 
G1 X188.383 Y71.198 Z1.000 F600.000 
G1 X188.383 Y71.198 Z0.200 F1200.000 
G1 X188.393 Y67.198 Z0.200 F600.000 
G1 X171.393 Y67.154 Z0.200 F600.000 
G1 X171.383 Y71.154 Z0.200 F600.000 
G1 X188.383 Y71.198 Z0.200 F600.000 
G0 Z10.502 
G0 Z10.502 
G0 X188.383 Y71.198 
G0 X188.135 Y167.198 
G0 X188.135 Y167.198 Z8.502 
G1 X188.135 Y167.198 Z5.000 F1200.000 
G1 X171.135 Y167.154 Z5.000 F600.000 
G1 X171.124 Y171.154 Z5.000 F600.000 
G1 X188.124 Y171.198 Z5.000 F600.000 
G1 X188.135 Y167.198 Z5.000 F600.000 
G1 X188.135 Y167.198 Z3.000 F1200.000 
G1 X171.135 Y167.154 Z3.000 F600.000 
G1 X171.124 Y171.154 Z3.000 F600.000 
G1 X188.124 Y171.198 Z3.000 F600.000 
G1 X188.135 Y167.198 Z3.000 F600.000 
G1 X188.135 Y167.198 Z1.000 F1200.000 
G1 X171.135 Y167.154 Z1.000 F600.000 
G1 X171.124 Y171.154 Z1.000 F600.000 
G1 X188.124 Y171.198 Z1.000 F600.000 
G1 X188.135 Y167.198 Z1.000 F600.000 
G1 X188.135 Y167.198 Z0.200 F1200.000 
G1 X171.135 Y167.154 Z0.200 F600.000 
G1 X171.124 Y171.154 Z0.200 F600.000 
G1 X188.124 Y171.198 Z0.200 F600.000 
G1 X188.135 Y167.198 Z0.200 F600.000 
G0 Z10.502 
G0 Z10.502 
G0 X188.135 Y167.198 
G0 X145.635 Y167.088 
G0 X145.635 Y167.088 Z8.502 
G1 X145.635 Y167.088 Z5.000 F1200.000 
G1 X128.635 Y167.044 Z5.000 F600.000 
G1 X128.624 Y171.044 Z5.000 F600.000 
G1 X145.624 Y171.088 Z5.000 F600.000 
G1 X145.635 Y167.088 Z5.000 F600.000 
G1 X145.635 Y167.088 Z3.000 F1200.000 
G1 X128.635 Y167.044 Z3.000 F600.000 
G1 X128.624 Y171.044 Z3.000 F600.000 
G1 X145.624 Y171.088 Z3.000 F600.000 
G1 X145.635 Y167.088 Z3.000 F600.000 
G1 X145.635 Y167.088 Z1.000 F1200.000 
G1 X128.635 Y167.044 Z1.000 F600.000 
G1 X128.624 Y171.044 Z1.000 F600.000 
G1 X145.624 Y171.088 Z1.000 F600.000 
G1 X145.635 Y167.088 Z1.000 F600.000 
G1 X145.635 Y167.088 Z0.200 F1200.000 
G1 X128.635 Y167.044 Z0.200 F600.000 
G1 X128.624 Y171.044 Z0.200 F600.000 
G1 X145.624 Y171.088 Z0.200 F600.000 
G1 X145.635 Y167.088 Z0.200 F600.000 
G0 Z10.502 
G0 Z10.502 
G0 X145.635 Y167.088 
G0 X104.885 Y263.783 
G0 X104.885 Y263.783 Z8.502 
G1 X104.885 Y263.783 Z5.000 F1200.000 
G1 X87.885 Y263.739 Z5.000 F600.000 
G1 X87.874 Y267.739 Z5.000 F600.000 
G1 X104.874 Y267.783 Z5.000 F600.000 
G1 X104.885 Y263.783 Z5.000 F600.000 
G1 X104.885 Y263.783 Z3.000 F1200.000 
G1 X87.885 Y263.739 Z3.000 F600.000 
G1 X87.874 Y267.739 Z3.000 F600.000 
G1 X104.874 Y267.783 Z3.000 F600.000 
G1 X104.885 Y263.783 Z3.000 F600.000 
G1 X104.885 Y263.783 Z1.000 F1200.000 
G1 X87.885 Y263.739 Z1.000 F600.000 
G1 X87.874 Y267.739 Z1.000 F600.000 
G1 X104.874 Y267.783 Z1.000 F600.000 
G1 X104.885 Y263.783 Z1.000 F600.000 
G1 X104.885 Y263.783 Z0.200 F1200.000 
G1 X87.885 Y263.739 Z0.200 F600.000 
G1 X87.874 Y267.739 Z0.200 F600.000 
G1 X104.874 Y267.783 Z0.200 F600.000 
G1 X104.885 Y263.783 Z0.200 F600.000 
G0 Z10.502 
G0 Z10.502 
G0 X104.885 Y263.783 
G0 X170.884 Y263.953 
G0 X170.884 Y263.953 Z8.502 
G1 X170.884 Y263.953 Z5.000 F1200.000 
G1 X170.874 Y267.953 Z5.000 F600.000 
G1 X187.874 Y267.997 Z5.000 F600.000 
G1 X187.884 Y263.997 Z5.000 F600.000 
G1 X170.884 Y263.953 Z5.000 F600.000 
G1 X170.884 Y263.953 Z3.000 F1200.000 
G1 X170.874 Y267.953 Z3.000 F600.000 
G1 X187.874 Y267.997 Z3.000 F600.000 
G1 X187.884 Y263.997 Z3.000 F600.000 
G1 X170.884 Y263.953 Z3.000 F600.000 
G1 X170.884 Y263.953 Z1.000 F1200.000 
G1 X170.874 Y267.953 Z1.000 F600.000 
G1 X187.874 Y267.997 Z1.000 F600.000 
G1 X187.884 Y263.997 Z1.000 F600.000 
G1 X170.884 Y263.953 Z1.000 F600.000 
G1 X170.884 Y263.953 Z0.200 F1200.000 
G1 X170.874 Y267.953 Z0.200 F600.000 
G1 X187.874 Y267.997 Z0.200 F600.000 
G1 X187.884 Y263.997 Z0.200 F600.000 
G1 X170.884 Y263.953 Z0.200 F600.000 
G0 Z10.502 
G0 Z10.502 
(finish operation: SlotsMirror)
(begin postamble)
M05
G17 G54 G90 G80 G40
M2
