(Exported by FreeCAD)
(Post Processor: linuxcnc_post)
(Output Time:2022-05-05 08:47:33.742063)
(begin preamble)
G17 G54 G40 G49 G80 G90
G21
(begin operation: Fixture)
(machine units: mm/min)
G54 
(finish operation: Fixture)
(begin operation: 6.4mm Endmill001)
(machine units: mm/min)
(6.4mm Endmill001) 
M5
M6 T2 
G43 H2 
M3 S17000 
(finish operation: 6.4mm Endmill001)
(begin operation: Profile001)
(machine units: mm/min)
(Profile001) 
(Compensated Tool Path. Diameter: 6.4) 
G0 Z17.700 
G0 X4.300 Y366.800 
G0 Z15.700 
G1 X4.300 Y366.800 Z11.000 F300.000 
G1 X4.300 Y233.200 Z11.000 F1500.000 
G1 X-4.300 Y233.200 Z11.000 F1500.000 
G1 X-4.300 Y366.800 Z11.000 F1500.000 
G1 X4.300 Y366.800 Z11.000 F1500.000 
G1 X4.300 Y366.800 Z7.000 F300.000 
G1 X4.300 Y233.200 Z7.000 F1500.000 
G1 X-4.300 Y233.200 Z7.000 F1500.000 
G1 X-4.300 Y366.800 Z7.000 F1500.000 
G1 X4.300 Y366.800 Z7.000 F1500.000 
G1 X4.300 Y366.800 Z3.000 F300.000 
G1 X4.300 Y233.200 Z3.000 F1500.000 
G1 X-4.300 Y233.200 Z3.000 F1500.000 
G1 X-4.300 Y366.800 Z3.000 F1500.000 
G1 X4.300 Y366.800 Z3.000 F1500.000 
G1 X4.300 Y366.800 Z-0.500 F300.000 
G1 X4.300 Y233.200 Z-0.500 F1500.000 
G1 X-4.300 Y233.200 Z-0.500 F1500.000 
G1 X-4.300 Y366.800 Z-0.500 F1500.000 
G1 X4.300 Y366.800 Z-0.500 F1500.000 
G0 Z17.700 
G0 Z17.700 
(finish operation: Profile001)
(begin operation: Profile)
(machine units: mm/min)
(Profile) 
(Compensated Tool Path. Diameter: 6.4) 
G0 Z17.700 
G0 X114.137 Y1116.378 
G0 Z15.700 
G1 X114.137 Y1116.378 Z11.000 F300.000 
G2 X78.791 Y975.290 Z11.000 I-114.137 J-46.377 F1500.000 
G3 X83.136 Y963.200 Z11.000 I4.281 J-5.287 F1500.000 
G1 X157.652 Y963.200 Z11.000 F1500.000 
G2 X194.157 Y936.252 Z11.000 I-0.002 J-38.201 F1500.000 
G1 X293.651 Y611.180 Z11.000 F1500.000 
G2 X220.619 Y588.748 Z11.000 I-36.527 J-11.179 F1500.000 
G1 X166.085 Y766.923 Z11.000 F1500.000 
G1 X165.863 Y767.548 Z11.000 F1500.000 
G3 X153.080 Y762.943 Z11.000 I-6.302 J-2.550 F1500.000 
G1 X273.060 Y370.937 Z11.000 F1500.000 
G2 X270.000 Y366.800 Z11.000 I-3.060 J-0.937 F1500.000 
G1 X128.200 Y366.800 Z11.000 F1500.000 
G1 X128.200 Y249.526 Z11.000 F1500.000 
G3 X141.230 Y233.105 Z11.000 I16.806 J-0.044 F1500.000 
G1 X273.680 Y202.201 Z11.000 F1500.000 
G2 X303.199 Y165.074 Z11.000 I-8.682 J-37.201 F1500.000 
G1 X303.200 Y0.000 Z11.000 F1500.000 
G2 X300.000 Y-3.200 Z11.000 I-3.200 J0.000 F1500.000 
G1 X240.000 Y-3.200 Z11.000 F1500.000 
G2 X236.800 Y0.000 Z11.000 I0.000 J3.200 F1500.000 
G1 X236.800 Y96.800 Z11.000 F1500.000 
G1 X230.200 Y96.800 Z11.000 F1500.000 
G1 X230.200 Y5.000 Z11.000 F1500.000 
G2 X226.238 Y1.892 Z11.000 I-3.200 J0.000 F1500.000 
G1 X124.614 Y26.800 Z11.000 F1500.000 
G1 X-124.614 Y26.800 Z11.000 F1500.000 
G1 X-226.238 Y1.892 Z11.000 F1500.000 
G2 X-230.200 Y5.000 Z11.000 I-0.762 J3.108 F1500.000 
G1 X-230.200 Y96.800 Z11.000 F1500.000 
G1 X-236.800 Y96.800 Z11.000 F1500.000 
G1 X-236.800 Y0.000 Z11.000 F1500.000 
G2 X-240.000 Y-3.200 Z11.000 I-3.200 J0.000 F1500.000 
G1 X-300.000 Y-3.200 Z11.000 F1500.000 
G2 X-303.200 Y0.000 Z11.000 I0.000 J3.200 F1500.000 
G1 X-303.200 Y165.000 Z11.000 F1500.000 
G2 X-273.752 Y202.183 Z11.000 I38.201 J-0.002 F1500.000 
G1 X-141.230 Y233.105 Z11.000 F1500.000 
G3 X-128.200 Y249.526 Z11.000 I-3.775 J16.376 F1500.000 
G1 X-128.200 Y366.800 Z11.000 F1500.000 
G1 X-270.000 Y366.800 Z11.000 F1500.000 
G2 X-273.060 Y370.937 Z11.000 I0.000 J3.200 F1500.000 
G1 X-153.080 Y762.943 Z11.000 F1500.000 
G1 X-152.914 Y763.585 Z11.000 F1500.000 
G3 X-166.085 Y766.923 Z11.000 I-6.650 J1.414 F1500.000 
G1 X-220.596 Y588.820 Z11.000 F1500.000 
G2 X-293.672 Y611.107 Z11.000 I-36.527 J11.180 F1500.000 
G1 X-194.180 Y936.180 Z11.000 F1500.000 
G2 X-157.728 Y963.199 Z11.000 I36.528 J-11.182 F1500.000 
G1 X-83.136 Y963.200 Z11.000 F1500.000 
G3 X-78.790 Y975.289 Z11.000 I0.065 J6.803 F1500.000 
G2 X-79.009 Y1164.529 Z11.000 I78.789 J94.711 F1500.000 
G2 X114.137 Y1116.378 Z11.000 I79.009 J-94.528 F1500.000 
G1 X114.137 Y1116.378 Z7.000 F300.000 
G2 X78.791 Y975.290 Z7.000 I-114.137 J-46.377 F1500.000 
G3 X83.136 Y963.200 Z7.000 I4.281 J-5.287 F1500.000 
G1 X157.652 Y963.200 Z7.000 F1500.000 
G2 X194.157 Y936.252 Z7.000 I-0.002 J-38.201 F1500.000 
G1 X293.651 Y611.180 Z7.000 F1500.000 
G2 X220.619 Y588.748 Z7.000 I-36.527 J-11.179 F1500.000 
G1 X166.085 Y766.923 Z7.000 F1500.000 
G1 X165.863 Y767.548 Z7.000 F1500.000 
G3 X153.080 Y762.943 Z7.000 I-6.302 J-2.550 F1500.000 
G1 X273.060 Y370.937 Z7.000 F1500.000 
G2 X270.000 Y366.800 Z7.000 I-3.060 J-0.937 F1500.000 
G1 X128.200 Y366.800 Z7.000 F1500.000 
G1 X128.200 Y249.526 Z7.000 F1500.000 
G3 X141.230 Y233.105 Z7.000 I16.806 J-0.044 F1500.000 
G1 X273.680 Y202.201 Z7.000 F1500.000 
G2 X303.199 Y165.074 Z7.000 I-8.682 J-37.201 F1500.000 
G1 X303.200 Y0.000 Z7.000 F1500.000 
G2 X300.000 Y-3.200 Z7.000 I-3.200 J0.000 F1500.000 
G1 X240.000 Y-3.200 Z7.000 F1500.000 
G2 X236.800 Y0.000 Z7.000 I0.000 J3.200 F1500.000 
G1 X236.800 Y96.800 Z7.000 F1500.000 
G1 X230.200 Y96.800 Z7.000 F1500.000 
G1 X230.200 Y5.000 Z7.000 F1500.000 
G2 X226.238 Y1.892 Z7.000 I-3.200 J0.000 F1500.000 
G1 X124.614 Y26.800 Z7.000 F1500.000 
G1 X-124.614 Y26.800 Z7.000 F1500.000 
G1 X-226.238 Y1.892 Z7.000 F1500.000 
G2 X-230.200 Y5.000 Z7.000 I-0.762 J3.108 F1500.000 
G1 X-230.200 Y96.800 Z7.000 F1500.000 
G1 X-236.800 Y96.800 Z7.000 F1500.000 
G1 X-236.800 Y0.000 Z7.000 F1500.000 
G2 X-240.000 Y-3.200 Z7.000 I-3.200 J0.000 F1500.000 
G1 X-300.000 Y-3.200 Z7.000 F1500.000 
G2 X-303.200 Y0.000 Z7.000 I0.000 J3.200 F1500.000 
G1 X-303.200 Y165.000 Z7.000 F1500.000 
G2 X-273.752 Y202.183 Z7.000 I38.201 J-0.002 F1500.000 
G1 X-141.230 Y233.105 Z7.000 F1500.000 
G3 X-128.200 Y249.526 Z7.000 I-3.775 J16.376 F1500.000 
G1 X-128.200 Y366.800 Z7.000 F1500.000 
G1 X-270.000 Y366.800 Z7.000 F1500.000 
G2 X-273.060 Y370.937 Z7.000 I0.000 J3.200 F1500.000 
G1 X-153.080 Y762.943 Z7.000 F1500.000 
G1 X-152.914 Y763.585 Z7.000 F1500.000 
G3 X-166.085 Y766.923 Z7.000 I-6.650 J1.414 F1500.000 
G1 X-220.596 Y588.820 Z7.000 F1500.000 
G2 X-293.672 Y611.107 Z7.000 I-36.527 J11.180 F1500.000 
G1 X-194.180 Y936.180 Z7.000 F1500.000 
G2 X-157.728 Y963.199 Z7.000 I36.528 J-11.182 F1500.000 
G1 X-83.136 Y963.200 Z7.000 F1500.000 
G3 X-78.790 Y975.289 Z7.000 I0.065 J6.803 F1500.000 
G2 X-79.009 Y1164.529 Z7.000 I78.789 J94.711 F1500.000 
G2 X114.137 Y1116.378 Z7.000 I79.009 J-94.528 F1500.000 
G1 X114.137 Y1116.378 Z3.000 F300.000 
G2 X78.791 Y975.290 Z3.000 I-114.137 J-46.377 F1500.000 
G3 X83.136 Y963.200 Z3.000 I4.281 J-5.287 F1500.000 
G1 X157.652 Y963.200 Z3.000 F1500.000 
G2 X194.157 Y936.252 Z3.000 I-0.002 J-38.201 F1500.000 
G1 X293.651 Y611.180 Z3.000 F1500.000 
G2 X220.619 Y588.748 Z3.000 I-36.527 J-11.179 F1500.000 
G1 X166.085 Y766.923 Z3.000 F1500.000 
G1 X165.863 Y767.548 Z3.000 F1500.000 
G3 X153.080 Y762.943 Z3.000 I-6.302 J-2.550 F1500.000 
G1 X273.060 Y370.937 Z3.000 F1500.000 
G2 X270.000 Y366.800 Z3.000 I-3.060 J-0.937 F1500.000 
G1 X128.200 Y366.800 Z3.000 F1500.000 
G1 X128.200 Y249.526 Z3.000 F1500.000 
G3 X141.230 Y233.105 Z3.000 I16.806 J-0.044 F1500.000 
G1 X273.680 Y202.201 Z3.000 F1500.000 
G2 X303.199 Y165.074 Z3.000 I-8.682 J-37.201 F1500.000 
G1 X303.200 Y0.000 Z3.000 F1500.000 
G2 X300.000 Y-3.200 Z3.000 I-3.200 J0.000 F1500.000 
G1 X240.000 Y-3.200 Z3.000 F1500.000 
G2 X236.800 Y0.000 Z3.000 I0.000 J3.200 F1500.000 
G1 X236.800 Y96.800 Z3.000 F1500.000 
G1 X230.200 Y96.800 Z3.000 F1500.000 
G1 X230.200 Y5.000 Z3.000 F1500.000 
G2 X226.238 Y1.892 Z3.000 I-3.200 J0.000 F1500.000 
G1 X124.614 Y26.800 Z3.000 F1500.000 
G1 X-124.614 Y26.800 Z3.000 F1500.000 
G1 X-226.238 Y1.892 Z3.000 F1500.000 
G2 X-230.200 Y5.000 Z3.000 I-0.762 J3.108 F1500.000 
G1 X-230.200 Y96.800 Z3.000 F1500.000 
G1 X-236.800 Y96.800 Z3.000 F1500.000 
G1 X-236.800 Y0.000 Z3.000 F1500.000 
G2 X-240.000 Y-3.200 Z3.000 I-3.200 J0.000 F1500.000 
G1 X-300.000 Y-3.200 Z3.000 F1500.000 
G2 X-303.200 Y0.000 Z3.000 I0.000 J3.200 F1500.000 
G1 X-303.200 Y165.000 Z3.000 F1500.000 
G2 X-273.752 Y202.183 Z3.000 I38.201 J-0.002 F1500.000 
G1 X-141.230 Y233.105 Z3.000 F1500.000 
G3 X-128.200 Y249.526 Z3.000 I-3.775 J16.376 F1500.000 
G1 X-128.200 Y366.800 Z3.000 F1500.000 
G1 X-270.000 Y366.800 Z3.000 F1500.000 
G2 X-273.060 Y370.937 Z3.000 I0.000 J3.200 F1500.000 
G1 X-153.080 Y762.943 Z3.000 F1500.000 
G1 X-152.914 Y763.585 Z3.000 F1500.000 
G3 X-166.085 Y766.923 Z3.000 I-6.650 J1.414 F1500.000 
G1 X-220.596 Y588.820 Z3.000 F1500.000 
G2 X-293.672 Y611.107 Z3.000 I-36.527 J11.180 F1500.000 
G1 X-194.180 Y936.180 Z3.000 F1500.000 
G2 X-157.728 Y963.199 Z3.000 I36.528 J-11.182 F1500.000 
G1 X-83.136 Y963.200 Z3.000 F1500.000 
G3 X-78.790 Y975.289 Z3.000 I0.065 J6.803 F1500.000 
G2 X-79.009 Y1164.529 Z3.000 I78.789 J94.711 F1500.000 
G2 X114.137 Y1116.378 Z3.000 I79.009 J-94.528 F1500.000 
G1 X114.137 Y1116.378 Z-0.500 F300.000 
G2 X78.791 Y975.290 Z-0.500 I-114.137 J-46.377 F1500.000 
G3 X83.136 Y963.200 Z-0.500 I4.281 J-5.287 F1500.000 
G1 X157.652 Y963.200 Z-0.500 F1500.000 
G2 X194.157 Y936.252 Z-0.500 I-0.002 J-38.201 F1500.000 
G1 X293.651 Y611.180 Z-0.500 F1500.000 
G2 X220.619 Y588.748 Z-0.500 I-36.527 J-11.179 F1500.000 
G1 X166.085 Y766.923 Z-0.500 F1500.000 
G1 X165.863 Y767.548 Z-0.500 F1500.000 
G3 X153.080 Y762.943 Z-0.500 I-6.302 J-2.550 F1500.000 
G1 X273.060 Y370.937 Z-0.500 F1500.000 
G2 X270.000 Y366.800 Z-0.500 I-3.060 J-0.937 F1500.000 
G1 X128.200 Y366.800 Z-0.500 F1500.000 
G1 X128.200 Y249.526 Z-0.500 F1500.000 
G3 X141.230 Y233.105 Z-0.500 I16.806 J-0.044 F1500.000 
G1 X273.680 Y202.201 Z-0.500 F1500.000 
G2 X303.199 Y165.074 Z-0.500 I-8.682 J-37.201 F1500.000 
G1 X303.200 Y0.000 Z-0.500 F1500.000 
G2 X300.000 Y-3.200 Z-0.500 I-3.200 J0.000 F1500.000 
G1 X240.000 Y-3.200 Z-0.500 F1500.000 
G2 X236.800 Y0.000 Z-0.500 I0.000 J3.200 F1500.000 
G1 X236.800 Y96.800 Z-0.500 F1500.000 
G1 X230.200 Y96.800 Z-0.500 F1500.000 
G1 X230.200 Y5.000 Z-0.500 F1500.000 
G2 X226.238 Y1.892 Z-0.500 I-3.200 J0.000 F1500.000 
G1 X124.614 Y26.800 Z-0.500 F1500.000 
G1 X-124.614 Y26.800 Z-0.500 F1500.000 
G1 X-226.238 Y1.892 Z-0.500 F1500.000 
G2 X-230.200 Y5.000 Z-0.500 I-0.762 J3.108 F1500.000 
G1 X-230.200 Y96.800 Z-0.500 F1500.000 
G1 X-236.800 Y96.800 Z-0.500 F1500.000 
G1 X-236.800 Y0.000 Z-0.500 F1500.000 
G2 X-240.000 Y-3.200 Z-0.500 I-3.200 J0.000 F1500.000 
G1 X-300.000 Y-3.200 Z-0.500 F1500.000 
G2 X-303.200 Y0.000 Z-0.500 I0.000 J3.200 F1500.000 
G1 X-303.200 Y165.000 Z-0.500 F1500.000 
G2 X-273.752 Y202.183 Z-0.500 I38.201 J-0.002 F1500.000 
G1 X-141.230 Y233.105 Z-0.500 F1500.000 
G3 X-128.200 Y249.526 Z-0.500 I-3.775 J16.376 F1500.000 
G1 X-128.200 Y366.800 Z-0.500 F1500.000 
G1 X-270.000 Y366.800 Z-0.500 F1500.000 
G2 X-273.060 Y370.937 Z-0.500 I0.000 J3.200 F1500.000 
G1 X-153.080 Y762.943 Z-0.500 F1500.000 
G1 X-152.914 Y763.585 Z-0.500 F1500.000 
G3 X-166.085 Y766.923 Z-0.500 I-6.650 J1.414 F1500.000 
G1 X-220.596 Y588.820 Z-0.500 F1500.000 
G2 X-293.672 Y611.107 Z-0.500 I-36.527 J11.180 F1500.000 
G1 X-194.180 Y936.180 Z-0.500 F1500.000 
G2 X-157.728 Y963.199 Z-0.500 I36.528 J-11.182 F1500.000 
G1 X-83.136 Y963.200 Z-0.500 F1500.000 
G3 X-78.790 Y975.289 Z-0.500 I0.065 J6.803 F1500.000 
G2 X-79.009 Y1164.529 Z-0.500 I78.789 J94.711 F1500.000 
G2 X114.137 Y1116.378 Z-0.500 I79.009 J-94.528 F1500.000 
G0 Z17.700 
G0 Z17.700 
(finish operation: Profile)
(begin operation: Array)
(machine units: mm/min)
(Profile001) 
(Compensated Tool Path. Diameter: 6.4) 
G0 Z17.700 
G0 X611.300 Y366.800 
G0 Z15.700 
G1 X611.300 Y366.800 Z11.000 F300.000 
G1 X611.300 Y233.200 Z11.000 F1500.000 
G1 X602.700 Y233.200 Z11.000 F1500.000 
G1 X602.700 Y366.800 Z11.000 F1500.000 
G1 X611.300 Y366.800 Z11.000 F1500.000 
G1 X611.300 Y366.800 Z7.000 F300.000 
G1 X611.300 Y233.200 Z7.000 F1500.000 
G1 X602.700 Y233.200 Z7.000 F1500.000 
G1 X602.700 Y366.800 Z7.000 F1500.000 
G1 X611.300 Y366.800 Z7.000 F1500.000 
G1 X611.300 Y366.800 Z3.000 F300.000 
G1 X611.300 Y233.200 Z3.000 F1500.000 
G1 X602.700 Y233.200 Z3.000 F1500.000 
G1 X602.700 Y366.800 Z3.000 F1500.000 
G1 X611.300 Y366.800 Z3.000 F1500.000 
G1 X611.300 Y366.800 Z-0.500 F300.000 
G1 X611.300 Y233.200 Z-0.500 F1500.000 
G1 X602.700 Y233.200 Z-0.500 F1500.000 
G1 X602.700 Y366.800 Z-0.500 F1500.000 
G1 X611.300 Y366.800 Z-0.500 F1500.000 
G0 Z17.700 
G0 Z17.700 
(Profile001) 
(Compensated Tool Path. Diameter: 6.4) 
G0 Z17.700 
G0 X1218.300 Y366.800 
G0 Z15.700 
G1 X1218.300 Y366.800 Z11.000 F300.000 
G1 X1218.300 Y233.200 Z11.000 F1500.000 
G1 X1209.700 Y233.200 Z11.000 F1500.000 
G1 X1209.700 Y366.800 Z11.000 F1500.000 
G1 X1218.300 Y366.800 Z11.000 F1500.000 
G1 X1218.300 Y366.800 Z7.000 F300.000 
G1 X1218.300 Y233.200 Z7.000 F1500.000 
G1 X1209.700 Y233.200 Z7.000 F1500.000 
G1 X1209.700 Y366.800 Z7.000 F1500.000 
G1 X1218.300 Y366.800 Z7.000 F1500.000 
G1 X1218.300 Y366.800 Z3.000 F300.000 
G1 X1218.300 Y233.200 Z3.000 F1500.000 
G1 X1209.700 Y233.200 Z3.000 F1500.000 
G1 X1209.700 Y366.800 Z3.000 F1500.000 
G1 X1218.300 Y366.800 Z3.000 F1500.000 
G1 X1218.300 Y366.800 Z-0.500 F300.000 
G1 X1218.300 Y233.200 Z-0.500 F1500.000 
G1 X1209.700 Y233.200 Z-0.500 F1500.000 
G1 X1209.700 Y366.800 Z-0.500 F1500.000 
G1 X1218.300 Y366.800 Z-0.500 F1500.000 
G0 Z17.700 
G0 Z17.700 
(finish operation: Array)
(begin operation: Array001)
(machine units: mm/min)
(Profile) 
(Compensated Tool Path. Diameter: 6.4) 
G0 Z17.700 
G0 X721.137 Y1116.378 
G0 Z15.700 
G1 X721.137 Y1116.378 Z11.000 F300.000 
G2 X685.791 Y975.290 Z11.000 I-114.137 J-46.377 F1500.000 
G3 X690.136 Y963.200 Z11.000 I4.281 J-5.287 F1500.000 
G1 X764.652 Y963.200 Z11.000 F1500.000 
G2 X801.157 Y936.252 Z11.000 I-0.002 J-38.201 F1500.000 
G1 X900.651 Y611.180 Z11.000 F1500.000 
G2 X827.619 Y588.748 Z11.000 I-36.527 J-11.179 F1500.000 
G1 X773.085 Y766.923 Z11.000 F1500.000 
G1 X772.863 Y767.548 Z11.000 F1500.000 
G3 X760.080 Y762.943 Z11.000 I-6.302 J-2.550 F1500.000 
G1 X880.060 Y370.937 Z11.000 F1500.000 
G2 X877.000 Y366.800 Z11.000 I-3.060 J-0.937 F1500.000 
G1 X735.200 Y366.800 Z11.000 F1500.000 
G1 X735.200 Y249.526 Z11.000 F1500.000 
G3 X748.230 Y233.105 Z11.000 I16.806 J-0.044 F1500.000 
G1 X880.680 Y202.201 Z11.000 F1500.000 
G2 X910.199 Y165.074 Z11.000 I-8.682 J-37.201 F1500.000 
G1 X910.200 Y0.000 Z11.000 F1500.000 
G2 X907.000 Y-3.200 Z11.000 I-3.200 J0.000 F1500.000 
G1 X847.000 Y-3.200 Z11.000 F1500.000 
G2 X843.800 Y0.000 Z11.000 I0.000 J3.200 F1500.000 
G1 X843.800 Y96.800 Z11.000 F1500.000 
G1 X837.200 Y96.800 Z11.000 F1500.000 
G1 X837.200 Y5.000 Z11.000 F1500.000 
G2 X833.238 Y1.892 Z11.000 I-3.200 J0.000 F1500.000 
G1 X731.614 Y26.800 Z11.000 F1500.000 
G1 X482.386 Y26.800 Z11.000 F1500.000 
G1 X380.762 Y1.892 Z11.000 F1500.000 
G2 X376.800 Y5.000 Z11.000 I-0.762 J3.108 F1500.000 
G1 X376.800 Y96.800 Z11.000 F1500.000 
G1 X370.200 Y96.800 Z11.000 F1500.000 
G1 X370.200 Y0.000 Z11.000 F1500.000 
G2 X367.000 Y-3.200 Z11.000 I-3.200 J0.000 F1500.000 
G1 X307.000 Y-3.200 Z11.000 F1500.000 
G2 X303.800 Y0.000 Z11.000 I0.000 J3.200 F1500.000 
G1 X303.800 Y165.000 Z11.000 F1500.000 
G2 X333.248 Y202.183 Z11.000 I38.201 J-0.002 F1500.000 
G1 X465.770 Y233.105 Z11.000 F1500.000 
G3 X478.800 Y249.526 Z11.000 I-3.775 J16.376 F1500.000 
G1 X478.800 Y366.800 Z11.000 F1500.000 
G1 X337.000 Y366.800 Z11.000 F1500.000 
G2 X333.940 Y370.937 Z11.000 I0.000 J3.200 F1500.000 
G1 X453.920 Y762.943 Z11.000 F1500.000 
G1 X454.086 Y763.585 Z11.000 F1500.000 
G3 X440.915 Y766.923 Z11.000 I-6.650 J1.414 F1500.000 
G1 X386.404 Y588.820 Z11.000 F1500.000 
G2 X313.328 Y611.107 Z11.000 I-36.527 J11.180 F1500.000 
G1 X412.820 Y936.180 Z11.000 F1500.000 
G2 X449.272 Y963.199 Z11.000 I36.528 J-11.182 F1500.000 
G1 X523.864 Y963.200 Z11.000 F1500.000 
G3 X528.210 Y975.289 Z11.000 I0.065 J6.803 F1500.000 
G2 X527.991 Y1164.529 Z11.000 I78.789 J94.711 F1500.000 
G2 X721.137 Y1116.378 Z11.000 I79.009 J-94.528 F1500.000 
G1 X721.137 Y1116.378 Z7.000 F300.000 
G2 X685.791 Y975.290 Z7.000 I-114.137 J-46.377 F1500.000 
G3 X690.136 Y963.200 Z7.000 I4.281 J-5.287 F1500.000 
G1 X764.652 Y963.200 Z7.000 F1500.000 
G2 X801.157 Y936.252 Z7.000 I-0.002 J-38.201 F1500.000 
G1 X900.651 Y611.180 Z7.000 F1500.000 
G2 X827.619 Y588.748 Z7.000 I-36.527 J-11.179 F1500.000 
G1 X773.085 Y766.923 Z7.000 F1500.000 
G1 X772.863 Y767.548 Z7.000 F1500.000 
G3 X760.080 Y762.943 Z7.000 I-6.302 J-2.550 F1500.000 
G1 X880.060 Y370.937 Z7.000 F1500.000 
G2 X877.000 Y366.800 Z7.000 I-3.060 J-0.937 F1500.000 
G1 X735.200 Y366.800 Z7.000 F1500.000 
G1 X735.200 Y249.526 Z7.000 F1500.000 
G3 X748.230 Y233.105 Z7.000 I16.806 J-0.044 F1500.000 
G1 X880.680 Y202.201 Z7.000 F1500.000 
G2 X910.199 Y165.074 Z7.000 I-8.682 J-37.201 F1500.000 
G1 X910.200 Y0.000 Z7.000 F1500.000 
G2 X907.000 Y-3.200 Z7.000 I-3.200 J0.000 F1500.000 
G1 X847.000 Y-3.200 Z7.000 F1500.000 
G2 X843.800 Y0.000 Z7.000 I0.000 J3.200 F1500.000 
G1 X843.800 Y96.800 Z7.000 F1500.000 
G1 X837.200 Y96.800 Z7.000 F1500.000 
G1 X837.200 Y5.000 Z7.000 F1500.000 
G2 X833.238 Y1.892 Z7.000 I-3.200 J0.000 F1500.000 
G1 X731.614 Y26.800 Z7.000 F1500.000 
G1 X482.386 Y26.800 Z7.000 F1500.000 
G1 X380.762 Y1.892 Z7.000 F1500.000 
G2 X376.800 Y5.000 Z7.000 I-0.762 J3.108 F1500.000 
G1 X376.800 Y96.800 Z7.000 F1500.000 
G1 X370.200 Y96.800 Z7.000 F1500.000 
G1 X370.200 Y0.000 Z7.000 F1500.000 
G2 X367.000 Y-3.200 Z7.000 I-3.200 J0.000 F1500.000 
G1 X307.000 Y-3.200 Z7.000 F1500.000 
G2 X303.800 Y0.000 Z7.000 I0.000 J3.200 F1500.000 
G1 X303.800 Y165.000 Z7.000 F1500.000 
G2 X333.248 Y202.183 Z7.000 I38.201 J-0.002 F1500.000 
G1 X465.770 Y233.105 Z7.000 F1500.000 
G3 X478.800 Y249.526 Z7.000 I-3.775 J16.376 F1500.000 
G1 X478.800 Y366.800 Z7.000 F1500.000 
G1 X337.000 Y366.800 Z7.000 F1500.000 
G2 X333.940 Y370.937 Z7.000 I0.000 J3.200 F1500.000 
G1 X453.920 Y762.943 Z7.000 F1500.000 
G1 X454.086 Y763.585 Z7.000 F1500.000 
G3 X440.915 Y766.923 Z7.000 I-6.650 J1.414 F1500.000 
G1 X386.404 Y588.820 Z7.000 F1500.000 
G2 X313.328 Y611.107 Z7.000 I-36.527 J11.180 F1500.000 
G1 X412.820 Y936.180 Z7.000 F1500.000 
G2 X449.272 Y963.199 Z7.000 I36.528 J-11.182 F1500.000 
G1 X523.864 Y963.200 Z7.000 F1500.000 
G3 X528.210 Y975.289 Z7.000 I0.065 J6.803 F1500.000 
G2 X527.991 Y1164.529 Z7.000 I78.789 J94.711 F1500.000 
G2 X721.137 Y1116.378 Z7.000 I79.009 J-94.528 F1500.000 
G1 X721.137 Y1116.378 Z3.000 F300.000 
G2 X685.791 Y975.290 Z3.000 I-114.137 J-46.377 F1500.000 
G3 X690.136 Y963.200 Z3.000 I4.281 J-5.287 F1500.000 
G1 X764.652 Y963.200 Z3.000 F1500.000 
G2 X801.157 Y936.252 Z3.000 I-0.002 J-38.201 F1500.000 
G1 X900.651 Y611.180 Z3.000 F1500.000 
G2 X827.619 Y588.748 Z3.000 I-36.527 J-11.179 F1500.000 
G1 X773.085 Y766.923 Z3.000 F1500.000 
G1 X772.863 Y767.548 Z3.000 F1500.000 
G3 X760.080 Y762.943 Z3.000 I-6.302 J-2.550 F1500.000 
G1 X880.060 Y370.937 Z3.000 F1500.000 
G2 X877.000 Y366.800 Z3.000 I-3.060 J-0.937 F1500.000 
G1 X735.200 Y366.800 Z3.000 F1500.000 
G1 X735.200 Y249.526 Z3.000 F1500.000 
G3 X748.230 Y233.105 Z3.000 I16.806 J-0.044 F1500.000 
G1 X880.680 Y202.201 Z3.000 F1500.000 
G2 X910.199 Y165.074 Z3.000 I-8.682 J-37.201 F1500.000 
G1 X910.200 Y0.000 Z3.000 F1500.000 
G2 X907.000 Y-3.200 Z3.000 I-3.200 J0.000 F1500.000 
G1 X847.000 Y-3.200 Z3.000 F1500.000 
G2 X843.800 Y0.000 Z3.000 I0.000 J3.200 F1500.000 
G1 X843.800 Y96.800 Z3.000 F1500.000 
G1 X837.200 Y96.800 Z3.000 F1500.000 
G1 X837.200 Y5.000 Z3.000 F1500.000 
G2 X833.238 Y1.892 Z3.000 I-3.200 J0.000 F1500.000 
G1 X731.614 Y26.800 Z3.000 F1500.000 
G1 X482.386 Y26.800 Z3.000 F1500.000 
G1 X380.762 Y1.892 Z3.000 F1500.000 
G2 X376.800 Y5.000 Z3.000 I-0.762 J3.108 F1500.000 
G1 X376.800 Y96.800 Z3.000 F1500.000 
G1 X370.200 Y96.800 Z3.000 F1500.000 
G1 X370.200 Y0.000 Z3.000 F1500.000 
G2 X367.000 Y-3.200 Z3.000 I-3.200 J0.000 F1500.000 
G1 X307.000 Y-3.200 Z3.000 F1500.000 
G2 X303.800 Y0.000 Z3.000 I0.000 J3.200 F1500.000 
G1 X303.800 Y165.000 Z3.000 F1500.000 
G2 X333.248 Y202.183 Z3.000 I38.201 J-0.002 F1500.000 
G1 X465.770 Y233.105 Z3.000 F1500.000 
G3 X478.800 Y249.526 Z3.000 I-3.775 J16.376 F1500.000 
G1 X478.800 Y366.800 Z3.000 F1500.000 
G1 X337.000 Y366.800 Z3.000 F1500.000 
G2 X333.940 Y370.937 Z3.000 I0.000 J3.200 F1500.000 
G1 X453.920 Y762.943 Z3.000 F1500.000 
G1 X454.086 Y763.585 Z3.000 F1500.000 
G3 X440.915 Y766.923 Z3.000 I-6.650 J1.414 F1500.000 
G1 X386.404 Y588.820 Z3.000 F1500.000 
G2 X313.328 Y611.107 Z3.000 I-36.527 J11.180 F1500.000 
G1 X412.820 Y936.180 Z3.000 F1500.000 
G2 X449.272 Y963.199 Z3.000 I36.528 J-11.182 F1500.000 
G1 X523.864 Y963.200 Z3.000 F1500.000 
G3 X528.210 Y975.289 Z3.000 I0.065 J6.803 F1500.000 
G2 X527.991 Y1164.529 Z3.000 I78.789 J94.711 F1500.000 
G2 X721.137 Y1116.378 Z3.000 I79.009 J-94.528 F1500.000 
G1 X721.137 Y1116.378 Z-0.500 F300.000 
G2 X685.791 Y975.290 Z-0.500 I-114.137 J-46.377 F1500.000 
G3 X690.136 Y963.200 Z-0.500 I4.281 J-5.287 F1500.000 
G1 X764.652 Y963.200 Z-0.500 F1500.000 
G2 X801.157 Y936.252 Z-0.500 I-0.002 J-38.201 F1500.000 
G1 X900.651 Y611.180 Z-0.500 F1500.000 
G2 X827.619 Y588.748 Z-0.500 I-36.527 J-11.179 F1500.000 
G1 X773.085 Y766.923 Z-0.500 F1500.000 
G1 X772.863 Y767.548 Z-0.500 F1500.000 
G3 X760.080 Y762.943 Z-0.500 I-6.302 J-2.550 F1500.000 
G1 X880.060 Y370.937 Z-0.500 F1500.000 
G2 X877.000 Y366.800 Z-0.500 I-3.060 J-0.937 F1500.000 
G1 X735.200 Y366.800 Z-0.500 F1500.000 
G1 X735.200 Y249.526 Z-0.500 F1500.000 
G3 X748.230 Y233.105 Z-0.500 I16.806 J-0.044 F1500.000 
G1 X880.680 Y202.201 Z-0.500 F1500.000 
G2 X910.199 Y165.074 Z-0.500 I-8.682 J-37.201 F1500.000 
G1 X910.200 Y0.000 Z-0.500 F1500.000 
G2 X907.000 Y-3.200 Z-0.500 I-3.200 J0.000 F1500.000 
G1 X847.000 Y-3.200 Z-0.500 F1500.000 
G2 X843.800 Y0.000 Z-0.500 I0.000 J3.200 F1500.000 
G1 X843.800 Y96.800 Z-0.500 F1500.000 
G1 X837.200 Y96.800 Z-0.500 F1500.000 
G1 X837.200 Y5.000 Z-0.500 F1500.000 
G2 X833.238 Y1.892 Z-0.500 I-3.200 J0.000 F1500.000 
G1 X731.614 Y26.800 Z-0.500 F1500.000 
G1 X482.386 Y26.800 Z-0.500 F1500.000 
G1 X380.762 Y1.892 Z-0.500 F1500.000 
G2 X376.800 Y5.000 Z-0.500 I-0.762 J3.108 F1500.000 
G1 X376.800 Y96.800 Z-0.500 F1500.000 
G1 X370.200 Y96.800 Z-0.500 F1500.000 
G1 X370.200 Y0.000 Z-0.500 F1500.000 
G2 X367.000 Y-3.200 Z-0.500 I-3.200 J0.000 F1500.000 
G1 X307.000 Y-3.200 Z-0.500 F1500.000 
G2 X303.800 Y0.000 Z-0.500 I0.000 J3.200 F1500.000 
G1 X303.800 Y165.000 Z-0.500 F1500.000 
G2 X333.248 Y202.183 Z-0.500 I38.201 J-0.002 F1500.000 
G1 X465.770 Y233.105 Z-0.500 F1500.000 
G3 X478.800 Y249.526 Z-0.500 I-3.775 J16.376 F1500.000 
G1 X478.800 Y366.800 Z-0.500 F1500.000 
G1 X337.000 Y366.800 Z-0.500 F1500.000 
G2 X333.940 Y370.937 Z-0.500 I0.000 J3.200 F1500.000 
G1 X453.920 Y762.943 Z-0.500 F1500.000 
G1 X454.086 Y763.585 Z-0.500 F1500.000 
G3 X440.915 Y766.923 Z-0.500 I-6.650 J1.414 F1500.000 
G1 X386.404 Y588.820 Z-0.500 F1500.000 
G2 X313.328 Y611.107 Z-0.500 I-36.527 J11.180 F1500.000 
G1 X412.820 Y936.180 Z-0.500 F1500.000 
G2 X449.272 Y963.199 Z-0.500 I36.528 J-11.182 F1500.000 
G1 X523.864 Y963.200 Z-0.500 F1500.000 
G3 X528.210 Y975.289 Z-0.500 I0.065 J6.803 F1500.000 
G2 X527.991 Y1164.529 Z-0.500 I78.789 J94.711 F1500.000 
G2 X721.137 Y1116.378 Z-0.500 I79.009 J-94.528 F1500.000 
G0 Z17.700 
G0 Z17.700 
(Profile) 
(Compensated Tool Path. Diameter: 6.4) 
G0 Z17.700 
G0 X1328.137 Y1116.378 
G0 Z15.700 
G1 X1328.137 Y1116.378 Z11.000 F300.000 
G2 X1292.791 Y975.290 Z11.000 I-114.137 J-46.377 F1500.000 
G3 X1297.136 Y963.200 Z11.000 I4.281 J-5.287 F1500.000 
G1 X1371.652 Y963.200 Z11.000 F1500.000 
G2 X1408.157 Y936.252 Z11.000 I-0.002 J-38.201 F1500.000 
G1 X1507.651 Y611.180 Z11.000 F1500.000 
G2 X1434.619 Y588.748 Z11.000 I-36.527 J-11.179 F1500.000 
G1 X1380.085 Y766.923 Z11.000 F1500.000 
G1 X1379.863 Y767.548 Z11.000 F1500.000 
G3 X1367.080 Y762.943 Z11.000 I-6.302 J-2.550 F1500.000 
G1 X1487.060 Y370.937 Z11.000 F1500.000 
G2 X1484.000 Y366.800 Z11.000 I-3.060 J-0.937 F1500.000 
G1 X1342.200 Y366.800 Z11.000 F1500.000 
G1 X1342.200 Y249.526 Z11.000 F1500.000 
G3 X1355.230 Y233.105 Z11.000 I16.806 J-0.044 F1500.000 
G1 X1487.680 Y202.201 Z11.000 F1500.000 
G2 X1517.199 Y165.074 Z11.000 I-8.682 J-37.201 F1500.000 
G1 X1517.200 Y0.000 Z11.000 F1500.000 
G2 X1514.000 Y-3.200 Z11.000 I-3.200 J0.000 F1500.000 
G1 X1454.000 Y-3.200 Z11.000 F1500.000 
G2 X1450.800 Y0.000 Z11.000 I0.000 J3.200 F1500.000 
G1 X1450.800 Y96.800 Z11.000 F1500.000 
G1 X1444.200 Y96.800 Z11.000 F1500.000 
G1 X1444.200 Y5.000 Z11.000 F1500.000 
G2 X1440.238 Y1.892 Z11.000 I-3.200 J0.000 F1500.000 
G1 X1338.614 Y26.800 Z11.000 F1500.000 
G1 X1089.386 Y26.800 Z11.000 F1500.000 
G1 X987.762 Y1.892 Z11.000 F1500.000 
G2 X983.800 Y5.000 Z11.000 I-0.762 J3.108 F1500.000 
G1 X983.800 Y96.800 Z11.000 F1500.000 
G1 X977.200 Y96.800 Z11.000 F1500.000 
G1 X977.200 Y0.000 Z11.000 F1500.000 
G2 X974.000 Y-3.200 Z11.000 I-3.200 J0.000 F1500.000 
G1 X914.000 Y-3.200 Z11.000 F1500.000 
G2 X910.800 Y0.000 Z11.000 I0.000 J3.200 F1500.000 
G1 X910.800 Y165.000 Z11.000 F1500.000 
G2 X940.248 Y202.183 Z11.000 I38.201 J-0.002 F1500.000 
G1 X1072.770 Y233.105 Z11.000 F1500.000 
G3 X1085.800 Y249.526 Z11.000 I-3.775 J16.376 F1500.000 
G1 X1085.800 Y366.800 Z11.000 F1500.000 
G1 X944.000 Y366.800 Z11.000 F1500.000 
G2 X940.940 Y370.937 Z11.000 I0.000 J3.200 F1500.000 
G1 X1060.920 Y762.943 Z11.000 F1500.000 
G1 X1061.086 Y763.585 Z11.000 F1500.000 
G3 X1047.915 Y766.923 Z11.000 I-6.650 J1.414 F1500.000 
G1 X993.404 Y588.820 Z11.000 F1500.000 
G2 X920.328 Y611.107 Z11.000 I-36.527 J11.180 F1500.000 
G1 X1019.820 Y936.180 Z11.000 F1500.000 
G2 X1056.272 Y963.199 Z11.000 I36.528 J-11.182 F1500.000 
G1 X1130.864 Y963.200 Z11.000 F1500.000 
G3 X1135.210 Y975.289 Z11.000 I0.065 J6.803 F1500.000 
G2 X1134.991 Y1164.529 Z11.000 I78.789 J94.711 F1500.000 
G2 X1328.137 Y1116.378 Z11.000 I79.009 J-94.528 F1500.000 
G1 X1328.137 Y1116.378 Z7.000 F300.000 
G2 X1292.791 Y975.290 Z7.000 I-114.137 J-46.377 F1500.000 
G3 X1297.136 Y963.200 Z7.000 I4.281 J-5.287 F1500.000 
G1 X1371.652 Y963.200 Z7.000 F1500.000 
G2 X1408.157 Y936.252 Z7.000 I-0.002 J-38.201 F1500.000 
G1 X1507.651 Y611.180 Z7.000 F1500.000 
G2 X1434.619 Y588.748 Z7.000 I-36.527 J-11.179 F1500.000 
G1 X1380.085 Y766.923 Z7.000 F1500.000 
G1 X1379.863 Y767.548 Z7.000 F1500.000 
G3 X1367.080 Y762.943 Z7.000 I-6.302 J-2.550 F1500.000 
G1 X1487.060 Y370.937 Z7.000 F1500.000 
G2 X1484.000 Y366.800 Z7.000 I-3.060 J-0.937 F1500.000 
G1 X1342.200 Y366.800 Z7.000 F1500.000 
G1 X1342.200 Y249.526 Z7.000 F1500.000 
G3 X1355.230 Y233.105 Z7.000 I16.806 J-0.044 F1500.000 
G1 X1487.680 Y202.201 Z7.000 F1500.000 
G2 X1517.199 Y165.074 Z7.000 I-8.682 J-37.201 F1500.000 
G1 X1517.200 Y0.000 Z7.000 F1500.000 
G2 X1514.000 Y-3.200 Z7.000 I-3.200 J0.000 F1500.000 
G1 X1454.000 Y-3.200 Z7.000 F1500.000 
G2 X1450.800 Y0.000 Z7.000 I0.000 J3.200 F1500.000 
G1 X1450.800 Y96.800 Z7.000 F1500.000 
G1 X1444.200 Y96.800 Z7.000 F1500.000 
G1 X1444.200 Y5.000 Z7.000 F1500.000 
G2 X1440.238 Y1.892 Z7.000 I-3.200 J0.000 F1500.000 
G1 X1338.614 Y26.800 Z7.000 F1500.000 
G1 X1089.386 Y26.800 Z7.000 F1500.000 
G1 X987.762 Y1.892 Z7.000 F1500.000 
G2 X983.800 Y5.000 Z7.000 I-0.762 J3.108 F1500.000 
G1 X983.800 Y96.800 Z7.000 F1500.000 
G1 X977.200 Y96.800 Z7.000 F1500.000 
G1 X977.200 Y0.000 Z7.000 F1500.000 
G2 X974.000 Y-3.200 Z7.000 I-3.200 J0.000 F1500.000 
G1 X914.000 Y-3.200 Z7.000 F1500.000 
G2 X910.800 Y0.000 Z7.000 I0.000 J3.200 F1500.000 
G1 X910.800 Y165.000 Z7.000 F1500.000 
G2 X940.248 Y202.183 Z7.000 I38.201 J-0.002 F1500.000 
G1 X1072.770 Y233.105 Z7.000 F1500.000 
G3 X1085.800 Y249.526 Z7.000 I-3.775 J16.376 F1500.000 
G1 X1085.800 Y366.800 Z7.000 F1500.000 
G1 X944.000 Y366.800 Z7.000 F1500.000 
G2 X940.940 Y370.937 Z7.000 I0.000 J3.200 F1500.000 
G1 X1060.920 Y762.943 Z7.000 F1500.000 
G1 X1061.086 Y763.585 Z7.000 F1500.000 
G3 X1047.915 Y766.923 Z7.000 I-6.650 J1.414 F1500.000 
G1 X993.404 Y588.820 Z7.000 F1500.000 
G2 X920.328 Y611.107 Z7.000 I-36.527 J11.180 F1500.000 
G1 X1019.820 Y936.180 Z7.000 F1500.000 
G2 X1056.272 Y963.199 Z7.000 I36.528 J-11.182 F1500.000 
G1 X1130.864 Y963.200 Z7.000 F1500.000 
G3 X1135.210 Y975.289 Z7.000 I0.065 J6.803 F1500.000 
G2 X1134.991 Y1164.529 Z7.000 I78.789 J94.711 F1500.000 
G2 X1328.137 Y1116.378 Z7.000 I79.009 J-94.528 F1500.000 
G1 X1328.137 Y1116.378 Z3.000 F300.000 
G2 X1292.791 Y975.290 Z3.000 I-114.137 J-46.377 F1500.000 
G3 X1297.136 Y963.200 Z3.000 I4.281 J-5.287 F1500.000 
G1 X1371.652 Y963.200 Z3.000 F1500.000 
G2 X1408.157 Y936.252 Z3.000 I-0.002 J-38.201 F1500.000 
G1 X1507.651 Y611.180 Z3.000 F1500.000 
G2 X1434.619 Y588.748 Z3.000 I-36.527 J-11.179 F1500.000 
G1 X1380.085 Y766.923 Z3.000 F1500.000 
G1 X1379.863 Y767.548 Z3.000 F1500.000 
G3 X1367.080 Y762.943 Z3.000 I-6.302 J-2.550 F1500.000 
G1 X1487.060 Y370.937 Z3.000 F1500.000 
G2 X1484.000 Y366.800 Z3.000 I-3.060 J-0.937 F1500.000 
G1 X1342.200 Y366.800 Z3.000 F1500.000 
G1 X1342.200 Y249.526 Z3.000 F1500.000 
G3 X1355.230 Y233.105 Z3.000 I16.806 J-0.044 F1500.000 
G1 X1487.680 Y202.201 Z3.000 F1500.000 
G2 X1517.199 Y165.074 Z3.000 I-8.682 J-37.201 F1500.000 
G1 X1517.200 Y0.000 Z3.000 F1500.000 
G2 X1514.000 Y-3.200 Z3.000 I-3.200 J0.000 F1500.000 
G1 X1454.000 Y-3.200 Z3.000 F1500.000 
G2 X1450.800 Y0.000 Z3.000 I0.000 J3.200 F1500.000 
G1 X1450.800 Y96.800 Z3.000 F1500.000 
G1 X1444.200 Y96.800 Z3.000 F1500.000 
G1 X1444.200 Y5.000 Z3.000 F1500.000 
G2 X1440.238 Y1.892 Z3.000 I-3.200 J0.000 F1500.000 
G1 X1338.614 Y26.800 Z3.000 F1500.000 
G1 X1089.386 Y26.800 Z3.000 F1500.000 
G1 X987.762 Y1.892 Z3.000 F1500.000 
G2 X983.800 Y5.000 Z3.000 I-0.762 J3.108 F1500.000 
G1 X983.800 Y96.800 Z3.000 F1500.000 
G1 X977.200 Y96.800 Z3.000 F1500.000 
G1 X977.200 Y0.000 Z3.000 F1500.000 
G2 X974.000 Y-3.200 Z3.000 I-3.200 J0.000 F1500.000 
G1 X914.000 Y-3.200 Z3.000 F1500.000 
G2 X910.800 Y0.000 Z3.000 I0.000 J3.200 F1500.000 
G1 X910.800 Y165.000 Z3.000 F1500.000 
G2 X940.248 Y202.183 Z3.000 I38.201 J-0.002 F1500.000 
G1 X1072.770 Y233.105 Z3.000 F1500.000 
G3 X1085.800 Y249.526 Z3.000 I-3.775 J16.376 F1500.000 
G1 X1085.800 Y366.800 Z3.000 F1500.000 
G1 X944.000 Y366.800 Z3.000 F1500.000 
G2 X940.940 Y370.937 Z3.000 I0.000 J3.200 F1500.000 
G1 X1060.920 Y762.943 Z3.000 F1500.000 
G1 X1061.086 Y763.585 Z3.000 F1500.000 
G3 X1047.915 Y766.923 Z3.000 I-6.650 J1.414 F1500.000 
G1 X993.404 Y588.820 Z3.000 F1500.000 
G2 X920.328 Y611.107 Z3.000 I-36.527 J11.180 F1500.000 
G1 X1019.820 Y936.180 Z3.000 F1500.000 
G2 X1056.272 Y963.199 Z3.000 I36.528 J-11.182 F1500.000 
G1 X1130.864 Y963.200 Z3.000 F1500.000 
G3 X1135.210 Y975.289 Z3.000 I0.065 J6.803 F1500.000 
G2 X1134.991 Y1164.529 Z3.000 I78.789 J94.711 F1500.000 
G2 X1328.137 Y1116.378 Z3.000 I79.009 J-94.528 F1500.000 
G1 X1328.137 Y1116.378 Z-0.500 F300.000 
G2 X1292.791 Y975.290 Z-0.500 I-114.137 J-46.377 F1500.000 
G3 X1297.136 Y963.200 Z-0.500 I4.281 J-5.287 F1500.000 
G1 X1371.652 Y963.200 Z-0.500 F1500.000 
G2 X1408.157 Y936.252 Z-0.500 I-0.002 J-38.201 F1500.000 
G1 X1507.651 Y611.180 Z-0.500 F1500.000 
G2 X1434.619 Y588.748 Z-0.500 I-36.527 J-11.179 F1500.000 
G1 X1380.085 Y766.923 Z-0.500 F1500.000 
G1 X1379.863 Y767.548 Z-0.500 F1500.000 
G3 X1367.080 Y762.943 Z-0.500 I-6.302 J-2.550 F1500.000 
G1 X1487.060 Y370.937 Z-0.500 F1500.000 
G2 X1484.000 Y366.800 Z-0.500 I-3.060 J-0.937 F1500.000 
G1 X1342.200 Y366.800 Z-0.500 F1500.000 
G1 X1342.200 Y249.526 Z-0.500 F1500.000 
G3 X1355.230 Y233.105 Z-0.500 I16.806 J-0.044 F1500.000 
G1 X1487.680 Y202.201 Z-0.500 F1500.000 
G2 X1517.199 Y165.074 Z-0.500 I-8.682 J-37.201 F1500.000 
G1 X1517.200 Y0.000 Z-0.500 F1500.000 
G2 X1514.000 Y-3.200 Z-0.500 I-3.200 J0.000 F1500.000 
G1 X1454.000 Y-3.200 Z-0.500 F1500.000 
G2 X1450.800 Y0.000 Z-0.500 I0.000 J3.200 F1500.000 
G1 X1450.800 Y96.800 Z-0.500 F1500.000 
G1 X1444.200 Y96.800 Z-0.500 F1500.000 
G1 X1444.200 Y5.000 Z-0.500 F1500.000 
G2 X1440.238 Y1.892 Z-0.500 I-3.200 J0.000 F1500.000 
G1 X1338.614 Y26.800 Z-0.500 F1500.000 
G1 X1089.386 Y26.800 Z-0.500 F1500.000 
G1 X987.762 Y1.892 Z-0.500 F1500.000 
G2 X983.800 Y5.000 Z-0.500 I-0.762 J3.108 F1500.000 
G1 X983.800 Y96.800 Z-0.500 F1500.000 
G1 X977.200 Y96.800 Z-0.500 F1500.000 
G1 X977.200 Y0.000 Z-0.500 F1500.000 
G2 X974.000 Y-3.200 Z-0.500 I-3.200 J0.000 F1500.000 
G1 X914.000 Y-3.200 Z-0.500 F1500.000 
G2 X910.800 Y0.000 Z-0.500 I0.000 J3.200 F1500.000 
G1 X910.800 Y165.000 Z-0.500 F1500.000 
G2 X940.248 Y202.183 Z-0.500 I38.201 J-0.002 F1500.000 
G1 X1072.770 Y233.105 Z-0.500 F1500.000 
G3 X1085.800 Y249.526 Z-0.500 I-3.775 J16.376 F1500.000 
G1 X1085.800 Y366.800 Z-0.500 F1500.000 
G1 X944.000 Y366.800 Z-0.500 F1500.000 
G2 X940.940 Y370.937 Z-0.500 I0.000 J3.200 F1500.000 
G1 X1060.920 Y762.943 Z-0.500 F1500.000 
G1 X1061.086 Y763.585 Z-0.500 F1500.000 
G3 X1047.915 Y766.923 Z-0.500 I-6.650 J1.414 F1500.000 
G1 X993.404 Y588.820 Z-0.500 F1500.000 
G2 X920.328 Y611.107 Z-0.500 I-36.527 J11.180 F1500.000 
G1 X1019.820 Y936.180 Z-0.500 F1500.000 
G2 X1056.272 Y963.199 Z-0.500 I36.528 J-11.182 F1500.000 
G1 X1130.864 Y963.200 Z-0.500 F1500.000 
G3 X1135.210 Y975.289 Z-0.500 I0.065 J6.803 F1500.000 
G2 X1134.991 Y1164.529 Z-0.500 I78.789 J94.711 F1500.000 
G2 X1328.137 Y1116.378 Z-0.500 I79.009 J-94.528 F1500.000 
G0 Z17.700 
G0 Z17.700 
(finish operation: Array001)
(begin postamble)
M05
G17 G54 G90 G80 G40
M2
