(Exported by FreeCAD)
(Post Processor: linuxcnc_post)
(Output Time:2023-03-31 10:21:40.771355)
(begin preamble)
G17 G54 G40 G49 G80 G90
G21
(begin operation: G54)
(machine units: mm/min)
G54 
G0 Z15.000 
(finish operation: G54)
(begin operation: 60 Deg. V-Bit001)
(machine units: mm/min)
(60 Deg. V-Bit001) 
M5
M6 T2 
G43 H2 
M3 S10000 
(finish operation: 60 Deg. V-Bit001)
(begin operation: Vcarve)
(machine units: mm/min)
(starting) 
G0 Z1.500 
G0 X-8.478 Y-27.810 Z1.500 
G1 X-8.478 Y-27.810 Z0.007 F300.000 
G1 X-7.946 Y-28.880 Z-1.000 F632.454 
G1 X-8.529 Y-30.479 Z-1.000 F900.000 
G0 Z1.500 
G0 X-8.125 Y-31.409 Z1.500 
G1 X-8.125 Y-31.409 Z0.007 F300.000 
G1 X-8.529 Y-30.479 Z-1.000 F601.315 
G1 X-9.438 Y-30.931 Z0.007 F601.470 
G0 Z1.500 
G0 X-11.206 Y-30.857 Z1.500 
G1 X-11.206 Y-30.857 Z0.008 F300.000 
G1 X-12.328 Y-31.222 Z-1.000 F629.945 
G0 Z1.500 
G0 X-12.693 Y-30.100 Z1.500 
G1 X-12.693 Y-30.100 Z0.008 F300.000 
G1 X-12.328 Y-31.222 Z-1.000 F629.925 
G1 X-14.310 Y-35.112 Z-1.000 F900.000 
G1 X-14.658 Y-35.826 Z-1.000 F900.000 
G1 X-15.028 Y-36.644 Z-1.000 F900.000 
G1 X-15.200 Y-36.935 Z-1.000 F900.000 
G1 X-15.437 Y-37.194 Z-1.000 F900.000 
G1 X-15.581 Y-37.311 Z-1.000 F900.000 
G1 X-15.741 Y-37.419 Z-1.000 F900.000 
G0 Z1.500 
G0 X-16.265 Y-37.220 Z1.500 
G1 X-16.265 Y-37.220 Z-1.000 F300.000 
G1 X-16.012 Y-37.337 Z-1.000 F900.000 
G1 X-15.742 Y-37.420 Z-1.000 F900.000 
G1 X-15.277 Y-38.848 Z0.008 F674.232 
G0 Z1.500 
G0 X-17.241 Y-37.848 Z1.500 
G1 X-17.241 Y-37.848 Z0.008 F300.000 
G1 X-16.265 Y-37.219 Z-1.000 F626.916 
G1 X-16.433 Y-36.868 Z-1.000 F900.000 
G1 X-16.528 Y-36.393 Z-1.000 F900.000 
G1 X-16.824 Y-29.886 Z-1.000 F900.000 
G1 X-16.876 Y-29.554 Z-1.000 F900.000 
G1 X-17.003 Y-29.222 Z-1.000 F900.000 
G1 X-17.063 Y-29.109 Z-1.000 F900.000 
G1 X-17.132 Y-28.997 Z-1.000 F900.000 
G1 X-17.565 Y-28.836 Z-1.000 F900.000 
G0 Z1.500 
G0 X-17.131 Y-28.996 Z1.500 
G1 X-17.131 Y-28.996 Z-1.000 F300.000 
G1 X-16.128 Y-28.349 Z0.007 F632.346 
G0 Z1.500 
G0 X-18.039 Y-27.376 Z1.500 
G1 X-18.039 Y-27.376 Z0.008 F300.000 
G1 X-17.565 Y-28.835 Z-1.000 F678.009 
G1 X-17.897 Y-29.076 Z-1.000 F900.000 
G1 X-18.143 Y-29.342 Z-1.000 F900.000 
G1 X-18.237 Y-29.484 Z-1.000 F900.000 
G1 X-18.315 Y-29.634 Z-1.000 F900.000 
G1 X-18.681 Y-30.445 Z-1.000 F900.000 
G1 X-18.974 Y-31.050 Z-1.000 F900.000 
G1 X-20.988 Y-35.002 Z-1.000 F900.000 
G0 Z1.500 
G0 X-20.623 Y-36.124 Z1.500 
G1 X-20.623 Y-36.124 Z0.007 F300.000 
G1 X-20.988 Y-35.002 Z-1.000 F630.113 
G1 X-22.110 Y-35.367 Z0.008 F629.989 
G0 Z1.500 
G0 X-25.107 Y-33.190 Z1.500 
G1 X-25.107 Y-33.190 Z0.008 F300.000 
G1 X-25.125 Y-32.163 Z-1.000 F603.638 
G1 X-28.516 Y-28.888 Z-1.000 F900.000 
G1 X-28.725 Y-28.637 Z-1.000 F900.000 
G1 X-28.884 Y-28.329 Z-1.000 F900.000 
G1 X-28.928 Y-28.209 Z-1.000 F900.000 
G1 X-28.965 Y-28.083 Z-1.000 F900.000 
G1 X-30.370 Y-28.107 Z0.007 F662.622 
G0 Z1.500 
G0 X-28.964 Y-28.082 Z1.500 
G1 X-28.964 Y-28.082 Z-1.000 F300.000 
G1 X-28.686 Y-27.714 Z-1.000 F900.000 
G1 X-27.117 Y-26.089 Z-1.000 F900.000 
G1 X-26.834 Y-25.849 Z-1.000 F900.000 
G1 X-26.511 Y-25.665 Z-1.000 F900.000 
G1 X-26.324 Y-25.313 Z-1.000 F900.000 
G1 X-26.109 Y-25.045 Z-1.000 F900.000 
G1 X-24.474 Y-23.352 Z-1.000 F900.000 
G1 X-24.305 Y-23.197 Z-1.000 F900.000 
G1 X-24.115 Y-23.062 Z-1.000 F900.000 
G1 X-24.140 Y-21.656 Z0.008 F662.385 
G0 Z1.500 
G0 X-24.116 Y-23.062 Z1.500 
G1 X-24.116 Y-23.062 Z-1.000 F300.000 
G1 X-23.745 Y-23.184 Z-1.000 F900.000 
G1 X-23.445 Y-23.356 Z-1.000 F900.000 
G1 X-23.368 Y-23.417 Z-1.000 F900.000 
G1 X-23.295 Y-23.483 Z-1.000 F900.000 
G1 X-20.091 Y-26.576 Z-1.000 F900.000 
G1 X-20.073 Y-27.603 Z0.008 F603.574 
G0 Z1.500 
G0 X-20.091 Y-26.576 Z1.500 
G1 X-20.091 Y-26.576 Z-1.000 F300.000 
G1 X-19.064 Y-26.558 Z0.007 F603.756 
G0 Z1.500 
G0 X-21.988 Y-29.024 Z1.500 
G1 X-21.988 Y-29.024 Z0.009 F300.000 
G1 X-23.015 Y-29.042 Z-1.000 F603.465 
G0 Z1.500 
G0 X-22.997 Y-30.069 Z1.500 
G1 X-22.997 Y-30.069 Z0.008 F300.000 
G1 X-23.015 Y-29.042 Z-1.000 F603.518 
G1 X-25.937 Y-26.219 Z-1.000 F900.000 
G1 X-25.938 Y-26.219 Z-1.000 F900.000 
G1 X-26.511 Y-25.664 Z-1.000 F900.000 
G0 Z1.500 
G0 X-25.127 Y-20.424 Z1.500 
G1 X-25.127 Y-20.424 Z0.009 F300.000 
G1 X-26.412 Y-20.127 Z-1.000 F650.671 
G1 X-26.658 Y-20.403 Z-1.000 F900.000 
G1 X-26.920 Y-20.597 Z-1.000 F900.000 
G1 X-28.270 Y-21.404 Z-1.000 F900.000 
G1 X-28.565 Y-21.588 Z-1.000 F900.000 
G1 X-28.566 Y-21.589 Z-1.000 F900.000 
G1 X-32.468 Y-24.026 Z-1.000 F900.000 
G0 Z1.500 
G0 X-33.617 Y-23.761 Z1.500 
G1 X-33.617 Y-23.761 Z0.008 F300.000 
G1 X-32.468 Y-24.026 Z-1.000 F629.914 
G1 X-32.733 Y-25.176 Z0.007 F630.037 
G0 Z1.500 
G0 X-34.794 Y-21.878 Z1.500 
G1 X-34.794 Y-21.878 Z0.008 F300.000 
G1 X-34.369 Y-20.823 Z-1.000 F622.983 
G1 X-35.503 Y-20.743 Z0.008 F623.046 
G0 Z1.500 
G0 X-34.369 Y-20.823 Z1.500 
G1 X-34.369 Y-20.823 Z-1.000 F300.000 
G1 X-34.091 Y-20.650 Z-1.000 F900.000 
G1 X-33.704 Y-20.767 Z-1.000 F900.000 
G1 X-33.359 Y-20.798 Z-1.000 F900.000 
G1 X-33.195 Y-20.784 Z-1.000 F900.000 
G1 X-33.036 Y-20.751 Z-1.000 F900.000 
G1 X-31.604 Y-20.361 Z-1.000 F900.000 
G1 X-29.874 Y-19.918 Z-1.000 F900.000 
G1 X-28.951 Y-19.669 Z-1.000 F900.000 
G1 X-27.511 Y-19.263 Z-1.000 F900.000 
G1 X-27.202 Y-19.214 Z-1.000 F900.000 
G1 X-26.830 Y-19.243 Z-1.000 F900.000 
G1 X-26.455 Y-18.299 Z0.007 F601.492 
G0 Z1.500 
G0 X-26.831 Y-19.243 Z1.500 
G1 X-26.831 Y-19.243 Z-1.000 F300.000 
G1 X-26.626 Y-19.518 Z-1.000 F900.000 
G1 X-26.485 Y-19.830 Z-1.000 F900.000 
G1 X-26.443 Y-19.975 Z-1.000 F900.000 
G1 X-26.413 Y-20.128 Z-1.000 F900.000 
G0 Z1.500 
G0 X-28.628 Y-14.821 Z1.500 
G1 X-28.628 Y-14.821 Z0.008 F300.000 
G1 X-29.644 Y-14.748 Z-1.000 F602.009 
G1 X-29.798 Y-14.441 Z-1.000 F900.000 
G1 X-30.013 Y-14.175 Z-1.000 F900.000 
G1 X-30.129 Y-14.068 Z-1.000 F900.000 
G1 X-30.257 Y-13.969 Z-1.000 F900.000 
G0 Z1.500 
G0 X-29.644 Y-14.747 Z1.500 
G1 X-29.644 Y-14.747 Z-1.000 F300.000 
G1 X-29.772 Y-15.071 Z-1.000 F900.000 
G1 X-29.951 Y-15.331 Z-1.000 F900.000 
G1 X-31.577 Y-17.192 Z-1.000 F900.000 
G1 X-32.571 Y-18.370 Z-1.000 F900.000 
G1 X-32.887 Y-18.734 Z-1.000 F900.000 
G1 X-33.707 Y-19.649 Z-1.000 F900.000 
G1 X-33.888 Y-19.904 Z-1.000 F900.000 
G1 X-34.014 Y-20.210 Z-1.000 F900.000 
G1 X-34.063 Y-20.421 Z-1.000 F900.000 
G1 X-34.091 Y-20.650 Z-1.000 F900.000 
G0 Z1.500 
G0 X-36.682 Y-18.857 Z1.500 
G1 X-36.682 Y-18.857 Z0.008 F300.000 
G1 X-36.416 Y-17.707 Z-1.000 F629.975 
G1 X-37.566 Y-17.441 Z0.007 F630.118 
G0 Z1.500 
G0 X-36.416 Y-17.707 Z1.500 
G1 X-36.416 Y-17.707 Z-1.000 F300.000 
G1 X-32.524 Y-15.274 Z-1.000 F900.000 
G1 X-31.930 Y-14.892 Z-1.000 F900.000 
G1 X-30.909 Y-14.221 Z-1.000 F900.000 
G1 X-30.605 Y-14.065 Z-1.000 F900.000 
G1 X-30.256 Y-13.970 Z-1.000 F900.000 
G1 X-29.961 Y-12.689 Z0.008 F649.962 
G0 Z1.500 
G0 X-25.125 Y-32.163 Z1.500 
G1 X-25.125 Y-32.163 Z-1.000 F300.000 
G1 X-24.099 Y-32.145 Z0.008 F603.414 
G0 Z1.500 
G0 X-9.186 Y-37.927 Z1.500 
G1 X-9.186 Y-37.927 Z0.007 F300.000 
G1 X-8.895 Y-38.197 Z-0.450 F573.205 
G1 X-8.639 Y-38.414 Z-0.819 F581.816 
G1 X-8.410 Y-38.588 Z-1.000 F685.382 
G1 X-8.206 Y-38.730 Z-1.000 F900.000 
G1 X-8.039 Y-38.832 Z-1.000 F900.000 
G1 X-7.781 Y-38.468 Z-0.893 F809.774 
G1 X-7.696 Y-38.359 Z-0.700 F539.018 
G1 X-7.350 Y-37.954 Z0.008 F546.019 
G0 Z1.500 
G0 X-8.039 Y-38.832 Z1.500 
G1 X-8.039 Y-38.832 Z-1.000 F300.000 
G1 X-8.031 Y-38.850 Z-1.000 F900.000 
G1 X-8.011 Y-38.890 Z-1.000 F900.000 
G1 X-7.944 Y-39.011 Z-1.000 F900.000 
G1 X-7.920 Y-39.045 Z-1.000 F900.000 
G1 X-7.833 Y-39.163 Z-1.000 F900.000 
G1 X-7.735 Y-39.286 Z-1.000 F900.000 
G1 X-7.708 Y-39.320 Z-1.000 F900.000 
G1 X-7.614 Y-39.413 Z-1.000 F900.000 
G1 X-7.552 Y-39.468 Z-1.000 F900.000 
G1 X-7.381 Y-39.611 Z-1.000 F900.000 
G1 X-7.370 Y-39.621 Z-1.000 F900.000 
G1 X-7.254 Y-39.699 Z-1.000 F900.000 
G1 X-7.153 Y-39.761 Z-1.000 F900.000 
G1 X-6.975 Y-39.862 Z-1.000 F900.000 
G1 X-6.904 Y-39.901 Z-1.000 F900.000 
G1 X-6.869 Y-39.917 Z-1.000 F900.000 
G1 X-6.620 Y-40.022 Z-1.000 F900.000 
G1 X-6.538 Y-40.055 Z-1.000 F900.000 
G1 X-6.451 Y-40.086 Z-1.000 F900.000 
G1 X-6.313 Y-40.129 Z-1.000 F900.000 
G1 X-6.066 Y-40.198 Z-1.000 F900.000 
G1 X-5.997 Y-40.216 Z-1.000 F900.000 
G1 X-5.571 Y-40.310 Z-1.000 F900.000 
G1 X-5.560 Y-40.312 Z-1.000 F900.000 
G1 X-5.503 Y-40.322 Z-1.000 F900.000 
G1 X-5.159 Y-40.372 Z-1.000 F900.000 
G1 X-5.045 Y-40.385 Z-1.000 F900.000 
G1 X-4.980 Y-40.392 Z-1.000 F900.000 
G1 X-4.766 Y-40.407 Z-1.000 F900.000 
G1 X-4.577 Y-40.416 Z-1.000 F900.000 
G1 X-4.490 Y-40.417 Z-1.000 F900.000 
G1 X-4.405 Y-40.415 Z-1.000 F900.000 
G1 X-4.141 Y-40.402 Z-1.000 F900.000 
G1 X-4.075 Y-40.398 Z-1.000 F900.000 
G1 X-4.020 Y-40.390 Z-1.000 F900.000 
G1 X-3.779 Y-40.348 Z-1.000 F900.000 
G1 X-3.722 Y-40.336 Z-1.000 F900.000 
G1 X-3.643 Y-40.317 Z-1.000 F900.000 
G1 X-3.564 Y-40.294 Z-1.000 F900.000 
G1 X-3.519 Y-40.279 Z-1.000 F900.000 
G1 X-3.313 Y-40.200 Z-1.000 F900.000 
G1 X-3.293 Y-40.192 Z-1.000 F900.000 
G1 X-3.122 Y-40.101 Z-1.000 F900.000 
G1 X-3.102 Y-40.089 Z-1.000 F900.000 
G1 X-2.943 Y-39.979 Z-1.000 F900.000 
G1 X-2.918 Y-39.959 Z-1.000 F900.000 
G1 X-2.810 Y-39.867 Z-1.000 F900.000 
G1 X-2.740 Y-39.789 Z-1.000 F900.000 
G1 X-2.703 Y-39.743 Z-1.000 F900.000 
G1 X-2.609 Y-39.615 Z-1.000 F900.000 
G1 X-2.593 Y-39.591 Z-1.000 F900.000 
G1 X-2.527 Y-39.477 Z-1.000 F900.000 
G1 X-2.483 Y-39.371 Z-1.000 F900.000 
G1 X-2.461 Y-39.316 Z-1.000 F900.000 
G1 X-2.401 Y-39.130 Z-1.000 F900.000 
G1 X-2.399 Y-39.120 Z-1.000 F900.000 
G1 X-2.363 Y-38.950 Z-1.000 F900.000 
G1 X-2.357 Y-38.913 Z-1.000 F900.000 
G1 X-2.341 Y-38.774 Z-1.000 F900.000 
G1 X-2.337 Y-38.732 Z-1.000 F900.000 
G1 X-2.335 Y-38.614 Z-1.000 F900.000 
G1 X-2.336 Y-38.569 Z-1.000 F900.000 
G1 X-2.344 Y-38.448 Z-1.000 F900.000 
G1 X-2.346 Y-38.429 Z-1.000 F900.000 
G1 X-2.368 Y-38.298 Z-1.000 F900.000 
G1 X-2.376 Y-38.267 Z-1.000 F900.000 
G1 X-2.401 Y-38.177 Z-1.000 F900.000 
G1 X-2.422 Y-38.112 Z-1.000 F900.000 
G1 X-2.438 Y-38.070 Z-1.000 F900.000 
G1 X-2.488 Y-37.963 Z-1.000 F900.000 
G1 X-2.501 Y-37.943 Z-1.000 F900.000 
G1 X-2.550 Y-37.857 Z-1.000 F900.000 
G1 X-2.586 Y-37.804 Z-1.000 F900.000 
G1 X-2.626 Y-37.749 Z-1.000 F900.000 
G1 X-2.677 Y-37.689 Z-1.000 F900.000 
G1 X-2.730 Y-37.628 Z-1.000 F900.000 
G1 X-2.793 Y-37.563 Z-1.000 F900.000 
G1 X-2.867 Y-37.493 Z-1.000 F900.000 
G1 X-2.878 Y-37.484 Z-1.000 F900.000 
G1 X-3.017 Y-37.367 Z-1.000 F900.000 
G1 X-3.040 Y-37.349 Z-1.000 F900.000 
G1 X-3.123 Y-37.291 Z-1.000 F900.000 
G1 X-3.280 Y-37.188 Z-1.000 F900.000 
G1 X-3.470 Y-37.073 Z-1.000 F900.000 
G1 X-3.569 Y-37.018 Z-1.000 F900.000 
G1 X-3.616 Y-36.993 Z-1.000 F900.000 
G1 X-3.808 Y-36.900 Z-1.000 F900.000 
G1 X-3.850 Y-36.882 Z-1.000 F900.000 
G1 X-4.177 Y-36.735 Z-1.000 F900.000 
G1 X-4.211 Y-36.721 Z-1.000 F900.000 
G1 X-4.639 Y-36.542 Z-1.000 F900.000 
G1 X-5.126 Y-36.338 Z-1.000 F900.000 
G1 X-5.494 Y-36.180 Z-1.000 F900.000 
G1 X-5.549 Y-36.156 Z-1.000 F900.000 
G1 X-5.900 Y-35.989 Z-1.000 F900.000 
G1 X-6.057 Y-35.909 Z-1.000 F900.000 
G1 X-6.190 Y-35.834 Z-1.000 F900.000 
G1 X-6.344 Y-35.736 Z-1.000 F900.000 
G1 X-6.487 Y-35.635 Z-1.000 F900.000 
G1 X-6.597 Y-35.551 Z-1.000 F900.000 
G1 X-6.607 Y-35.542 Z-1.000 F900.000 
G1 X-6.713 Y-35.444 Z-1.000 F900.000 
G1 X-6.798 Y-35.362 Z-1.000 F900.000 
G1 X-6.810 Y-35.348 Z-1.000 F900.000 
G1 X-6.891 Y-35.249 Z-1.000 F900.000 
G1 X-6.955 Y-35.169 Z-1.000 F900.000 
G1 X-6.980 Y-35.127 Z-1.000 F900.000 
G1 X-7.049 Y-35.006 Z-1.000 F900.000 
G0 Z1.500 
G0 X-7.116 Y-34.840 Z1.500 
G1 X-7.116 Y-34.840 Z-1.000 F300.000 
G1 X-7.050 Y-35.005 Z-1.000 F900.000 
G1 X-7.049 Y-35.006 Z-1.000 F900.000 
G1 X-7.847 Y-35.464 Z0.008 F582.659 
G0 Z1.500 
G0 X-7.991 Y-35.145 Z1.500 
G1 X-7.991 Y-35.145 Z0.008 F300.000 
G1 X-7.116 Y-34.839 Z-1.000 F584.013 
G1 X-7.117 Y-34.833 Z-1.000 F900.000 
G1 X-7.151 Y-34.693 Z-1.000 F900.000 
G1 X-7.163 Y-34.646 Z-1.000 F900.000 
G0 Z1.500 
G0 X-8.081 Y-34.789 Z1.500 
G1 X-8.081 Y-34.789 Z0.008 F300.000 
G1 X-7.162 Y-34.646 Z-1.000 F584.694 
G1 X-7.173 Y-34.536 Z-1.000 F900.000 
G1 X-7.179 Y-34.414 Z-1.000 F900.000 
G1 X-7.179 Y-34.386 Z-1.000 F900.000 
G1 X-7.169 Y-34.236 Z-1.000 F900.000 
G1 X-7.156 Y-34.107 Z-1.000 F900.000 
G1 X-7.150 Y-34.074 Z-1.000 F900.000 
G1 X-7.120 Y-33.926 Z-1.000 F900.000 
G1 X-7.115 Y-33.911 Z-1.000 F900.000 
G1 X-7.067 Y-33.763 Z-1.000 F900.000 
G1 X-7.038 Y-33.687 Z-1.000 F900.000 
G1 X-7.013 Y-33.625 Z-1.000 F900.000 
G1 X-6.944 Y-33.503 Z-1.000 F900.000 
G1 X-6.928 Y-33.480 Z-1.000 F900.000 
G1 X-6.862 Y-33.389 Z-1.000 F900.000 
G1 X-6.793 Y-33.307 Z-1.000 F900.000 
G1 X-6.769 Y-33.279 Z-1.000 F900.000 
G1 X-6.654 Y-33.173 Z-1.000 F900.000 
G1 X-6.617 Y-33.146 Z-1.000 F900.000 
G1 X-6.510 Y-33.072 Z-1.000 F900.000 
G1 X-6.434 Y-33.024 Z-1.000 F900.000 
G1 X-6.337 Y-32.969 Z-1.000 F900.000 
G1 X-6.246 Y-32.931 Z-1.000 F900.000 
G1 X-6.129 Y-32.885 Z-1.000 F900.000 
G1 X-6.025 Y-32.850 Z-1.000 F900.000 
G1 X-5.889 Y-32.812 Z-1.000 F900.000 
G1 X-5.872 Y-32.809 Z-1.000 F900.000 
G1 X-5.616 Y-32.764 Z-1.000 F900.000 
G1 X-5.612 Y-32.763 Z-1.000 F900.000 
G1 X-5.494 Y-32.752 Z-1.000 F900.000 
G1 X-5.312 Y-32.742 Z-1.000 F900.000 
G1 X-5.191 Y-32.740 Z-1.000 F900.000 
G1 X-5.108 Y-32.741 Z-1.000 F900.000 
G1 X-4.978 Y-32.746 Z-1.000 F900.000 
G1 X-4.758 Y-32.762 Z-1.000 F900.000 
G1 X-4.695 Y-32.768 Z-1.000 F900.000 
G1 X-4.618 Y-32.777 Z-1.000 F900.000 
G1 X-4.298 Y-32.823 Z-1.000 F900.000 
G1 X-4.242 Y-32.833 Z-1.000 F900.000 
G1 X-4.237 Y-32.833 Z-1.000 F900.000 
G1 X-3.872 Y-32.914 Z-1.000 F900.000 
G1 X-3.801 Y-32.933 Z-1.000 F900.000 
G1 X-3.530 Y-33.008 Z-1.000 F900.000 
G1 X-3.479 Y-33.025 Z-1.000 F900.000 
G1 X-3.387 Y-33.061 Z-1.000 F900.000 
G1 X-3.111 Y-33.175 Z-1.000 F900.000 
G1 X-2.995 Y-33.230 Z-1.000 F900.000 
G1 X-2.962 Y-33.247 Z-1.000 F900.000 
G1 X-2.761 Y-33.364 Z-1.000 F900.000 
G1 X-2.749 Y-33.372 Z-1.000 F900.000 
G1 X-2.638 Y-33.452 Z-1.000 F900.000 
G1 X-2.566 Y-33.508 Z-1.000 F900.000 
G1 X-2.440 Y-33.615 Z-1.000 F900.000 
G1 X-2.418 Y-33.635 Z-1.000 F900.000 
G1 X-2.324 Y-33.735 Z-1.000 F900.000 
G1 X-2.304 Y-33.758 Z-1.000 F900.000 
G1 X-2.212 Y-33.875 Z-1.000 F900.000 
G1 X-2.171 Y-33.935 Z-1.000 F900.000 
G1 X-2.135 Y-33.991 Z-1.000 F900.000 
G1 X-2.113 Y-34.033 Z-1.000 F900.000 
G1 X-2.172 Y-34.115 Z-1.000 F900.000 
G1 X-2.445 Y-34.482 Z-0.727 F694.466 
G1 X-2.516 Y-34.570 Z-0.572 F538.134 
G1 X-2.804 Y-34.892 Z0.008 F545.046 
G0 Z1.500 
G0 X-2.112 Y-34.033 Z1.500 
G1 X-2.112 Y-34.033 Z-1.000 F300.000 
G1 X-2.019 Y-34.087 Z-1.000 F900.000 
G1 X-1.863 Y-34.190 Z-1.000 F900.000 
G1 X-1.684 Y-34.322 Z-1.000 F900.000 
G1 X-1.478 Y-34.490 Z-0.783 F638.440 
G1 X-1.241 Y-34.704 Z-0.431 F581.544 
G1 X-0.968 Y-34.970 Z0.007 F573.186 
G0 Z1.500 
G0 X5.782 Y-35.448 Z1.500 
G1 X5.782 Y-35.448 Z0.008 F300.000 
G1 X6.554 Y-34.929 Z-1.000 F584.672 
G1 X6.497 Y-34.831 Z-1.000 F900.000 
G1 X6.441 Y-34.726 Z-1.000 F900.000 
G1 X6.428 Y-34.697 Z-1.000 F900.000 
G1 X6.376 Y-34.562 Z-1.000 F900.000 
G1 X6.333 Y-34.439 Z-1.000 F900.000 
G1 X6.324 Y-34.409 Z-1.000 F900.000 
G1 X6.290 Y-34.262 Z-1.000 F900.000 
G1 X6.288 Y-34.245 Z-1.000 F900.000 
G1 X6.268 Y-34.092 Z-1.000 F900.000 
G1 X6.263 Y-34.011 Z-1.000 F900.000 
G1 X6.260 Y-33.940 Z-1.000 F900.000 
G1 X6.270 Y-33.801 Z-1.000 F900.000 
G1 X6.275 Y-33.776 Z-1.000 F900.000 
G1 X6.296 Y-33.664 Z-1.000 F900.000 
G1 X6.323 Y-33.562 Z-1.000 F900.000 
G1 X6.334 Y-33.526 Z-1.000 F900.000 
G1 X6.393 Y-33.382 Z-1.000 F900.000 
G1 X6.416 Y-33.341 Z-1.000 F900.000 
G1 X6.481 Y-33.227 Z-1.000 F900.000 
G1 X6.530 Y-33.153 Z-1.000 F900.000 
G1 X6.595 Y-33.062 Z-1.000 F900.000 
G1 X6.660 Y-32.990 Z-1.000 F900.000 
G1 X6.747 Y-32.897 Z-1.000 F900.000 
G1 X6.826 Y-32.823 Z-1.000 F900.000 
G1 X6.933 Y-32.731 Z-1.000 F900.000 
G1 X6.949 Y-32.720 Z-1.000 F900.000 
G1 X7.161 Y-32.571 Z-1.000 F900.000 
G1 X7.166 Y-32.568 Z-1.000 F900.000 
G1 X7.263 Y-32.511 Z-1.000 F900.000 
G1 X7.427 Y-32.423 Z-1.000 F900.000 
G1 X7.533 Y-32.371 Z-1.000 F900.000 
G1 X7.612 Y-32.336 Z-1.000 F900.000 
G1 X7.730 Y-32.285 Z-1.000 F900.000 
G1 X7.938 Y-32.206 Z-1.000 F900.000 
G1 X7.998 Y-32.185 Z-1.000 F900.000 
G1 X8.071 Y-32.161 Z-1.000 F900.000 
G1 X8.380 Y-32.068 Z-1.000 F900.000 
G1 X8.435 Y-32.053 Z-1.000 F900.000 
G1 X8.440 Y-32.051 Z-1.000 F900.000 
G1 X8.804 Y-31.970 Z-1.000 F900.000 
G1 X8.877 Y-31.957 Z-1.000 F900.000 
G1 X9.154 Y-31.911 Z-1.000 F900.000 
G1 X9.208 Y-31.905 Z-1.000 F900.000 
G1 X9.306 Y-31.898 Z-1.000 F900.000 
G1 X9.604 Y-31.885 Z-1.000 F900.000 
G1 X9.734 Y-31.886 Z-1.000 F900.000 
G1 X9.771 Y-31.887 Z-1.000 F900.000 
G1 X10.002 Y-31.909 Z-1.000 F900.000 
G1 X10.017 Y-31.911 Z-1.000 F900.000 
G1 X10.150 Y-31.935 Z-1.000 F900.000 
G1 X10.239 Y-31.956 Z-1.000 F900.000 
G1 X10.397 Y-32.000 Z-1.000 F900.000 
G1 X10.426 Y-32.009 Z-1.000 F900.000 
G1 X10.554 Y-32.060 Z-1.000 F900.000 
G1 X10.583 Y-32.073 Z-1.000 F900.000 
G1 X10.714 Y-32.140 Z-1.000 F900.000 
G1 X10.778 Y-32.177 Z-1.000 F900.000 
G1 X10.834 Y-32.212 Z-1.000 F900.000 
G1 X10.872 Y-32.240 Z-1.000 F900.000 
G1 X10.853 Y-32.343 Z-1.000 F900.000 
G1 X10.760 Y-32.790 Z-0.726 F693.611 
G1 X10.733 Y-32.899 Z-0.568 F538.394 
G1 X10.608 Y-33.311 Z0.007 F545.084 
G0 Z1.500 
G0 X10.872 Y-32.240 Z1.500 
G1 X10.872 Y-32.240 Z-1.000 F300.000 
G1 X10.982 Y-32.250 Z-1.000 F900.000 
G1 X11.164 Y-32.277 Z-1.000 F900.000 
G1 X11.382 Y-32.321 Z-1.000 F900.000 
G1 X11.641 Y-32.387 Z-0.783 F639.331 
G1 X11.947 Y-32.480 Z-0.431 F581.411 
G1 X12.305 Y-32.606 Z0.008 F572.376 
G0 Z1.500 
G0 X14.028 Y-28.908 Z1.500 
G1 X14.028 Y-28.908 Z0.006 F300.000 
G1 X15.332 Y-29.258 Z-1.000 F655.364 
G1 X15.682 Y-27.954 Z0.008 F655.023 
G0 Z1.500 
G0 X15.332 Y-29.258 Z1.500 
G1 X15.332 Y-29.258 Z-1.000 F300.000 
G1 X16.648 Y-31.536 Z-1.000 F900.000 
G1 X16.866 Y-31.841 Z-1.000 F900.000 
G1 X17.184 Y-32.138 Z-1.000 F900.000 
G1 X17.273 Y-32.534 Z-1.000 F900.000 
G1 X17.437 Y-32.903 Z-1.000 F900.000 
G1 X18.792 Y-35.249 Z-1.000 F900.000 
G1 X18.442 Y-36.553 Z0.007 F655.223 
G0 Z1.500 
G0 X18.792 Y-35.249 Z1.500 
G1 X18.792 Y-35.249 Z-1.000 F300.000 
G1 X20.096 Y-35.599 Z0.008 F655.031 
G0 Z1.500 
G0 X22.127 Y-34.426 Z1.500 
G1 X22.127 Y-34.426 Z0.008 F300.000 
G1 X22.476 Y-33.122 Z-1.000 F655.012 
G1 X21.122 Y-30.776 Z-1.000 F900.000 
G1 X20.904 Y-30.471 Z-1.000 F900.000 
G1 X20.586 Y-30.174 Z-1.000 F900.000 
G1 X19.901 Y-30.570 Z-1.000 F900.000 
G1 X19.901 Y-30.571 Z-1.000 F900.000 
G1 X17.869 Y-31.743 Z-1.000 F900.000 
G1 X17.870 Y-31.743 Z-1.000 F900.000 
G1 X17.184 Y-32.138 Z-1.000 F900.000 
G0 Z1.500 
G0 X20.586 Y-30.174 Z1.500 
G1 X20.586 Y-30.174 Z-1.000 F300.000 
G1 X20.497 Y-29.778 Z-1.000 F900.000 
G1 X20.333 Y-29.410 Z-1.000 F900.000 
G1 X19.017 Y-27.130 Z-1.000 F900.000 
G0 Z1.500 
G0 X19.366 Y-25.827 Z1.500 
G1 X19.366 Y-25.827 Z0.007 F300.000 
G1 X19.017 Y-27.130 Z-1.000 F655.061 
G1 X17.713 Y-26.781 Z0.008 F654.911 
G0 Z1.500 
G0 X20.523 Y-24.844 Z1.500 
G1 X20.523 Y-24.844 Z0.007 F300.000 
G1 X21.928 Y-24.893 Z-1.000 F662.525 
G1 X22.069 Y-24.529 Z-1.000 F900.000 
G1 X22.257 Y-24.239 Z-1.000 F900.000 
G1 X22.322 Y-24.165 Z-1.000 F900.000 
G1 X22.391 Y-24.096 Z-1.000 F900.000 
G1 X25.648 Y-21.057 Z-1.000 F900.000 
G1 X25.684 Y-20.031 Z0.007 F603.729 
G0 Z1.500 
G0 X25.648 Y-21.057 Z1.500 
G1 X25.648 Y-21.057 Z-1.000 F300.000 
G1 X26.675 Y-21.093 Z0.008 F603.548 
G0 Z1.500 
G0 X26.455 Y-19.019 Z1.500 
G1 X26.455 Y-19.019 Z0.007 F300.000 
G1 X27.840 Y-18.775 Z-1.000 F662.501 
G1 X27.902 Y-18.389 Z-1.000 F900.000 
G1 X28.025 Y-18.066 Z-1.000 F900.000 
G1 X28.073 Y-17.981 Z-1.000 F900.000 
G1 X28.127 Y-17.899 Z-1.000 F900.000 
G1 X28.891 Y-16.806 Z-1.000 F900.000 
G1 X28.907 Y-16.785 Z-1.000 F900.000 
G1 X28.907 Y-16.785 Z-1.000 F900.000 
G1 X29.110 Y-16.514 Z-1.000 F900.000 
G1 X29.144 Y-16.472 Z-1.000 F900.000 
G1 X29.220 Y-16.377 Z-1.000 F900.000 
G1 X29.350 Y-16.228 Z-1.000 F900.000 
G1 X29.394 Y-16.181 Z-1.000 F900.000 
G1 X29.534 Y-16.033 Z-1.000 F900.000 
G1 X29.606 Y-15.963 Z-1.000 F900.000 
G1 X29.657 Y-15.916 Z-1.000 F900.000 
G1 X29.854 Y-15.742 Z-1.000 F900.000 
G1 X29.874 Y-15.725 Z-1.000 F900.000 
G1 X29.938 Y-15.677 Z-1.000 F900.000 
G1 X30.164 Y-15.511 Z-1.000 F900.000 
G1 X30.177 Y-15.503 Z-1.000 F900.000 
G1 X30.236 Y-15.467 Z-1.000 F900.000 
G1 X30.470 Y-15.329 Z-1.000 F900.000 
G1 X30.499 Y-15.314 Z-1.000 F900.000 
G1 X30.554 Y-15.288 Z-1.000 F900.000 
G1 X30.799 Y-15.178 Z-1.000 F900.000 
G1 X30.819 Y-15.170 Z-1.000 F900.000 
G1 X30.890 Y-15.146 Z-1.000 F900.000 
G1 X31.137 Y-15.068 Z-1.000 F900.000 
G1 X31.144 Y-15.066 Z-1.000 F900.000 
G1 X31.244 Y-15.044 Z-1.000 F900.000 
G1 X31.455 Y-15.002 Z-1.000 F900.000 
G1 X31.508 Y-14.995 Z-1.000 F900.000 
G1 X31.611 Y-14.985 Z-1.000 F900.000 
G1 X31.769 Y-14.973 Z-1.000 F900.000 
G1 X31.880 Y-14.971 Z-1.000 F900.000 
G1 X31.985 Y-14.973 Z-1.000 F900.000 
G1 X32.079 Y-14.976 Z-1.000 F900.000 
G1 X32.260 Y-14.994 Z-1.000 F900.000 
G1 X32.359 Y-15.007 Z-1.000 F900.000 
G1 X32.390 Y-15.012 Z-1.000 F900.000 
G1 X32.637 Y-15.065 Z-1.000 F900.000 
G1 X32.710 Y-15.082 Z-1.000 F900.000 
G1 X32.729 Y-15.089 Z-1.000 F900.000 
G1 X33.012 Y-15.181 Z-1.000 F900.000 
G1 X33.041 Y-15.191 Z-1.000 F900.000 
G1 X33.091 Y-15.212 Z-1.000 F900.000 
G1 X33.378 Y-15.337 Z-1.000 F900.000 
G1 X33.386 Y-15.340 Z-1.000 F900.000 
G1 X33.449 Y-15.373 Z-1.000 F900.000 
G1 X33.739 Y-15.531 Z-1.000 F900.000 
G1 X33.745 Y-15.534 Z-1.000 F900.000 
G1 X33.796 Y-15.566 Z-1.000 F900.000 
G1 X34.090 Y-15.757 Z-1.000 F900.000 
G1 X34.113 Y-15.772 Z-1.000 F900.000 
G1 X34.142 Y-15.793 Z-1.000 F900.000 
G1 X34.419 Y-16.005 Z-1.000 F900.000 
G1 X34.471 Y-16.046 Z-1.000 F900.000 
G1 X34.570 Y-16.127 Z-1.000 F900.000 
G1 X34.720 Y-16.265 Z-1.000 F900.000 
G1 X34.771 Y-16.313 Z-1.000 F900.000 
G1 X34.950 Y-16.491 Z-1.000 F900.000 
G1 X34.993 Y-16.538 Z-1.000 F900.000 
G1 X35.044 Y-16.598 Z-1.000 F900.000 
G1 X35.237 Y-16.832 Z-1.000 F900.000 
G1 X35.264 Y-16.866 Z-1.000 F900.000 
G1 X35.286 Y-16.899 Z-1.000 F900.000 
G1 X35.445 Y-17.143 Z-1.000 F900.000 
G1 X35.492 Y-17.219 Z-1.000 F900.000 
G1 X35.514 Y-17.258 Z-1.000 F900.000 
G1 X35.621 Y-17.472 Z-1.000 F900.000 
G1 X35.660 Y-17.556 Z-1.000 F900.000 
G1 X35.710 Y-17.672 Z-1.000 F900.000 
G1 X35.763 Y-17.815 Z-1.000 F900.000 
G1 X35.778 Y-17.858 Z-1.000 F900.000 
G1 X35.791 Y-17.903 Z-1.000 F900.000 
G1 X35.834 Y-18.061 Z-1.000 F900.000 
G1 X35.859 Y-18.170 Z-1.000 F900.000 
G1 X35.878 Y-18.263 Z-1.000 F900.000 
G1 X35.878 Y-18.264 Z-1.000 F900.000 
G1 X35.907 Y-18.475 Z-1.000 F900.000 
G1 X35.913 Y-18.531 Z-1.000 F900.000 
G1 X35.920 Y-18.625 Z-1.000 F900.000 
G1 X35.922 Y-18.691 Z-1.000 F900.000 
G1 X35.923 Y-18.890 Z-1.000 F900.000 
G1 X35.924 Y-18.899 Z-1.000 F900.000 
G1 X35.918 Y-18.984 Z-1.000 F900.000 
G1 X35.891 Y-19.244 Z-1.000 F900.000 
G1 X35.878 Y-19.338 Z-1.000 F900.000 
G1 X35.873 Y-19.372 Z-1.000 F900.000 
G1 X35.821 Y-19.592 Z-1.000 F900.000 
G1 X35.800 Y-19.677 Z-1.000 F900.000 
G1 X35.753 Y-19.835 Z-1.000 F900.000 
G1 X35.718 Y-19.930 Z-1.000 F900.000 
G1 X35.688 Y-20.007 Z-1.000 F900.000 
G1 X35.581 Y-20.256 Z-1.000 F900.000 
G1 X35.561 Y-20.303 Z-1.000 F900.000 
G1 X35.549 Y-20.325 Z-1.000 F900.000 
G1 X35.410 Y-20.570 Z-1.000 F900.000 
G1 X35.374 Y-20.631 Z-1.000 F900.000 
G1 X35.275 Y-20.787 Z-1.000 F900.000 
G1 X35.214 Y-20.879 Z-1.000 F900.000 
G1 X35.197 Y-20.905 Z-1.000 F900.000 
G1 X34.283 Y-22.209 Z-1.000 F900.000 
G1 X34.067 Y-22.455 Z-1.000 F900.000 
G1 X33.788 Y-22.661 Z-1.000 F900.000 
G1 X33.676 Y-22.722 Z-1.000 F900.000 
G1 X33.557 Y-22.779 Z-1.000 F900.000 
G1 X33.801 Y-24.163 Z0.007 F662.548 
G0 Z1.500 
G0 X33.557 Y-22.778 Z1.500 
G1 X33.557 Y-22.778 Z-1.000 F300.000 
G1 X33.150 Y-22.561 Z-1.000 F900.000 
G1 X28.183 Y-19.084 Z-1.000 F900.000 
G1 X27.840 Y-18.775 Z-1.000 F900.000 
G0 Z1.500 
G0 X27.993 Y-23.080 Z1.500 
G1 X27.993 Y-23.080 Z0.008 F300.000 
G1 X27.957 Y-24.106 Z-1.000 F603.569 
G1 X24.986 Y-26.878 Z-1.000 F900.000 
G1 X24.986 Y-26.879 Z-1.000 F900.000 
G1 X24.402 Y-27.422 Z-1.000 F900.000 
G0 Z1.500 
G0 X26.688 Y-29.998 Z1.500 
G1 X26.688 Y-29.998 Z-1.000 F300.000 
G1 X27.062 Y-29.884 Z-1.000 F900.000 
G1 X27.365 Y-29.716 Z-1.000 F900.000 
G1 X27.443 Y-29.657 Z-1.000 F900.000 
G1 X27.517 Y-29.593 Z-1.000 F900.000 
G1 X30.964 Y-26.377 Z-1.000 F900.000 
G1 X31.000 Y-25.351 Z0.008 F603.579 
G0 Z1.500 
G0 X30.964 Y-26.377 Z1.500 
G1 X30.964 Y-26.377 Z-1.000 F300.000 
G1 X31.990 Y-26.413 Z0.009 F603.382 
G0 Z1.500 
G0 X28.984 Y-24.142 Z1.500 
G1 X28.984 Y-24.142 Z0.008 F300.000 
G1 X27.957 Y-24.106 Z-1.000 F603.697 
G0 Z1.500 
G0 X21.928 Y-24.893 Z1.500 
G1 X21.928 Y-24.893 Z-1.000 F300.000 
G1 X22.199 Y-25.266 Z-1.000 F900.000 
G1 X23.804 Y-26.987 Z-1.000 F900.000 
G1 X24.082 Y-27.232 Z-1.000 F900.000 
G1 X24.402 Y-27.422 Z-1.000 F900.000 
G1 X24.584 Y-27.776 Z-1.000 F900.000 
G1 X24.795 Y-28.049 Z-1.000 F900.000 
G1 X26.335 Y-29.701 Z-1.000 F900.000 
G1 X26.501 Y-29.859 Z-1.000 F900.000 
G1 X26.688 Y-29.998 Z-1.000 F900.000 
G1 X26.639 Y-31.403 Z0.007 F662.554 
G0 Z1.500 
G0 X23.780 Y-33.471 Z1.500 
G1 X23.780 Y-33.471 Z0.007 F300.000 
G1 X22.476 Y-33.122 Z-1.000 F655.239 
G0 Z1.500 
G0 X7.783 Y-38.007 Z1.500 
G1 X7.783 Y-38.007 Z0.008 F300.000 
G1 X7.640 Y-38.520 Z-0.701 F546.254 
G1 X7.609 Y-38.656 Z-0.894 F538.984 
G1 X7.529 Y-39.095 Z-1.000 F810.439 
G1 X7.333 Y-39.072 Z-1.000 F900.000 
G1 X7.091 Y-39.031 Z-1.000 F900.000 
G1 X6.810 Y-38.969 Z-0.821 F687.316 
G1 X6.485 Y-38.881 Z-0.450 F581.813 
G1 X6.107 Y-38.760 Z0.008 F572.599 
G0 Z1.500 
G0 X7.529 Y-39.095 Z1.500 
G1 X7.529 Y-39.095 Z-1.000 F300.000 
G1 X7.544 Y-39.108 Z-1.000 F900.000 
G1 X7.579 Y-39.135 Z-1.000 F900.000 
G1 X7.691 Y-39.216 Z-1.000 F900.000 
G1 X7.725 Y-39.236 Z-1.000 F900.000 
G1 X7.856 Y-39.309 Z-1.000 F900.000 
G1 X7.994 Y-39.377 Z-1.000 F900.000 
G1 X8.035 Y-39.397 Z-1.000 F900.000 
G1 X8.163 Y-39.442 Z-1.000 F900.000 
G1 X8.239 Y-39.466 Z-1.000 F900.000 
G1 X8.457 Y-39.523 Z-1.000 F900.000 
G1 X8.468 Y-39.526 Z-1.000 F900.000 
G1 X8.603 Y-39.549 Z-1.000 F900.000 
G1 X8.726 Y-39.563 Z-1.000 F900.000 
G1 X8.926 Y-39.579 Z-1.000 F900.000 
G1 X9.008 Y-39.584 Z-1.000 F900.000 
G1 X9.048 Y-39.583 Z-1.000 F900.000 
G1 X9.318 Y-39.574 Z-1.000 F900.000 
G1 X9.407 Y-39.568 Z-1.000 F900.000 
G1 X9.500 Y-39.560 Z-1.000 F900.000 
G1 X9.642 Y-39.541 Z-1.000 F900.000 
G1 X9.895 Y-39.499 Z-1.000 F900.000 
G1 X9.965 Y-39.486 Z-1.000 F900.000 
G1 X10.390 Y-39.391 Z-1.000 F900.000 
G1 X10.402 Y-39.388 Z-1.000 F900.000 
G1 X10.458 Y-39.374 Z-1.000 F900.000 
G1 X10.791 Y-39.273 Z-1.000 F900.000 
G1 X10.899 Y-39.237 Z-1.000 F900.000 
G1 X10.960 Y-39.216 Z-1.000 F900.000 
G1 X11.161 Y-39.139 Z-1.000 F900.000 
G1 X11.335 Y-39.067 Z-1.000 F900.000 
G1 X11.416 Y-39.031 Z-1.000 F900.000 
G1 X11.492 Y-38.994 Z-1.000 F900.000 
G1 X11.728 Y-38.869 Z-1.000 F900.000 
G1 X11.784 Y-38.839 Z-1.000 F900.000 
G1 X11.829 Y-38.809 Z-1.000 F900.000 
G1 X12.031 Y-38.668 Z-1.000 F900.000 
G1 X12.077 Y-38.633 Z-1.000 F900.000 
G1 X12.204 Y-38.528 Z-1.000 F900.000 
G1 X12.238 Y-38.495 Z-1.000 F900.000 
G1 X12.392 Y-38.336 Z-1.000 F900.000 
G1 X12.406 Y-38.323 Z-1.000 F900.000 
G1 X12.522 Y-38.168 Z-1.000 F900.000 
G1 X12.534 Y-38.148 Z-1.000 F900.000 
G1 X12.632 Y-37.981 Z-1.000 F900.000 
G1 X12.646 Y-37.953 Z-1.000 F900.000 
G1 X12.706 Y-37.823 Z-1.000 F900.000 
G1 X12.737 Y-37.720 Z-1.000 F900.000 
G1 X12.751 Y-37.665 Z-1.000 F900.000 
G1 X12.781 Y-37.511 Z-1.000 F900.000 
G1 X12.785 Y-37.478 Z-1.000 F900.000 
G1 X12.798 Y-37.350 Z-1.000 F900.000 
G1 X12.794 Y-37.239 Z-1.000 F900.000 
G1 X12.789 Y-37.174 Z-1.000 F900.000 
G1 X12.765 Y-36.981 Z-1.000 F900.000 
G1 X12.764 Y-36.977 Z-1.000 F900.000 
G1 X12.746 Y-36.888 Z-1.000 F900.000 
G1 X12.723 Y-36.801 Z-1.000 F900.000 
G1 X12.713 Y-36.766 Z-1.000 F900.000 
G1 X12.668 Y-36.631 Z-1.000 F900.000 
G1 X12.655 Y-36.593 Z-1.000 F900.000 
G1 X12.605 Y-36.483 Z-1.000 F900.000 
G1 X12.587 Y-36.446 Z-1.000 F900.000 
G1 X12.527 Y-36.337 Z-1.000 F900.000 
G1 X12.519 Y-36.323 Z-1.000 F900.000 
G1 X12.444 Y-36.214 Z-1.000 F900.000 
G1 X12.424 Y-36.191 Z-1.000 F900.000 
G1 X12.363 Y-36.119 Z-1.000 F900.000 
G1 X12.317 Y-36.071 Z-1.000 F900.000 
G1 X12.282 Y-36.036 Z-1.000 F900.000 
G1 X12.193 Y-35.961 Z-1.000 F900.000 
G1 X12.173 Y-35.948 Z-1.000 F900.000 
G1 X12.092 Y-35.892 Z-1.000 F900.000 
G1 X12.037 Y-35.859 Z-1.000 F900.000 
G1 X11.978 Y-35.825 Z-1.000 F900.000 
G1 X11.905 Y-35.792 Z-1.000 F900.000 
G1 X11.833 Y-35.761 Z-1.000 F900.000 
G1 X11.746 Y-35.728 Z-1.000 F900.000 
G1 X11.649 Y-35.694 Z-1.000 F900.000 
G1 X11.639 Y-35.692 Z-1.000 F900.000 
G1 X11.463 Y-35.645 Z-1.000 F900.000 
G1 X11.432 Y-35.637 Z-1.000 F900.000 
G1 X11.331 Y-35.620 Z-1.000 F900.000 
G1 X11.147 Y-35.593 Z-1.000 F900.000 
G1 X10.925 Y-35.569 Z-1.000 F900.000 
G1 X10.814 Y-35.561 Z-1.000 F900.000 
G1 X10.761 Y-35.559 Z-1.000 F900.000 
G1 X10.548 Y-35.556 Z-1.000 F900.000 
G1 X10.503 Y-35.556 Z-1.000 F900.000 
G1 X10.144 Y-35.562 Z-1.000 F900.000 
G1 X10.105 Y-35.564 Z-1.000 F900.000 
G1 X9.643 Y-35.582 Z-1.000 F900.000 
G1 X9.116 Y-35.604 Z-1.000 F900.000 
G1 X8.715 Y-35.616 Z-1.000 F900.000 
G1 X8.656 Y-35.617 Z-1.000 F900.000 
G1 X8.267 Y-35.614 Z-1.000 F900.000 
G1 X8.091 Y-35.608 Z-1.000 F900.000 
G1 X7.938 Y-35.596 Z-1.000 F900.000 
G1 X7.758 Y-35.573 Z-1.000 F900.000 
G1 X7.586 Y-35.542 Z-1.000 F900.000 
G1 X7.448 Y-35.511 Z-1.000 F900.000 
G1 X7.437 Y-35.508 Z-1.000 F900.000 
G1 X7.298 Y-35.464 Z-1.000 F900.000 
G1 X7.191 Y-35.426 Z-1.000 F900.000 
G1 X7.170 Y-35.417 Z-1.000 F900.000 
G1 X7.058 Y-35.364 Z-1.000 F900.000 
G1 X6.964 Y-35.316 Z-1.000 F900.000 
G1 X6.918 Y-35.285 Z-1.000 F900.000 
G1 X6.811 Y-35.209 Z-1.000 F900.000 
G0 Z1.500 
G0 X6.679 Y-35.085 Z1.500 
G1 X6.679 Y-35.085 Z-1.000 F300.000 
G1 X6.803 Y-35.203 Z-1.000 F900.000 
G1 X6.811 Y-35.209 Z-1.000 F900.000 
G1 X6.280 Y-35.961 Z0.008 F582.597 
G0 Z1.500 
G0 X6.015 Y-35.732 Z1.500 
G1 X6.015 Y-35.732 Z0.008 F300.000 
G1 X6.679 Y-35.085 Z-1.000 F584.060 
G1 X6.677 Y-35.083 Z-1.000 F900.000 
G1 X6.587 Y-34.971 Z-1.000 F900.000 
G1 X6.554 Y-34.929 Z-1.000 F900.000 
G0 Z1.500 
G0 X-6.850 Y-28.403 Z1.500 
G1 X-6.850 Y-28.403 Z0.008 F300.000 
G1 X-7.946 Y-28.880 Z-1.000 F632.285 
G0 Z1.500 
G0 X-31.187 Y17.234 Z1.500 
G1 X-31.187 Y17.234 Z0.008 F300.000 
G1 X-31.272 Y18.212 Z-1.000 F594.793 
G1 X-32.250 Y18.126 Z0.009 F594.785 
G0 Z1.500 
G0 X-31.272 Y18.212 Z1.500 
G1 X-31.272 Y18.212 Z-1.000 F300.000 
G1 X-30.310 Y19.359 Z-1.000 F900.000 
G1 X-30.078 Y19.579 Z-1.000 F900.000 
G1 X-29.624 Y19.822 Z-1.000 F900.000 
G0 Z1.500 
G0 X-29.737 Y21.122 Z1.500 
G1 X-29.737 Y21.122 Z0.008 F300.000 
G1 X-29.623 Y19.822 Z-1.000 F648.854 
G1 X-29.414 Y19.709 Z-1.000 F900.000 
G1 X-29.225 Y19.571 Z-1.000 F900.000 
G1 X-28.390 Y18.870 Z-1.000 F900.000 
G1 X-28.295 Y18.784 Z-1.000 F900.000 
G1 X-28.207 Y18.691 Z-1.000 F900.000 
G1 X-28.193 Y18.642 Z-1.000 F900.000 
G1 X-28.159 Y18.206 Z-1.000 F900.000 
G1 X-28.170 Y18.130 Z-1.000 F900.000 
G1 X-28.209 Y17.883 Z-1.000 F900.000 
G1 X-28.227 Y17.796 Z-1.000 F900.000 
G1 X-28.239 Y17.741 Z-1.000 F900.000 
G1 X-28.298 Y17.528 Z-1.000 F900.000 
G1 X-28.320 Y17.459 Z-1.000 F900.000 
G1 X-28.388 Y17.249 Z-1.000 F900.000 
G1 X-28.419 Y17.169 Z-1.000 F900.000 
G1 X-28.442 Y17.114 Z-1.000 F900.000 
G1 X-28.575 Y16.801 Z-1.000 F900.000 
G1 X-28.596 Y16.756 Z-1.000 F900.000 
G1 X-28.596 Y16.754 Z-1.000 F900.000 
G1 X-28.760 Y16.440 Z-1.000 F900.000 
G1 X-28.784 Y16.397 Z-1.000 F900.000 
G1 X-28.853 Y16.275 Z-1.000 F900.000 
G1 X-28.968 Y16.090 Z-1.000 F900.000 
G1 X-28.995 Y16.048 Z-1.000 F900.000 
G1 X-29.153 Y15.812 Z-1.000 F900.000 
G1 X-29.198 Y15.750 Z-1.000 F900.000 
G1 X-29.226 Y15.714 Z-1.000 F900.000 
G1 X-29.450 Y15.425 Z-1.000 F900.000 
G1 X-29.485 Y15.383 Z-1.000 F900.000 
G1 X-29.499 Y15.365 Z-1.000 F900.000 
G1 X-29.694 Y15.150 Z-1.000 F900.000 
G1 X-29.737 Y15.106 Z-1.000 F900.000 
G1 X-29.823 Y15.017 Z-1.000 F900.000 
G1 X-29.949 Y14.898 Z-1.000 F900.000 
G1 X-30.003 Y14.851 Z-1.000 F900.000 
G1 X-30.154 Y14.721 Z-1.000 F900.000 
G1 X-30.220 Y14.669 Z-1.000 F900.000 
G1 X-30.285 Y14.622 Z-1.000 F900.000 
G1 X-30.486 Y14.479 Z-1.000 F900.000 
G1 X-30.508 Y14.465 Z-1.000 F900.000 
G1 X-30.581 Y14.422 Z-1.000 F900.000 
G1 X-30.812 Y14.291 Z-1.000 F900.000 
G1 X-30.815 Y14.291 Z-1.000 F900.000 
G1 X-30.900 Y14.251 Z-1.000 F900.000 
G1 X-31.139 Y14.149 Z-1.000 F900.000 
G1 X-31.140 Y14.148 Z-1.000 F900.000 
G1 X-31.232 Y14.119 Z-1.000 F900.000 
G1 X-31.457 Y14.050 Z-1.000 F900.000 
G1 X-31.482 Y14.044 Z-1.000 F900.000 
G1 X-31.582 Y14.024 Z-1.000 F900.000 
G1 X-31.770 Y13.990 Z-1.000 F900.000 
G1 X-31.842 Y13.982 Z-1.000 F900.000 
G1 X-31.942 Y13.974 Z-1.000 F900.000 
G1 X-32.079 Y13.965 Z-1.000 F900.000 
G1 X-32.211 Y13.965 Z-1.000 F900.000 
G1 X-32.314 Y13.968 Z-1.000 F900.000 
G1 X-32.388 Y13.972 Z-1.000 F900.000 
G1 X-32.585 Y13.994 Z-1.000 F900.000 
G1 X-32.681 Y14.008 Z-1.000 F900.000 
G1 X-32.697 Y14.010 Z-1.000 F900.000 
G1 X-32.954 Y14.069 Z-1.000 F900.000 
G1 X-33.010 Y14.083 Z-1.000 F900.000 
G1 X-33.044 Y14.094 Z-1.000 F900.000 
G1 X-33.318 Y14.187 Z-1.000 F900.000 
G1 X-33.330 Y14.191 Z-1.000 F900.000 
G1 X-33.400 Y14.221 Z-1.000 F900.000 
G1 X-33.658 Y14.337 Z-1.000 F900.000 
G1 X-33.675 Y14.346 Z-1.000 F900.000 
G1 X-33.743 Y14.383 Z-1.000 F900.000 
G1 X-33.999 Y14.526 Z-1.000 F900.000 
G1 X-34.019 Y14.539 Z-1.000 F900.000 
G1 X-34.082 Y14.580 Z-1.000 F900.000 
G1 X-34.351 Y14.761 Z-1.000 F900.000 
G1 X-34.359 Y14.767 Z-1.000 F900.000 
G1 X-34.408 Y14.804 Z-1.000 F900.000 
G1 X-34.687 Y15.023 Z-1.000 F900.000 
G1 X-34.711 Y15.042 Z-1.000 F900.000 
G1 X-34.734 Y15.062 Z-1.000 F900.000 
G1 X-34.993 Y15.295 Z-1.000 F900.000 
G1 X-35.039 Y15.337 Z-1.000 F900.000 
G1 X-35.047 Y15.345 Z-1.000 F900.000 
G1 X-35.266 Y15.572 Z-1.000 F900.000 
G1 X-35.315 Y15.625 Z-1.000 F900.000 
G1 X-35.334 Y15.646 Z-1.000 F900.000 
G1 X-35.513 Y15.864 Z-1.000 F900.000 
G1 X-35.562 Y15.927 Z-1.000 F900.000 
G1 X-35.575 Y15.945 Z-1.000 F900.000 
G1 X-35.729 Y16.171 Z-1.000 F900.000 
G1 X-35.773 Y16.239 Z-1.000 F900.000 
G1 X-35.775 Y16.242 Z-1.000 F900.000 
G1 X-35.910 Y16.489 Z-1.000 F900.000 
G1 X-35.930 Y16.528 Z-1.000 F900.000 
G1 X-35.951 Y16.576 Z-1.000 F900.000 
G1 X-36.051 Y16.817 Z-1.000 F900.000 
G1 X-36.054 Y16.827 Z-1.000 F900.000 
G1 X-36.084 Y16.922 Z-1.000 F900.000 
G1 X-36.138 Y17.109 Z-1.000 F900.000 
G1 X-36.153 Y17.176 Z-1.000 F900.000 
G1 X-36.173 Y17.277 Z-1.000 F900.000 
G1 X-36.195 Y17.408 Z-1.000 F900.000 
G1 X-36.208 Y17.535 Z-1.000 F900.000 
G1 X-36.216 Y17.636 Z-1.000 F900.000 
G1 X-36.220 Y17.716 Z-1.000 F900.000 
G1 X-36.217 Y17.893 Z-1.000 F900.000 
G1 X-36.214 Y17.996 Z-1.000 F900.000 
G1 X-36.210 Y18.035 Z-1.000 F900.000 
G1 X-36.183 Y18.250 Z-1.000 F900.000 
G1 X-36.168 Y18.349 Z-1.000 F900.000 
G1 X-36.164 Y18.367 Z-1.000 F900.000 
G1 X-36.106 Y18.600 Z-1.000 F900.000 
G1 X-36.081 Y18.693 Z-1.000 F900.000 
G1 X-36.074 Y18.714 Z-1.000 F900.000 
G1 X-35.990 Y18.942 Z-1.000 F900.000 
G1 X-35.961 Y19.018 Z-1.000 F900.000 
G1 X-35.936 Y19.075 Z-1.000 F900.000 
G1 X-35.844 Y19.267 Z-1.000 F900.000 
G1 X-35.808 Y19.338 Z-1.000 F900.000 
G1 X-35.747 Y19.448 Z-1.000 F900.000 
G1 X-35.664 Y19.587 Z-1.000 F900.000 
G1 X-35.628 Y19.644 Z-1.000 F900.000 
G1 X-35.504 Y19.830 Z-1.000 F900.000 
G1 X-35.458 Y19.895 Z-1.000 F900.000 
G1 X-35.421 Y19.945 Z-1.000 F900.000 
G1 X-35.222 Y20.198 Z-1.000 F900.000 
G1 X-35.210 Y20.215 Z-1.000 F900.000 
G1 X-35.175 Y20.253 Z-1.000 F900.000 
G1 X-34.908 Y20.537 Z-1.000 F900.000 
G1 X-34.839 Y20.607 Z-1.000 F900.000 
G1 X-34.728 Y20.709 Z-1.000 F900.000 
G1 X-34.560 Y20.853 Z-1.000 F900.000 
G1 X-34.501 Y20.901 Z-1.000 F900.000 
G1 X-34.474 Y20.921 Z-1.000 F900.000 
G1 X-34.264 Y21.065 Z-1.000 F900.000 
G1 X-34.175 Y21.122 Z-1.000 F900.000 
G1 X-34.070 Y21.184 Z-1.000 F900.000 
G1 X-34.032 Y21.204 Z-1.000 F900.000 
G1 X-33.806 Y21.315 Z-1.000 F900.000 
G1 X-33.751 Y21.340 Z-1.000 F900.000 
G1 X-33.625 Y21.390 Z-1.000 F900.000 
G1 X-33.584 Y21.404 Z-1.000 F900.000 
G1 X-33.369 Y21.469 Z-1.000 F900.000 
G1 X-33.287 Y21.490 Z-1.000 F900.000 
G1 X-33.160 Y21.518 Z-1.000 F900.000 
G1 X-33.143 Y21.520 Z-1.000 F900.000 
G1 X-32.952 Y21.542 Z-1.000 F900.000 
G1 X-32.791 Y21.554 Z-1.000 F900.000 
G1 X-32.745 Y21.558 Z-1.000 F900.000 
G1 X-32.643 Y21.555 Z-1.000 F900.000 
G1 X-32.561 Y21.550 Z-1.000 F900.000 
G1 X-32.323 Y21.145 Z-0.898 F818.293 
G1 X-32.269 Y21.044 Z-0.744 F544.811 
G1 X-32.014 Y20.522 Z0.008 F551.404 
G0 Z1.500 
G0 X-32.561 Y21.550 Z1.500 
G1 X-32.561 Y21.550 Z-1.000 F300.000 
G1 X-32.536 Y21.567 Z-1.000 F900.000 
G1 X-32.301 Y21.711 Z-1.000 F900.000 
G1 X-32.026 Y21.864 Z-0.900 F782.202 
G1 X-31.702 Y22.027 Z-0.488 F576.335 
G1 X-31.320 Y22.201 Z0.008 F568.189 
G0 Z1.500 
G0 X-30.895 Y26.689 Z1.500 
G1 X-30.895 Y26.689 Z-1.000 F300.000 
G1 X-26.245 Y22.039 Z-1.000 F900.000 
G1 X-25.881 Y21.754 Z-1.000 F900.000 
G1 X-25.881 Y20.348 Z0.007 F662.523 
G0 Z1.500 
G0 X-25.882 Y21.755 Z1.500 
G1 X-25.882 Y21.755 Z-1.000 F300.000 
G1 X-25.512 Y21.882 Z-1.000 F900.000 
G1 X-25.216 Y22.060 Z-1.000 F900.000 
G1 X-25.139 Y22.122 Z-1.000 F900.000 
G1 X-25.068 Y22.189 Z-1.000 F900.000 
G1 X-22.176 Y25.080 Z-1.000 F900.000 
G1 X-22.176 Y26.107 Z0.008 F603.612 
G0 Z1.500 
G0 X-22.176 Y25.080 Z1.500 
G1 X-22.176 Y25.080 Z-1.000 F300.000 
G1 X-21.149 Y25.080 Z0.008 F603.479 
G0 Z1.500 
G0 X-20.336 Y25.663 Z1.500 
G1 X-20.336 Y25.663 Z0.007 F300.000 
G1 X-19.692 Y27.043 Z-1.000 F676.733 
G1 X-20.044 Y28.902 Z-1.000 F900.000 
G1 X-20.075 Y29.253 Z-1.000 F900.000 
G1 X-20.029 Y29.635 Z-1.000 F900.000 
G1 X-20.222 Y29.967 Z-1.000 F900.000 
G1 X-20.346 Y30.357 Z-1.000 F900.000 
G1 X-20.768 Y32.671 Z-1.000 F900.000 
G1 X-20.946 Y33.624 Z-1.000 F900.000 
G1 X-21.050 Y34.129 Z-1.000 F900.000 
G1 X-21.078 Y34.261 Z-1.000 F900.000 
G1 X-21.111 Y34.659 Z-1.000 F900.000 
G1 X-21.985 Y35.067 Z0.008 F591.808 
G0 Z1.500 
G0 X-21.111 Y34.659 Z1.500 
G1 X-21.111 Y34.659 Z-1.000 F300.000 
G1 X-20.875 Y34.904 Z-1.000 F900.000 
G1 X-20.610 Y35.076 Z-1.000 F900.000 
G1 X-20.390 Y35.162 Z-1.000 F900.000 
G1 X-20.150 Y35.214 Z-1.000 F900.000 
G1 X-20.066 Y36.175 Z0.008 F591.710 
G0 Z1.500 
G0 X-20.150 Y35.214 Z1.500 
G1 X-20.150 Y35.214 Z-1.000 F300.000 
G1 X-19.835 Y34.998 Z-1.000 F900.000 
G1 X-19.504 Y34.705 Z-1.000 F900.000 
G1 X-18.841 Y34.130 Z-1.000 F900.000 
G1 X-16.806 Y32.397 Z-1.000 F900.000 
G1 X-16.570 Y32.149 Z-1.000 F900.000 
G1 X-16.341 Y31.761 Z-1.000 F900.000 
G1 X-15.991 Y31.613 Z-1.000 F900.000 
G1 X-15.697 Y31.410 Z-1.000 F900.000 
G1 X-14.261 Y30.171 Z-1.000 F900.000 
G1 X-14.288 Y29.900 Z-1.000 F900.000 
G1 X-14.328 Y29.505 Z-0.550 F576.229 
G1 X-14.328 Y29.503 Z-0.547 F538.429 
G1 X-14.348 Y29.308 Z-0.271 F536.057 
G1 X-14.358 Y29.208 Z-0.131 F536.680 
G1 X-14.358 Y29.207 Z-0.129 F532.197 
G1 X-14.368 Y29.109 Z0.008 F538.457 
G0 Z1.500 
G0 X-14.261 Y30.171 Z1.500 
G1 X-14.261 Y30.171 Z-1.000 F300.000 
G1 X-13.890 Y30.138 Z-1.000 F900.000 
G1 X-13.889 Y30.138 Z-1.000 F900.000 
G1 X-12.757 Y30.039 Z0.008 F622.734 
G0 Z1.500 
G0 X-11.518 Y30.270 Z1.500 
G1 X-11.518 Y30.270 Z0.009 F300.000 
G1 X-10.879 Y31.523 Z-1.000 F662.351 
G1 X-11.074 Y31.941 Z-1.000 F900.000 
G1 X-12.948 Y37.708 Z-1.000 F900.000 
G1 X-13.036 Y38.160 Z-1.000 F900.000 
G1 X-14.289 Y38.799 Z0.008 F662.402 
G0 Z1.500 
G0 X-13.036 Y38.161 Z1.500 
G1 X-13.036 Y38.161 Z-1.000 F300.000 
G1 X-12.755 Y38.433 Z-1.000 F900.000 
G1 X-12.462 Y38.616 Z-1.000 F900.000 
G1 X-12.372 Y38.656 Z-1.000 F900.000 
G1 X-12.280 Y38.689 Z-1.000 F900.000 
G1 X-11.011 Y39.101 Z-1.000 F900.000 
G1 X-10.987 Y39.109 Z-1.000 F900.000 
G1 X-10.986 Y39.109 Z-1.000 F900.000 
G1 X-10.662 Y39.202 Z-1.000 F900.000 
G1 X-10.610 Y39.216 Z-1.000 F900.000 
G1 X-10.491 Y39.245 Z-1.000 F900.000 
G1 X-10.297 Y39.286 Z-1.000 F900.000 
G1 X-10.233 Y39.298 Z-1.000 F900.000 
G1 X-10.032 Y39.331 Z-1.000 F900.000 
G1 X-9.932 Y39.344 Z-1.000 F900.000 
G1 X-9.864 Y39.351 Z-1.000 F900.000 
G1 X-9.601 Y39.371 Z-1.000 F900.000 
G1 X-9.574 Y39.372 Z-1.000 F900.000 
G1 X-9.496 Y39.373 Z-1.000 F900.000 
G1 X-9.216 Y39.368 Z-1.000 F900.000 
G1 X-9.201 Y39.368 Z-1.000 F900.000 
G1 X-9.130 Y39.362 Z-1.000 F900.000 
G1 X-8.860 Y39.329 Z-1.000 F900.000 
G1 X-8.830 Y39.326 Z-1.000 F900.000 
G1 X-8.771 Y39.313 Z-1.000 F900.000 
G1 X-8.510 Y39.252 Z-1.000 F900.000 
G1 X-8.487 Y39.247 Z-1.000 F900.000 
G1 X-8.416 Y39.224 Z-1.000 F900.000 
G1 X-8.172 Y39.137 Z-1.000 F900.000 
G1 X-8.164 Y39.134 Z-1.000 F900.000 
G1 X-8.071 Y39.092 Z-1.000 F900.000 
G1 X-7.879 Y38.998 Z-1.000 F900.000 
G1 X-7.831 Y38.971 Z-1.000 F900.000 
G1 X-7.743 Y38.918 Z-1.000 F900.000 
G1 X-7.608 Y38.832 Z-1.000 F900.000 
G1 X-7.519 Y38.767 Z-1.000 F900.000 
G1 X-7.438 Y38.704 Z-1.000 F900.000 
G1 X-7.364 Y38.644 Z-1.000 F900.000 
G1 X-7.231 Y38.521 Z-1.000 F900.000 
G1 X-7.157 Y38.448 Z-1.000 F900.000 
G1 X-7.138 Y38.428 Z-1.000 F900.000 
G1 X-6.970 Y38.233 Z-1.000 F900.000 
G1 X-6.924 Y38.179 Z-1.000 F900.000 
G1 X-6.914 Y38.164 Z-1.000 F900.000 
G1 X-6.744 Y37.920 Z-1.000 F900.000 
G1 X-6.725 Y37.892 Z-1.000 F900.000 
G1 X-6.697 Y37.845 Z-1.000 F900.000 
G1 X-6.543 Y37.572 Z-1.000 F900.000 
G1 X-6.540 Y37.566 Z-1.000 F900.000 
G1 X-6.509 Y37.502 Z-1.000 F900.000 
G1 X-6.372 Y37.201 Z-1.000 F900.000 
G1 X-6.370 Y37.195 Z-1.000 F900.000 
G1 X-6.347 Y37.136 Z-1.000 F900.000 
G1 X-6.227 Y36.808 Z-1.000 F900.000 
G1 X-6.219 Y36.784 Z-1.000 F900.000 
G1 X-6.209 Y36.749 Z-1.000 F900.000 
G1 X-6.115 Y36.413 Z-1.000 F900.000 
G1 X-6.098 Y36.350 Z-1.000 F900.000 
G1 X-6.067 Y36.225 Z-1.000 F900.000 
G1 X-6.031 Y36.026 Z-1.000 F900.000 
G1 X-6.019 Y35.955 Z-1.000 F900.000 
G1 X-5.983 Y35.705 Z-1.000 F900.000 
G1 X-5.977 Y35.642 Z-1.000 F900.000 
G1 X-5.973 Y35.566 Z-1.000 F900.000 
G1 X-5.959 Y35.263 Z-1.000 F900.000 
G1 X-5.958 Y35.216 Z-1.000 F900.000 
G1 X-5.961 Y35.176 Z-1.000 F900.000 
G1 X-5.980 Y34.884 Z-1.000 F900.000 
G1 X-5.989 Y34.795 Z-1.000 F900.000 
G1 X-5.993 Y34.754 Z-1.000 F900.000 
G1 X-6.038 Y34.517 Z-1.000 F900.000 
G1 X-6.057 Y34.431 Z-1.000 F900.000 
G1 X-6.087 Y34.306 Z-1.000 F900.000 
G1 X-6.130 Y34.162 Z-1.000 F900.000 
G1 X-6.145 Y34.116 Z-1.000 F900.000 
G1 X-6.163 Y34.070 Z-1.000 F900.000 
G1 X-6.222 Y33.921 Z-1.000 F900.000 
G1 X-6.269 Y33.815 Z-1.000 F900.000 
G1 X-6.308 Y33.733 Z-1.000 F900.000 
G1 X-6.309 Y33.730 Z-1.000 F900.000 
G1 X-6.413 Y33.544 Z-1.000 F900.000 
G1 X-6.441 Y33.498 Z-1.000 F900.000 
G1 X-6.495 Y33.417 Z-1.000 F900.000 
G1 X-6.530 Y33.364 Z-1.000 F900.000 
G1 X-6.650 Y33.203 Z-1.000 F900.000 
G1 X-6.655 Y33.197 Z-1.000 F900.000 
G1 X-6.712 Y33.133 Z-1.000 F900.000 
G1 X-6.888 Y32.941 Z-1.000 F900.000 
G1 X-6.953 Y32.877 Z-1.000 F900.000 
G1 X-6.981 Y32.849 Z-1.000 F900.000 
G1 X-7.151 Y32.706 Z-1.000 F900.000 
G1 X-7.223 Y32.650 Z-1.000 F900.000 
G1 X-7.354 Y32.552 Z-1.000 F900.000 
G1 X-7.439 Y32.497 Z-1.000 F900.000 
G1 X-7.510 Y32.454 Z-1.000 F900.000 
G1 X-7.746 Y32.318 Z-1.000 F900.000 
G1 X-7.790 Y32.295 Z-1.000 F900.000 
G1 X-7.812 Y32.285 Z-1.000 F900.000 
G1 X-8.071 Y32.171 Z-1.000 F900.000 
G1 X-8.137 Y32.145 Z-1.000 F900.000 
G1 X-8.309 Y32.079 Z-1.000 F900.000 
G1 X-8.413 Y32.043 Z-1.000 F900.000 
G1 X-8.443 Y32.033 Z-1.000 F900.000 
G1 X-9.957 Y31.541 Z-1.000 F900.000 
G1 X-10.277 Y31.475 Z-1.000 F900.000 
G1 X-10.624 Y31.479 Z-1.000 F900.000 
G1 X-10.750 Y31.497 Z-1.000 F900.000 
G1 X-10.879 Y31.523 Z-1.000 F900.000 
G0 Z1.500 
G0 X-16.341 Y31.762 Z1.500 
G1 X-16.341 Y31.762 Z-1.000 F300.000 
G1 X-16.640 Y31.446 Z-1.000 F900.000 
G1 X-16.799 Y31.301 Z-1.000 F900.000 
G1 X-16.973 Y31.182 Z-1.000 F900.000 
G1 X-19.205 Y29.894 Z-1.000 F900.000 
G1 X-19.395 Y29.802 Z-1.000 F900.000 
G1 X-19.600 Y29.738 Z-1.000 F900.000 
G1 X-20.028 Y29.635 Z-1.000 F900.000 
G0 Z1.500 
G0 X-19.692 Y27.043 Z1.500 
G1 X-19.692 Y27.043 Z-1.000 F300.000 
G1 X-18.711 Y26.601 Z0.008 F612.346 
G0 Z1.500 
G0 X-27.333 Y19.105 Z1.500 
G1 X-27.333 Y19.105 Z0.008 F300.000 
G1 X-28.207 Y18.691 Z-1.000 F591.916 
G0 Z1.500 
G0 X-32.222 Y26.689 Z1.500 
G1 X-32.222 Y26.689 Z0.006 F300.000 
G1 X-30.895 Y26.689 Z-1.000 F652.188 
G1 X-30.895 Y28.017 Z0.008 F652.047 
G0 Z1.500 
G0 X-3.622 Y35.004 Z1.500 
G1 X-3.622 Y35.004 Z0.008 F300.000 
G1 X-3.288 Y34.789 Z-0.452 F572.149 
G1 X-2.997 Y34.620 Z-0.822 F581.955 
G1 X-2.743 Y34.488 Z-1.000 F687.837 
G1 X-2.517 Y34.385 Z-1.000 F900.000 
G1 X-2.335 Y34.312 Z-1.000 F900.000 
G1 X-2.143 Y34.717 Z-0.892 F809.806 
G1 X-2.078 Y34.839 Z-0.700 F539.228 
G1 X-1.808 Y35.297 Z0.007 F545.907 
G0 Z1.500 
G0 X-2.335 Y34.312 Z1.500 
G1 X-2.335 Y34.312 Z-1.000 F300.000 
G1 X-2.324 Y34.297 Z-1.000 F900.000 
G1 X-2.298 Y34.262 Z-1.000 F900.000 
G1 X-2.209 Y34.153 Z-1.000 F900.000 
G1 X-2.180 Y34.124 Z-1.000 F900.000 
G1 X-2.075 Y34.022 Z-1.000 F900.000 
G1 X-1.956 Y33.918 Z-1.000 F900.000 
G1 X-1.923 Y33.890 Z-1.000 F900.000 
G1 X-1.816 Y33.816 Z-1.000 F900.000 
G1 X-1.745 Y33.771 Z-1.000 F900.000 
G1 X-1.553 Y33.661 Z-1.000 F900.000 
G1 X-1.539 Y33.653 Z-1.000 F900.000 
G1 X-1.410 Y33.595 Z-1.000 F900.000 
G1 X-1.300 Y33.551 Z-1.000 F900.000 
G1 X-1.106 Y33.482 Z-1.000 F900.000 
G1 X-1.033 Y33.458 Z-1.000 F900.000 
G1 X-0.995 Y33.449 Z-1.000 F900.000 
G1 X-0.731 Y33.387 Z-1.000 F900.000 
G1 X-0.646 Y33.369 Z-1.000 F900.000 
G1 X-0.553 Y33.354 Z-1.000 F900.000 
G1 X-0.410 Y33.334 Z-1.000 F900.000 
G1 X-0.154 Y33.310 Z-1.000 F900.000 
G1 X-0.084 Y33.305 Z-1.000 F900.000 
G1 X0.351 Y33.285 Z-1.000 F900.000 
G1 X0.362 Y33.285 Z-1.000 F900.000 
G1 X0.421 Y33.286 Z-1.000 F900.000 
G1 X0.769 Y33.296 Z-1.000 F900.000 
G1 X0.883 Y33.303 Z-1.000 F900.000 
G1 X0.947 Y33.308 Z-1.000 F900.000 
G1 X1.161 Y33.330 Z-1.000 F900.000 
G1 X1.348 Y33.354 Z-1.000 F900.000 
G1 X1.435 Y33.369 Z-1.000 F900.000 
G1 X1.519 Y33.384 Z-1.000 F900.000 
G1 X1.778 Y33.443 Z-1.000 F900.000 
G1 X1.839 Y33.459 Z-1.000 F900.000 
G1 X1.892 Y33.477 Z-1.000 F900.000 
G1 X2.122 Y33.559 Z-1.000 F900.000 
G1 X2.178 Y33.582 Z-1.000 F900.000 
G1 X2.251 Y33.614 Z-1.000 F900.000 
G1 X2.323 Y33.650 Z-1.000 F900.000 
G1 X2.367 Y33.673 Z-1.000 F900.000 
G1 X2.555 Y33.785 Z-1.000 F900.000 
G1 X2.574 Y33.797 Z-1.000 F900.000 
G1 X2.728 Y33.917 Z-1.000 F900.000 
G1 X2.744 Y33.931 Z-1.000 F900.000 
G1 X2.882 Y34.068 Z-1.000 F900.000 
G1 X2.904 Y34.092 Z-1.000 F900.000 
G1 X2.994 Y34.202 Z-1.000 F900.000 
G1 X3.051 Y34.294 Z-1.000 F900.000 
G1 X3.078 Y34.341 Z-1.000 F900.000 
G1 X3.147 Y34.483 Z-1.000 F900.000 
G1 X3.160 Y34.515 Z-1.000 F900.000 
G1 X3.205 Y34.635 Z-1.000 F900.000 
G1 X3.230 Y34.742 Z-1.000 F900.000 
G1 X3.242 Y34.805 Z-1.000 F900.000 
G1 X3.268 Y34.998 Z-1.000 F900.000 
G1 X3.269 Y35.003 Z-1.000 F900.000 
G1 X3.275 Y35.182 Z-1.000 F900.000 
G1 X3.275 Y35.220 Z-1.000 F900.000 
G1 X3.266 Y35.359 Z-1.000 F900.000 
G1 X3.263 Y35.400 Z-1.000 F900.000 
G1 X3.243 Y35.525 Z-1.000 F900.000 
G1 X3.236 Y35.562 Z-1.000 F900.000 
G1 X3.204 Y35.687 Z-1.000 F900.000 
G1 X3.202 Y35.698 Z-1.000 F900.000 
G1 X3.158 Y35.823 Z-1.000 F900.000 
G1 X3.144 Y35.852 Z-1.000 F900.000 
G1 X3.103 Y35.936 Z-1.000 F900.000 
G1 X3.071 Y35.995 Z-1.000 F900.000 
G1 X3.048 Y36.037 Z-1.000 F900.000 
G1 X2.980 Y36.134 Z-1.000 F900.000 
G1 X2.968 Y36.148 Z-1.000 F900.000 
G1 X2.901 Y36.225 Z-1.000 F900.000 
G1 X2.859 Y36.268 Z-1.000 F900.000 
G1 X2.809 Y36.320 Z-1.000 F900.000 
G1 X2.744 Y36.373 Z-1.000 F900.000 
G1 X2.685 Y36.419 Z-1.000 F900.000 
G1 X2.606 Y36.475 Z-1.000 F900.000 
G1 X2.525 Y36.531 Z-1.000 F900.000 
G1 X2.518 Y36.535 Z-1.000 F900.000 
G1 X2.359 Y36.626 Z-1.000 F900.000 
G1 X2.331 Y36.642 Z-1.000 F900.000 
G1 X2.236 Y36.686 Z-1.000 F900.000 
G1 X2.066 Y36.757 Z-1.000 F900.000 
G1 X1.857 Y36.839 Z-1.000 F900.000 
G1 X1.755 Y36.875 Z-1.000 F900.000 
G1 X1.701 Y36.892 Z-1.000 F900.000 
G1 X1.498 Y36.949 Z-1.000 F900.000 
G1 X1.451 Y36.962 Z-1.000 F900.000 
G1 X1.103 Y37.048 Z-1.000 F900.000 
G1 X1.068 Y37.057 Z-1.000 F900.000 
G1 X0.614 Y37.159 Z-1.000 F900.000 
G1 X0.615 Y37.159 Z-1.000 F900.000 
G1 X0.101 Y37.274 Z-1.000 F900.000 
G1 X-0.289 Y37.366 Z-1.000 F900.000 
G1 X-0.346 Y37.381 Z-1.000 F900.000 
G1 X-0.722 Y37.484 Z-1.000 F900.000 
G1 X-0.890 Y37.535 Z-1.000 F900.000 
G1 X-1.032 Y37.586 Z-1.000 F900.000 
G1 X-1.203 Y37.656 Z-1.000 F900.000 
G1 X-1.360 Y37.730 Z-1.000 F900.000 
G1 X-1.483 Y37.794 Z-1.000 F900.000 
G1 X-1.495 Y37.801 Z-1.000 F900.000 
G1 X-1.616 Y37.878 Z-1.000 F900.000 
G1 X-1.714 Y37.945 Z-1.000 F900.000 
G1 X-1.729 Y37.957 Z-1.000 F900.000 
G1 X-1.826 Y38.039 Z-1.000 F900.000 
G1 X-1.902 Y38.108 Z-1.000 F900.000 
G1 X-1.936 Y38.148 Z-1.000 F900.000 
G1 X-2.023 Y38.251 Z-1.000 F900.000 
G0 Z1.500 
G0 X-2.118 Y38.404 Z1.500 
G1 X-2.118 Y38.404 Z-1.000 F300.000 
G1 X-2.027 Y38.256 Z-1.000 F900.000 
G1 X-2.023 Y38.251 Z-1.000 F900.000 
G1 X-2.730 Y37.662 Z0.008 F582.583 
G0 Z1.500 
G0 X-2.927 Y37.952 Z1.500 
G1 X-2.927 Y37.952 Z0.008 F300.000 
G1 X-2.118 Y38.404 Z-1.000 F583.994 
G1 X-2.121 Y38.410 Z-1.000 F900.000 
G1 X-2.179 Y38.542 Z-1.000 F900.000 
G1 X-2.198 Y38.587 Z-1.000 F900.000 
G0 Z1.500 
G0 X-3.078 Y38.287 Z1.500 
G1 X-3.078 Y38.287 Z0.008 F300.000 
G1 X-2.198 Y38.587 Z-1.000 F584.614 
G1 X-2.229 Y38.699 Z-1.000 F900.000 
G1 X-2.255 Y38.814 Z-1.000 F900.000 
G1 X-2.260 Y38.845 Z-1.000 F900.000 
G1 X-2.277 Y38.992 Z-1.000 F900.000 
G1 X-2.285 Y39.120 Z-1.000 F900.000 
G1 X-2.285 Y39.154 Z-1.000 F900.000 
G1 X-2.281 Y39.303 Z-1.000 F900.000 
G1 X-2.280 Y39.317 Z-1.000 F900.000 
G1 X-2.258 Y39.471 Z-1.000 F900.000 
G1 X-2.243 Y39.549 Z-1.000 F900.000 
G1 X-2.228 Y39.620 Z-1.000 F900.000 
G1 X-2.181 Y39.753 Z-1.000 F900.000 
G1 X-2.171 Y39.774 Z-1.000 F900.000 
G1 X-2.121 Y39.876 Z-1.000 F900.000 
G1 X-2.068 Y39.968 Z-1.000 F900.000 
G1 X-2.050 Y40.000 Z-1.000 F900.000 
G1 X-1.954 Y40.126 Z-1.000 F900.000 
G1 X-1.920 Y40.161 Z-1.000 F900.000 
G1 X-1.829 Y40.251 Z-1.000 F900.000 
G1 X-1.760 Y40.312 Z-1.000 F900.000 
G1 X-1.677 Y40.383 Z-1.000 F900.000 
G1 X-1.595 Y40.436 Z-1.000 F900.000 
G1 X-1.486 Y40.501 Z-1.000 F900.000 
G1 X-1.391 Y40.553 Z-1.000 F900.000 
G1 X-1.263 Y40.615 Z-1.000 F900.000 
G1 X-1.246 Y40.621 Z-1.000 F900.000 
G1 X-1.002 Y40.709 Z-1.000 F900.000 
G1 X-0.996 Y40.711 Z-1.000 F900.000 
G1 X-0.886 Y40.742 Z-1.000 F900.000 
G1 X-0.707 Y40.783 Z-1.000 F900.000 
G1 X-0.589 Y40.806 Z-1.000 F900.000 
G1 X-0.506 Y40.821 Z-1.000 F900.000 
G1 X-0.377 Y40.837 Z-1.000 F900.000 
G1 X-0.158 Y40.860 Z-1.000 F900.000 
G1 X-0.093 Y40.866 Z-1.000 F900.000 
G1 X-0.016 Y40.870 Z-1.000 F900.000 
G1 X0.306 Y40.880 Z-1.000 F900.000 
G1 X0.361 Y40.881 Z-1.000 F900.000 
G1 X0.367 Y40.880 Z-1.000 F900.000 
G1 X0.739 Y40.864 Z-1.000 F900.000 
G1 X0.815 Y40.859 Z-1.000 F900.000 
G1 X1.093 Y40.831 Z-1.000 F900.000 
G1 X1.149 Y40.823 Z-1.000 F900.000 
G1 X1.243 Y40.806 Z-1.000 F900.000 
G1 X1.533 Y40.740 Z-1.000 F900.000 
G1 X1.659 Y40.707 Z-1.000 F900.000 
G1 X1.696 Y40.694 Z-1.000 F900.000 
G1 X1.913 Y40.613 Z-1.000 F900.000 
G1 X1.927 Y40.609 Z-1.000 F900.000 
G1 X2.050 Y40.550 Z-1.000 F900.000 
G1 X2.129 Y40.507 Z-1.000 F900.000 
G1 X2.272 Y40.422 Z-1.000 F900.000 
G1 X2.297 Y40.408 Z-1.000 F900.000 
G1 X2.407 Y40.326 Z-1.000 F900.000 
G1 X2.431 Y40.305 Z-1.000 F900.000 
G1 X2.541 Y40.206 Z-1.000 F900.000 
G1 X2.592 Y40.154 Z-1.000 F900.000 
G1 X2.638 Y40.106 Z-1.000 F900.000 
G1 X2.668 Y40.069 Z-1.000 F900.000 
G1 X2.623 Y39.975 Z-1.000 F900.000 
G1 X2.417 Y39.567 Z-0.724 F692.840 
G1 X2.362 Y39.468 Z-0.567 F538.420 
G1 X2.135 Y39.102 Z0.008 F545.293 
G0 Z1.500 
G0 X2.667 Y40.068 Z1.500 
G1 X2.667 Y40.068 Z-1.000 F300.000 
G1 X2.769 Y40.031 Z-1.000 F900.000 
G1 X2.941 Y39.957 Z-1.000 F900.000 
G1 X3.140 Y39.858 Z-1.000 F900.000 
G1 X3.372 Y39.727 Z-0.784 F639.530 
G1 X3.644 Y39.558 Z-0.431 F581.643 
G1 X3.957 Y39.344 Z0.008 F572.180 
G0 Z1.500 
G0 X5.962 Y39.946 Z1.500 
G1 X5.962 Y39.946 Z0.008 F300.000 
G1 X6.842 Y40.475 Z-1.000 F603.478 
G1 X6.313 Y41.355 Z0.008 F603.586 
G0 Z1.500 
G0 X6.842 Y40.475 Z1.500 
G1 X6.842 Y40.475 Z-1.000 F300.000 
G1 X8.947 Y39.950 Z-1.000 F900.000 
G1 X9.254 Y39.837 Z-1.000 F900.000 
G1 X9.547 Y39.650 Z-1.000 F900.000 
G1 X9.668 Y39.546 Z-1.000 F900.000 
G1 X9.787 Y39.428 Z-1.000 F900.000 
G1 X10.176 Y39.523 Z-1.000 F900.000 
G1 X10.527 Y39.535 Z-1.000 F900.000 
G1 X10.651 Y39.521 Z-1.000 F900.000 
G1 X10.773 Y39.496 Z-1.000 F900.000 
G1 X12.886 Y38.968 Z-1.000 F900.000 
G1 X13.415 Y38.088 Z0.007 F603.606 
G0 Z1.500 
G0 X12.886 Y38.968 Z1.500 
G1 X12.886 Y38.968 Z-1.000 F300.000 
G1 X13.767 Y39.497 Z0.008 F603.631 
G0 Z1.500 
G0 X9.786 Y39.427 Z1.500 
G1 X9.786 Y39.427 Z-1.000 F300.000 
G1 X9.685 Y39.019 Z-1.000 F900.000 
G1 X9.685 Y39.018 Z-1.000 F900.000 
G1 X8.094 Y32.638 Z-1.000 F900.000 
G0 Z1.500 
G0 X6.954 Y31.953 Z1.500 
G1 X6.954 Y31.953 Z0.009 F300.000 
G1 X8.094 Y32.638 Z-1.000 F652.169 
G1 X8.779 Y31.498 Z0.008 F652.248 
G0 Z1.500 
G0 X13.684 Y32.219 Z1.500 
G1 X13.684 Y32.219 Z-1.000 F300.000 
G1 X13.696 Y32.018 Z-1.000 F900.000 
G1 X13.704 Y31.948 Z-1.000 F900.000 
G1 X13.717 Y31.858 Z-1.000 F900.000 
G1 X13.744 Y31.695 Z-1.000 F900.000 
G1 X13.767 Y31.593 Z-1.000 F900.000 
G1 X13.793 Y31.494 Z-1.000 F900.000 
G1 X13.826 Y31.379 Z-1.000 F900.000 
G1 X13.874 Y31.241 Z-1.000 F900.000 
G1 X13.908 Y31.154 Z-1.000 F900.000 
G1 X13.941 Y31.073 Z-1.000 F900.000 
G1 X14.016 Y30.917 Z-1.000 F900.000 
G1 X14.059 Y30.834 Z-1.000 F900.000 
G1 X14.093 Y30.772 Z-1.000 F900.000 
G1 X14.192 Y30.613 Z-1.000 F900.000 
G1 X14.247 Y30.533 Z-1.000 F900.000 
G1 X14.284 Y30.478 Z-1.000 F900.000 
G1 X14.405 Y30.327 Z-1.000 F900.000 
G1 X14.460 Y30.262 Z-1.000 F900.000 
G1 X14.520 Y30.193 Z-1.000 F900.000 
G1 X14.640 Y30.070 Z-1.000 F900.000 
G1 X14.702 Y30.011 Z-1.000 F900.000 
G1 X14.804 Y29.916 Z-1.000 F900.000 
G1 X14.906 Y29.831 Z-1.000 F900.000 
G1 X14.964 Y29.785 Z-1.000 F900.000 
G1 X15.140 Y29.651 Z-1.000 F900.000 
G1 X15.191 Y29.616 Z-1.000 F900.000 
G1 X15.248 Y29.579 Z-1.000 F900.000 
G1 X15.498 Y29.420 Z-1.000 F900.000 
G1 X15.522 Y29.406 Z-1.000 F900.000 
G1 X15.551 Y29.390 Z-1.000 F900.000 
G1 X15.823 Y29.248 Z-1.000 F900.000 
G1 X15.882 Y29.220 Z-1.000 F900.000 
G1 X16.051 Y29.141 Z-1.000 F900.000 
G1 X16.148 Y29.103 Z-1.000 F900.000 
G1 X16.217 Y29.078 Z-1.000 F900.000 
G1 X16.479 Y28.988 Z-1.000 F900.000 
G1 X16.551 Y28.966 Z-1.000 F900.000 
G1 X16.564 Y28.962 Z-1.000 F900.000 
G1 X16.811 Y28.908 Z-1.000 F900.000 
G1 X16.898 Y28.892 Z-1.000 F900.000 
G1 X17.061 Y28.865 Z-1.000 F900.000 
G1 X17.156 Y28.856 Z-1.000 F900.000 
G1 X17.250 Y28.851 Z-1.000 F900.000 
G1 X17.505 Y28.842 Z-1.000 F900.000 
G1 X17.558 Y28.841 Z-1.000 F900.000 
G1 X17.602 Y28.844 Z-1.000 F900.000 
G1 X17.775 Y28.857 Z-1.000 F900.000 
G1 X17.855 Y28.867 Z-1.000 F900.000 
G1 X17.951 Y28.881 Z-1.000 F900.000 
G1 X17.995 Y28.888 Z-1.000 F900.000 
G1 X18.205 Y28.933 Z-1.000 F900.000 
G1 X18.209 Y28.935 Z-1.000 F900.000 
G1 X18.303 Y28.962 Z-1.000 F900.000 
G1 X18.415 Y28.997 Z-1.000 F900.000 
G1 X18.553 Y29.047 Z-1.000 F900.000 
G1 X18.615 Y29.071 Z-1.000 F900.000 
G1 X18.644 Y29.084 Z-1.000 F900.000 
G1 X18.811 Y29.162 Z-1.000 F900.000 
G1 X18.886 Y29.201 Z-1.000 F900.000 
G1 X18.967 Y29.245 Z-1.000 F900.000 
G1 X19.003 Y29.266 Z-1.000 F900.000 
G1 X19.195 Y29.388 Z-1.000 F900.000 
G1 X19.201 Y29.392 Z-1.000 F900.000 
G1 X19.275 Y29.445 Z-1.000 F900.000 
G1 X19.382 Y29.525 Z-1.000 F900.000 
G1 X19.502 Y29.623 Z-1.000 F900.000 
G1 X19.549 Y29.663 Z-1.000 F900.000 
G1 X19.565 Y29.678 Z-1.000 F900.000 
G1 X19.781 Y29.890 Z-1.000 F900.000 
G1 X19.833 Y29.943 Z-1.000 F900.000 
G1 X19.902 Y30.016 Z-1.000 F900.000 
G1 X20.041 Y30.184 Z-1.000 F900.000 
G1 X20.086 Y30.240 Z-1.000 F900.000 
G1 X20.222 Y30.418 Z-1.000 F900.000 
G1 X20.284 Y30.510 Z-1.000 F900.000 
G1 X20.318 Y30.560 Z-1.000 F900.000 
G1 X20.508 Y30.860 Z-1.000 F900.000 
G1 X20.527 Y30.891 Z-1.000 F900.000 
G1 X20.538 Y30.911 Z-1.000 F900.000 
G1 X20.697 Y31.210 Z-1.000 F900.000 
G1 X20.726 Y31.266 Z-1.000 F900.000 
G1 X20.728 Y31.271 Z-1.000 F900.000 
G1 X20.856 Y31.564 Z-1.000 F900.000 
G1 X20.884 Y31.629 Z-1.000 F900.000 
G1 X20.884 Y31.631 Z-1.000 F900.000 
G1 X20.983 Y31.917 Z-1.000 F900.000 
G1 X21.005 Y31.982 Z-1.000 F900.000 
G1 X21.008 Y31.994 Z-1.000 F900.000 
G1 X21.077 Y32.278 Z-1.000 F900.000 
G1 X21.087 Y32.317 Z-1.000 F900.000 
G1 X21.095 Y32.366 Z-1.000 F900.000 
G1 X21.134 Y32.642 Z-1.000 F900.000 
G1 X21.134 Y32.643 Z-1.000 F900.000 
G1 X21.141 Y32.731 Z-1.000 F900.000 
G1 X21.149 Y32.961 Z-1.000 F900.000 
G1 X21.149 Y33.003 Z-1.000 F900.000 
G1 X21.146 Y33.099 Z-1.000 F900.000 
G1 X21.134 Y33.275 Z-1.000 F900.000 
G1 X21.123 Y33.363 Z-1.000 F900.000 
G1 X21.108 Y33.462 Z-1.000 F900.000 
G1 X21.085 Y33.591 Z-1.000 F900.000 
G1 X21.054 Y33.720 Z-1.000 F900.000 
G1 X21.031 Y33.809 Z-1.000 F900.000 
G1 X21.003 Y33.904 Z-1.000 F900.000 
G1 X20.949 Y34.054 Z-1.000 F900.000 
G1 X20.913 Y34.148 Z-1.000 F900.000 
G1 X20.888 Y34.208 Z-1.000 F900.000 
G1 X20.804 Y34.379 Z-1.000 F900.000 
G1 X20.758 Y34.468 Z-1.000 F900.000 
G1 X20.734 Y34.508 Z-1.000 F900.000 
G1 X20.621 Y34.684 Z-1.000 F900.000 
G1 X20.571 Y34.760 Z-1.000 F900.000 
G1 X20.540 Y34.801 Z-1.000 F900.000 
G1 X20.410 Y34.962 Z-1.000 F900.000 
G1 X20.352 Y35.031 Z-1.000 F900.000 
G1 X20.299 Y35.088 Z-1.000 F900.000 
G1 X20.168 Y35.220 Z-1.000 F900.000 
G1 X20.112 Y35.275 Z-1.000 F900.000 
G1 X20.010 Y35.367 Z-1.000 F900.000 
G1 X19.905 Y35.454 Z-1.000 F900.000 
G1 X19.848 Y35.500 Z-1.000 F900.000 
G1 X19.671 Y35.633 Z-1.000 F900.000 
G1 X19.618 Y35.670 Z-1.000 F900.000 
G1 X19.564 Y35.706 Z-1.000 F900.000 
G1 X19.308 Y35.867 Z-1.000 F900.000 
G1 X19.282 Y35.884 Z-1.000 F900.000 
G1 X19.254 Y35.899 Z-1.000 F900.000 
G1 X18.982 Y36.041 Z-1.000 F900.000 
G1 X18.926 Y36.070 Z-1.000 F900.000 
G1 X18.868 Y36.097 Z-1.000 F900.000 
G1 X18.659 Y36.186 Z-1.000 F900.000 
G1 X18.593 Y36.213 Z-1.000 F900.000 
G1 X18.467 Y36.259 Z-1.000 F900.000 
G1 X18.331 Y36.303 Z-1.000 F900.000 
G1 X18.256 Y36.326 Z-1.000 F900.000 
G1 X18.081 Y36.372 Z-1.000 F900.000 
G1 X17.997 Y36.391 Z-1.000 F900.000 
G1 X17.912 Y36.408 Z-1.000 F900.000 
G1 X17.712 Y36.439 Z-1.000 F900.000 
G1 X17.654 Y36.445 Z-1.000 F900.000 
G1 X17.559 Y36.453 Z-1.000 F900.000 
G1 X17.361 Y36.462 Z-1.000 F900.000 
G1 X17.303 Y36.462 Z-1.000 F900.000 
G1 X17.209 Y36.460 Z-1.000 F900.000 
G1 X17.026 Y36.448 Z-1.000 F900.000 
G1 X16.954 Y36.439 Z-1.000 F900.000 
G1 X16.853 Y36.425 Z-1.000 F900.000 
G1 X16.707 Y36.398 Z-1.000 F900.000 
G1 X16.600 Y36.373 Z-1.000 F900.000 
G1 X16.506 Y36.348 Z-1.000 F900.000 
G1 X16.397 Y36.315 Z-1.000 F900.000 
G1 X16.259 Y36.265 Z-1.000 F900.000 
G1 X16.166 Y36.230 Z-1.000 F900.000 
G1 X16.100 Y36.201 Z-1.000 F900.000 
G1 X15.927 Y36.116 Z-1.000 F900.000 
G1 X15.843 Y36.073 Z-1.000 F900.000 
G1 X15.822 Y36.061 Z-1.000 F900.000 
G1 X15.613 Y35.928 Z-1.000 F900.000 
G1 X15.555 Y35.890 Z-1.000 F900.000 
G1 X15.540 Y35.879 Z-1.000 F900.000 
G1 X15.320 Y35.705 Z-1.000 F900.000 
G1 X15.296 Y35.685 Z-1.000 F900.000 
G1 X15.253 Y35.645 Z-1.000 F900.000 
G1 X15.044 Y35.444 Z-1.000 F900.000 
G1 X15.043 Y35.442 Z-1.000 F900.000 
G1 X14.990 Y35.384 Z-1.000 F900.000 
G1 X14.797 Y35.161 Z-1.000 F900.000 
G1 X14.790 Y35.152 Z-1.000 F900.000 
G1 X14.745 Y35.093 Z-1.000 F900.000 
G1 X14.557 Y34.836 Z-1.000 F900.000 
G1 X14.555 Y34.833 Z-1.000 F900.000 
G1 X14.521 Y34.780 Z-1.000 F900.000 
G1 X14.340 Y34.490 Z-1.000 F900.000 
G1 X14.324 Y34.464 Z-1.000 F900.000 
G1 X14.310 Y34.438 Z-1.000 F900.000 
G1 X14.148 Y34.134 Z-1.000 F900.000 
G1 X14.119 Y34.076 Z-1.000 F900.000 
G1 X14.118 Y34.076 Z-1.000 F900.000 
G1 X13.986 Y33.776 Z-1.000 F900.000 
G1 X13.958 Y33.708 Z-1.000 F900.000 
G1 X13.955 Y33.703 Z-1.000 F900.000 
G1 X13.855 Y33.413 Z-1.000 F900.000 
G1 X13.833 Y33.344 Z-1.000 F900.000 
G1 X13.832 Y33.340 Z-1.000 F900.000 
G1 X13.759 Y33.050 Z-1.000 F900.000 
G1 X13.747 Y32.998 Z-1.000 F900.000 
G1 X13.743 Y32.968 Z-1.000 F900.000 
G1 X13.699 Y32.684 Z-1.000 F900.000 
G1 X13.697 Y32.665 Z-1.000 F900.000 
G1 X13.692 Y32.593 Z-1.000 F900.000 
G1 X13.680 Y32.339 Z-1.000 F900.000 
G1 X13.680 Y32.315 Z-1.000 F900.000 
G1 X13.684 Y32.219 Z-1.000 F900.000 
G0 Z1.500 
G0 X19.918 Y26.381 Z1.500 
G1 X19.918 Y26.381 Z0.009 F300.000 
G1 X21.098 Y26.381 Z-1.000 F629.861 
G1 X21.098 Y25.201 Z0.009 F629.861 
G0 Z1.500 
G0 X21.098 Y26.381 Z1.500 
G1 X21.098 Y26.381 Z-1.000 F300.000 
G1 X24.234 Y29.517 Z-1.000 F900.000 
G1 X24.700 Y30.002 Z-1.000 F900.000 
G1 X25.299 Y30.661 Z-1.000 F900.000 
G1 X25.551 Y30.884 Z-1.000 F900.000 
G1 X25.857 Y31.057 Z-1.000 F900.000 
G1 X26.050 Y31.131 Z-1.000 F900.000 
G1 X26.259 Y31.188 Z-1.000 F900.000 
G1 X26.623 Y30.901 Z-1.000 F900.000 
G1 X26.691 Y30.508 Z-1.000 F900.000 
G1 X26.680 Y30.155 Z-1.000 F900.000 
G1 X26.662 Y30.056 Z-1.000 F900.000 
G1 X26.639 Y29.959 Z-1.000 F900.000 
G1 X24.910 Y23.679 Z-1.000 F900.000 
G1 X24.856 Y23.345 Z-1.000 F900.000 
G1 X24.906 Y22.813 Z-1.000 F900.000 
G1 X23.782 Y22.517 Z0.007 F627.002 
G0 Z1.500 
G0 X24.905 Y22.813 Z1.500 
G1 X24.905 Y22.813 Z-1.000 F300.000 
G1 X25.110 Y22.624 Z-1.000 F900.000 
G1 X25.342 Y22.461 Z-1.000 F900.000 
G1 X25.341 Y20.958 Z0.008 F674.301 
G0 Z1.500 
G0 X26.221 Y19.773 Z1.500 
G1 X26.221 Y19.773 Z0.009 F300.000 
G1 X27.606 Y19.529 Z-1.000 F662.349 
G1 X27.668 Y19.143 Z-1.000 F900.000 
G1 X27.792 Y18.820 Z-1.000 F900.000 
G1 X27.840 Y18.734 Z-1.000 F900.000 
G1 X27.893 Y18.652 Z-1.000 F900.000 
G1 X30.596 Y14.791 Z-1.000 F900.000 
G1 X30.418 Y13.780 Z0.008 F603.412 
G0 Z1.500 
G0 X30.596 Y14.791 Z1.500 
G1 X30.596 Y14.791 Z-1.000 F300.000 
G1 X31.607 Y14.613 Z0.007 F603.605 
G0 Z1.500 
G0 X33.085 Y16.441 Z1.500 
G1 X33.085 Y16.441 Z0.008 F300.000 
G1 X33.263 Y17.452 Z-1.000 F603.643 
G1 X30.933 Y20.780 Z-1.000 F900.000 
G1 X30.933 Y20.781 Z-1.000 F900.000 
G1 X30.475 Y21.434 Z-1.000 F900.000 
G1 X30.099 Y21.304 Z-1.000 F900.000 
G1 X29.800 Y21.133 Z-1.000 F900.000 
G1 X27.949 Y19.837 Z-1.000 F900.000 
G1 X27.606 Y19.529 Z-1.000 F900.000 
G0 Z1.500 
G0 X30.475 Y21.434 Z1.500 
G1 X30.475 Y21.434 Z-1.000 F300.000 
G1 X30.726 Y21.743 Z-1.000 F900.000 
G1 X30.989 Y21.966 Z-1.000 F900.000 
G1 X32.916 Y23.315 Z-1.000 F900.000 
G1 X33.111 Y23.435 Z-1.000 F900.000 
G1 X33.323 Y23.532 Z-1.000 F900.000 
G1 X33.568 Y24.917 Z0.008 F662.447 
G0 Z1.500 
G0 X33.324 Y23.532 Z1.500 
G1 X33.324 Y23.532 Z-1.000 F300.000 
G1 X33.666 Y23.342 Z-1.000 F900.000 
G1 X33.927 Y23.116 Z-1.000 F900.000 
G1 X33.991 Y23.041 Z-1.000 F900.000 
G1 X34.050 Y22.963 Z-1.000 F900.000 
G1 X36.604 Y19.314 Z-1.000 F900.000 
G1 X36.426 Y18.303 Z0.008 F603.430 
G0 Z1.500 
G0 X36.604 Y19.314 Z1.500 
G1 X36.604 Y19.314 Z-1.000 F300.000 
G1 X37.615 Y19.136 Z0.007 F603.671 
G0 Z1.500 
G0 X34.275 Y17.274 Z1.500 
G1 X34.275 Y17.274 Z0.009 F300.000 
G1 X33.263 Y17.452 Z-1.000 F603.499 
G0 Z1.500 
G0 X25.340 Y22.461 Z1.500 
G1 X25.340 Y22.461 Z-1.000 F300.000 
G1 X25.723 Y22.592 Z-1.000 F900.000 
G1 X26.033 Y22.774 Z-1.000 F900.000 
G1 X26.151 Y22.870 Z-1.000 F900.000 
G1 X26.259 Y22.977 Z-1.000 F900.000 
G1 X26.864 Y23.642 Z-1.000 F900.000 
G1 X27.415 Y24.213 Z-1.000 F900.000 
G1 X30.502 Y27.300 Z-1.000 F900.000 
G1 X30.502 Y28.480 Z0.008 F629.924 
G0 Z1.500 
G0 X30.502 Y27.300 Z1.500 
G1 X30.502 Y27.300 Z-1.000 F300.000 
G1 X31.682 Y27.300 Z0.008 F630.048 
G0 Z1.500 
G0 X27.776 Y31.206 Z1.500 
G1 X27.776 Y31.206 Z0.008 F300.000 
G1 X26.622 Y30.900 Z-1.000 F632.036 
G0 Z1.500 
G0 X26.259 Y31.188 Z1.500 
G1 X26.259 Y31.188 Z-1.000 F300.000 
G1 X26.259 Y32.722 Z0.009 F677.886 
G0 Z5.000 
(finish operation: Vcarve)
(begin postamble)
M05
G17 G54 G90 G80 G40
M2
