(Exported by FreeCAD)
(Post Processor: linuxcnc_post)
(Output Time:2023-04-14 14:23:55.846091)
(begin preamble)
G17 G54 G40 G49 G80 G90
G21
(begin operation: G54)
(machine units: mm/min)
G54 
G0 Z6.000 
(finish operation: G54)
(begin operation: 3mm_Endmill001)
(machine units: mm/min)
(3mm_Endmill001) 
M5
M6 T2 
G43 H2 
M3 S10000 
(finish operation: 3mm_Endmill001)
(begin operation: Engrave)
(machine units: mm/min)
(Engrave) 
G0 Z6.000 
G0 Z6.000 
G0 X0.000 Y0.000 
G0 Z4.000 
G1 X0.000 Y0.000 Z-2.000 F100.000 
G1 X-13.009 Y12.574 Z-2.000 F500.000 
G1 X-13.787 Y12.922 Z-2.000 F500.000 
G1 X-14.317 Y13.229 Z-2.000 F500.000 
G1 X-14.665 Y13.502 Z-2.000 F500.000 
G1 X-14.869 Y13.740 Z-2.000 F500.000 
G1 X-14.977 Y13.971 Z-2.000 F500.000 
G1 X-14.997 Y14.186 Z-2.000 F500.000 
G1 X-14.946 Y14.392 Z-2.000 F500.000 
G1 X-14.827 Y14.594 Z-2.000 F500.000 
G1 X-14.629 Y14.806 Z-2.000 F500.000 
G1 X-14.326 Y15.040 Z-2.000 F500.000 
G1 X-13.882 Y15.303 Z-2.000 F500.000 
G1 X-13.252 Y15.600 Z-2.000 F500.000 
G1 X-12.394 Y15.932 Z-2.000 F500.000 
G1 X-11.257 Y16.303 Z-2.000 F500.000 
G1 X-9.772 Y16.721 Z-2.000 F500.000 
G1 X-7.824 Y17.203 Z-2.000 F500.000 
G1 X-5.239 Y17.779 Z-2.000 F500.000 
G1 X-1.529 Y18.543 Z-2.000 F500.000 
G1 X3.782 Y19.614 Z-2.000 F500.000 
G1 X6.374 Y20.166 Z-2.000 F500.000 
G1 X8.876 Y20.749 Z-2.000 F500.000 
G1 X10.811 Y21.264 Z-2.000 F500.000 
G1 X12.220 Y21.706 Z-2.000 F500.000 
G1 X13.235 Y22.092 Z-2.000 F500.000 
G1 X13.944 Y22.429 Z-2.000 F500.000 
G1 X14.422 Y22.726 Z-2.000 F500.000 
G1 X14.727 Y22.989 Z-2.000 F500.000 
G1 X14.910 Y23.232 Z-2.000 F500.000 
G1 X14.989 Y23.452 Z-2.000 F500.000 
G1 X14.990 Y23.667 Z-2.000 F500.000 
G1 X14.923 Y23.867 Z-2.000 F500.000 
G1 X14.784 Y24.072 Z-2.000 F500.000 
G1 X14.560 Y24.290 Z-2.000 F500.000 
G1 X14.214 Y24.538 Z-2.000 F500.000 
G1 X13.730 Y24.805 Z-2.000 F500.000 
G1 X13.065 Y25.103 Z-2.000 F500.000 
G1 X12.165 Y25.437 Z-2.000 F500.000 
G1 X10.965 Y25.815 Z-2.000 F500.000 
G1 X9.373 Y26.249 Z-2.000 F500.000 
G1 X7.302 Y26.749 Z-2.000 F500.000 
G1 X4.325 Y27.397 Z-2.000 F500.000 
G1 X0.054 Y28.263 Z-2.000 F500.000 
G1 X-5.070 Y29.309 Z-2.000 F500.000 
G1 X-7.252 Y29.788 Z-2.000 F500.000 
G1 X-9.564 Y30.349 Z-2.000 F500.000 
G1 X-11.313 Y30.838 Z-2.000 F500.000 
G1 X-12.584 Y31.260 Z-2.000 F500.000 
G1 X-13.492 Y31.630 Z-2.000 F500.000 
G1 X-14.123 Y31.955 Z-2.000 F500.000 
G1 X-14.542 Y32.243 Z-2.000 F500.000 
G1 X-14.806 Y32.503 Z-2.000 F500.000 
G1 X-14.946 Y32.732 Z-2.000 F500.000 
G1 X-14.999 Y32.958 Z-2.000 F500.000 
G1 X-14.974 Y33.162 Z-2.000 F500.000 
G1 X-14.880 Y33.368 Z-2.000 F500.000 
G1 X-14.714 Y33.574 Z-2.000 F500.000 
G1 X-14.447 Y33.804 Z-2.000 F500.000 
G1 X-14.064 Y34.052 Z-2.000 F500.000 
G1 X-13.526 Y34.328 Z-2.000 F500.000 
G1 X-12.785 Y34.638 Z-2.000 F500.000 
G1 X-11.791 Y34.986 Z-2.000 F500.000 
G1 X-10.477 Y35.379 Z-2.000 F500.000 
G1 X-8.737 Y35.834 Z-2.000 F500.000 
G1 X-6.461 Y36.363 Z-2.000 F500.000 
G1 X-3.191 Y37.056 Z-2.000 F500.000 
G1 X1.724 Y38.045 Z-2.000 F500.000 
G1 X5.330 Y38.789 Z-2.000 F500.000 
G1 X7.904 Y39.364 Z-2.000 F500.000 
G1 X10.102 Y39.916 Z-2.000 F500.000 
G1 X11.704 Y40.384 Z-2.000 F500.000 
G1 X12.865 Y40.791 Z-2.000 F500.000 
G1 X13.687 Y41.147 Z-2.000 F500.000 
G1 X14.252 Y41.460 Z-2.000 F500.000 
G1 X14.626 Y41.740 Z-2.000 F500.000 
G1 X14.848 Y41.984 Z-2.000 F500.000 
G1 X14.968 Y42.214 Z-2.000 F500.000 
G1 X14.999 Y42.433 Z-2.000 F500.000 
G1 X14.955 Y42.644 Z-2.000 F500.000 
G1 X14.846 Y42.842 Z-2.000 F500.000 
G1 X14.655 Y43.056 Z-2.000 F500.000 
G1 X14.369 Y43.285 Z-2.000 F500.000 
G1 X13.948 Y43.542 Z-2.000 F500.000 
G1 X13.352 Y43.831 Z-2.000 F500.000 
G1 X12.535 Y44.156 Z-2.000 F500.000 
G1 X11.450 Y44.519 Z-2.000 F500.000 
G1 X10.026 Y44.928 Z-2.000 F500.000 
G1 X8.156 Y45.399 Z-2.000 F500.000 
G1 X5.684 Y45.958 Z-2.000 F500.000 
G1 X2.135 Y46.695 Z-2.000 F500.000 
G1 X-3.195 Y47.768 Z-2.000 F500.000 
G1 X-6.005 Y48.360 Z-2.000 F500.000 
G1 X-8.575 Y48.949 Z-2.000 F500.000 
G1 X-10.591 Y49.476 Z-2.000 F500.000 
G1 X-12.060 Y49.926 Z-2.000 F500.000 
G1 X-13.121 Y50.318 Z-2.000 F500.000 
G1 X-13.865 Y50.662 Z-2.000 F500.000 
G1 X-14.368 Y50.962 Z-2.000 F500.000 
G1 X-14.693 Y51.229 Z-2.000 F500.000 
G1 X-14.889 Y51.471 Z-2.000 F500.000 
G1 X-14.983 Y51.696 Z-2.000 F500.000 
G1 X-14.995 Y51.917 Z-2.000 F500.000 
G1 X-14.936 Y52.114 Z-2.000 F500.000 
G1 X-14.806 Y52.321 Z-2.000 F500.000 
G1 X-14.597 Y52.533 Z-2.000 F500.000 
G1 X-14.270 Y52.776 Z-2.000 F500.000 
G1 X-13.802 Y53.044 Z-2.000 F500.000 
G1 X-13.158 Y53.339 Z-2.000 F500.000 
G1 X-12.286 Y53.669 Z-2.000 F500.000 
G1 X-11.117 Y54.044 Z-2.000 F500.000 
G1 X-9.579 Y54.471 Z-2.000 F500.000 
G1 X-7.574 Y54.961 Z-2.000 F500.000 
G1 X-4.690 Y55.595 Z-2.000 F500.000 
G1 X-0.552 Y56.438 Z-2.000 F500.000 
G1 X5.215 Y57.614 Z-2.000 F500.000 
G1 X7.114 Y58.031 Z-2.000 F500.000 
G1 X9.552 Y58.620 Z-2.000 F500.000 
G1 X11.305 Y59.110 Z-2.000 F500.000 
G1 X12.577 Y59.532 Z-2.000 F500.000 
G1 X13.487 Y59.902 Z-2.000 F500.000 
G1 X14.116 Y60.226 Z-2.000 F500.000 
G1 X14.535 Y60.512 Z-2.000 F500.000 
G1 X14.797 Y60.766 Z-2.000 F500.000 
G1 X14.944 Y61.002 Z-2.000 F500.000 
G1 X14.999 Y61.221 Z-2.000 F500.000 
G1 X14.977 Y61.425 Z-2.000 F500.000 
G1 X14.887 Y61.630 Z-2.000 F500.000 
G1 X14.726 Y61.835 Z-2.000 F500.000 
G1 X14.465 Y62.065 Z-2.000 F500.000 
G1 X14.083 Y62.315 Z-2.000 F500.000 
G1 X13.551 Y62.591 Z-2.000 F500.000 
G1 X12.821 Y62.898 Z-2.000 F500.000 
G1 X11.840 Y63.244 Z-2.000 F500.000 
G1 X10.534 Y63.638 Z-2.000 F500.000 
G1 X8.814 Y64.089 Z-2.000 F500.000 
G1 X6.563 Y64.615 Z-2.000 F500.000 
G1 X3.329 Y65.302 Z-2.000 F500.000 
G1 X-1.306 Y66.235 Z-2.000 F500.000 
G1 X-5.254 Y67.047 Z-2.000 F500.000 
G1 X-7.749 Y67.602 Z-2.000 F500.000 
G1 X-9.990 Y68.160 Z-2.000 F500.000 
G1 X-11.624 Y68.633 Z-2.000 F500.000 
G1 X-12.808 Y69.043 Z-2.000 F500.000 
G1 X-13.649 Y69.403 Z-2.000 F500.000 
G1 X-14.229 Y69.720 Z-2.000 F500.000 
G1 X-14.612 Y70.002 Z-2.000 F500.000 
G1 X-14.845 Y70.253 Z-2.000 F500.000 
G1 X-14.964 Y70.478 Z-2.000 F500.000 
G1 X-14.999 Y70.697 Z-2.000 F500.000 
G1 X-14.960 Y70.907 Z-2.000 F500.000 
G1 X-14.852 Y71.108 Z-2.000 F500.000 
G1 X-14.663 Y71.323 Z-2.000 F500.000 
G1 X-14.379 Y71.552 Z-2.000 F500.000 
G1 X-13.966 Y71.806 Z-2.000 F500.000 
G1 X-13.388 Y72.090 Z-2.000 F500.000 
G1 X-12.594 Y72.409 Z-2.000 F500.000 
G1 X-11.535 Y72.767 Z-2.000 F500.000 
G1 X-10.140 Y73.171 Z-2.000 F500.000 
G1 X-8.297 Y73.640 Z-2.000 F500.000 
G1 X-5.876 Y74.191 Z-2.000 F500.000 
G1 X-2.399 Y74.916 Z-2.000 F500.000 
G1 X2.824 Y75.966 Z-2.000 F500.000 
G1 X5.821 Y76.594 Z-2.000 F500.000 
G1 X8.402 Y77.182 Z-2.000 F500.000 
G1 X10.466 Y77.715 Z-2.000 F500.000 
G1 X11.968 Y78.170 Z-2.000 F500.000 
G1 X13.055 Y78.566 Z-2.000 F500.000 
G1 X13.819 Y78.912 Z-2.000 F500.000 
G1 X14.338 Y79.216 Z-2.000 F500.000 
G1 X14.676 Y79.486 Z-2.000 F500.000 
G1 X14.876 Y79.724 Z-2.000 F500.000 
G1 X14.979 Y79.955 Z-2.000 F500.000 
G1 X14.997 Y80.170 Z-2.000 F500.000 
G1 X14.942 Y80.374 Z-2.000 F500.000 
G1 X14.819 Y80.578 Z-2.000 F500.000 
G1 X14.617 Y80.790 Z-2.000 F500.000 
G1 X14.307 Y81.026 Z-2.000 F500.000 
G1 X13.852 Y81.292 Z-2.000 F500.000 
G1 X13.214 Y81.590 Z-2.000 F500.000 
G1 X12.347 Y81.922 Z-2.000 F500.000 
G1 X11.193 Y82.296 Z-2.000 F500.000 
G1 X9.687 Y82.717 Z-2.000 F500.000 
G1 X7.713 Y83.203 Z-2.000 F500.000 
G1 X5.089 Y83.785 Z-2.000 F500.000 
G1 X1.323 Y84.558 Z-2.000 F500.000 
G1 X-4.066 Y85.647 Z-2.000 F500.000 
G1 X-6.524 Y86.173 Z-2.000 F500.000 
G1 X-9.012 Y86.756 Z-2.000 F500.000 
G1 X-10.910 Y87.266 Z-2.000 F500.000 
G1 X-12.291 Y87.704 Z-2.000 F500.000 
G1 X-13.286 Y88.087 Z-2.000 F500.000 
G1 X-13.979 Y88.422 Z-2.000 F500.000 
G1 X-14.445 Y88.717 Z-2.000 F500.000 
G1 X-14.742 Y88.978 Z-2.000 F500.000 
G1 X-14.917 Y89.220 Z-2.000 F500.000 
G1 X-14.992 Y89.439 Z-2.000 F500.000 
G1 X-14.988 Y89.651 Z-2.000 F500.000 
G1 X-14.916 Y89.854 Z-2.000 F500.000 
G1 X-14.773 Y90.058 Z-2.000 F500.000 
G1 X-14.542 Y90.279 Z-2.000 F500.000 
G1 X-14.190 Y90.526 Z-2.000 F500.000 
G1 X-13.699 Y90.794 Z-2.000 F500.000 
G1 X-13.023 Y91.093 Z-2.000 F500.000 
G1 X-12.109 Y91.429 Z-2.000 F500.000 
G1 X-10.892 Y91.810 Z-2.000 F500.000 
G1 X-9.277 Y92.247 Z-2.000 F500.000 
G1 X-7.175 Y92.751 Z-2.000 F500.000 
G1 X-4.154 Y93.406 Z-2.000 F500.000 
G1 X-0.239 Y94.200 Z-2.000 F500.000 
G1 X-0.239 Y94.200 Z-4.000 F100.000 
G0 Z6.000 
G0 X0.000 Y0.000 
G0 Z4.000 
G1 X0.000 Y0.000 Z-4.000 F100.000 
G1 X-13.009 Y12.574 Z-4.000 F500.000 
G1 X-13.787 Y12.922 Z-4.000 F500.000 
G1 X-14.317 Y13.229 Z-4.000 F500.000 
G1 X-14.665 Y13.502 Z-4.000 F500.000 
G1 X-14.869 Y13.740 Z-4.000 F500.000 
G1 X-14.977 Y13.971 Z-4.000 F500.000 
G1 X-14.997 Y14.186 Z-4.000 F500.000 
G1 X-14.946 Y14.392 Z-4.000 F500.000 
G1 X-14.827 Y14.594 Z-4.000 F500.000 
G1 X-14.629 Y14.806 Z-4.000 F500.000 
G1 X-14.326 Y15.040 Z-4.000 F500.000 
G1 X-13.882 Y15.303 Z-4.000 F500.000 
G1 X-13.252 Y15.600 Z-4.000 F500.000 
G1 X-12.394 Y15.932 Z-4.000 F500.000 
G1 X-11.257 Y16.303 Z-4.000 F500.000 
G1 X-9.772 Y16.721 Z-4.000 F500.000 
G1 X-7.824 Y17.203 Z-4.000 F500.000 
G1 X-5.239 Y17.779 Z-4.000 F500.000 
G1 X-1.529 Y18.543 Z-4.000 F500.000 
G1 X3.782 Y19.614 Z-4.000 F500.000 
G1 X6.374 Y20.166 Z-4.000 F500.000 
G1 X8.876 Y20.749 Z-4.000 F500.000 
G1 X10.811 Y21.264 Z-4.000 F500.000 
G1 X12.220 Y21.706 Z-4.000 F500.000 
G1 X13.235 Y22.092 Z-4.000 F500.000 
G1 X13.944 Y22.429 Z-4.000 F500.000 
G1 X14.422 Y22.726 Z-4.000 F500.000 
G1 X14.727 Y22.989 Z-4.000 F500.000 
G1 X14.910 Y23.232 Z-4.000 F500.000 
G1 X14.989 Y23.452 Z-4.000 F500.000 
G1 X14.990 Y23.667 Z-4.000 F500.000 
G1 X14.923 Y23.867 Z-4.000 F500.000 
G1 X14.784 Y24.072 Z-4.000 F500.000 
G1 X14.560 Y24.290 Z-4.000 F500.000 
G1 X14.214 Y24.538 Z-4.000 F500.000 
G1 X13.730 Y24.805 Z-4.000 F500.000 
G1 X13.065 Y25.103 Z-4.000 F500.000 
G1 X12.165 Y25.437 Z-4.000 F500.000 
G1 X10.965 Y25.815 Z-4.000 F500.000 
G1 X9.373 Y26.249 Z-4.000 F500.000 
G1 X7.302 Y26.749 Z-4.000 F500.000 
G1 X4.325 Y27.397 Z-4.000 F500.000 
G1 X0.054 Y28.263 Z-4.000 F500.000 
G1 X-5.070 Y29.309 Z-4.000 F500.000 
G1 X-7.252 Y29.788 Z-4.000 F500.000 
G1 X-9.564 Y30.349 Z-4.000 F500.000 
G1 X-11.313 Y30.838 Z-4.000 F500.000 
G1 X-12.584 Y31.260 Z-4.000 F500.000 
G1 X-13.492 Y31.630 Z-4.000 F500.000 
G1 X-14.123 Y31.955 Z-4.000 F500.000 
G1 X-14.542 Y32.243 Z-4.000 F500.000 
G1 X-14.806 Y32.503 Z-4.000 F500.000 
G1 X-14.946 Y32.732 Z-4.000 F500.000 
G1 X-14.999 Y32.958 Z-4.000 F500.000 
G1 X-14.974 Y33.162 Z-4.000 F500.000 
G1 X-14.880 Y33.368 Z-4.000 F500.000 
G1 X-14.714 Y33.574 Z-4.000 F500.000 
G1 X-14.447 Y33.804 Z-4.000 F500.000 
G1 X-14.064 Y34.052 Z-4.000 F500.000 
G1 X-13.526 Y34.328 Z-4.000 F500.000 
G1 X-12.785 Y34.638 Z-4.000 F500.000 
G1 X-11.791 Y34.986 Z-4.000 F500.000 
G1 X-10.477 Y35.379 Z-4.000 F500.000 
G1 X-8.737 Y35.834 Z-4.000 F500.000 
G1 X-6.461 Y36.363 Z-4.000 F500.000 
G1 X-3.191 Y37.056 Z-4.000 F500.000 
G1 X1.724 Y38.045 Z-4.000 F500.000 
G1 X5.330 Y38.789 Z-4.000 F500.000 
G1 X7.904 Y39.364 Z-4.000 F500.000 
G1 X10.102 Y39.916 Z-4.000 F500.000 
G1 X11.704 Y40.384 Z-4.000 F500.000 
G1 X12.865 Y40.791 Z-4.000 F500.000 
G1 X13.687 Y41.147 Z-4.000 F500.000 
G1 X14.252 Y41.460 Z-4.000 F500.000 
G1 X14.626 Y41.740 Z-4.000 F500.000 
G1 X14.848 Y41.984 Z-4.000 F500.000 
G1 X14.968 Y42.214 Z-4.000 F500.000 
G1 X14.999 Y42.433 Z-4.000 F500.000 
G1 X14.955 Y42.644 Z-4.000 F500.000 
G1 X14.846 Y42.842 Z-4.000 F500.000 
G1 X14.655 Y43.056 Z-4.000 F500.000 
G1 X14.369 Y43.285 Z-4.000 F500.000 
G1 X13.948 Y43.542 Z-4.000 F500.000 
G1 X13.352 Y43.831 Z-4.000 F500.000 
G1 X12.535 Y44.156 Z-4.000 F500.000 
G1 X11.450 Y44.519 Z-4.000 F500.000 
G1 X10.026 Y44.928 Z-4.000 F500.000 
G1 X8.156 Y45.399 Z-4.000 F500.000 
G1 X5.684 Y45.958 Z-4.000 F500.000 
G1 X2.135 Y46.695 Z-4.000 F500.000 
G1 X-3.195 Y47.768 Z-4.000 F500.000 
G1 X-6.005 Y48.360 Z-4.000 F500.000 
G1 X-8.575 Y48.949 Z-4.000 F500.000 
G1 X-10.591 Y49.476 Z-4.000 F500.000 
G1 X-12.060 Y49.926 Z-4.000 F500.000 
G1 X-13.121 Y50.318 Z-4.000 F500.000 
G1 X-13.865 Y50.662 Z-4.000 F500.000 
G1 X-14.368 Y50.962 Z-4.000 F500.000 
G1 X-14.693 Y51.229 Z-4.000 F500.000 
G1 X-14.889 Y51.471 Z-4.000 F500.000 
G1 X-14.983 Y51.696 Z-4.000 F500.000 
G1 X-14.995 Y51.917 Z-4.000 F500.000 
G1 X-14.936 Y52.114 Z-4.000 F500.000 
G1 X-14.806 Y52.321 Z-4.000 F500.000 
G1 X-14.597 Y52.533 Z-4.000 F500.000 
G1 X-14.270 Y52.776 Z-4.000 F500.000 
G1 X-13.802 Y53.044 Z-4.000 F500.000 
G1 X-13.158 Y53.339 Z-4.000 F500.000 
G1 X-12.286 Y53.669 Z-4.000 F500.000 
G1 X-11.117 Y54.044 Z-4.000 F500.000 
G1 X-9.579 Y54.471 Z-4.000 F500.000 
G1 X-7.574 Y54.961 Z-4.000 F500.000 
G1 X-4.690 Y55.595 Z-4.000 F500.000 
G1 X-0.552 Y56.438 Z-4.000 F500.000 
G1 X5.215 Y57.614 Z-4.000 F500.000 
G1 X7.114 Y58.031 Z-4.000 F500.000 
G1 X9.552 Y58.620 Z-4.000 F500.000 
G1 X11.305 Y59.110 Z-4.000 F500.000 
G1 X12.577 Y59.532 Z-4.000 F500.000 
G1 X13.487 Y59.902 Z-4.000 F500.000 
G1 X14.116 Y60.226 Z-4.000 F500.000 
G1 X14.535 Y60.512 Z-4.000 F500.000 
G1 X14.797 Y60.766 Z-4.000 F500.000 
G1 X14.944 Y61.002 Z-4.000 F500.000 
G1 X14.999 Y61.221 Z-4.000 F500.000 
G1 X14.977 Y61.425 Z-4.000 F500.000 
G1 X14.887 Y61.630 Z-4.000 F500.000 
G1 X14.726 Y61.835 Z-4.000 F500.000 
G1 X14.465 Y62.065 Z-4.000 F500.000 
G1 X14.083 Y62.315 Z-4.000 F500.000 
G1 X13.551 Y62.591 Z-4.000 F500.000 
G1 X12.821 Y62.898 Z-4.000 F500.000 
G1 X11.840 Y63.244 Z-4.000 F500.000 
G1 X10.534 Y63.638 Z-4.000 F500.000 
G1 X8.814 Y64.089 Z-4.000 F500.000 
G1 X6.563 Y64.615 Z-4.000 F500.000 
G1 X3.329 Y65.302 Z-4.000 F500.000 
G1 X-1.306 Y66.235 Z-4.000 F500.000 
G1 X-5.254 Y67.047 Z-4.000 F500.000 
G1 X-7.749 Y67.602 Z-4.000 F500.000 
G1 X-9.990 Y68.160 Z-4.000 F500.000 
G1 X-11.624 Y68.633 Z-4.000 F500.000 
G1 X-12.808 Y69.043 Z-4.000 F500.000 
G1 X-13.649 Y69.403 Z-4.000 F500.000 
G1 X-14.229 Y69.720 Z-4.000 F500.000 
G1 X-14.612 Y70.002 Z-4.000 F500.000 
G1 X-14.845 Y70.253 Z-4.000 F500.000 
G1 X-14.964 Y70.478 Z-4.000 F500.000 
G1 X-14.999 Y70.697 Z-4.000 F500.000 
G1 X-14.960 Y70.907 Z-4.000 F500.000 
G1 X-14.852 Y71.108 Z-4.000 F500.000 
G1 X-14.663 Y71.323 Z-4.000 F500.000 
G1 X-14.379 Y71.552 Z-4.000 F500.000 
G1 X-13.966 Y71.806 Z-4.000 F500.000 
G1 X-13.388 Y72.090 Z-4.000 F500.000 
G1 X-12.594 Y72.409 Z-4.000 F500.000 
G1 X-11.535 Y72.767 Z-4.000 F500.000 
G1 X-10.140 Y73.171 Z-4.000 F500.000 
G1 X-8.297 Y73.640 Z-4.000 F500.000 
G1 X-5.876 Y74.191 Z-4.000 F500.000 
G1 X-2.399 Y74.916 Z-4.000 F500.000 
G1 X2.824 Y75.966 Z-4.000 F500.000 
G1 X5.821 Y76.594 Z-4.000 F500.000 
G1 X8.402 Y77.182 Z-4.000 F500.000 
G1 X10.466 Y77.715 Z-4.000 F500.000 
G1 X11.968 Y78.170 Z-4.000 F500.000 
G1 X13.055 Y78.566 Z-4.000 F500.000 
G1 X13.819 Y78.912 Z-4.000 F500.000 
G1 X14.338 Y79.216 Z-4.000 F500.000 
G1 X14.676 Y79.486 Z-4.000 F500.000 
G1 X14.876 Y79.724 Z-4.000 F500.000 
G1 X14.979 Y79.955 Z-4.000 F500.000 
G1 X14.997 Y80.170 Z-4.000 F500.000 
G1 X14.942 Y80.374 Z-4.000 F500.000 
G1 X14.819 Y80.578 Z-4.000 F500.000 
G1 X14.617 Y80.790 Z-4.000 F500.000 
G1 X14.307 Y81.026 Z-4.000 F500.000 
G1 X13.852 Y81.292 Z-4.000 F500.000 
G1 X13.214 Y81.590 Z-4.000 F500.000 
G1 X12.347 Y81.922 Z-4.000 F500.000 
G1 X11.193 Y82.296 Z-4.000 F500.000 
G1 X9.687 Y82.717 Z-4.000 F500.000 
G1 X7.713 Y83.203 Z-4.000 F500.000 
G1 X5.089 Y83.785 Z-4.000 F500.000 
G1 X1.323 Y84.558 Z-4.000 F500.000 
G1 X-4.066 Y85.647 Z-4.000 F500.000 
G1 X-6.524 Y86.173 Z-4.000 F500.000 
G1 X-9.012 Y86.756 Z-4.000 F500.000 
G1 X-10.910 Y87.266 Z-4.000 F500.000 
G1 X-12.291 Y87.704 Z-4.000 F500.000 
G1 X-13.286 Y88.087 Z-4.000 F500.000 
G1 X-13.979 Y88.422 Z-4.000 F500.000 
G1 X-14.445 Y88.717 Z-4.000 F500.000 
G1 X-14.742 Y88.978 Z-4.000 F500.000 
G1 X-14.917 Y89.220 Z-4.000 F500.000 
G1 X-14.992 Y89.439 Z-4.000 F500.000 
G1 X-14.988 Y89.651 Z-4.000 F500.000 
G1 X-14.916 Y89.854 Z-4.000 F500.000 
G1 X-14.773 Y90.058 Z-4.000 F500.000 
G1 X-14.542 Y90.279 Z-4.000 F500.000 
G1 X-14.190 Y90.526 Z-4.000 F500.000 
G1 X-13.699 Y90.794 Z-4.000 F500.000 
G1 X-13.023 Y91.093 Z-4.000 F500.000 
G1 X-12.109 Y91.429 Z-4.000 F500.000 
G1 X-10.892 Y91.810 Z-4.000 F500.000 
G1 X-9.277 Y92.247 Z-4.000 F500.000 
G1 X-7.175 Y92.751 Z-4.000 F500.000 
G1 X-4.154 Y93.406 Z-4.000 F500.000 
G1 X-0.239 Y94.200 Z-4.000 F500.000 
G0 Z6.000 
(finish operation: Engrave)
(begin postamble)
M05
G17 G54 G90 G80 G40
M2
